; generated by Slic3r 1.3.1-dev (Build 2ef957d) on 2019-11-25 at 16:25:44

; external perimeters extrusion width = 0.55mm (4.37mm^3/s)
; perimeters extrusion width = 0.70mm (11.44mm^3/s)
; infill extrusion width = 0.62mm (13.45mm^3/s)
; solid infill extrusion width = 0.70mm (3.81mm^3/s)
; top infill extrusion width = 0.70mm (2.86mm^3/s)

M107
G92 E0
M104 S200 ; set temperature
G28 ; home all axes
G1 Z5 F5000 ; lift nozzle

; Filament gcode

M109 S200 ; set temperature and wait for it to be reached
G21 ; set units to millimeters
G90 ; use absolute coordinates
M82 ; use absolute distances for extrusion
G92 E0
G1 Z0.350 F7800.000
G1 E-2.00000 F2400.00000
G92 E0
G1 X52.963 Y52.816 F7800.000
G1 E2.00000 F2400.00000
G1 F1800.000
G1 X54.468 Y51.362 E2.06475
G1 X56.019 Y49.956 E2.12952
G1 X57.452 Y48.732 E2.18784
G1 X59.083 Y47.420 E2.25260
G1 X60.924 Y46.039 E2.32379
G1 X62.638 Y44.838 E2.38855
G1 X64.213 Y43.803 E2.44687
G1 X66.175 Y42.601 E2.51807
G1 X67.812 Y41.667 E2.57639
G1 X69.661 Y40.685 E2.64115
G1 X71.727 Y39.673 E2.71234
G1 X73.445 Y38.897 E2.77067
G1 X75.377 Y38.093 E2.83543
G1 X77.334 Y37.350 E2.90019
G1 X79.313 Y36.669 E2.96495
G1 X81.512 Y35.992 E3.03614
G1 X83.330 Y35.495 E3.09446
G1 X85.365 Y35.003 E3.15923
G1 X87.618 Y34.537 E3.23042
G1 X89.475 Y34.212 E3.28874
G1 X91.546 Y33.914 E3.35350
G1 X93.834 Y33.662 E3.42470
G1 X95.713 Y33.514 E3.48302
G1 X97.803 Y33.412 E3.54778
G1 X100.104 Y33.376 E3.61898
G1 X102.197 Y33.412 E3.68374
G1 X104.080 Y33.501 E3.74206
G1 X106.166 Y33.662 E3.80682
G1 X108.247 Y33.888 E3.87157
G1 X110.525 Y34.212 E3.94278
G1 X112.382 Y34.537 E4.00110
G1 X114.432 Y34.958 E4.06585
G1 X116.670 Y35.495 E4.13706
G1 X118.488 Y35.992 E4.19538
G1 X120.489 Y36.605 E4.26013
G1 X122.666 Y37.350 E4.33133
G1 X124.429 Y38.016 E4.38965
G1 X126.364 Y38.814 E4.45441
G1 X128.461 Y39.761 E4.52561
G1 X130.154 Y40.590 E4.58393
G1 X132.005 Y41.567 E4.64869
G1 X134.004 Y42.707 E4.71989
G1 X135.611 Y43.692 E4.77821
G1 X137.362 Y44.838 E4.84297
G1 X139.076 Y46.039 E4.90773
G1 X140.752 Y47.293 E4.97249
G1 X142.548 Y48.732 E5.04368
G1 X143.981 Y49.956 E5.10200
G1 X145.532 Y51.362 E5.16677
G1 X147.184 Y52.963 E5.23797
G1 X148.496 Y54.317 E5.29629
G1 X149.907 Y55.863 E5.36104
G1 X151.401 Y57.612 E5.43224
G1 X152.580 Y59.083 E5.49056
G1 X153.839 Y60.755 E5.55532
G1 X155.045 Y62.466 E5.62008
G1 X156.197 Y64.213 E5.68483
G1 X157.399 Y66.175 E5.75604
G1 X158.333 Y67.812 E5.81436
G1 X159.315 Y69.661 E5.87912
G1 X160.327 Y71.727 E5.95031
G1 X161.103 Y73.445 E6.00863
G1 X161.907 Y75.377 E6.07339
G1 X162.650 Y77.334 E6.13816
G1 X163.331 Y79.313 E6.20291
G1 X164.008 Y81.512 E6.27411
G1 X164.505 Y83.330 E6.33243
G1 X164.997 Y85.365 E6.39719
G1 X165.463 Y87.618 E6.46838
G1 X165.788 Y89.475 E6.52671
G1 X166.086 Y91.546 E6.59147
G1 X166.338 Y93.834 E6.66267
G1 X166.499 Y95.920 E6.72743
G1 X166.588 Y97.803 E6.78575
G1 X166.624 Y100.104 E6.85694
G1 X166.594 Y101.989 E6.91527
G1 X166.499 Y104.080 E6.98003
G1 X166.338 Y106.166 E7.04479
G1 X166.112 Y108.247 E7.10954
G1 X165.788 Y110.525 E7.18075
G1 X165.463 Y112.382 E7.23907
G1 X165.042 Y114.432 E7.30382
G1 X164.505 Y116.670 E7.37502
G1 X164.008 Y118.488 E7.43334
G1 X163.395 Y120.489 E7.49810
G1 X162.650 Y122.666 E7.56929
G1 X161.984 Y124.429 E7.62761
G1 X161.186 Y126.364 E7.69238
G1 X160.239 Y128.461 E7.76358
G1 X159.410 Y130.154 E7.82190
G1 X158.433 Y132.005 E7.88665
G1 X157.293 Y134.004 E7.95785
G1 X156.308 Y135.611 E8.01617
G1 X155.162 Y137.362 E8.08094
G1 X153.961 Y139.076 E8.14569
G1 X152.707 Y140.752 E8.21045
G1 X151.268 Y142.548 E8.28165
G1 X150.044 Y143.981 E8.33997
G1 X148.638 Y145.532 E8.40473
G1 X147.037 Y147.184 E8.47593
G1 X145.683 Y148.496 E8.53425
G1 X144.137 Y149.907 E8.59900
G1 X142.388 Y151.401 E8.67021
G1 X140.917 Y152.580 E8.72853
G1 X139.245 Y153.839 E8.79329
G1 X137.534 Y155.045 E8.85804
G1 X135.787 Y156.197 E8.92280
G1 X133.825 Y157.399 E8.99400
G1 X132.188 Y158.333 E9.05232
G1 X130.339 Y159.315 E9.11708
G1 X128.273 Y160.327 E9.18827
G1 X126.555 Y161.103 E9.24660
G1 X124.623 Y161.907 E9.31136
G1 X122.470 Y162.720 E9.38255
G1 X120.687 Y163.331 E9.44088
G1 X118.687 Y163.950 E9.50564
G1 X116.468 Y164.557 E9.57684
G1 X114.635 Y164.997 E9.63516
G1 X112.586 Y165.424 E9.69992
G1 X110.320 Y165.820 E9.77111
G1 X108.454 Y166.086 E9.82943
G1 X106.373 Y166.319 E9.89420
G1 X104.287 Y166.486 E9.95895
G1 X102.197 Y166.588 E10.02371
G1 X99.896 Y166.624 E10.09491
G1 X98.011 Y166.594 E10.15323
G1 X95.920 Y166.499 E10.21799
G1 X93.834 Y166.338 E10.28275
G1 X91.753 Y166.112 E10.34750
G1 X89.475 Y165.788 E10.41871
G1 X87.618 Y165.463 E10.47703
G1 X85.568 Y165.042 E10.54178
G1 X83.330 Y164.505 E10.61299
G1 X81.512 Y164.008 E10.67131
G1 X79.511 Y163.395 E10.73606
G1 X77.334 Y162.650 E10.80726
G1 X75.571 Y161.984 E10.86558
G1 X73.636 Y161.186 E10.93034
G1 X71.539 Y160.239 E11.00154
G1 X69.846 Y159.410 E11.05986
G1 X67.995 Y158.433 E11.12462
G1 X65.996 Y157.293 E11.19582
G1 X64.213 Y156.197 E11.26058
G1 X62.638 Y155.162 E11.31890
G1 X60.924 Y153.961 E11.38366
G1 X59.248 Y152.707 E11.44841
G1 X57.452 Y151.268 E11.51961
G1 X56.019 Y150.044 E11.57793
G1 X54.468 Y148.638 E11.64270
G1 X52.816 Y147.037 E11.71390
G1 X51.504 Y145.683 E11.77222
G1 X50.093 Y144.137 E11.83697
G1 X48.732 Y142.548 E11.90174
G1 X47.420 Y140.917 E11.96649
G1 X46.039 Y139.076 E12.03769
G1 X44.955 Y137.534 E12.09601
G1 X43.803 Y135.787 E12.16076
G1 X42.601 Y133.825 E12.23197
G1 X41.567 Y132.005 E12.29673
G1 X40.685 Y130.339 E12.35505
G1 X39.673 Y128.273 E12.42624
G1 X38.897 Y126.555 E12.48456
G1 X38.093 Y124.623 E12.54933
G1 X37.350 Y122.666 E12.61409
G1 X36.669 Y120.687 E12.67884
G1 X35.992 Y118.488 E12.75004
G1 X35.495 Y116.670 E12.80836
G1 X35.003 Y114.635 E12.87312
G1 X34.537 Y112.382 E12.94431
G1 X34.212 Y110.525 E13.00264
G1 X33.914 Y108.454 E13.06740
G1 X33.662 Y106.166 E13.13860
G1 X33.514 Y104.287 E13.19692
G1 X33.412 Y102.197 E13.26168
G1 X33.376 Y99.896 E13.33287
G1 X33.406 Y98.011 E13.39119
G1 X33.501 Y95.920 E13.45596
G1 X33.662 Y93.834 E13.52072
G1 X33.888 Y91.753 E13.58547
G1 X34.212 Y89.475 E13.65668
G1 X34.537 Y87.618 E13.71500
G1 X34.958 Y85.568 E13.77975
G1 X35.495 Y83.330 E13.85095
G1 X36.050 Y81.313 E13.91571
G1 X36.605 Y79.511 E13.97403
G1 X37.350 Y77.334 E14.04522
G1 X38.016 Y75.571 E14.10354
G1 X38.814 Y73.636 E14.16831
G1 X39.761 Y71.539 E14.23951
G1 X40.590 Y69.846 E14.29783
G1 X41.567 Y67.995 E14.36259
G1 X42.707 Y65.996 E14.43378
G1 X43.803 Y64.213 E14.49855
G1 X44.838 Y62.638 E14.55687
G1 X46.161 Y60.755 E14.62806
G1 X47.293 Y59.248 E14.68638
G1 X48.599 Y57.612 E14.75114
G1 X50.093 Y55.863 E14.82234
G1 X51.504 Y54.317 E14.88710
G1 X52.910 Y52.869 E14.94954
G1 E12.94954 F2400.00000
G92 E0
G1 X83.986 Y83.838 F7800.000
G1 E2.00000 F2400.00000
G1 F1800.000
G1 X84.409 Y83.415 E2.01851
G1 X84.956 Y82.917 E2.04141
G1 X86.039 Y82.022 E2.08488
G1 X87.216 Y81.166 E2.12990
G1 X88.413 Y80.407 E2.17377
G1 X89.655 Y79.724 E2.21762
G1 X90.971 Y79.104 E2.26265
G1 X92.289 Y78.583 E2.30650
G1 X93.649 Y78.141 E2.35075
G1 X95.034 Y77.785 E2.39499
G1 X96.427 Y77.519 E2.43885
G1 X97.160 Y77.415 E2.46176
G1 X98.558 Y77.283 E2.50522
G1 X100.013 Y77.237 E2.55024
G1 X101.417 Y77.281 E2.59371
G1 X102.155 Y77.340 E2.61662
G1 X103.561 Y77.517 E2.66048
G1 X104.953 Y77.783 E2.70433
G1 X106.363 Y78.145 E2.74936
G1 X107.711 Y78.583 E2.79321
G1 X109.029 Y79.104 E2.83707
G1 X110.345 Y79.724 E2.88209
G1 X111.587 Y80.407 E2.92595
G1 X112.795 Y81.173 E2.97020
G1 X113.941 Y82.006 E3.01405
G1 X114.519 Y82.469 E3.03696
G1 X115.582 Y83.406 E3.08082
G1 X116.585 Y84.409 E3.12467
G1 X117.547 Y85.500 E3.16969
G1 X118.408 Y86.610 E3.21316
G1 X118.834 Y87.216 E3.23606
G1 X119.593 Y88.413 E3.27993
G1 X120.276 Y89.655 E3.32378
G1 X120.896 Y90.971 E3.36881
G1 X121.417 Y92.289 E3.41266
G1 X121.859 Y93.649 E3.45691
G1 X122.215 Y95.034 E3.50115
G1 X122.480 Y96.427 E3.54501
G1 X122.585 Y97.160 E3.56792
G1 X122.717 Y98.558 E3.61138
G1 X122.763 Y100.013 E3.65641
G1 X122.719 Y101.417 E3.69987
G1 X122.660 Y102.155 E3.72278
G1 X122.483 Y103.561 E3.76664
G1 X122.217 Y104.953 E3.81049
G1 X121.855 Y106.363 E3.85552
G1 X121.417 Y107.711 E3.89937
G1 X120.896 Y109.029 E3.94323
G1 X120.276 Y110.345 E3.98825
G1 X119.593 Y111.587 E4.03211
G1 X118.827 Y112.795 E4.07636
G1 X117.994 Y113.941 E4.12021
G1 X117.531 Y114.519 E4.14312
G1 X116.594 Y115.582 E4.18698
G1 X115.591 Y116.585 E4.23083
G1 X114.500 Y117.547 E4.27585
G1 X113.390 Y118.408 E4.31932
G1 X112.784 Y118.834 E4.34223
G1 X111.587 Y119.593 E4.38609
G1 X110.345 Y120.276 E4.42994
G1 X109.029 Y120.896 E4.47497
G1 X107.711 Y121.417 E4.51882
G1 X106.351 Y121.859 E4.56307
G1 X104.966 Y122.215 E4.60731
G1 X103.573 Y122.480 E4.65117
G1 X102.840 Y122.585 E4.67408
G1 X101.442 Y122.717 E4.71754
G1 X99.987 Y122.763 E4.76257
G1 X98.583 Y122.719 E4.80604
G1 X97.845 Y122.660 E4.82894
G1 X96.439 Y122.483 E4.87280
G1 X95.047 Y122.217 E4.91665
G1 X93.637 Y121.855 E4.96168
G1 X92.289 Y121.417 E5.00553
G1 X90.971 Y120.896 E5.04939
G1 X90.297 Y120.591 E5.07229
G1 X89.034 Y119.947 E5.11615
G1 X87.814 Y119.226 E5.16001
G1 X87.195 Y118.820 E5.18291
G1 X86.059 Y117.994 E5.22638
G1 X85.481 Y117.531 E5.24928
G1 X84.418 Y116.594 E5.29314
G1 X83.415 Y115.591 E5.33700
G1 X82.917 Y115.044 E5.35990
G1 X82.022 Y113.961 E5.40337
G1 X81.166 Y112.784 E5.44839
G1 X80.407 Y111.587 E5.49225
G1 X79.724 Y110.345 E5.53611
G1 X79.104 Y109.029 E5.58113
G1 X78.583 Y107.711 E5.62499
G1 X78.141 Y106.351 E5.66923
G1 X77.785 Y104.966 E5.71348
G1 X77.519 Y103.573 E5.75734
G1 X77.415 Y102.840 E5.78024
G1 X77.283 Y101.442 E5.82371
G1 X77.237 Y99.987 E5.86873
G1 X77.281 Y98.583 E5.91220
G1 X77.340 Y97.845 E5.93510
G1 X77.517 Y96.439 E5.97896
G1 X77.783 Y95.047 E6.02282
G1 X78.145 Y93.637 E6.06784
G1 X78.583 Y92.289 E6.11170
G1 X79.104 Y90.971 E6.15555
G1 X79.409 Y90.297 E6.17846
G1 X80.053 Y89.034 E6.22232
G1 X80.774 Y87.814 E6.26617
G1 X81.180 Y87.195 E6.28908
G1 X82.014 Y86.048 E6.33293
G1 X82.917 Y84.956 E6.37679
G1 X83.415 Y84.409 E6.39970
G1 X83.933 Y83.891 E6.42233
G1 X84.428 Y84.280 F7800.000
G1 F1800.000
G1 X84.840 Y83.868 E6.44039
G1 X85.366 Y83.389 E6.46238
G1 X86.426 Y82.513 E6.50494
G1 X87.563 Y81.686 E6.54844
G1 X88.731 Y80.945 E6.59124
G1 X89.943 Y80.279 E6.63403
G1 X91.215 Y79.680 E6.67753
G1 X92.501 Y79.171 E6.72033
G1 X93.824 Y78.741 E6.76336
G1 X95.171 Y78.395 E6.80639
G1 X96.529 Y78.136 E6.84918
G1 X97.233 Y78.036 E6.87118
G1 X98.602 Y77.906 E6.91373
G1 X100.008 Y77.862 E6.95724
G1 X101.382 Y77.906 E6.99979
G1 X102.091 Y77.961 E7.02179
G1 X103.463 Y78.135 E7.06458
G1 X104.822 Y78.394 E7.10737
G1 X106.184 Y78.744 E7.15088
G1 X107.499 Y79.171 E7.19367
G1 X108.785 Y79.680 E7.23647
G1 X110.057 Y80.279 E7.27997
G1 X111.269 Y80.945 E7.32276
G1 X112.443 Y81.690 E7.36580
G1 X113.562 Y82.503 E7.40859
G1 X114.117 Y82.948 E7.43058
G1 X115.154 Y83.862 E7.47338
G1 X116.132 Y84.840 E7.51617
G1 X117.062 Y85.895 E7.55967
G1 X117.905 Y86.982 E7.60223
G1 X118.314 Y87.563 E7.62422
G1 X119.055 Y88.731 E7.66702
G1 X119.721 Y89.943 E7.70981
G1 X120.320 Y91.215 E7.75332
G1 X120.829 Y92.501 E7.79611
G1 X121.259 Y93.824 E7.83914
G1 X121.605 Y95.171 E7.88217
G1 X121.864 Y96.529 E7.92497
G1 X121.964 Y97.233 E7.94696
G1 X122.094 Y98.602 E7.98952
G1 X122.138 Y100.008 E8.03302
G1 X122.094 Y101.382 E8.07558
G1 X122.039 Y102.091 E8.09757
G1 X121.865 Y103.463 E8.14036
G1 X121.606 Y104.822 E8.18316
G1 X121.256 Y106.184 E8.22666
G1 X120.829 Y107.499 E8.26946
G1 X120.320 Y108.785 E8.31225
G1 X119.721 Y110.057 E8.35575
G1 X119.055 Y111.269 E8.39855
G1 X118.310 Y112.443 E8.44158
G1 X117.497 Y113.562 E8.48437
G1 X117.052 Y114.117 E8.50637
G1 X116.138 Y115.154 E8.54916
G1 X115.160 Y116.132 E8.59195
G1 X114.105 Y117.062 E8.63546
G1 X113.018 Y117.905 E8.67801
G1 X112.437 Y118.314 E8.70001
G1 X111.269 Y119.055 E8.74280
G1 X110.057 Y119.721 E8.78559
G1 X108.785 Y120.320 E8.82910
G1 X107.499 Y120.829 E8.87189
G1 X106.176 Y121.259 E8.91492
G1 X104.829 Y121.605 E8.95795
G1 X103.471 Y121.864 E9.00075
G1 X102.767 Y121.964 E9.02274
G1 X101.398 Y122.094 E9.06530
G1 X99.992 Y122.138 E9.10880
G1 X98.618 Y122.094 E9.15136
G1 X97.909 Y122.039 E9.17335
G1 X96.537 Y121.865 E9.21615
G1 X95.178 Y121.606 E9.25894
G1 X93.816 Y121.256 E9.30244
G1 X92.501 Y120.829 E9.34524
G1 X91.215 Y120.320 E9.38803
G1 X90.567 Y120.027 E9.41002
G1 X89.335 Y119.400 E9.45282
G1 X88.145 Y118.696 E9.49561
G1 X87.550 Y118.305 E9.51760
G1 X86.438 Y117.497 E9.56016
G1 X85.883 Y117.052 E9.58215
G1 X84.846 Y116.138 E9.62495
G1 X83.868 Y115.160 E9.66774
G1 X83.389 Y114.634 E9.68973
G1 X82.513 Y113.574 E9.73229
G1 X81.686 Y112.437 E9.77579
G1 X80.945 Y111.269 E9.81859
G1 X80.279 Y110.057 E9.86138
G1 X79.680 Y108.785 E9.90489
G1 X79.171 Y107.499 E9.94768
G1 X78.741 Y106.176 E9.99071
G1 X78.395 Y104.829 E10.03374
G1 X78.136 Y103.471 E10.07654
G1 X78.036 Y102.767 E10.09853
G1 X77.906 Y101.398 E10.14109
G1 X77.862 Y99.992 E10.18459
G1 X77.906 Y98.618 E10.22715
G1 X77.961 Y97.909 E10.24914
G1 X78.135 Y96.537 E10.29193
G1 X78.394 Y95.178 E10.33473
G1 X78.744 Y93.816 E10.37823
G1 X79.171 Y92.501 E10.42103
G1 X79.680 Y91.215 E10.46382
G1 X79.972 Y90.567 E10.48581
G1 X80.600 Y89.335 E10.52861
G1 X81.304 Y88.145 E10.57140
G1 X81.695 Y87.550 E10.59339
G1 X82.508 Y86.432 E10.63619
G1 X83.389 Y85.366 E10.67898
G1 X83.868 Y84.840 E10.70097
G1 X84.374 Y84.333 E10.72315
G1 X84.869 Y84.722 F7800.000
G1 F1800.000
G1 X85.272 Y84.320 E10.74075
G1 X85.776 Y83.861 E10.76183
G1 X86.813 Y83.003 E10.80348
G1 X87.910 Y82.206 E10.84546
G1 X89.049 Y81.483 E10.88720
G1 X90.231 Y80.833 E10.92893
G1 X91.459 Y80.256 E10.97091
G1 X92.713 Y79.759 E11.01264
G1 X93.998 Y79.342 E11.05446
G1 X95.307 Y79.005 E11.09628
G1 X96.632 Y78.753 E11.13801
G1 X97.306 Y78.657 E11.15909
G1 X98.646 Y78.530 E11.20073
G1 X100.003 Y78.487 E11.24272
G1 X101.348 Y78.530 E11.28436
G1 X102.027 Y78.583 E11.30544
G1 X103.365 Y78.752 E11.34718
G1 X104.690 Y79.005 E11.38891
G1 X106.004 Y79.342 E11.43089
G1 X107.287 Y79.759 E11.47262
G1 X108.541 Y80.256 E11.51435
G1 X109.769 Y80.833 E11.55634
G1 X110.951 Y81.483 E11.59807
G1 X112.092 Y82.207 E11.63989
G1 X113.183 Y83.000 E11.68162
G1 X113.715 Y83.426 E11.70270
G1 X114.726 Y84.318 E11.74443
G1 X115.680 Y85.272 E11.78616
G1 X116.577 Y86.289 E11.82814
G1 X117.402 Y87.353 E11.86979
G1 X117.794 Y87.910 E11.89087
G1 X118.517 Y89.049 E11.93260
G1 X119.167 Y90.231 E11.97433
G1 X119.744 Y91.459 E12.01632
G1 X120.241 Y92.713 E12.05805
G1 X120.658 Y93.998 E12.09987
G1 X120.995 Y95.307 E12.14168
G1 X121.247 Y96.632 E12.18341
G1 X121.343 Y97.306 E12.20449
G1 X121.470 Y98.646 E12.24614
G1 X121.513 Y100.003 E12.28812
G1 X121.470 Y101.348 E12.32977
G1 X121.417 Y102.027 E12.35085
G1 X121.248 Y103.365 E12.39258
G1 X120.995 Y104.690 E12.43431
G1 X120.658 Y106.004 E12.47630
G1 X120.241 Y107.287 E12.51803
G1 X119.744 Y108.541 E12.55976
G1 X119.167 Y109.769 E12.60175
G1 X118.517 Y110.951 E12.64348
G1 X117.793 Y112.092 E12.68529
G1 X117.000 Y113.183 E12.72702
G1 X116.574 Y113.715 E12.74810
G1 X115.682 Y114.726 E12.78983
G1 X114.728 Y115.680 E12.83157
G1 X113.711 Y116.577 E12.87355
G1 X112.647 Y117.402 E12.91520
G1 X112.090 Y117.794 E12.93628
G1 X110.951 Y118.517 E12.97801
G1 X109.769 Y119.167 E13.01974
G1 X108.541 Y119.744 E13.06172
G1 X107.287 Y120.241 E13.10346
G1 X106.002 Y120.658 E13.14527
G1 X104.693 Y120.995 E13.18709
G1 X103.368 Y121.247 E13.22882
G1 X102.694 Y121.343 E13.24990
G1 X101.354 Y121.470 E13.29154
G1 X99.997 Y121.513 E13.33353
G1 X98.652 Y121.470 E13.37518
G1 X97.973 Y121.417 E13.39626
G1 X96.635 Y121.248 E13.43799
G1 X95.310 Y120.995 E13.47972
G1 X93.996 Y120.658 E13.52170
G1 X92.713 Y120.241 E13.56343
G1 X91.459 Y119.744 E13.60517
G1 X90.838 Y119.464 E13.62625
G1 X89.636 Y118.852 E13.66798
G1 X88.475 Y118.165 E13.70971
G1 X87.906 Y117.791 E13.73079
G1 X86.817 Y117.000 E13.77243
G1 X86.285 Y116.574 E13.79352
G1 X85.274 Y115.682 E13.83525
G1 X84.320 Y114.728 E13.87698
G1 X83.861 Y114.224 E13.89806
G1 X83.003 Y113.187 E13.93970
G1 X82.206 Y112.090 E13.98169
G1 X81.483 Y110.951 E14.02342
G1 X80.833 Y109.769 E14.06515
G1 X80.256 Y108.541 E14.10714
G1 X79.759 Y107.287 E14.14887
G1 X79.342 Y106.002 E14.19068
