; generated by Slic3r 1.3.1-dev (Build 2ef957d) on 2019-11-25 at 16:25:51

; external perimeters extrusion width = 0.55mm (4.37mm^3/s)
; perimeters extrusion width = 0.70mm (11.44mm^3/s)
; infill extrusion width = 0.62mm (13.45mm^3/s)
; solid infill extrusion width = 0.70mm (3.81mm^3/s)
; top infill extrusion width = 0.70mm (2.86mm^3/s)

M107
G92 E0
M104 S200 ; set temperature
G28 ; home all axes
G1 Z5 F5000 ; lift nozzle

; Filament gcode

M109 S200 ; set temperature and wait for it to be reached
G21 ; set units to millimeters
G90 ; use absolute coordinates
M82 ; use absolute distances for extrusion
G92 E0
G1 Z0.350 F7800.000
G1 E-2.00000 F2400.00000
G92 E0
G1 X90.181 Y89.848 F7800.000
G1 E2.00000 F2400.00000
G1 F1800.000
G1 X90.838 Y89.252 E2.02745
G1 X91.159 Y88.986 E2.04033
G1 X91.531 Y88.698 E2.05491
G1 X92.258 Y88.188 E2.08236
G1 X92.609 Y87.965 E2.09524
G1 X93.379 Y87.525 E2.12269
G1 X93.799 Y87.311 E2.13727
G1 X94.608 Y86.947 E2.16472
G1 X95.438 Y86.634 E2.19217
G1 X95.834 Y86.505 E2.20505
G1 X96.690 Y86.270 E2.23250
G1 X97.558 Y86.090 E2.25995
G1 X98.024 Y86.016 E2.27453
G1 X98.906 Y85.919 E2.30199
G1 X99.321 Y85.893 E2.31486
G1 X100.208 Y85.878 E2.34232
G1 X100.679 Y85.893 E2.35689
G1 X101.563 Y85.964 E2.38435
G1 X102.442 Y86.090 E2.41180
G1 X103.310 Y86.270 E2.43925
G1 X104.166 Y86.505 E2.46670
G1 X104.562 Y86.634 E2.47958
G1 X105.005 Y86.793 E2.49416
G1 X105.824 Y87.134 E2.52161
G1 X106.201 Y87.311 E2.53449
G1 X106.985 Y87.725 E2.56194
G1 X107.742 Y88.188 E2.58939
G1 X108.132 Y88.453 E2.60397
G1 X108.841 Y88.986 E2.63142
G1 X109.162 Y89.252 E2.64430
G1 X109.515 Y89.563 E2.65888
G1 X110.152 Y90.181 E2.68633
G1 X110.748 Y90.838 E2.71378
G1 X111.014 Y91.159 E2.72666
G1 X111.302 Y91.531 E2.74124
G1 X111.812 Y92.258 E2.76869
G1 X112.275 Y93.015 E2.79614
G1 X112.475 Y93.379 E2.80902
G1 X112.866 Y94.176 E2.83647
G1 X113.207 Y94.995 E2.86393
G1 X113.495 Y95.834 E2.89138
G1 X113.626 Y96.287 E2.90596
G1 X113.730 Y96.690 E2.91883
G1 X113.910 Y97.558 E2.94628
G1 X113.984 Y98.024 E2.96086
G1 X114.081 Y98.906 E2.98832
G1 X114.107 Y99.321 E3.00119
G1 X114.122 Y100.208 E3.02865
G1 X114.107 Y100.679 E3.04322
G1 X114.036 Y101.563 E3.07068
G1 X113.910 Y102.442 E3.09813
G1 X113.730 Y103.310 E3.12558
G1 X113.495 Y104.166 E3.15303
G1 X113.366 Y104.562 E3.16591
G1 X113.207 Y105.005 E3.18049
G1 X112.866 Y105.824 E3.20794
G1 X112.475 Y106.621 E3.23539
G1 X112.275 Y106.985 E3.24827
G1 X112.035 Y107.391 E3.26285
G1 X111.547 Y108.132 E3.29030
G1 X111.302 Y108.469 E3.30318
G1 X110.748 Y109.162 E3.33063
G1 X110.437 Y109.515 E3.34521
G1 X109.819 Y110.152 E3.37266
G1 X109.162 Y110.748 E3.40011
G1 X108.841 Y111.014 E3.41299
G1 X108.469 Y111.302 E3.42757
G1 X107.742 Y111.812 E3.45502
G1 X106.985 Y112.275 E3.48248
G1 X106.621 Y112.475 E3.49535
G1 X106.201 Y112.689 E3.50993
G1 X105.392 Y113.053 E3.53738
G1 X104.562 Y113.366 E3.56483
G1 X104.166 Y113.495 E3.57771
G1 X103.310 Y113.730 E3.60517
G1 X102.442 Y113.910 E3.63262
G1 X101.976 Y113.984 E3.64719
G1 X101.094 Y114.081 E3.67465
G1 X100.208 Y114.122 E3.70210
G1 X99.792 Y114.122 E3.71498
G1 X98.906 Y114.081 E3.74243
G1 X98.437 Y114.036 E3.75701
G1 X97.558 Y113.910 E3.78446
G1 X96.690 Y113.730 E3.81191
G1 X95.834 Y113.495 E3.83936
G1 X95.438 Y113.366 E3.85224
G1 X94.995 Y113.207 E3.86682
G1 X94.176 Y112.866 E3.89427
G1 X93.379 Y112.475 E3.92172
G1 X93.015 Y112.275 E3.93460
G1 X92.609 Y112.035 E3.94918
G1 X91.868 Y111.547 E3.97663
G1 X91.159 Y111.014 E4.00409
G1 X90.838 Y110.748 E4.01697
G1 X90.485 Y110.437 E4.03154
G1 X89.848 Y109.819 E4.05899
G1 X89.252 Y109.162 E4.08644
G1 X88.986 Y108.841 E4.09932
G1 X88.698 Y108.469 E4.11390
G1 X88.188 Y107.742 E4.14136
G1 X87.725 Y106.985 E4.16881
G1 X87.525 Y106.621 E4.18168
G1 X87.311 Y106.201 E4.19626
G1 X86.947 Y105.392 E4.22371
G1 X86.634 Y104.562 E4.25117
G1 X86.505 Y104.166 E4.26404
G1 X86.270 Y103.310 E4.29150
G1 X86.090 Y102.442 E4.31895
G1 X86.016 Y101.976 E4.33352
G1 X85.919 Y101.094 E4.36098
G1 X85.893 Y100.679 E4.37386
G1 X85.878 Y99.792 E4.40131
G1 X85.919 Y98.906 E4.42876
G1 X85.964 Y98.437 E4.44334
G1 X86.016 Y98.024 E4.45622
G1 X86.168 Y97.149 E4.48367
G1 X86.270 Y96.690 E4.49825
G1 X86.505 Y95.834 E4.52570
G1 X86.634 Y95.438 E4.53858
G1 X86.947 Y94.608 E4.56603
G1 X87.134 Y94.176 E4.58061
G1 X87.525 Y93.379 E4.60806
G1 X87.725 Y93.015 E4.62094
G1 X88.188 Y92.258 E4.64839
G1 X88.698 Y91.531 E4.67584
G1 X88.986 Y91.159 E4.69042
G1 X89.563 Y90.485 E4.71788
G1 X90.128 Y89.901 E4.74300
G1 E2.74300 F2400.00000
G92 E0
G1 X103.820 Y103.566 F7800.000
G1 E2.00000 F2400.00000
G1 F1800.000
G1 X103.566 Y103.820 E2.01111
G1 X103.072 Y104.229 E2.03094
G1 X102.531 Y104.572 E2.05077
G1 X102.225 Y104.728 E2.06141
G1 X101.910 Y104.865 E2.07204
G1 X101.300 Y105.063 E2.09187
G1 X100.670 Y105.183 E2.11171
G1 X100.328 Y105.215 E2.12234
G1 X99.985 Y105.226 E2.13297
G1 X99.345 Y105.186 E2.15280
G1 X98.700 Y105.063 E2.17311
G1 X98.076 Y104.860 E2.19342
G1 X97.496 Y104.587 E2.21326
G1 X97.200 Y104.412 E2.22389
G1 X96.916 Y104.219 E2.23452
G1 X96.434 Y103.820 E2.25388
G1 X96.180 Y103.566 E2.26499
G1 X95.771 Y103.072 E2.28482
G1 X95.428 Y102.531 E2.30465
G1 X95.272 Y102.225 E2.31528
G1 X95.135 Y101.910 E2.32592
G1 X94.937 Y101.300 E2.34575
G1 X94.817 Y100.670 E2.36559
G1 X94.785 Y100.328 E2.37622
G1 X94.774 Y99.985 E2.38685
G1 X94.814 Y99.345 E2.40668
G1 X94.937 Y98.700 E2.42699
G1 X95.140 Y98.076 E2.44730
G1 X95.413 Y97.496 E2.46714
G1 X95.588 Y97.200 E2.47777
G1 X95.781 Y96.916 E2.48840
G1 X96.180 Y96.434 E2.50776
G1 X96.434 Y96.180 E2.51886
G1 X96.928 Y95.771 E2.53870
G1 X97.469 Y95.428 E2.55853
G1 X97.775 Y95.272 E2.56916
G1 X98.090 Y95.135 E2.57980
G1 X98.700 Y94.937 E2.59963
G1 X99.330 Y94.817 E2.61946
G1 X99.672 Y94.785 E2.63010
G1 X100.015 Y94.774 E2.64073
G1 X100.655 Y94.814 E2.66056
G1 X101.300 Y94.937 E2.68087
G1 X101.924 Y95.140 E2.70118
G1 X102.504 Y95.413 E2.72102
G1 X102.800 Y95.588 E2.73165
G1 X103.084 Y95.781 E2.74228
G1 X103.566 Y96.180 E2.76164
G1 X103.820 Y96.434 E2.77274
G1 X104.229 Y96.928 E2.79258
G1 X104.572 Y97.469 E2.81241
G1 X104.728 Y97.775 E2.82304
G1 X104.865 Y98.090 E2.83367
G1 X105.063 Y98.700 E2.85351
G1 X105.183 Y99.330 E2.87334
G1 X105.215 Y99.672 E2.88397
G1 X105.226 Y100.015 E2.89461
G1 X105.186 Y100.655 E2.91444
G1 X105.063 Y101.300 E2.93475
G1 X104.860 Y101.924 E2.95506
G1 X104.587 Y102.504 E2.97489
G1 X104.412 Y102.800 E2.98553
G1 X104.219 Y103.084 E2.99616
G1 X103.868 Y103.508 E3.01320
G1 X103.357 Y103.145 F7800.000
G1 F1800.000
G1 X103.145 Y103.357 E3.02248
G1 X102.704 Y103.722 E3.04018
G1 X102.221 Y104.029 E3.05789
G1 X101.959 Y104.162 E3.06700
G1 X101.688 Y104.279 E3.07611
G1 X101.144 Y104.456 E3.09382
G1 X100.582 Y104.563 E3.11153
G1 X100.289 Y104.591 E3.12064
G1 X99.995 Y104.600 E3.12975
G1 X99.423 Y104.564 E3.14746
G1 X98.856 Y104.456 E3.16533
G1 X98.306 Y104.278 E3.18321
G1 X97.789 Y104.034 E3.20092
G1 X97.535 Y103.884 E3.21003
G1 X97.292 Y103.719 E3.21914
G1 X96.855 Y103.357 E3.23667
G1 X96.643 Y103.145 E3.24596
G1 X96.278 Y102.704 E3.26366
G1 X95.971 Y102.221 E3.28137
G1 X95.838 Y101.959 E3.29048
G1 X95.721 Y101.688 E3.29959
G1 X95.544 Y101.144 E3.31730
G1 X95.437 Y100.582 E3.33501
G1 X95.409 Y100.289 E3.34412
G1 X95.400 Y99.994 E3.35323
G1 X95.436 Y99.423 E3.37094
G1 X95.544 Y98.856 E3.38881
G1 X95.722 Y98.306 E3.40669
G1 X95.966 Y97.789 E3.42440
G1 X96.116 Y97.535 E3.43351
G1 X96.281 Y97.292 E3.44262
G1 X96.643 Y96.855 E3.46015
G1 X96.855 Y96.643 E3.46944
G1 X97.296 Y96.278 E3.48714
G1 X97.779 Y95.971 E3.50485
G1 X98.041 Y95.838 E3.51396
G1 X98.312 Y95.721 E3.52307
G1 X98.856 Y95.544 E3.54078
G1 X99.418 Y95.437 E3.55849
G1 X99.711 Y95.409 E3.56760
G1 X100.005 Y95.400 E3.57671
G1 X100.577 Y95.436 E3.59442
G1 X101.144 Y95.544 E3.61229
G1 X101.694 Y95.722 E3.63017
G1 X102.211 Y95.966 E3.64788
G1 X102.465 Y96.116 E3.65699
G1 X102.708 Y96.281 E3.66610
G1 X103.145 Y96.643 E3.68363
G1 X103.357 Y96.855 E3.69292
G1 X103.722 Y97.296 E3.71062
G1 X104.029 Y97.779 E3.72833
G1 X104.162 Y98.041 E3.73744
G1 X104.279 Y98.312 E3.74655
G1 X104.456 Y98.856 E3.76426
G1 X104.563 Y99.418 E3.78197
G1 X104.591 Y99.711 E3.79108
G1 X104.600 Y100.005 E3.80019
G1 X104.564 Y100.577 E3.81790
G1 X104.456 Y101.144 E3.83577
G1 X104.278 Y101.694 E3.85365
G1 X104.034 Y102.211 E3.87135
G1 X103.884 Y102.465 E3.88047
G1 X103.719 Y102.708 E3.88958
G1 X103.405 Y103.087 E3.90479
G1 X103.357 Y103.145 F7800.000
G1 X104.800 Y104.417 F7800.000
G1 F1800.000
G1 X104.466 Y104.756 E3.91951
G1 X104.159 Y105.027 E3.93220
G1 X103.835 Y105.279 E3.94488
G1 X103.496 Y105.509 E3.95756
G1 X103.143 Y105.718 E3.97024
G1 X102.778 Y105.904 E3.98292
G1 X102.402 Y106.066 E3.99561
G1 X102.016 Y106.205 E4.00829
G1 X101.623 Y106.320 E4.02097
G1 X101.223 Y106.409 E4.03365
G1 X100.818 Y106.473 E4.04634
G1 X100.410 Y106.512 E4.05902
G1 X100.000 Y106.525 E4.07170
G1 X99.590 Y106.512 E4.08438
G1 X99.182 Y106.473 E4.09707
G1 X98.777 Y106.409 E4.10975
G1 X98.377 Y106.320 E4.12243
G1 X97.984 Y106.205 E4.13511
G1 X97.598 Y106.066 E4.14780
G1 X97.222 Y105.904 E4.16048
G1 X96.857 Y105.718 E4.17316
G1 X96.504 Y105.509 E4.18584
G1 X96.165 Y105.279 E4.19853
G1 X95.841 Y105.027 E4.21121
G1 X95.534 Y104.756 E4.22389
G1 X95.244 Y104.466 E4.23657
G1 X94.973 Y104.159 E4.24926
G1 X94.721 Y103.835 E4.26194
G1 X94.491 Y103.496 E4.27462
G1 X94.282 Y103.143 E4.28730
G1 X94.096 Y102.778 E4.29999
G1 X93.934 Y102.402 E4.31267
G1 X93.795 Y102.016 E4.32535
G1 X93.680 Y101.623 E4.33803
G1 X93.591 Y101.223 E4.35072
G1 X93.527 Y100.818 E4.36340
G1 X93.488 Y100.410 E4.37608
G1 X93.475 Y100.000 E4.38876
G1 X93.488 Y99.590 E4.40145
G1 X93.527 Y99.182 E4.41413
G1 X93.591 Y98.777 E4.42681
G1 X93.680 Y98.377 E4.43949
G1 X93.795 Y97.984 E4.45218
G1 X93.934 Y97.598 E4.46486
G1 X94.096 Y97.222 E4.47754
G1 X94.282 Y96.857 E4.49022
G1 X94.491 Y96.504 E4.50290
G1 X94.721 Y96.165 E4.51559
G1 X94.973 Y95.841 E4.52827
G1 X95.244 Y95.534 E4.54095
G1 X95.534 Y95.244 E4.55363
G1 X95.841 Y94.973 E4.56632
G1 X96.165 Y94.721 E4.57900
G1 X96.504 Y94.491 E4.59168
G1 X96.857 Y94.282 E4.60436
G1 X97.222 Y94.096 E4.61705
G1 X97.598 Y93.934 E4.62973
G1 X97.984 Y93.795 E4.64241
G1 X98.377 Y93.680 E4.65509
G1 X98.777 Y93.591 E4.66778
G1 X99.182 Y93.527 E4.68046
G1 X99.590 Y93.488 E4.69314
G1 X100.000 Y93.475 E4.70582
G1 X100.410 Y93.488 E4.71851
G1 X100.818 Y93.527 E4.73119
G1 X101.223 Y93.591 E4.74387
G1 X101.623 Y93.680 E4.75655
G1 X102.016 Y93.795 E4.76924
G1 X102.402 Y93.934 E4.78192
G1 X102.778 Y94.096 E4.79460
G1 X103.143 Y94.282 E4.80728
G1 X103.496 Y94.491 E4.81997
G1 X103.835 Y94.721 E4.83265
G1 X104.159 Y94.973 E4.84533
G1 X104.466 Y95.244 E4.85801
G1 X104.756 Y95.534 E4.87070
G1 X105.027 Y95.841 E4.88338
G1 X105.279 Y96.165 E4.89606
G1 X105.509 Y96.504 E4.90874
G1 X105.718 Y96.857 E4.92143
G1 X105.904 Y97.222 E4.93411
G1 X106.066 Y97.598 E4.94679
G1 X106.205 Y97.984 E4.95947
G1 X106.320 Y98.377 E4.97216
G1 X106.409 Y98.777 E4.98484
G1 X106.473 Y99.182 E4.99752
G1 X106.512 Y99.590 E5.01020
G1 X106.525 Y100.000 E5.02289
G1 X106.512 Y100.410 E5.03557
G1 X106.473 Y100.818 E5.04825
G1 X106.409 Y101.223 E5.06093
G1 X106.320 Y101.623 E5.07361
G1 X106.205 Y102.016 E5.08630
G1 X106.066 Y102.402 E5.09898
G1 X105.904 Y102.778 E5.11166
G1 X105.718 Y103.143 E5.12434
G1 X105.509 Y103.496 E5.13703
G1 X105.279 Y103.835 E5.14971
G1 X104.849 Y104.361 E5.17070
G1 X105.269 Y104.830 F7800.000
G1 F1800.000
G1 X104.894 Y105.212 E5.18724
G1 X104.557 Y105.509 E5.20114
G1 X104.203 Y105.784 E5.21504
G1 X103.831 Y106.037 E5.22894
G1 X103.444 Y106.265 E5.24284
G1 X103.044 Y106.469 E5.25673
G1 X102.632 Y106.648 E5.27063
G1 X102.209 Y106.800 E5.28453
G1 X101.778 Y106.925 E5.29843
G1 X101.340 Y107.023 E5.31232
G1 X100.896 Y107.093 E5.32622
G1 X100.449 Y107.136 E5.34012
G1 X100.000 Y107.150 E5.35402
G1 X99.551 Y107.136 E5.36791
G1 X99.104 Y107.093 E5.38181
G1 X98.660 Y107.023 E5.39571
G1 X98.222 Y106.925 E5.40961
G1 X97.791 Y106.800 E5.42351
G1 X97.368 Y106.648 E5.43740
G1 X96.956 Y106.469 E5.45130
G1 X96.556 Y106.265 E5.46520
G1 X96.169 Y106.037 E5.47910
G1 X95.797 Y105.784 E5.49299
G1 X95.443 Y105.509 E5.50689
G1 X95.106 Y105.212 E5.52079
G1 X94.788 Y104.894 E5.53469
G1 X94.491 Y104.557 E5.54858
G1 X94.216 Y104.203 E5.56248
G1 X93.963 Y103.831 E5.57638
G1 X93.735 Y103.444 E5.59028
G1 X93.531 Y103.044 E5.60418
G1 X93.352 Y102.632 E5.61807
G1 X93.200 Y102.209 E5.63197
G1 X93.075 Y101.778 E5.64587
G1 X92.977 Y101.340 E5.65977
G1 X92.907 Y100.896 E5.67366
G1 X92.864 Y100.449 E5.68756
G1 X92.850 Y100.000 E5.70146
G1 X92.864 Y99.551 E5.71536
G1 X92.907 Y99.104 E5.72925
G1 X92.977 Y98.660 E5.74315
G1 X93.075 Y98.222 E5.75705
G1 X93.200 Y97.791 E5.77095
G1 X93.352 Y97.368 E5.78485
G1 X93.531 Y96.956 E5.79874
G1 X93.735 Y96.556 E5.81264
G1 X93.963 Y96.169 E5.82654
G1 X94.216 Y95.797 E5.84044
G1 X94.491 Y95.443 E5.85433
G1 X94.788 Y95.106 E5.86823
G1 X95.106 Y94.788 E5.88213
G1 X95.443 Y94.491 E5.89603
G1 X95.797 Y94.216 E5.90992
G1 X96.169 Y93.963 E5.92382
G1 X96.556 Y93.735 E5.93772
G1 X96.956 Y93.531 E5.95162
G1 X97.368 Y93.352 E5.96552
G1 X97.791 Y93.200 E5.97941
G1 X98.222 Y93.075 E5.99331
G1 X98.660 Y92.977 E6.00721
G1 X99.104 Y92.907 E6.02111
G1 X99.551 Y92.864 E6.03500
G1 X100.000 Y92.850 E6.04890
G1 X100.449 Y92.864 E6.06280
G1 X100.896 Y92.907 E6.07670
G1 X101.340 Y92.977 E6.09059
G1 X101.778 Y93.075 E6.10449
G1 X102.209 Y93.200 E6.11839
G1 X102.632 Y93.352 E6.13229
G1 X103.044 Y93.531 E6.14619
G1 X103.444 Y93.735 E6.16008
G1 X103.831 Y93.963 E6.17398
G1 X104.203 Y94.216 E6.18788
G1 X104.557 Y94.491 E6.20178
G1 X104.894 Y94.788 E6.21567
G1 X105.212 Y95.106 E6.22957
G1 X105.509 Y95.443 E6.24347
G1 X105.784 Y95.797 E6.25737
G1 X106.037 Y96.169 E6.27126
G1 X106.265 Y96.556 E6.28516
G1 X106.469 Y96.956 E6.29906
G1 X106.648 Y97.368 E6.31296
G1 X106.800 Y97.791 E6.32686
G1 X106.925 Y98.222 E6.34075
G1 X107.023 Y98.660 E6.35465
G1 X107.093 Y99.104 E6.36855
G1 X107.136 Y99.551 E6.38245
G1 X107.150 Y100.000 E6.39634
G1 X107.136 Y100.449 E6.41024
G1 X107.093 Y100.896 E6.42414
G1 X107.023 Y101.340 E6.43804
G1 X106.925 Y101.778 E6.45193
G1 X106.800 Y102.209 E6.46583
G1 X106.648 Y102.632 E6.47973
G1 X106.469 Y103.044 E6.49363
G1 X106.265 Y103.444 E6.50753
G1 X106.037 Y103.831 E6.52142
G1 X105.784 Y104.203 E6.53532
G1 X105.318 Y104.774 E6.55814
G1 X105.185 Y104.814 F7800.000
G1 X104.310 Y103.991 F7800.000
G1 F1800.000
G1 X103.991 Y104.310 E6.57151
G1 X103.454 Y104.754 E6.59214
G1 X102.866 Y105.128 E6.61276
G1 X102.501 Y105.316 E6.62491
G1 X102.124 Y105.477 E6.63707
G1 X101.461 Y105.691 E6.65769
G1 X100.777 Y105.823 E6.67831
G1 X100.358 Y105.864 E6.69078
G1 X99.959 Y105.874 E6.70262
G1 X99.243 Y105.826 E6.72386
G1 X98.539 Y105.691 E6.74509
G1 X97.837 Y105.463 E6.76694
G1 X97.206 Y105.168 E6.78756
G1 X96.852 Y104.960 E6.79971
G1 X96.514 Y104.728 E6.81187
G1 X95.985 Y104.289 E6.83220
G1 X95.690 Y103.991 E6.84464
G1 X95.246 Y103.454 E6.86527
G1 X94.872 Y102.866 E6.88589
G1 X94.684 Y102.501 E6.89804
G1 X94.523 Y102.124 E6.91019
G1 X94.309 Y101.461 E6.93082
G1 X94.177 Y100.777 E6.95144
G1 X94.136 Y100.358 E6.96391
G1 X94.126 Y99.959 E6.97575
G1 X94.170 Y99.264 E6.99637
G1 X94.309 Y98.539 E7.01822
G1 X94.530 Y97.857 E7.03944
G1 X94.832 Y97.206 E7.06069
G1 X95.040 Y96.852 E7.07284
G1 X95.272 Y96.514 E7.08499
G1 X95.711 Y95.985 E7.10533
G1 X96.009 Y95.690 E7.11777
G1 X96.546 Y95.246 E7.13839
G1 X97.134 Y94.872 E7.15902
G1 X97.499 Y94.684 E7.17117
G1 X97.876 Y94.523 E7.18332
G1 X98.539 Y94.309 E7.20395
G1 X99.223 Y94.177 E7.22457
G1 X99.642 Y94.136 E7.23704
G1 X100.041 Y94.126 E7.24887
G1 X100.736 Y94.170 E7.26950
G1 X101.461 Y94.309 E7.29135
G1 X102.143 Y94.530 E7.31257
G1 X102.794 Y94.832 E7.33382
G1 X103.148 Y95.040 E7.34597
G1 X103.486 Y95.272 E7.35812
G1 X104.015 Y95.711 E7.37846
G1 X104.310 Y96.009 E7.39090
G1 X104.754 Y96.546 E7.41152
G1 X105.128 Y97.134 E7.43215
G1 X105.316 Y97.499 E7.44430
G1 X105.477 Y97.876 E7.45645
G1 X105.691 Y98.539 E7.47708
G1 X105.823 Y99.223 E7.49770
G1 X105.863 Y99.631 E7.50985
G1 X105.874 Y100.041 E7.52200
G1 X105.830 Y100.736 E7.54263
G1 X105.691 Y101.461 E7.56448
G1 X105.470 Y102.143 E7.58570
