; generated by Slic3r 1.3.1-dev (Build 2ef957d) on 2019-11-25 at 16:25:45

; external perimeters extrusion width = 0.55mm (4.37mm^3/s)
; perimeters extrusion width = 0.70mm (11.44mm^3/s)
; infill extrusion width = 0.62mm (13.45mm^3/s)
; solid infill extrusion width = 0.70mm (3.81mm^3/s)
; top infill extrusion width = 0.70mm (2.86mm^3/s)

M107
G92 E0
M104 S200 ; set temperature
G28 ; home all axes
G1 Z5 F5000 ; lift nozzle

; Filament gcode

M109 S200 ; set temperature and wait for it to be reached
G21 ; set units to millimeters
G90 ; use absolute coordinates
M82 ; use absolute distances for extrusion
G92 E0
G1 Z0.350 F7800.000
G1 E-2.00000 F2400.00000
G92 E0
G1 X89.980 Y90.019 F7800.000
G1 E2.00000 F2400.00000
G1 F1800.000
G1 X90.668 Y89.373 E2.02924
G1 X91.309 Y88.842 E2.05498
G1 X92.074 Y88.287 E2.08422
G1 X92.776 Y87.841 E2.10996
G1 X93.604 Y87.386 E2.13920
G1 X94.357 Y87.032 E2.16494
G1 X95.236 Y86.684 E2.19418
G1 X96.027 Y86.427 E2.21992
G1 X96.942 Y86.192 E2.24916
G1 X97.760 Y86.036 E2.27491
G1 X98.697 Y85.917 E2.30414
G1 X99.528 Y85.865 E2.32989
G1 X100.472 Y85.865 E2.35913
G1 X101.303 Y85.917 E2.38487
G1 X102.240 Y86.036 E2.41411
G1 X103.058 Y86.192 E2.43985
G1 X103.973 Y86.427 E2.46909
G1 X104.764 Y86.684 E2.49483
G1 X105.643 Y87.032 E2.52407
G1 X106.396 Y87.386 E2.54981
G1 X107.224 Y87.841 E2.57905
G1 X107.926 Y88.287 E2.60480
G1 X108.691 Y88.842 E2.63403
G1 X109.332 Y89.373 E2.65977
G1 X110.020 Y90.019 E2.68901
G1 X110.590 Y90.626 E2.71476
G1 X111.192 Y91.354 E2.74400
G1 X111.681 Y92.027 E2.76974
G1 X112.188 Y92.825 E2.79898
G1 X112.589 Y93.554 E2.82472
G1 X112.991 Y94.409 E2.85396
G1 X113.297 Y95.183 E2.87970
G1 X113.589 Y96.081 E2.90894
G1 X113.796 Y96.887 E2.93468
G1 X113.973 Y97.816 E2.96392
G1 X114.077 Y98.641 E2.98966
G1 X114.137 Y99.584 E3.01890
G1 X114.137 Y100.416 E3.04465
G1 X114.077 Y101.359 E3.07388
G1 X113.973 Y102.184 E3.09963
G1 X113.796 Y103.113 E3.12886
G1 X113.589 Y103.919 E3.15461
G1 X113.297 Y104.817 E3.18385
G1 X112.991 Y105.591 E3.20959
G1 X112.589 Y106.446 E3.23883
G1 X112.188 Y107.175 E3.26457
G1 X111.681 Y107.973 E3.29381
G1 X111.192 Y108.646 E3.31955
G1 X110.590 Y109.374 E3.34879
G1 X110.020 Y109.981 E3.37454
G1 X109.332 Y110.627 E3.40377
G1 X108.691 Y111.158 E3.42951
G1 X107.926 Y111.713 E3.45875
G1 X107.224 Y112.159 E3.48450
G1 X106.396 Y112.614 E3.51374
G1 X105.643 Y112.968 E3.53948
G1 X104.764 Y113.316 E3.56872
G1 X103.973 Y113.573 E3.59446
G1 X103.058 Y113.808 E3.62370
G1 X102.240 Y113.964 E3.64944
G1 X101.303 Y114.083 E3.67868
G1 X100.472 Y114.135 E3.70442
G1 X99.528 Y114.135 E3.73366
G1 X98.697 Y114.083 E3.75940
G1 X97.760 Y113.964 E3.78864
G1 X96.942 Y113.808 E3.81438
G1 X96.027 Y113.573 E3.84362
G1 X95.236 Y113.316 E3.86937
G1 X94.357 Y112.968 E3.89861
G1 X93.604 Y112.614 E3.92435
G1 X92.776 Y112.159 E3.95359
G1 X92.074 Y111.713 E3.97933
G1 X91.309 Y111.158 E4.00857
G1 X90.668 Y110.627 E4.03431
G1 X89.980 Y109.981 E4.06355
G1 X89.410 Y109.374 E4.08929
G1 X88.808 Y108.646 E4.11853
G1 X88.319 Y107.973 E4.14427
G1 X87.812 Y107.175 E4.17351
G1 X87.411 Y106.446 E4.19925
G1 X87.009 Y105.591 E4.22849
G1 X86.703 Y104.817 E4.25424
G1 X86.411 Y103.919 E4.28348
G1 X86.204 Y103.113 E4.30922
G1 X86.027 Y102.184 E4.33846
G1 X85.923 Y101.359 E4.36420
G1 X85.863 Y100.416 E4.39344
G1 X85.863 Y99.584 E4.41918
G1 X85.923 Y98.641 E4.44842
G1 X86.027 Y97.816 E4.47416
G1 X86.204 Y96.887 E4.50340
G1 X86.411 Y96.081 E4.52914
G1 X86.703 Y95.183 E4.55838
G1 X87.009 Y94.409 E4.58412
G1 X87.411 Y93.554 E4.61336
G1 X87.812 Y92.825 E4.63911
G1 X88.319 Y92.027 E4.66835
G1 X88.808 Y91.354 E4.69409
G1 X89.410 Y90.626 E4.72333
G1 X89.928 Y90.074 E4.74675
G1 E2.74675 F2400.00000
G92 E0
G1 X104.065 Y103.818 F7800.000
G1 E2.00000 F2400.00000
G1 F1800.000
G1 X103.555 Y104.297 E2.02167
G1 X102.988 Y104.709 E2.04334
G1 X102.374 Y105.046 E2.06501
G1 X101.723 Y105.304 E2.08668
G1 X101.045 Y105.478 E2.10835
G1 X100.350 Y105.566 E2.13002
G1 X99.650 Y105.566 E2.15169
G1 X98.955 Y105.478 E2.17336
G1 X98.277 Y105.304 E2.19503
G1 X97.626 Y105.046 E2.21669
G1 X97.012 Y104.709 E2.23836
G1 X96.445 Y104.297 E2.26003
G1 X95.935 Y103.818 E2.28170
G1 X95.488 Y103.278 E2.30337
G1 X95.113 Y102.687 E2.32504
G1 X94.815 Y102.053 E2.34671
G1 X94.598 Y101.387 E2.36838
G1 X94.467 Y100.699 E2.39005
G1 X94.423 Y100.000 E2.41172
G1 X94.467 Y99.301 E2.43339
G1 X94.598 Y98.613 E2.45506
G1 X94.815 Y97.947 E2.47673
G1 X95.113 Y97.313 E2.49840
G1 X95.488 Y96.722 E2.52007
G1 X95.935 Y96.182 E2.54174
G1 X96.445 Y95.703 E2.56341
G1 X97.012 Y95.291 E2.58508
G1 X97.626 Y94.954 E2.60675
G1 X98.277 Y94.696 E2.62842
G1 X98.955 Y94.522 E2.65009
G1 X99.650 Y94.434 E2.67175
G1 X100.350 Y94.434 E2.69342
G1 X101.045 Y94.522 E2.71509
G1 X101.723 Y94.696 E2.73676
G1 X102.374 Y94.954 E2.75843
G1 X102.988 Y95.291 E2.78010
G1 X103.555 Y95.703 E2.80177
G1 X104.065 Y96.182 E2.82344
G1 X104.512 Y96.722 E2.84511
G1 X104.887 Y97.313 E2.86678
G1 X105.185 Y97.947 E2.88845
G1 X105.402 Y98.613 E2.91012
G1 X105.533 Y99.301 E2.93179
G1 X105.577 Y100.000 E2.95346
G1 X105.533 Y100.699 E2.97513
G1 X105.402 Y101.387 E2.99680
G1 X105.185 Y102.053 E3.01847
G1 X104.887 Y102.687 E3.04014
G1 X104.512 Y103.278 E3.06181
G1 X104.113 Y103.760 E3.08115
G1 X103.609 Y103.389 F7800.000
G1 F1800.000
G1 X103.156 Y103.815 E3.10039
G1 X102.653 Y104.180 E3.11963
G1 X102.108 Y104.480 E3.13886
G1 X101.530 Y104.708 E3.15810
G1 X100.928 Y104.863 E3.17734
G1 X100.311 Y104.941 E3.19657
G1 X99.689 Y104.941 E3.21581
G1 X99.072 Y104.863 E3.23505
G1 X98.470 Y104.708 E3.25428
G1 X97.892 Y104.480 E3.27352
G1 X97.347 Y104.180 E3.29276
G1 X96.844 Y103.815 E3.31199
G1 X96.391 Y103.389 E3.33123
G1 X95.995 Y102.910 E3.35047
G1 X95.662 Y102.385 E3.36970
G1 X95.397 Y101.822 E3.38894
G1 X95.205 Y101.231 E3.40818
G1 X95.088 Y100.620 E3.42741
G1 X95.049 Y100.000 E3.44665
G1 X95.088 Y99.380 E3.46589
G1 X95.205 Y98.769 E3.48512
G1 X95.397 Y98.178 E3.50436
G1 X95.662 Y97.615 E3.52360
G1 X95.995 Y97.090 E3.54283
G1 X96.391 Y96.611 E3.56207
G1 X96.844 Y96.185 E3.58131
G1 X97.347 Y95.820 E3.60054
G1 X97.892 Y95.520 E3.61978
G1 X98.470 Y95.292 E3.63902
G1 X99.072 Y95.137 E3.65825
G1 X99.689 Y95.059 E3.67749
G1 X100.311 Y95.059 E3.69673
G1 X100.928 Y95.137 E3.71596
G1 X101.530 Y95.292 E3.73520
G1 X102.108 Y95.520 E3.75444
G1 X102.653 Y95.820 E3.77367
G1 X103.156 Y96.185 E3.79291
G1 X103.609 Y96.611 E3.81215
G1 X104.005 Y97.090 E3.83138
G1 X104.338 Y97.615 E3.85062
G1 X104.603 Y98.178 E3.86986
G1 X104.795 Y98.769 E3.88909
G1 X104.912 Y99.380 E3.90833
G1 X104.951 Y100.000 E3.92757
G1 X104.912 Y100.620 E3.94680
G1 X104.795 Y101.231 E3.96604
G1 X104.603 Y101.822 E3.98528
G1 X104.338 Y102.385 E4.00451
G1 X104.005 Y102.910 E4.02375
G1 X103.657 Y103.331 E4.04066
G1 X103.609 Y103.389 F7800.000
G1 X104.700 Y104.551 F7800.000
G1 F1800.000
G1 X104.174 Y105.045 E4.06300
G1 X103.509 Y105.529 E4.08845
G1 X102.788 Y105.925 E4.11389
G1 X102.023 Y106.228 E4.13934
G1 X101.227 Y106.432 E4.16478
G1 X100.411 Y106.535 E4.19022
G1 X99.589 Y106.535 E4.21567
G1 X98.773 Y106.432 E4.24111
G1 X97.976 Y106.228 E4.26656
G1 X97.212 Y105.925 E4.29200
G1 X96.491 Y105.529 E4.31744
G1 X95.826 Y105.045 E4.34289
G1 X95.227 Y104.483 E4.36833
G1 X94.702 Y103.849 E4.39378
G1 X94.262 Y103.155 E4.41922
G1 X93.912 Y102.411 E4.44466
G1 X93.658 Y101.628 E4.47011
G1 X93.503 Y100.821 E4.49555
G1 X93.452 Y100.000 E4.52099
G1 X93.503 Y99.179 E4.54644
G1 X93.658 Y98.372 E4.57188
G1 X93.912 Y97.589 E4.59733
G1 X94.262 Y96.845 E4.62277
G1 X94.702 Y96.151 E4.64821
G1 X95.227 Y95.517 E4.67366
G1 X95.826 Y94.955 E4.69910
G1 X96.491 Y94.471 E4.72455
G1 X97.212 Y94.075 E4.74999
G1 X97.977 Y93.772 E4.77543
G1 X98.773 Y93.568 E4.80088
G1 X99.589 Y93.465 E4.82632
G1 X100.411 Y93.465 E4.85177
G1 X101.227 Y93.568 E4.87721
G1 X102.023 Y93.772 E4.90265
G1 X102.788 Y94.075 E4.92810
G1 X103.509 Y94.471 E4.95354
G1 X104.174 Y94.955 E4.97898
G1 X104.773 Y95.517 E5.00443
G1 X105.298 Y96.151 E5.02987
G1 X105.738 Y96.845 E5.05532
G1 X106.088 Y97.589 E5.08076
G1 X106.342 Y98.372 E5.10620
G1 X106.497 Y99.179 E5.13165
G1 X106.548 Y100.000 E5.15709
G1 X106.497 Y100.821 E5.18254
G1 X106.342 Y101.628 E5.20798
G1 X106.088 Y102.411 E5.23342
G1 X105.738 Y103.155 E5.25887
G1 X105.298 Y103.849 E5.28431
G1 X104.755 Y104.500 E5.31053
G1 X105.128 Y105.007 F7800.000
G1 F1800.000
G1 X104.573 Y105.528 E5.33409
G1 X103.844 Y106.057 E5.36197
G1 X103.055 Y106.492 E5.38984
G1 X102.217 Y106.823 E5.41772
G1 X101.344 Y107.047 E5.44560
G1 X100.450 Y107.160 E5.47347
G1 X99.550 Y107.160 E5.50135
G1 X98.656 Y107.047 E5.52923
G1 X97.783 Y106.823 E5.55710
G1 X96.945 Y106.492 E5.58498
G1 X96.156 Y106.057 E5.61286
G1 X95.427 Y105.528 E5.64073
G1 X94.770 Y104.911 E5.66861
G1 X94.196 Y104.217 E5.69649
G1 X93.713 Y103.456 E5.72436
G1 X93.329 Y102.641 E5.75224
G1 X93.051 Y101.784 E5.78012
G1 X92.882 Y100.899 E5.80799
G1 X92.826 Y100.000 E5.83587
G1 X92.882 Y99.101 E5.86375
G1 X93.051 Y98.216 E5.89163
G1 X93.329 Y97.359 E5.91950
G1 X93.713 Y96.544 E5.94738
G1 X94.196 Y95.783 E5.97526
G1 X94.770 Y95.089 E6.00313
G1 X95.427 Y94.472 E6.03101
G1 X96.156 Y93.943 E6.05889
G1 X96.945 Y93.508 E6.08676
G1 X97.783 Y93.177 E6.11464
G1 X98.656 Y92.953 E6.14252
G1 X99.550 Y92.840 E6.17039
G1 X100.450 Y92.840 E6.19827
G1 X101.344 Y92.953 E6.22615
G1 X102.217 Y93.177 E6.25402
G1 X103.055 Y93.508 E6.28190
G1 X103.844 Y93.943 E6.30978
G1 X104.573 Y94.472 E6.33765
G1 X105.230 Y95.089 E6.36553
G1 X105.804 Y95.783 E6.39341
G1 X106.287 Y96.544 E6.42128
G1 X106.671 Y97.359 E6.44916
G1 X106.949 Y98.216 E6.47704
G1 X107.118 Y99.101 E6.50491
G1 X107.174 Y100.000 E6.53279
G1 X107.118 Y100.899 E6.56067
G1 X106.949 Y101.784 E6.58855
G1 X106.671 Y102.641 E6.61642
G1 X106.287 Y103.456 E6.64430
G1 X105.804 Y104.217 E6.67218
G1 X105.183 Y104.955 E6.70204
G1 X104.644 Y104.880 F7800.000
G1 X104.368 Y104.198 F7800.000
G1 F1800.000
G1 X103.864 Y104.671 E6.71128
G1 X103.248 Y105.119 E6.72145
G1 X102.581 Y105.485 E6.73162
G1 X101.883 Y105.762 E6.74164
G1 X101.125 Y105.956 E6.75210
G1 X100.381 Y106.050 E6.76212
G1 X99.630 Y106.051 E6.77215
G1 X98.854 Y105.952 E6.78261
G1 X98.127 Y105.766 E6.79263
G1 X97.419 Y105.485 E6.80280
G1 X96.743 Y105.112 E6.81312
G1 X96.136 Y104.671 E6.82314
G1 X95.589 Y104.157 E6.83317
G1 X95.090 Y103.554 E6.84363
G1 X94.688 Y102.921 E6.85365
G1 X94.363 Y102.232 E6.86382
G1 X94.128 Y101.508 E6.87399
G1 X93.987 Y100.770 E6.88402
G1 X93.938 Y100.000 E6.89433
G1 X93.987 Y99.230 E6.90465
G1 X94.128 Y98.492 E6.91467
G1 X94.363 Y97.768 E6.92484
G1 X94.693 Y97.070 E6.93515
G1 X95.095 Y96.437 E6.94518
G1 X95.581 Y95.850 E6.95535
G1 X96.136 Y95.329 E6.96552
G1 X96.743 Y94.888 E6.97555
G1 X97.419 Y94.515 E6.98586
G1 X98.137 Y94.232 E6.99617
G1 X98.864 Y94.045 E7.00620
G1 X99.619 Y93.950 E7.01637
G1 X100.381 Y93.950 E7.02654
G1 X101.125 Y94.044 E7.03657
G1 X101.873 Y94.234 E7.04688
G1 X102.581 Y94.515 E7.05705
G1 X103.239 Y94.876 E7.06707
G1 X103.872 Y95.336 E7.07753
G1 X104.419 Y95.850 E7.08756
G1 X104.898 Y96.428 E7.09758
G1 X105.317 Y97.089 E7.10804
G1 X105.637 Y97.768 E7.11807
G1 X105.872 Y98.492 E7.12824
G1 X106.015 Y99.240 E7.13841
G1 X106.062 Y99.989 E7.14843
G1 X106.013 Y100.770 E7.15889
G1 X105.872 Y101.508 E7.16892
G1 X105.637 Y102.232 E7.17909
G1 X105.307 Y102.930 E7.18940
G1 X104.905 Y103.563 E7.19943
G1 X104.423 Y104.146 E7.20953
G1 Z0.650 F7800.000
G1 X103.941 Y103.743 F7800.000
G1 F900.000
G1 X103.466 Y104.189 E7.22712
G1 X102.913 Y104.591 E7.24554
G1 X102.315 Y104.920 E7.26396
G1 X101.680 Y105.171 E7.28238
G1 X101.019 Y105.341 E7.30080
G1 X100.341 Y105.427 E7.31922
G1 X99.659 Y105.427 E7.33764
G1 X98.981 Y105.341 E7.35606
G1 X98.320 Y105.171 E7.37448
G1 X97.685 Y104.920 E7.39290
G1 X97.087 Y104.591 E7.41132
G1 X96.534 Y104.189 E7.42974
G1 X96.036 Y103.722 E7.44816
G1 X95.601 Y103.196 E7.46658
G1 X95.235 Y102.619 E7.48500
G1 X94.945 Y102.002 E7.50342
G1 X94.734 Y101.352 E7.52184
G1 X94.606 Y100.681 E7.54026
G1 X94.563 Y100.000 E7.55868
G1 X94.606 Y99.319 E7.57710
G1 X94.734 Y98.648 E7.59552
G1 X94.945 Y97.998 E7.61394
G1 X95.235 Y97.381 E7.63236
G1 X95.601 Y96.804 E7.65078
G1 X96.036 Y96.278 E7.66920
G1 X96.534 Y95.811 E7.68762
G1 X97.087 Y95.409 E7.70604
G1 X97.685 Y95.080 E7.72446
G1 X98.320 Y94.829 E7.74288
G1 X98.981 Y94.659 E7.76130
G1 X99.659 Y94.573 E7.77972
G1 X100.341 Y94.573 E7.79814
G1 X101.019 Y94.659 E7.81656
G1 X101.680 Y94.829 E7.83498
G1 X102.315 Y95.080 E7.85340
G1 X102.913 Y95.409 E7.87182
G1 X103.466 Y95.811 E7.89024
G1 X103.964 Y96.278 E7.90866
G1 X104.399 Y96.804 E7.92708
G1 X104.765 Y97.381 E7.94550
G1 X105.055 Y97.998 E7.96392
G1 X105.266 Y98.648 E7.98234
G1 X105.394 Y99.319 E8.00076
G1 X105.437 Y100.000 E8.01918
G1 X105.394 Y100.681 E8.03760
G1 X105.266 Y101.352 E8.05602
G1 X105.055 Y102.002 E8.07444
G1 X104.765 Y102.619 E8.09286
G1 X104.399 Y103.196 E8.11128
G1 X103.992 Y103.688 E8.12851
G1 X103.554 Y103.338 F7800.000
G1 F900.000
G1 X103.108 Y103.757 E8.14113
G1 X102.612 Y104.117 E8.15374
G1 X102.076 Y104.412 E8.16636
G1 X101.507 Y104.637 E8.17898
G1 X100.914 Y104.789 E8.19160
G1 X100.306 Y104.866 E8.20422
G1 X99.694 Y104.866 E8.21684
G1 X99.086 Y104.789 E8.22946
G1 X98.493 Y104.637 E8.24208
G1 X97.924 Y104.412 E8.25470
G1 X97.388 Y104.117 E8.26732
G1 X96.892 Y103.757 E8.27994
G1 X96.446 Y103.338 E8.29256
G1 X96.056 Y102.866 E8.30518
G1 X95.728 Y102.349 E8.31779
G1 X95.467 Y101.795 E8.33041
G1 X95.278 Y101.212 E8.34303
G1 X95.163 Y100.611 E8.35565
G1 X95.124 Y100.000 E8.36827
G1 X95.163 Y99.389 E8.38089
G1 X95.278 Y98.788 E8.39351
G1 X95.467 Y98.205 E8.40613
G1 X95.728 Y97.651 E8.41875
G1 X96.056 Y97.134 E8.43137
G1 X96.446 Y96.662 E8.44399
G1 X96.892 Y96.243 E8.45661
G1 X97.388 Y95.883 E8.46922
G1 X97.924 Y95.588 E8.48184
G1 X98.493 Y95.363 E8.49446
G1 X99.086 Y95.211 E8.50708
G1 X99.694 Y95.134 E8.51970
G1 X100.306 Y95.134 E8.53232
G1 X100.914 Y95.211 E8.54494
G1 X101.507 Y95.363 E8.55756
G1 X102.076 Y95.588 E8.57018
G1 X102.612 Y95.883 E8.58280
G1 X103.108 Y96.243 E8.59542
G1 X103.554 Y96.662 E8.60804
G1 X103.944 Y97.134 E8.62066
G1 X104.272 Y97.651 E8.63327
G1 X104.533 Y98.205 E8.64589
G1 X104.722 Y98.788 E8.65851
G1 X104.837 Y99.389 E8.67113
G1 X104.876 Y100.000 E8.68375
G1 X104.837 Y100.611 E8.69637
G1 X104.722 Y101.212 E8.70899
G1 X104.533 Y101.795 E8.72161
G1 X104.272 Y102.349 E8.73423
G1 X103.944 Y102.866 E8.74685
G1 X103.602 Y103.280 E8.75792
G1 X103.554 Y103.338 F7800.000
G1 X104.948 Y104.490 F7800.000
G1 F3600.000
G1 X104.875 Y104.578 E8.76099
G1 X104.263 Y105.153 E8.78365
G1 X103.583 Y105.647 E8.80630
G1 X102.847 Y106.051 E8.82896
G1 X102.067 Y106.360 E8.85162
G1 X101.253 Y106.569 E8.87427
G1 X100.420 Y106.675 E8.89693
G1 X99.580 Y106.675 E8.91958
G1 X98.747 Y106.569 E8.94224
G1 X97.933 Y106.360 E8.96490
G1 X97.152 Y106.051 E8.98755
G1 X96.417 Y105.647 E9.01021
G1 X95.737 Y105.153 E9.03287
G1 X95.125 Y104.578 E9.05552
G1 X94.590 Y103.931 E9.07818
G1 X94.139 Y103.222 E9.10084
G1 X93.782 Y102.462 E9.12349
G1 X93.522 Y101.663 E9.14615
G1 X93.365 Y100.838 E9.16880
G1 X93.312 Y100.000 E9.19146
G1 X93.365 Y99.162 E9.21412
G1 X93.522 Y98.337 E9.23677
G1 X93.782 Y97.538 E9.25943
G1 X94.139 Y96.778 E9.28209
G1 X94.590 Y96.069 E9.30474
G1 X95.125 Y95.422 E9.32740
G1 X95.737 Y94.847 E9.35005
G1 X96.417 Y94.353 E9.37271
G1 X97.152 Y93.949 E9.39537
G1 X97.933 Y93.640 E9.41802
G1 X98.747 Y93.431 E9.44068
G1 X99.580 Y93.325 E9.46334
G1 X100.420 Y93.325 E9.48599
G1 X101.253 Y93.431 E9.50865
G1 X102.067 Y93.640 E9.53130
G1 X102.847 Y93.949 E9.55396
G1 X103.583 Y94.353 E9.57662
G1 X104.263 Y94.847 E9.59927
G1 X104.875 Y95.422 E9.62193
G1 X105.410 Y96.069 E9.64459
G1 X105.861 Y96.778 E9.66724
G1 X106.218 Y97.538 E9.68990
G1 X106.478 Y98.337 E9.71255
G1 X106.635 Y99.162 E9.73521
G1 X106.688 Y100.000 E9.75787
G1 X106.635 Y100.838 E9.78052
G1 X106.478 Y101.663 E9.80318
G1 X106.218 Y102.462 E9.82584
G1 X105.861 Y103.222 E9.84849
G1 X105.410 Y103.931 E9.87115
G1 X104.995 Y104.433 E9.88871
G1 X105.380 Y104.848 F7800.000
G1 F1800.000
G1 X105.285 Y104.963 E9.89178
G1 X104.621 Y105.586 E9.91055
G1 X103.884 Y106.121 E9.92931
G1 X103.087 Y106.559 E9.94807
G1 X102.240 Y106.895 E9.96684
