; generated by Slic3r 1.3.1-dev (Build 2ef957d) on 2019-11-25 at 16:25:49

; external perimeters extrusion width = 0.55mm (4.37mm^3/s)
; perimeters extrusion width = 0.70mm (11.44mm^3/s)
; infill extrusion width = 0.62mm (13.45mm^3/s)
; solid infill extrusion width = 0.70mm (3.81mm^3/s)
; top infill extrusion width = 0.70mm (2.86mm^3/s)

M107
G92 E0
M104 S200 ; set temperature
G28 ; home all axes
G1 Z5 F5000 ; lift nozzle

; Filament gcode

M109 S200 ; set temperature and wait for it to be reached
G21 ; set units to millimeters
G90 ; use absolute coordinates
M82 ; use absolute distances for extrusion
G92 E0
G1 Z0.350 F7800.000
G1 E-2.00000 F2400.00000
G92 E0
G1 X90.353 Y90.030 F7800.000
G1 E2.00000 F2400.00000
G1 F1800.000
G1 X90.656 Y89.746 E2.01288
G1 X91.318 Y89.179 E2.03984
G1 X92.015 Y88.655 E2.06681
G1 X92.391 Y88.399 E2.08090
G1 X92.743 Y88.176 E2.09378
G1 X93.500 Y87.744 E2.12074
G1 X93.905 Y87.537 E2.13484
G1 X94.700 Y87.179 E2.16181
G1 X95.516 Y86.872 E2.18877
G1 X96.349 Y86.616 E2.21574
G1 X96.752 Y86.512 E2.22862
G1 X97.605 Y86.335 E2.25558
G1 X98.055 Y86.264 E2.26967
G1 X98.921 Y86.169 E2.29664
G1 X99.792 Y86.128 E2.32361
G1 X100.208 Y86.128 E2.33649
G1 X100.663 Y86.143 E2.35058
G1 X101.532 Y86.212 E2.37754
G1 X102.395 Y86.335 E2.40451
G1 X103.248 Y86.512 E2.43147
G1 X103.651 Y86.616 E2.44435
G1 X104.484 Y86.872 E2.47132
G1 X105.300 Y87.179 E2.49828
G1 X105.718 Y87.360 E2.51238
G1 X106.095 Y87.537 E2.52526
G1 X106.865 Y87.944 E2.55222
G1 X107.257 Y88.176 E2.56631
G1 X107.985 Y88.655 E2.59328
G1 X108.682 Y89.179 E2.62025
G1 X109.002 Y89.444 E2.63312
G1 X109.647 Y90.030 E2.66009
G1 X109.970 Y90.353 E2.67418
G1 X110.254 Y90.656 E2.68706
G1 X110.821 Y91.318 E2.71403
G1 X111.100 Y91.678 E2.72812
G1 X111.601 Y92.391 E2.75508
G1 X111.824 Y92.743 E2.76797
G1 X112.256 Y93.500 E2.79493
G1 X112.463 Y93.905 E2.80902
G1 X112.821 Y94.700 E2.83599
G1 X113.128 Y95.516 E2.86296
G1 X113.384 Y96.349 E2.88992
G1 X113.488 Y96.752 E2.90280
G1 X113.665 Y97.605 E2.92976
G1 X113.736 Y98.055 E2.94386
G1 X113.831 Y98.921 E2.97083
G1 X113.872 Y99.792 E2.99779
G1 X113.872 Y100.208 E3.01067
G1 X113.857 Y100.663 E3.02476
G1 X113.788 Y101.532 E3.05173
G1 X113.665 Y102.395 E3.07869
G1 X113.488 Y103.248 E3.10566
G1 X113.384 Y103.651 E3.11854
G1 X113.128 Y104.484 E3.14550
G1 X112.821 Y105.300 E3.17247
G1 X112.640 Y105.718 E3.18656
G1 X112.463 Y106.095 E3.19944
G1 X112.056 Y106.865 E3.22640
G1 X111.824 Y107.257 E3.24050
G1 X111.345 Y107.985 E3.26747
G1 X110.821 Y108.682 E3.29443
G1 X110.556 Y109.002 E3.30731
G1 X110.254 Y109.344 E3.32140
G1 X109.647 Y109.970 E3.34837
G1 X109.344 Y110.254 E3.36125
G1 X108.682 Y110.821 E3.38821
G1 X107.985 Y111.345 E3.41518
G1 X107.609 Y111.601 E3.42927
G1 X107.257 Y111.824 E3.44215
G1 X106.500 Y112.256 E3.46911
G1 X106.095 Y112.463 E3.48320
G1 X105.300 Y112.821 E3.51017
G1 X104.484 Y113.128 E3.53714
G1 X104.089 Y113.257 E3.55002
G1 X103.248 Y113.488 E3.57698
G1 X102.804 Y113.587 E3.59108
G1 X101.945 Y113.736 E3.61804
G1 X101.079 Y113.831 E3.64501
G1 X100.208 Y113.872 E3.67197
G1 X99.792 Y113.872 E3.68485
G1 X98.921 Y113.831 E3.71182
G1 X98.468 Y113.788 E3.72591
G1 X97.605 Y113.665 E3.75288
G1 X96.752 Y113.488 E3.77984
G1 X96.349 Y113.384 E3.79272
G1 X95.516 Y113.128 E3.81969
G1 X94.700 Y112.821 E3.84665
G1 X94.282 Y112.640 E3.86074
G1 X93.905 Y112.463 E3.87363
G1 X93.135 Y112.056 E3.90059
G1 X92.743 Y111.824 E3.91468
G1 X92.015 Y111.345 E3.94165
G1 X91.318 Y110.821 E3.96861
G1 X90.998 Y110.556 E3.98149
G1 X90.353 Y109.970 E4.00846
G1 X90.030 Y109.647 E4.02255
G1 X89.746 Y109.344 E4.03543
G1 X89.179 Y108.682 E4.06240
G1 X88.900 Y108.322 E4.07649
G1 X88.399 Y107.609 E4.10345
G1 X88.176 Y107.257 E4.11633
G1 X87.744 Y106.500 E4.14329
G1 X87.537 Y106.095 E4.15739
G1 X87.179 Y105.300 E4.18436
G1 X86.872 Y104.484 E4.21132
G1 X86.743 Y104.089 E4.22420
G1 X86.616 Y103.651 E4.23829
G1 X86.413 Y102.804 E4.26526
G1 X86.264 Y101.945 E4.29222
G1 X86.212 Y101.532 E4.30510
G1 X86.143 Y100.663 E4.33207
G1 X86.128 Y99.792 E4.35904
G1 X86.143 Y99.337 E4.37313
G1 X86.212 Y98.468 E4.40009
G1 X86.264 Y98.055 E4.41297
G1 X86.413 Y97.196 E4.43994
G1 X86.616 Y96.349 E4.46690
G1 X86.743 Y95.911 E4.48100
G1 X86.872 Y95.516 E4.49387
G1 X87.179 Y94.700 E4.52084
G1 X87.360 Y94.282 E4.53493
G1 X87.744 Y93.500 E4.56190
G1 X88.176 Y92.743 E4.58886
G1 X88.399 Y92.391 E4.60174
G1 X88.655 Y92.015 E4.61584
G1 X89.179 Y91.318 E4.64280
G1 X89.746 Y90.656 E4.66977
G1 X90.299 Y90.084 E4.69441
G1 E2.69441 F2400.00000
G92 E0
G1 X103.820 Y103.566 F7800.000
G1 E2.00000 F2400.00000
G1 F1800.000
G1 X103.566 Y103.820 E2.01111
G1 X103.072 Y104.229 E2.03094
G1 X102.531 Y104.572 E2.05077
G1 X102.225 Y104.728 E2.06141
G1 X101.910 Y104.865 E2.07204
G1 X101.300 Y105.063 E2.09187
G1 X100.670 Y105.183 E2.11171
G1 X100.328 Y105.215 E2.12234
G1 X99.985 Y105.226 E2.13297
G1 X99.345 Y105.186 E2.15280
G1 X98.700 Y105.063 E2.17311
G1 X98.076 Y104.860 E2.19342
G1 X97.496 Y104.587 E2.21326
G1 X97.200 Y104.412 E2.22389
G1 X96.916 Y104.219 E2.23452
G1 X96.434 Y103.820 E2.25388
G1 X96.180 Y103.566 E2.26499
G1 X95.771 Y103.072 E2.28482
G1 X95.428 Y102.531 E2.30465
G1 X95.272 Y102.225 E2.31528
G1 X95.135 Y101.910 E2.32592
G1 X94.937 Y101.300 E2.34575
G1 X94.817 Y100.670 E2.36559
G1 X94.785 Y100.328 E2.37622
G1 X94.774 Y99.985 E2.38685
G1 X94.814 Y99.345 E2.40668
G1 X94.937 Y98.700 E2.42699
G1 X95.140 Y98.076 E2.44730
G1 X95.413 Y97.496 E2.46714
G1 X95.588 Y97.200 E2.47777
G1 X95.781 Y96.916 E2.48840
G1 X96.180 Y96.434 E2.50776
G1 X96.434 Y96.180 E2.51886
G1 X96.928 Y95.771 E2.53870
G1 X97.469 Y95.428 E2.55853
G1 X97.775 Y95.272 E2.56916
G1 X98.090 Y95.135 E2.57980
G1 X98.700 Y94.937 E2.59963
G1 X99.330 Y94.817 E2.61946
G1 X99.672 Y94.785 E2.63010
G1 X100.015 Y94.774 E2.64073
G1 X100.655 Y94.814 E2.66056
G1 X101.300 Y94.937 E2.68087
G1 X101.924 Y95.140 E2.70118
G1 X102.504 Y95.413 E2.72102
G1 X102.800 Y95.588 E2.73165
G1 X103.084 Y95.781 E2.74228
G1 X103.566 Y96.180 E2.76164
G1 X103.820 Y96.434 E2.77274
G1 X104.229 Y96.928 E2.79258
G1 X104.572 Y97.469 E2.81241
G1 X104.728 Y97.775 E2.82304
G1 X104.865 Y98.090 E2.83367
G1 X105.063 Y98.700 E2.85351
G1 X105.183 Y99.330 E2.87334
G1 X105.215 Y99.672 E2.88397
G1 X105.226 Y100.015 E2.89461
G1 X105.186 Y100.655 E2.91444
G1 X105.063 Y101.300 E2.93475
G1 X104.860 Y101.924 E2.95506
G1 X104.587 Y102.504 E2.97489
G1 X104.412 Y102.800 E2.98553
G1 X104.219 Y103.084 E2.99616
G1 X103.868 Y103.508 E3.01320
G1 X103.357 Y103.145 F7800.000
G1 F1800.000
G1 X103.145 Y103.357 E3.02248
G1 X102.704 Y103.722 E3.04018
G1 X102.221 Y104.029 E3.05789
G1 X101.959 Y104.162 E3.06700
G1 X101.688 Y104.279 E3.07611
G1 X101.144 Y104.456 E3.09382
G1 X100.582 Y104.563 E3.11153
G1 X100.289 Y104.591 E3.12064
G1 X99.995 Y104.600 E3.12975
G1 X99.423 Y104.564 E3.14746
G1 X98.856 Y104.456 E3.16533
G1 X98.306 Y104.278 E3.18321
G1 X97.789 Y104.034 E3.20092
G1 X97.535 Y103.884 E3.21003
G1 X97.292 Y103.719 E3.21914
G1 X96.855 Y103.357 E3.23667
G1 X96.643 Y103.145 E3.24596
G1 X96.278 Y102.704 E3.26366
G1 X95.971 Y102.221 E3.28137
G1 X95.838 Y101.959 E3.29048
G1 X95.721 Y101.688 E3.29959
G1 X95.544 Y101.144 E3.31730
G1 X95.437 Y100.582 E3.33501
G1 X95.409 Y100.289 E3.34412
G1 X95.400 Y99.994 E3.35323
G1 X95.436 Y99.423 E3.37094
G1 X95.544 Y98.856 E3.38881
G1 X95.722 Y98.306 E3.40669
G1 X95.966 Y97.789 E3.42440
G1 X96.116 Y97.535 E3.43351
G1 X96.281 Y97.292 E3.44262
G1 X96.643 Y96.855 E3.46015
G1 X96.855 Y96.643 E3.46944
G1 X97.296 Y96.278 E3.48714
G1 X97.779 Y95.971 E3.50485
G1 X98.041 Y95.838 E3.51396
G1 X98.312 Y95.721 E3.52307
G1 X98.856 Y95.544 E3.54078
G1 X99.418 Y95.437 E3.55849
G1 X99.711 Y95.409 E3.56760
G1 X100.005 Y95.400 E3.57671
G1 X100.577 Y95.436 E3.59442
G1 X101.144 Y95.544 E3.61229
G1 X101.694 Y95.722 E3.63017
G1 X102.211 Y95.966 E3.64788
G1 X102.465 Y96.116 E3.65699
G1 X102.708 Y96.281 E3.66610
G1 X103.145 Y96.643 E3.68363
G1 X103.357 Y96.855 E3.69292
G1 X103.722 Y97.296 E3.71062
G1 X104.029 Y97.779 E3.72833
G1 X104.162 Y98.041 E3.73744
G1 X104.279 Y98.312 E3.74655
G1 X104.456 Y98.856 E3.76426
G1 X104.563 Y99.418 E3.78197
G1 X104.591 Y99.711 E3.79108
G1 X104.600 Y100.005 E3.80019
G1 X104.564 Y100.577 E3.81790
G1 X104.456 Y101.144 E3.83577
G1 X104.278 Y101.694 E3.85365
G1 X104.034 Y102.211 E3.87135
G1 X103.884 Y102.465 E3.88047
G1 X103.719 Y102.708 E3.88958
G1 X103.405 Y103.087 E3.90479
G1 X103.357 Y103.145 F7800.000
G1 X104.612 Y104.252 F7800.000
G1 F1800.000
G1 X104.295 Y104.574 E3.91878
G1 X103.688 Y105.076 E3.94317
G1 X103.362 Y105.298 E3.95536
G1 X102.672 Y105.677 E3.97974
G1 X101.939 Y105.968 E4.00412
G1 X101.560 Y106.078 E4.01632
G1 X100.786 Y106.225 E4.04070
G1 X100.394 Y106.262 E4.05290
G1 X100.000 Y106.275 E4.06509
G1 X99.214 Y106.225 E4.08948
G1 X98.440 Y106.078 E4.11386
G1 X98.061 Y105.968 E4.12605
G1 X97.328 Y105.677 E4.15043
G1 X96.638 Y105.298 E4.17482
G1 X96.000 Y104.835 E4.19920
G1 X95.705 Y104.574 E4.21139
G1 X95.426 Y104.295 E4.22359
G1 X94.924 Y103.688 E4.24797
G1 X94.702 Y103.362 E4.26017
G1 X94.323 Y102.672 E4.28455
G1 X94.166 Y102.310 E4.29674
G1 X93.922 Y101.560 E4.32113
G1 X93.775 Y100.786 E4.34551
G1 X93.725 Y100.000 E4.36989
G1 X93.775 Y99.214 E4.39427
G1 X93.837 Y98.824 E4.40646
G1 X93.922 Y98.440 E4.41866
G1 X94.166 Y97.690 E4.44304
G1 X94.323 Y97.328 E4.45524
G1 X94.702 Y96.638 E4.47962
G1 X95.165 Y96.000 E4.50400
G1 X95.426 Y95.705 E4.51620
G1 X95.705 Y95.426 E4.52839
G1 X96.312 Y94.924 E4.55277
G1 X96.638 Y94.702 E4.56497
G1 X97.328 Y94.323 E4.58935
G1 X98.061 Y94.032 E4.61373
G1 X98.440 Y93.922 E4.62593
G1 X99.214 Y93.775 E4.65031
G1 X100.000 Y93.725 E4.67469
G1 X100.786 Y93.775 E4.69907
G1 X101.176 Y93.837 E4.71127
G1 X101.560 Y93.922 E4.72347
G1 X102.310 Y94.166 E4.74785
G1 X102.672 Y94.323 E4.76004
G1 X103.362 Y94.702 E4.78442
G1 X104.000 Y95.165 E4.80880
G1 X104.295 Y95.426 E4.82100
G1 X104.574 Y95.705 E4.83320
G1 X105.076 Y96.312 E4.85758
G1 X105.298 Y96.638 E4.86978
G1 X105.677 Y97.328 E4.89416
G1 X105.968 Y98.061 E4.91854
G1 X106.078 Y98.440 E4.93073
G1 X106.225 Y99.214 E4.95511
G1 X106.262 Y99.606 E4.96731
G1 X106.275 Y100.000 E4.97951
G1 X106.225 Y100.786 E5.00389
G1 X106.078 Y101.560 E5.02827
G1 X105.968 Y101.939 E5.04047
G1 X105.677 Y102.672 E5.06485
G1 X105.498 Y103.023 E5.07704
G1 X105.076 Y103.688 E5.10142
G1 X104.662 Y104.195 E5.12169
G1 X105.081 Y104.665 F7800.000
G1 F1800.000
G1 X104.723 Y105.030 E5.13750
G1 X104.398 Y105.316 E5.15091
G1 X104.056 Y105.582 E5.16433
G1 X103.697 Y105.826 E5.17774
G1 X103.324 Y106.046 E5.19115
G1 X102.938 Y106.243 E5.20456
G1 X102.540 Y106.415 E5.21797
G1 X102.132 Y106.562 E5.23139
G1 X101.716 Y106.683 E5.24480
G1 X101.293 Y106.778 E5.25821
G1 X100.865 Y106.845 E5.27162
G1 X100.433 Y106.886 E5.28503
G1 X100.000 Y106.900 E5.29844
G1 X99.567 Y106.886 E5.31186
G1 X99.135 Y106.845 E5.32527
G1 X98.707 Y106.778 E5.33868
G1 X98.284 Y106.683 E5.35209
G1 X97.868 Y106.562 E5.36550
G1 X97.460 Y106.415 E5.37891
G1 X97.062 Y106.243 E5.39233
G1 X96.676 Y106.046 E5.40574
G1 X96.303 Y105.826 E5.41915
G1 X95.944 Y105.582 E5.43256
G1 X95.602 Y105.316 E5.44597
G1 X95.277 Y105.030 E5.45939
G1 X94.970 Y104.723 E5.47280
G1 X94.684 Y104.398 E5.48621
G1 X94.418 Y104.056 E5.49962
G1 X94.174 Y103.697 E5.51303
G1 X93.954 Y103.324 E5.52644
G1 X93.757 Y102.938 E5.53986
G1 X93.585 Y102.540 E5.55327
G1 X93.438 Y102.132 E5.56668
G1 X93.317 Y101.716 E5.58009
G1 X93.222 Y101.293 E5.59350
G1 X93.155 Y100.865 E5.60691
G1 X93.114 Y100.433 E5.62033
G1 X93.100 Y100.000 E5.63374
G1 X93.114 Y99.567 E5.64715
G1 X93.155 Y99.135 E5.66056
G1 X93.222 Y98.707 E5.67397
G1 X93.317 Y98.284 E5.68738
G1 X93.438 Y97.868 E5.70080
G1 X93.585 Y97.460 E5.71421
G1 X93.757 Y97.062 E5.72762
G1 X93.954 Y96.676 E5.74103
G1 X94.174 Y96.303 E5.75444
G1 X94.418 Y95.944 E5.76786
G1 X94.684 Y95.602 E5.78127
G1 X94.970 Y95.277 E5.79468
G1 X95.277 Y94.970 E5.80809
G1 X95.602 Y94.684 E5.82150
G1 X95.944 Y94.418 E5.83491
G1 X96.303 Y94.174 E5.84833
G1 X96.676 Y93.954 E5.86174
G1 X97.062 Y93.757 E5.87515
G1 X97.460 Y93.585 E5.88856
G1 X97.868 Y93.438 E5.90197
G1 X98.284 Y93.317 E5.91538
G1 X98.707 Y93.222 E5.92880
G1 X99.135 Y93.155 E5.94221
G1 X99.567 Y93.114 E5.95562
G1 X100.000 Y93.100 E5.96903
G1 X100.433 Y93.114 E5.98244
G1 X100.865 Y93.155 E5.99585
G1 X101.293 Y93.222 E6.00927
G1 X101.716 Y93.317 E6.02268
G1 X102.132 Y93.438 E6.03609
G1 X102.540 Y93.585 E6.04950
G1 X102.938 Y93.757 E6.06291
G1 X103.324 Y93.954 E6.07633
G1 X103.697 Y94.174 E6.08974
G1 X104.056 Y94.418 E6.10315
G1 X104.398 Y94.684 E6.11656
G1 X104.723 Y94.970 E6.12997
G1 X105.030 Y95.277 E6.14338
G1 X105.316 Y95.602 E6.15680
G1 X105.582 Y95.944 E6.17021
G1 X105.826 Y96.303 E6.18362
G1 X106.046 Y96.676 E6.19703
G1 X106.243 Y97.062 E6.21044
G1 X106.415 Y97.460 E6.22385
G1 X106.562 Y97.868 E6.23727
G1 X106.683 Y98.284 E6.25068
G1 X106.778 Y98.707 E6.26409
G1 X106.845 Y99.135 E6.27750
G1 X106.886 Y99.567 E6.29091
G1 X106.900 Y100.000 E6.30433
G1 X106.886 Y100.433 E6.31774
G1 X106.845 Y100.865 E6.33115
G1 X106.778 Y101.293 E6.34456
G1 X106.683 Y101.716 E6.35797
G1 X106.562 Y102.132 E6.37138
G1 X106.415 Y102.540 E6.38480
G1 X106.243 Y102.938 E6.39821
G1 X106.046 Y103.324 E6.41162
G1 X105.826 Y103.697 E6.42503
G1 X105.582 Y104.056 E6.43844
G1 X105.131 Y104.609 E6.46053
G1 X105.005 Y104.650 F7800.000
G1 X104.214 Y103.911 F7800.000
G1 F1800.000
G1 X103.911 Y104.214 E6.46791
G1 X103.380 Y104.653 E6.47977
G1 X102.799 Y105.022 E6.49163
G1 X102.448 Y105.203 E6.49843
G1 X102.085 Y105.358 E6.50523
G1 X101.430 Y105.570 E6.51709
G1 X100.754 Y105.700 E6.52896
G1 X100.354 Y105.739 E6.53587
G1 X99.967 Y105.750 E6.54255
G1 X99.279 Y105.706 E6.55442
G1 X98.570 Y105.570 E6.56686
G1 X97.895 Y105.352 E6.57907
G1 X97.260 Y105.054 E6.59116
G1 X96.919 Y104.855 E6.59796
G1 X96.593 Y104.632 E6.60476
G1 X96.074 Y104.201 E6.61638
G1 X95.786 Y103.911 E6.62342
G1 X95.347 Y103.380 E6.63528
G1 X94.978 Y102.799 E6.64714
G1 X94.797 Y102.448 E6.65394
G1 X94.642 Y102.085 E6.66074
G1 X94.430 Y101.430 E6.67260
G1 X94.300 Y100.754 E6.68447
G1 X94.261 Y100.354 E6.69138
G1 X94.250 Y99.966 E6.69807
G1 X94.294 Y99.279 E6.70993
G1 X94.430 Y98.570 E6.72237
G1 X94.648 Y97.895 E6.73458
G1 X94.946 Y97.260 E6.74667
G1 X95.145 Y96.919 E6.75347
G1 X95.368 Y96.593 E6.76027
G1 X95.799 Y96.074 E6.77190
G1 X96.089 Y95.786 E6.77893
G1 X96.620 Y95.347 E6.79079
G1 X97.201 Y94.978 E6.80266
G1 X97.552 Y94.797 E6.80946
G1 X97.915 Y94.642 E6.81625
G1 X98.570 Y94.430 E6.82812
G1 X99.246 Y94.300 E6.83998
G1 X99.646 Y94.261 E6.84689
G1 X100.033 Y94.250 E6.85358
G1 X100.721 Y94.294 E6.86544
G1 X101.430 Y94.430 E6.87788
G1 X102.105 Y94.648 E6.89009
G1 X102.740 Y94.946 E6.90218
G1 X103.081 Y95.145 E6.90898
G1 X103.407 Y95.368 E6.91578
G1 X103.926 Y95.799 E6.92741
G1 X104.214 Y96.089 E6.93444
G1 X104.653 Y96.620 E6.94631
G1 X105.022 Y97.201 E6.95817
G1 X105.203 Y97.552 E6.96497
G1 X105.358 Y97.915 E6.97177
G1 X105.570 Y98.570 E6.98363
G1 X105.700 Y99.246 E6.99549
G1 X105.739 Y99.639 E7.00229
G1 X105.750 Y100.034 E7.00909
G1 X105.706 Y100.721 E7.02095
G1 X105.570 Y101.430 E7.03339
G1 X105.352 Y102.105 E7.04561
G1 X105.054 Y102.740 E7.05770
G1 X104.855 Y103.081 E7.06450
G1 X104.632 Y103.407 E7.07130
G1 X104.263 Y103.854 E7.08129
G1 Z0.650 F7800.000
G1 X103.717 Y103.472 F7800.000
G1 F900.000
G1 X103.472 Y103.717 E7.09062
G1 X102.990 Y104.116 E7.10750
G1 X102.462 Y104.451 E7.12438
G1 X102.166 Y104.602 E7.13335
G1 X101.860 Y104.734 E7.14232
G1 X101.265 Y104.927 E7.15920
G1 X100.651 Y105.045 E7.17608
G1 X100.319 Y105.076 E7.18506
G1 X99.987 Y105.086 E7.19403
G1 X99.362 Y105.047 E7.21091
G1 X98.735 Y104.927 E7.22814
G1 X98.127 Y104.730 E7.24538
G1 X97.561 Y104.464 E7.26226
G1 X97.275 Y104.294 E7.27123
G1 X97.000 Y104.107 E7.28021
G1 X96.528 Y103.717 E7.29673
G1 X96.283 Y103.472 E7.30606
G1 X95.884 Y102.990 E7.32294
G1 X95.549 Y102.462 E7.33982
G1 X95.398 Y102.166 E7.34879
G1 X95.266 Y101.860 E7.35776
G1 X95.073 Y101.265 E7.37464
G1 X94.955 Y100.651 E7.39152
G1 X94.924 Y100.319 E7.40050
G1 X94.914 Y99.987 E7.40947
G1 X94.953 Y99.362 E7.42635
G1 X95.073 Y98.735 E7.44358
G1 X95.270 Y98.127 E7.46082
G1 X95.536 Y97.561 E7.47770
