; generated by Slic3r 1.3.1-dev (Build 2ef957d) on 2019-11-25 at 16:25:43

; external perimeters extrusion width = 0.55mm (4.37mm^3/s)
; perimeters extrusion width = 0.70mm (11.44mm^3/s)
; infill extrusion width = 0.62mm (13.45mm^3/s)
; solid infill extrusion width = 0.70mm (3.81mm^3/s)
; top infill extrusion width = 0.70mm (2.86mm^3/s)

M107
G92 E0
M104 S200 ; set temperature
G28 ; home all axes
G1 Z5 F5000 ; lift nozzle

; Filament gcode

M109 S200 ; set temperature and wait for it to be reached
G21 ; set units to millimeters
G90 ; use absolute coordinates
M82 ; use absolute distances for extrusion
G92 E0
G1 Z0.350 F7800.000
G1 E-2.00000 F2400.00000
G92 E0
G1 X78.202 Y77.091 F7800.000
G1 E2.00000 F2400.00000
G1 F1800.000
G1 X78.505 Y76.806 E2.01288
G1 X80.004 Y75.502 E2.07435
G1 X81.245 Y74.540 E2.12294
G1 X82.880 Y73.413 E2.18440
G1 X83.232 Y73.189 E2.19728
G1 X84.948 Y72.190 E2.25875
G1 X86.348 Y71.477 E2.30734
G1 X88.166 Y70.676 E2.36882
G1 X90.030 Y69.990 E2.43028
G1 X91.934 Y69.424 E2.49174
G1 X92.338 Y69.320 E2.50462
G1 X94.279 Y68.899 E2.56609
G1 X95.830 Y68.654 E2.61468
G1 X97.807 Y68.454 E2.67615
G1 X98.222 Y68.428 E2.68903
G1 X100.208 Y68.378 E2.75049
G1 X101.778 Y68.428 E2.79909
G1 X103.757 Y68.602 E2.86056
G1 X104.170 Y68.654 E2.87344
G1 X106.130 Y68.977 E2.93490
G1 X107.662 Y69.320 E2.98349
G1 X109.574 Y69.862 E3.04497
G1 X111.447 Y70.522 E3.10643
G1 X113.275 Y71.299 E3.16789
G1 X113.652 Y71.477 E3.18078
G1 X115.416 Y72.390 E3.24224
G1 X116.768 Y73.189 E3.29083
G1 X118.419 Y74.295 E3.35231
G1 X119.996 Y75.502 E3.41377
G1 X120.317 Y75.768 E3.42664
G1 X121.495 Y76.806 E3.47524
G1 X122.909 Y78.202 E3.53671
G1 X123.194 Y78.505 E3.54959
G1 X124.498 Y80.004 E3.61105
G1 X125.460 Y81.245 E3.65965
G1 X126.587 Y82.880 E3.72110
G1 X126.811 Y83.232 E3.73399
G1 X127.810 Y84.948 E3.79546
G1 X128.701 Y86.725 E3.85693
G1 X129.324 Y88.166 E3.90552
G1 X130.010 Y90.030 E3.96699
G1 X130.576 Y91.934 E4.02845
G1 X130.680 Y92.338 E4.04133
G1 X131.101 Y94.279 E4.10279
G1 X131.398 Y96.243 E4.16426
G1 X131.546 Y97.807 E4.21286
G1 X131.572 Y98.222 E4.22574
G1 X131.622 Y100.208 E4.28720
G1 X131.572 Y101.778 E4.33579
G1 X131.398 Y103.757 E4.39726
G1 X131.346 Y104.170 E4.41014
G1 X131.023 Y106.130 E4.47161
G1 X130.680 Y107.662 E4.52020
G1 X130.138 Y109.574 E4.58167
G1 X129.478 Y111.447 E4.64313
G1 X128.701 Y113.275 E4.70460
G1 X128.523 Y113.652 E4.71748
G1 X127.610 Y115.416 E4.77894
G1 X126.811 Y116.768 E4.82754
G1 X125.705 Y118.419 E4.88901
G1 X124.498 Y119.996 E4.95047
G1 X124.232 Y120.317 E4.96335
G1 X123.194 Y121.495 E5.01194
G1 X121.798 Y122.909 E5.07341
G1 X121.495 Y123.194 E5.08629
G1 X119.996 Y124.498 E5.14776
G1 X118.755 Y125.460 E5.19635
G1 X117.120 Y126.587 E5.25781
G1 X116.768 Y126.811 E5.27070
G1 X115.052 Y127.810 E5.33216
G1 X113.275 Y128.701 E5.39363
G1 X111.834 Y129.324 E5.44223
G1 X109.969 Y130.010 E5.50369
G1 X108.066 Y130.576 E5.56515
G1 X107.662 Y130.680 E5.57804
G1 X105.721 Y131.101 E5.63950
G1 X104.170 Y131.346 E5.68809
G1 X102.193 Y131.546 E5.74956
G1 X101.778 Y131.572 E5.76244
G1 X99.792 Y131.622 E5.82390
G1 X98.222 Y131.572 E5.87250
G1 X96.243 Y131.398 E5.93397
G1 X95.830 Y131.346 E5.94685
G1 X93.870 Y131.023 E6.00831
G1 X92.338 Y130.680 E6.05691
G1 X90.426 Y130.138 E6.11838
G1 X88.553 Y129.478 E6.17984
G1 X86.725 Y128.701 E6.24130
G1 X86.348 Y128.523 E6.25419
G1 X84.584 Y127.610 E6.31565
G1 X83.232 Y126.811 E6.36425
G1 X81.581 Y125.705 E6.42572
G1 X80.004 Y124.498 E6.48718
G1 X79.683 Y124.232 E6.50005
G1 X78.505 Y123.194 E6.54865
G1 X77.091 Y121.798 E6.61012
G1 X76.806 Y121.495 E6.62300
G1 X75.502 Y119.996 E6.68446
G1 X74.540 Y118.755 E6.73306
G1 X73.413 Y117.120 E6.79452
G1 X73.189 Y116.768 E6.80740
G1 X72.190 Y115.052 E6.86887
G1 X71.477 Y113.652 E6.91746
G1 X70.676 Y111.834 E6.97894
G1 X69.990 Y109.970 E7.04040
G1 X69.424 Y108.066 E7.10186
G1 X69.320 Y107.662 E7.11474
G1 X68.899 Y105.721 E7.17621
G1 X68.654 Y104.170 E7.22480
G1 X68.454 Y102.193 E7.28627
G1 X68.428 Y101.778 E7.29915
G1 X68.378 Y99.792 E7.36061
G1 X68.454 Y97.807 E7.42208
G1 X68.602 Y96.243 E7.47067
G1 X68.654 Y95.830 E7.48355
G1 X68.977 Y93.870 E7.54502
G1 X69.320 Y92.338 E7.59361
G1 X69.862 Y90.426 E7.65508
G1 X69.990 Y90.030 E7.66796
G1 X70.676 Y88.166 E7.72942
G1 X71.299 Y86.725 E7.77801
G1 X72.190 Y84.948 E7.83949
G1 X73.189 Y83.232 E7.90095
G1 X73.413 Y82.880 E7.91384
G1 X74.295 Y81.581 E7.96243
G1 X75.502 Y80.004 E8.02389
G1 X76.806 Y78.505 E8.08535
G1 X78.149 Y77.144 E8.14450
G1 E6.14450 F2400.00000
G92 E0
G1 X103.122 Y118.268 F7800.000
G1 E2.00000 F2400.00000
G1 F1800.000
G1 X102.582 Y118.867 E2.02496
G1 X101.929 Y119.342 E2.04992
G1 X101.192 Y119.670 E2.07488
G1 X100.403 Y119.837 E2.09984
G1 X99.597 Y119.837 E2.12480
G1 X98.808 Y119.670 E2.14976
G1 X98.071 Y119.342 E2.17472
G1 X97.418 Y118.867 E2.19968
G1 X96.878 Y118.268 E2.22463
G1 X96.475 Y117.569 E2.24959
G1 X96.226 Y116.802 E2.27455
G1 X96.141 Y116.000 E2.29951
G1 X96.226 Y115.198 E2.32447
G1 X96.475 Y114.431 E2.34943
G1 X96.878 Y113.732 E2.37439
G1 X97.418 Y113.133 E2.39935
G1 X98.071 Y112.658 E2.42431
G1 X98.808 Y112.330 E2.44927
G1 X99.597 Y112.163 E2.47423
G1 X100.403 Y112.163 E2.49919
G1 X101.192 Y112.330 E2.52415
G1 X101.929 Y112.658 E2.54911
G1 X102.582 Y113.133 E2.57407
G1 X103.122 Y113.732 E2.59902
G1 X103.525 Y114.431 E2.62398
G1 X103.774 Y115.198 E2.64894
G1 X103.859 Y116.000 E2.67390
G1 X103.774 Y116.802 E2.69886
G1 X103.525 Y117.569 E2.72382
G1 X103.159 Y118.203 E2.74646
G1 X102.613 Y117.899 F7800.000
G1 F1800.000
G1 X102.161 Y118.401 E2.76735
G1 X101.615 Y118.798 E2.78825
G1 X100.998 Y119.072 E2.80915
G1 X100.338 Y119.213 E2.83004
G1 X99.662 Y119.213 E2.85094
G1 X99.002 Y119.072 E2.87183
G1 X98.385 Y118.798 E2.89273
G1 X97.839 Y118.401 E2.91362
G1 X97.387 Y117.899 E2.93452
G1 X97.049 Y117.314 E2.95541
G1 X96.840 Y116.672 E2.97631
G1 X96.770 Y116.000 E2.99720
G1 X96.840 Y115.328 E3.01810
G1 X97.049 Y114.686 E3.03899
G1 X97.387 Y114.101 E3.05989
G1 X97.839 Y113.599 E3.08078
G1 X98.385 Y113.202 E3.10168
G1 X99.002 Y112.928 E3.12257
G1 X99.662 Y112.787 E3.14347
G1 X100.338 Y112.787 E3.16436
G1 X100.998 Y112.928 E3.18526
G1 X101.615 Y113.202 E3.20615
G1 X102.161 Y113.599 E3.22705
G1 X102.613 Y114.101 E3.24794
G1 X102.951 Y114.686 E3.26883
G1 X103.160 Y115.328 E3.28973
G1 X103.230 Y116.000 E3.31063
G1 X103.160 Y116.672 E3.33152
G1 X102.951 Y117.314 E3.35242
G1 X102.651 Y117.834 E3.37099
G1 X102.105 Y117.529 F7800.000
G1 F1800.000
G1 X101.741 Y117.934 E3.38782
G1 X101.301 Y118.253 E3.40465
G1 X100.804 Y118.475 E3.42148
G1 X100.272 Y118.588 E3.43831
G1 X99.728 Y118.588 E3.45514
G1 X99.196 Y118.475 E3.47197
G1 X98.699 Y118.253 E3.48880
G1 X98.259 Y117.934 E3.50564
G1 X97.895 Y117.529 E3.52247
G1 X97.623 Y117.058 E3.53930
G1 X97.455 Y116.541 E3.55613
G1 X97.398 Y116.000 E3.57296
G1 X97.455 Y115.459 E3.58979
G1 X97.623 Y114.942 E3.60662
G1 X97.895 Y114.471 E3.62345
G1 X98.259 Y114.066 E3.64028
G1 X98.699 Y113.747 E3.65711
G1 X99.196 Y113.525 E3.67394
G1 X99.728 Y113.412 E3.69077
G1 X100.272 Y113.412 E3.70760
G1 X100.804 Y113.525 E3.72443
G1 X101.301 Y113.747 E3.74126
G1 X101.741 Y114.066 E3.75810
G1 X102.105 Y114.471 E3.77493
G1 X102.377 Y114.942 E3.79176
G1 X102.545 Y115.459 E3.80859
G1 X102.602 Y116.000 E3.82542
G1 X102.545 Y116.541 E3.84225
G1 X102.377 Y117.058 E3.85908
G1 X102.143 Y117.464 E3.87359
G1 X102.105 Y117.529 F7800.000
G1 E1.87359 F2400.00000
G92 E0
G1 X100.499 Y104.819 F7800.000
G1 E2.00000 F2400.00000
G1 F1800.000
G1 X100.305 Y104.843 E2.00606
G1 X99.720 Y104.843 E2.02414
G1 X99.392 Y104.812 E2.03434
G1 X99.066 Y104.761 E2.04455
G1 X98.500 Y104.615 E2.06263
G1 X97.957 Y104.400 E2.08070
G1 X97.663 Y104.251 E2.09091
G1 X97.379 Y104.083 E2.10112
G1 X96.907 Y103.739 E2.11919
G1 X96.481 Y103.339 E2.13727
G1 X96.246 Y103.073 E2.14826
G1 X95.917 Y102.621 E2.16555
G1 X95.749 Y102.337 E2.17576
G1 X95.600 Y102.043 E2.18597
G1 X95.385 Y101.500 E2.20405
G1 X95.233 Y100.909 E2.22290
G1 X95.157 Y100.305 E2.24176
G1 X95.157 Y99.720 E2.25984
G1 X95.190 Y99.367 E2.27082
G1 X95.300 Y98.793 E2.28890
G1 X95.480 Y98.238 E2.30698
G1 X95.621 Y97.912 E2.31796
G1 X95.903 Y97.400 E2.33604
G1 X96.246 Y96.927 E2.35412
G1 X96.481 Y96.661 E2.36510
G1 X96.888 Y96.278 E2.38240
G1 X97.149 Y96.076 E2.39261
G1 X97.422 Y95.890 E2.40281
G1 X97.934 Y95.609 E2.42089
G1 X98.477 Y95.394 E2.43897
G1 X98.794 Y95.302 E2.44917
G1 X99.116 Y95.230 E2.45938
G1 X99.695 Y95.157 E2.47746
G1 X100.280 Y95.157 E2.49554
G1 X100.608 Y95.188 E2.50574
G1 X100.934 Y95.239 E2.51595
G1 X101.500 Y95.385 E2.53403
G1 X102.043 Y95.600 E2.55210
G1 X102.337 Y95.749 E2.56231
G1 X102.621 Y95.917 E2.57252
G1 X103.073 Y96.246 E2.58981
G1 X103.339 Y96.481 E2.60080
G1 X103.739 Y96.907 E2.61888
G1 X104.083 Y97.379 E2.63695
G1 X104.251 Y97.663 E2.64716
G1 X104.400 Y97.957 E2.65737
G1 X104.615 Y98.500 E2.67545
G1 X104.767 Y99.091 E2.69430
G1 X104.843 Y99.695 E2.71316
G1 X104.843 Y100.280 E2.73124
G1 X104.810 Y100.633 E2.74222
G1 X104.700 Y101.207 E2.76030
G1 X104.520 Y101.762 E2.77837
G1 X104.379 Y102.088 E2.78936
G1 X104.097 Y102.600 E2.80744
G1 X103.754 Y103.073 E2.82552
G1 X103.519 Y103.339 E2.83650
G1 X103.112 Y103.722 E2.85380
G1 X102.578 Y104.110 E2.87420
G1 X102.066 Y104.391 E2.89228
G1 X101.523 Y104.606 E2.91036
G1 X101.206 Y104.698 E2.92056
G1 X100.884 Y104.770 E2.93077
G1 X100.573 Y104.809 E2.94047
G1 X100.421 Y104.199 F7800.000
G1 F1800.000
G1 X100.265 Y104.218 E2.94531
G1 X99.750 Y104.218 E2.96126
G1 X99.470 Y104.192 E2.96995
G1 X99.193 Y104.148 E2.97864
G1 X98.694 Y104.020 E2.99458
G1 X98.215 Y103.830 E3.01053
G1 X97.964 Y103.703 E3.01922
G1 X97.723 Y103.560 E3.02791
G1 X97.306 Y103.257 E3.04386
G1 X96.930 Y102.904 E3.05980
G1 X96.734 Y102.682 E3.06897
G1 X96.440 Y102.277 E3.08444
G1 X96.297 Y102.036 E3.09313
G1 X96.170 Y101.785 E3.10182
G1 X95.980 Y101.306 E3.11777
G1 X95.848 Y100.792 E3.13419
G1 X95.782 Y100.265 E3.15061
G1 X95.782 Y99.750 E3.16656
G1 X95.809 Y99.455 E3.17572
G1 X95.906 Y98.949 E3.19167
G1 X96.065 Y98.459 E3.20762
G1 X96.183 Y98.187 E3.21678
G1 X96.431 Y97.735 E3.23273
G1 X96.734 Y97.318 E3.24868
G1 X96.930 Y97.096 E3.25784
G1 X97.295 Y96.754 E3.27332
G1 X97.516 Y96.582 E3.28200
G1 X97.749 Y96.424 E3.29069
G1 X98.200 Y96.175 E3.30664
G1 X98.680 Y95.986 E3.32259
G1 X98.949 Y95.907 E3.33128
G1 X99.223 Y95.846 E3.33996
G1 X99.735 Y95.782 E3.35591
G1 X100.250 Y95.782 E3.37186
G1 X100.530 Y95.808 E3.38055
G1 X100.807 Y95.852 E3.38924
G1 X101.306 Y95.980 E3.40518
G1 X101.785 Y96.170 E3.42113
G1 X102.036 Y96.297 E3.42982
G1 X102.277 Y96.440 E3.43851
G1 X102.682 Y96.734 E3.45398
G1 X102.904 Y96.930 E3.46315
G1 X103.257 Y97.306 E3.47909
G1 X103.560 Y97.723 E3.49504
G1 X103.703 Y97.964 E3.50373
G1 X103.830 Y98.215 E3.51242
G1 X104.020 Y98.694 E3.52837
G1 X104.152 Y99.208 E3.54479
G1 X104.218 Y99.735 E3.56121
G1 X104.218 Y100.250 E3.57716
G1 X104.191 Y100.545 E3.58633
G1 X104.094 Y101.051 E3.60227
G1 X103.935 Y101.541 E3.61822
G1 X103.817 Y101.813 E3.62738
G1 X103.569 Y102.265 E3.64333
G1 X103.266 Y102.682 E3.65928
G1 X103.070 Y102.904 E3.66844
G1 X102.705 Y103.246 E3.68392
G1 X102.251 Y103.576 E3.70128
G1 X101.800 Y103.825 E3.71723
G1 X101.320 Y104.014 E3.73318
G1 X101.051 Y104.093 E3.74187
G1 X100.777 Y104.154 E3.75056
G1 X100.495 Y104.189 E3.75934
G1 X100.342 Y103.579 F7800.000
G1 F1800.000
G1 X99.779 Y103.594 E3.77677
G1 X99.549 Y103.572 E3.78394
G1 X99.320 Y103.536 E3.79110
G1 X98.887 Y103.424 E3.80492
G1 X98.472 Y103.260 E3.81874
G1 X98.266 Y103.155 E3.82591
G1 X98.066 Y103.037 E3.83308
G1 X97.705 Y102.774 E3.84690
G1 X97.379 Y102.469 E3.86072
G1 X97.222 Y102.291 E3.86806
G1 X96.963 Y101.934 E3.88171
G1 X96.845 Y101.734 E3.88888
G1 X96.740 Y101.528 E3.89605
G1 X96.576 Y101.113 E3.90987
G1 X96.463 Y100.675 E3.92386
G1 X96.406 Y100.226 E3.93785
G1 X96.406 Y99.779 E3.95167
G1 X96.429 Y99.543 E3.95901
G1 X96.512 Y99.105 E3.97283
G1 X96.650 Y98.680 E3.98665
G1 X96.745 Y98.462 E3.99399
G1 X96.960 Y98.071 E4.00781
G1 X97.222 Y97.709 E4.02163
G1 X97.379 Y97.531 E4.02897
G1 X97.701 Y97.229 E4.04262
G1 X98.075 Y96.957 E4.05695
G1 X98.467 Y96.742 E4.07077
G1 X98.882 Y96.578 E4.08459
G1 X99.105 Y96.513 E4.09176
G1 X99.331 Y96.462 E4.09892
G1 X99.774 Y96.406 E4.11274
G1 X100.221 Y96.406 E4.12656
G1 X100.451 Y96.428 E4.13373
G1 X100.680 Y96.464 E4.14090
G1 X101.113 Y96.576 E4.15472
G1 X101.528 Y96.740 E4.16854
G1 X101.734 Y96.845 E4.17571
G1 X101.934 Y96.963 E4.18288
G1 X102.291 Y97.222 E4.19653
G1 X102.469 Y97.379 E4.20387
G1 X102.774 Y97.705 E4.21769
G1 X103.037 Y98.066 E4.23151
G1 X103.155 Y98.266 E4.23868
G1 X103.260 Y98.472 E4.24584
G1 X103.424 Y98.887 E4.25966
G1 X103.537 Y99.325 E4.27365
G1 X103.594 Y99.774 E4.28765
G1 X103.594 Y100.221 E4.30147
G1 X103.571 Y100.457 E4.30881
G1 X103.488 Y100.895 E4.32263
G1 X103.350 Y101.320 E4.33645
G1 X103.255 Y101.538 E4.34378
G1 X103.040 Y101.929 E4.35760
G1 X102.778 Y102.291 E4.37143
G1 X102.621 Y102.469 E4.37876
G1 X102.299 Y102.771 E4.39241
G1 X101.925 Y103.043 E4.40674
G1 X101.533 Y103.258 E4.42056
G1 X101.118 Y103.422 E4.43438
G1 X100.895 Y103.487 E4.44155
G1 X100.417 Y103.570 E4.45658
G1 X100.298 Y103.687 F7800.000
G1 E2.45658 F2400.00000
G92 E0
G1 X100.342 Y87.837 F7800.000
G1 E2.00000 F2400.00000
G1 F1800.000
G1 X99.597 Y87.837 E2.02307
G1 X98.808 Y87.670 E2.04803
G1 X98.071 Y87.342 E2.07299
G1 X97.418 Y86.867 E2.09795
G1 X96.878 Y86.268 E2.12291
G1 X96.475 Y85.569 E2.14787
G1 X96.226 Y84.802 E2.17283
G1 X96.141 Y84.000 E2.19779
G1 X96.226 Y83.198 E2.22275
G1 X96.475 Y82.431 E2.24771
G1 X96.878 Y81.732 E2.27267
G1 X97.418 Y81.133 E2.29762
G1 X98.071 Y80.658 E2.32258
G1 X98.808 Y80.330 E2.34754
G1 X99.597 Y80.163 E2.37250
G1 X100.403 Y80.163 E2.39746
G1 X101.192 Y80.330 E2.42242
G1 X101.929 Y80.658 E2.44738
G1 X102.582 Y81.133 E2.47234
G1 X103.122 Y81.732 E2.49730
G1 X103.525 Y82.431 E2.52226
G1 X103.774 Y83.198 E2.54722
G1 X103.859 Y84.000 E2.57218
G1 X103.774 Y84.802 E2.59714
G1 X103.525 Y85.569 E2.62210
G1 X103.122 Y86.268 E2.64706
G1 X102.582 Y86.867 E2.67201
G1 X101.929 Y87.342 E2.69698
G1 X101.192 Y87.670 E2.72193
G1 X100.417 Y87.835 E2.74646
G1 X100.338 Y87.213 F7800.000
G1 F1800.000
G1 X99.662 Y87.213 E2.76736
G1 X99.002 Y87.072 E2.78825
G1 X98.385 Y86.798 E2.80914
G1 X97.839 Y86.401 E2.83004
G1 X97.387 Y85.899 E2.85094
G1 X97.049 Y85.314 E2.87183
G1 X96.840 Y84.672 E2.89273
G1 X96.770 Y84.000 E2.91362
G1 X96.840 Y83.328 E2.93451
G1 X97.049 Y82.686 E2.95541
G1 X97.387 Y82.101 E2.97630
G1 X97.839 Y81.599 E2.99720
G1 X98.385 Y81.202 E3.01810
G1 X99.002 Y80.928 E3.03899
G1 X99.662 Y80.787 E3.05989
G1 X100.338 Y80.787 E3.08078
G1 X100.998 Y80.928 E3.10167
G1 X101.615 Y81.202 E3.12257
G1 X102.161 Y81.599 E3.14347
G1 X102.613 Y82.101 E3.16436
G1 X102.951 Y82.686 E3.18525
G1 X103.160 Y83.328 E3.20615
G1 X103.230 Y84.000 E3.22705
G1 X103.160 Y84.672 E3.24794
G1 X102.951 Y85.314 E3.26884
G1 X102.613 Y85.899 E3.28973
G1 X102.161 Y86.401 E3.31062
G1 X101.615 Y86.798 E3.33152
G1 X100.998 Y87.072 E3.35242
G1 X100.411 Y87.197 E3.37099
G1 X100.272 Y86.588 F7800.000
G1 F1800.000
G1 X99.728 Y86.588 E3.38782
G1 X99.196 Y86.475 E3.40465
G1 X98.699 Y86.253 E3.42148
G1 X98.259 Y85.934 E3.43831
G1 X97.895 Y85.529 E3.45514
G1 X97.623 Y85.058 E3.47197
G1 X97.455 Y84.541 E3.48880
G1 X97.398 Y84.000 E3.50564
G1 X97.455 Y83.459 E3.52247
G1 X97.623 Y82.942 E3.53930
G1 X97.895 Y82.471 E3.55613
G1 X98.259 Y82.066 E3.57296
G1 X98.699 Y81.747 E3.58979
G1 X99.196 Y81.525 E3.60662
G1 X99.728 Y81.412 E3.62345
G1 X100.272 Y81.412 E3.64028
G1 X100.804 Y81.525 E3.65711
G1 X101.301 Y81.747 E3.67394
G1 X101.741 Y82.066 E3.69077
G1 X102.105 Y82.471 E3.70760
G1 X102.377 Y82.942 E3.72443
G1 X102.545 Y83.459 E3.74126
G1 X102.602 Y84.000 E3.75809
G1 X102.545 Y84.541 E3.77493
G1 X102.377 Y85.058 E3.79176
G1 X102.105 Y85.529 E3.80859
G1 X101.741 Y85.934 E3.82542
G1 X101.301 Y86.253 E3.84225
G1 X100.804 Y86.475 E3.85908
G1 X100.345 Y86.572 E3.87359
G1 X100.272 Y86.588 F7800.000
G1 E1.87359 F2400.00000
G92 E0
G1 X87.122 Y97.732 F7800.000
G1 E2.00000 F2400.00000
G1 F1800.000
G1 X87.525 Y98.431 E2.02496
G1 X87.774 Y99.198 E2.04992
G1 X87.859 Y100.000 E2.07488
