; generated by Slic3r 1.3.1-dev (Build 2ef957d) on 2019-11-25 at 16:25:52

; external perimeters extrusion width = 0.55mm (4.37mm^3/s)
; perimeters extrusion width = 0.70mm (11.44mm^3/s)
; infill extrusion width = 0.62mm (13.45mm^3/s)
; solid infill extrusion width = 0.70mm (3.81mm^3/s)
; top infill extrusion width = 0.70mm (2.86mm^3/s)

M107
G92 E0
M104 S200 ; set temperature
G28 ; home all axes
G1 Z5 F5000 ; lift nozzle

; Filament gcode

M109 S200 ; set temperature and wait for it to be reached
G21 ; set units to millimeters
G90 ; use absolute coordinates
M82 ; use absolute distances for extrusion
G92 E0
G1 Z0.350 F7800.000
G1 E-2.00000 F2400.00000
G92 E0
G1 X92.509 Y92.680 F7800.000
G1 E2.00000 F2400.00000
G1 F923.290
G1 X93.165 Y92.064 E2.02784
G1 X93.677 Y91.650 E2.04820
G1 X94.213 Y91.270 E2.06855
G1 X94.773 Y90.924 E2.08891
G1 X95.138 Y90.723 E2.10179
G1 X95.952 Y90.340 E2.12962
G1 X96.566 Y90.105 E2.14998
G1 X96.962 Y89.977 E2.16287
G1 X97.833 Y89.753 E2.19069
G1 X98.242 Y89.675 E2.20358
G1 X98.894 Y89.585 E2.22393
G1 X99.792 Y89.528 E2.25177
G1 X100.208 Y89.528 E2.26465
G1 X100.865 Y89.562 E2.28501
G1 X101.758 Y89.675 E2.31284
G1 X102.167 Y89.753 E2.32573
G1 X102.805 Y89.909 E2.34607
G1 X103.661 Y90.187 E2.37392
G1 X104.048 Y90.340 E2.38680
G1 X104.647 Y90.614 E2.40715
G1 X105.435 Y91.047 E2.43499
G1 X105.987 Y91.406 E2.45535
G1 X106.514 Y91.799 E2.47570
G1 X106.835 Y92.064 E2.48858
G1 X107.320 Y92.509 E2.50894
G1 X107.936 Y93.165 E2.53678
G1 X108.350 Y93.677 E2.55715
G1 X108.730 Y94.213 E2.57750
G1 X109.076 Y94.773 E2.59786
G1 X109.277 Y95.138 E2.61074
G1 X109.660 Y95.952 E2.63857
G1 X109.895 Y96.566 E2.65893
G1 X110.023 Y96.962 E2.67181
G1 X110.247 Y97.833 E2.69964
G1 X110.325 Y98.242 E2.71253
G1 X110.415 Y98.894 E2.73288
G1 X110.472 Y99.792 E2.76071
G1 X110.472 Y100.208 E2.77360
G1 X110.438 Y100.865 E2.79395
G1 X110.325 Y101.758 E2.82178
G1 X110.247 Y102.167 E2.83468
G1 X110.091 Y102.805 E2.85502
G1 X109.813 Y103.661 E2.88287
G1 X109.660 Y104.048 E2.89574
G1 X109.386 Y104.647 E2.91610
G1 X108.953 Y105.435 E2.94394
G1 X108.594 Y105.987 E2.96430
G1 X108.201 Y106.514 E2.98465
G1 X107.936 Y106.835 E2.99753
G1 X107.491 Y107.320 E3.01789
G1 X106.835 Y107.936 E3.04573
G1 X106.323 Y108.350 E3.06609
G1 X105.787 Y108.730 E3.08644
G1 X105.227 Y109.076 E3.10680
G1 X104.862 Y109.277 E3.11968
G1 X104.048 Y109.660 E3.14751
G1 X103.434 Y109.895 E3.16787
G1 X103.038 Y110.023 E3.18076
G1 X102.167 Y110.247 E3.20858
G1 X101.758 Y110.325 E3.22147
G1 X101.106 Y110.415 E3.24182
G1 X100.208 Y110.472 E3.26966
G1 X99.792 Y110.472 E3.28254
G1 X99.135 Y110.438 E3.30290
G1 X98.242 Y110.325 E3.33073
G1 X97.833 Y110.247 E3.34362
G1 X97.195 Y110.091 E3.36396
G1 X96.339 Y109.813 E3.39181
G1 X95.952 Y109.660 E3.40469
G1 X95.353 Y109.386 E3.42504
G1 X94.565 Y108.953 E3.45288
G1 X94.013 Y108.594 E3.47324
G1 X93.486 Y108.201 E3.49359
G1 X93.165 Y107.936 E3.50647
G1 X92.680 Y107.491 E3.52683
G1 X92.064 Y106.835 E3.55467
G1 X91.650 Y106.323 E3.57504
G1 X91.270 Y105.787 E3.59539
G1 X90.924 Y105.227 E3.61574
G1 X90.723 Y104.862 E3.62863
G1 X90.340 Y104.048 E3.65646
G1 X90.105 Y103.434 E3.67682
G1 X89.977 Y103.038 E3.68970
G1 X89.753 Y102.167 E3.71752
G1 X89.675 Y101.758 E3.73042
G1 X89.585 Y101.106 E3.75077
G1 X89.528 Y100.208 E3.77861
G1 X89.536 Y99.550 E3.79896
G1 X89.562 Y99.135 E3.81184
G1 X89.675 Y98.242 E3.83967
G1 X89.753 Y97.833 E3.85257
G1 X89.909 Y97.195 E3.87291
G1 X90.187 Y96.338 E3.90076
G1 X90.340 Y95.952 E3.91363
G1 X90.614 Y95.353 E3.93398
G1 X91.047 Y94.565 E3.96183
G1 X91.270 Y94.213 E3.97470
G1 X91.650 Y93.677 E3.99505
G1 X92.064 Y93.165 E4.01542
G1 X92.458 Y92.735 E4.03346
G1 E2.03346 F2400.00000
G92 E0
G1 X102.391 Y102.547 F7800.000
G1 E2.00000 F2400.00000
G1 F1800.000
G1 X102.053 Y102.826 E2.01357
G1 X101.714 Y103.049 E2.02613
G1 X101.283 Y103.256 E2.04091
G1 X100.890 Y103.381 E2.05365
G1 X100.649 Y103.433 E2.06128
G1 X100.252 Y103.486 E2.07368
G1 X99.994 Y103.494 E2.08165
G1 X99.594 Y103.472 E2.09404
G1 X99.339 Y103.434 E2.10201
G1 X99.130 Y103.390 E2.10864
G1 X98.733 Y103.258 E2.12155
G1 X98.322 Y103.064 E2.13562
G1 X98.099 Y102.934 E2.14360
G1 X97.777 Y102.695 E2.15599
G1 X97.583 Y102.526 E2.16396
G1 X97.169 Y102.057 E2.18331
G1 X96.823 Y101.459 E2.20468
G1 X96.679 Y101.085 E2.21707
G1 X96.606 Y100.838 E2.22504
G1 X96.507 Y100.225 E2.24423
G1 X96.534 Y99.540 E2.26543
G1 X96.610 Y99.130 E2.27834
G1 X96.742 Y98.733 E2.29125
G1 X96.936 Y98.322 E2.30533
G1 X97.066 Y98.099 E2.31330
G1 X97.305 Y97.777 E2.32569
G1 X97.474 Y97.583 E2.33366
G1 X97.943 Y97.169 E2.35301
G1 X98.541 Y96.823 E2.37438
G1 X98.915 Y96.679 E2.38677
G1 X99.162 Y96.606 E2.39474
G1 X99.813 Y96.507 E2.41510
G1 X100.470 Y96.536 E2.43545
G1 X101.112 Y96.684 E2.45581
G1 X101.714 Y96.951 E2.47617
G1 X102.227 Y97.300 E2.49536
G1 X102.547 Y97.609 E2.50911
G1 X102.826 Y97.947 E2.52268
G1 X103.049 Y98.286 E2.53524
G1 X103.256 Y98.717 E2.55002
G1 X103.381 Y99.110 E2.56276
G1 X103.433 Y99.351 E2.57039
G1 X103.486 Y99.748 E2.58279
G1 X103.494 Y100.006 E2.59076
G1 X103.464 Y100.470 E2.60516
G1 X103.384 Y100.869 E2.61773
G1 X103.330 Y101.076 E2.62436
G1 X103.159 Y101.493 E2.63828
G1 X103.070 Y101.681 E2.64473
G1 X102.823 Y102.058 E2.65866
G1 X102.700 Y102.227 E2.66511
G1 X102.444 Y102.493 E2.67654
G1 X102.391 Y102.547 F7800.000
G1 Z0.650 F7800.000
G1 X102.391 Y102.547 F7800.000
G1 F600.000
G1 X102.029 Y102.849 E2.68915
G1 X101.683 Y103.061 E2.70000
G1 X101.281 Y103.250 E2.71188
G1 X100.901 Y103.377 E2.72258
G1 X100.650 Y103.436 E2.72947
G1 X100.444 Y103.472 E2.73505
G1 X99.994 Y103.498 E2.74708
G1 X99.786 Y103.493 E2.75266
G1 X99.339 Y103.437 E2.76470
G1 X98.683 Y103.238 E2.78301
G1 X98.322 Y103.064 E2.79372
G1 X98.099 Y102.934 E2.80061
G1 X97.777 Y102.695 E2.81131
G1 X97.583 Y102.526 E2.81820
G1 X97.169 Y102.057 E2.83492
G1 X96.823 Y101.459 E2.85338
G1 X96.679 Y101.085 E2.86409
G1 X96.606 Y100.838 E2.87097
G1 X96.535 Y100.443 E2.88168
G1 X96.509 Y100.191 E2.88846
G1 X96.511 Y99.786 E2.89928
G1 X96.567 Y99.339 E2.91130
G1 X96.610 Y99.130 E2.91703
G1 X96.742 Y98.733 E2.92819
G1 X96.936 Y98.322 E2.94034
G1 X97.066 Y98.099 E2.94723
G1 X97.305 Y97.777 E2.95794
G1 X97.474 Y97.583 E2.96482
G1 X97.943 Y97.169 E2.98154
G1 X98.541 Y96.823 E3.00000
G1 X98.915 Y96.679 E3.01071
G1 X99.162 Y96.606 E3.01760
G1 X99.557 Y96.535 E3.02830
G1 X99.813 Y96.509 E3.03519
G1 X100.214 Y96.513 E3.04590
G1 X100.661 Y96.566 E3.05792
G1 X100.870 Y96.610 E3.06365
G1 X101.267 Y96.742 E3.07480
G1 X101.678 Y96.936 E3.08696
G1 X101.901 Y97.066 E3.09385
G1 X102.223 Y97.305 E3.10456
G1 X102.417 Y97.474 E3.11144
G1 X102.831 Y97.943 E3.12816
G1 X103.177 Y98.541 E3.14662
G1 X103.321 Y98.915 E3.15733
G1 X103.394 Y99.162 E3.16422
G1 X103.465 Y99.557 E3.17492
G1 X103.498 Y100.006 E3.18695
G1 X103.493 Y100.214 E3.19253
G1 X103.434 Y100.661 E3.20456
G1 X103.384 Y100.891 E3.21087
G1 X103.238 Y101.317 E3.22289
G1 X103.064 Y101.678 E3.23360
G1 X102.934 Y101.901 E3.24049
G1 X102.695 Y102.223 E3.25119
G1 X102.445 Y102.494 E3.26106
G1 X102.391 Y102.547 F7800.000
G1 Z0.950 F7800.000
G1 X102.391 Y102.547 F7800.000
G1 F600.000
G1 X102.029 Y102.849 E3.27367
G1 X101.683 Y103.061 E3.28452
G1 X101.281 Y103.250 E3.29640
G1 X100.901 Y103.377 E3.30710
G1 X100.649 Y103.433 E3.31399
G1 X100.252 Y103.486 E3.32470
G1 X99.994 Y103.494 E3.33158
G1 X99.530 Y103.464 E3.34403
G1 X99.131 Y103.384 E3.35489
G1 X98.924 Y103.330 E3.36061
G1 X98.507 Y103.159 E3.37264
G1 X98.286 Y103.049 E3.37924
G1 X97.795 Y102.717 E3.39508
G1 X97.453 Y102.391 E3.40769
G1 X97.174 Y102.053 E3.41941
G1 X96.951 Y101.714 E3.43027
G1 X96.744 Y101.283 E3.44303
G1 X96.561 Y100.650 E3.46063
G1 X96.512 Y100.241 E3.47164
G1 X96.506 Y99.994 E3.47824
G1 X96.536 Y99.530 E3.49069
G1 X96.616 Y99.131 E3.50154
G1 X96.670 Y98.924 E3.50727
G1 X96.841 Y98.507 E3.51930
G1 X96.951 Y98.286 E3.52589
G1 X97.283 Y97.795 E3.54174
G1 X97.609 Y97.453 E3.55435
G1 X97.947 Y97.174 E3.56607
G1 X98.286 Y96.951 E3.57692
G1 X98.717 Y96.744 E3.58969
G1 X99.110 Y96.619 E3.60070
G1 X99.351 Y96.567 E3.60729
G1 X99.748 Y96.514 E3.61800
G1 X100.006 Y96.506 E3.62489
G1 X100.406 Y96.528 E3.63559
G1 X100.661 Y96.566 E3.64248
G1 X100.917 Y96.623 E3.64949
G1 X101.317 Y96.762 E3.66082
G1 X101.678 Y96.936 E3.67152
G1 X101.901 Y97.066 E3.67841
G1 X102.223 Y97.305 E3.68912
G1 X102.547 Y97.609 E3.70099
G1 X102.849 Y97.971 E3.71359
G1 X103.061 Y98.317 E3.72445
G1 X103.250 Y98.719 E3.73632
G1 X103.377 Y99.099 E3.74703
G1 X103.433 Y99.351 E3.75391
G1 X103.486 Y99.748 E3.76462
G1 X103.494 Y100.006 E3.77151
G1 X103.472 Y100.406 E3.78221
G1 X103.434 Y100.661 E3.78910
G1 X103.384 Y100.891 E3.79541
G1 X103.238 Y101.317 E3.80743
G1 X103.064 Y101.678 E3.81814
G1 X102.934 Y101.901 E3.82503
G1 X102.695 Y102.223 E3.83573
G1 X102.445 Y102.494 E3.84560
G1 X102.391 Y102.547 F7800.000
M106 S255
G1 Z1.250 F7800.000
G1 X102.391 Y102.547 F7800.000
G1 F600.000
G1 X102.053 Y102.826 E3.85743
G1 X101.714 Y103.049 E3.86839
G1 X101.283 Y103.256 E3.88127
G1 X100.890 Y103.381 E3.89238
G1 X100.649 Y103.433 E3.89904
G1 X100.252 Y103.486 E3.90984
G1 X99.994 Y103.494 E3.91679
G1 X99.594 Y103.472 E3.92759
G1 X99.339 Y103.434 E3.93455
G1 X99.108 Y103.384 E3.94091
G1 X98.683 Y103.238 E3.95305
G1 X98.322 Y103.064 E3.96385
G1 X98.099 Y102.934 E3.97080
G1 X97.777 Y102.695 E3.98160
G1 X97.453 Y102.391 E3.99358
G1 X97.169 Y102.057 E4.00542
G1 X96.939 Y101.683 E4.01727
G1 X96.823 Y101.459 E4.02406
G1 X96.679 Y101.085 E4.03487
G1 X96.606 Y100.838 E4.04182
G1 X96.534 Y100.438 E4.05277
G1 X96.507 Y100.225 E4.05855
G1 X96.513 Y99.781 E4.07054
G1 X96.569 Y99.340 E4.08252
G1 X96.670 Y98.924 E4.09406
G1 X96.918 Y98.343 E4.11109
G1 X97.300 Y97.773 E4.12958
G1 X97.609 Y97.453 E4.14157
G1 X97.947 Y97.174 E4.15340
G1 X98.286 Y96.951 E4.16435
G1 X98.717 Y96.744 E4.17723
G1 X99.110 Y96.619 E4.18835
G1 X99.562 Y96.534 E4.20076
G1 X99.775 Y96.507 E4.20654
G1 X100.219 Y96.513 E4.21853
G1 X100.660 Y96.569 E4.23051
G1 X101.076 Y96.670 E4.24205
G1 X101.657 Y96.918 E4.25908
G1 X102.227 Y97.300 E4.27757
G1 X102.547 Y97.609 E4.28956
G1 X102.826 Y97.947 E4.30139
G1 X103.049 Y98.286 E4.31234
G1 X103.256 Y98.717 E4.32523
G1 X103.381 Y99.110 E4.33634
G1 X103.433 Y99.351 E4.34299
G1 X103.486 Y99.748 E4.35380
G1 X103.494 Y100.006 E4.36075
G1 X103.464 Y100.470 E4.37331
G1 X103.384 Y100.869 E4.38426
G1 X103.330 Y101.076 E4.39004
G1 X103.159 Y101.493 E4.40218
G1 X103.070 Y101.681 E4.40781
G1 X102.823 Y102.058 E4.41995
G1 X102.700 Y102.227 E4.42557
G1 X102.444 Y102.493 E4.43554
G1 X102.391 Y102.547 F7800.000
G1 Z1.550 F7800.000
G1 X102.391 Y102.547 F7800.000
G1 F600.000
G1 X102.029 Y102.849 E4.44826
G1 X101.683 Y103.061 E4.45922
G1 X101.281 Y103.250 E4.47120
G1 X100.901 Y103.377 E4.48200
G1 X100.649 Y103.433 E4.48895
G1 X100.252 Y103.486 E4.49976
G1 X99.994 Y103.494 E4.50671
G1 X99.594 Y103.472 E4.51751
G1 X99.339 Y103.434 E4.52446
G1 X99.130 Y103.390 E4.53024
G1 X98.733 Y103.258 E4.54150
G1 X98.322 Y103.064 E4.55377
G1 X98.099 Y102.934 E4.56072
G1 X97.777 Y102.695 E4.57152
G1 X97.583 Y102.526 E4.57847
G1 X97.169 Y102.057 E4.59534
G1 X96.823 Y101.459 E4.61397
G1 X96.679 Y101.085 E4.62478
G1 X96.606 Y100.838 E4.63173
G1 X96.507 Y100.225 E4.64845
G1 X96.534 Y99.540 E4.66694
G1 X96.610 Y99.130 E4.67820
G1 X96.742 Y98.733 E4.68945
G1 X96.936 Y98.322 E4.70172
G1 X97.066 Y98.099 E4.70867
G1 X97.305 Y97.777 E4.71948
G1 X97.474 Y97.583 E4.72643
G1 X97.943 Y97.169 E4.74330
G1 X98.541 Y96.823 E4.76193
G1 X98.915 Y96.679 E4.77273
G1 X99.162 Y96.606 E4.77968
G1 X99.775 Y96.507 E4.79641
G1 X100.460 Y96.534 E4.81489
G1 X100.870 Y96.610 E4.82615
G1 X101.267 Y96.742 E4.83741
G1 X101.678 Y96.936 E4.84968
G1 X101.901 Y97.066 E4.85663
G1 X102.223 Y97.305 E4.86743
G1 X102.417 Y97.474 E4.87439
G1 X102.831 Y97.943 E4.89126
G1 X103.177 Y98.541 E4.90989
G1 X103.321 Y98.915 E4.92069
G1 X103.394 Y99.162 E4.92764
G1 X103.465 Y99.557 E4.93844
G1 X103.494 Y100.006 E4.95058
G1 X103.472 Y100.406 E4.96138
G1 X103.434 Y100.661 E4.96833
G1 X103.384 Y100.892 E4.97470
G1 X103.238 Y101.317 E4.98683
G1 X103.064 Y101.678 E4.99764
G1 X102.934 Y101.901 E5.00459
G1 X102.695 Y102.223 E5.01539
G1 X102.445 Y102.494 E5.02535
G1 X102.475 Y102.944 F7800.000
G1 Z1.850 F7800.000
G1 X102.391 Y102.547 F7800.000
G1 F600.000
G1 X102.057 Y102.831 E5.03719
G1 X101.832 Y102.979 E5.04446
G1 X101.503 Y103.157 E5.05454
G1 X101.281 Y103.250 E5.06104
G1 X100.901 Y103.377 E5.07185
G1 X100.649 Y103.433 E5.07880
G1 X100.252 Y103.486 E5.08960
G1 X99.994 Y103.494 E5.09655
G1 X99.530 Y103.464 E5.10912
G1 X99.131 Y103.384 E5.12008
G1 X98.924 Y103.330 E5.12585
G1 X98.507 Y103.159 E5.13800
G1 X98.286 Y103.049 E5.14466
G1 X97.795 Y102.717 E5.16065
G1 X97.453 Y102.391 E5.17337
G1 X97.174 Y102.053 E5.18521
G1 X96.951 Y101.714 E5.19616
G1 X96.758 Y101.307 E5.20830
G1 X96.619 Y100.890 E5.22014
G1 X96.567 Y100.649 E5.22680
G1 X96.514 Y100.252 E5.23761
G1 X96.503 Y99.994 E5.24456
G1 X96.507 Y99.786 E5.25019
G1 X96.563 Y99.339 E5.26234
G1 X96.616 Y99.108 E5.26871
G1 X96.742 Y98.733 E5.27938
G1 X96.936 Y98.322 E5.29165
G1 X97.066 Y98.099 E5.29861
G1 X97.305 Y97.777 E5.30941
G1 X97.474 Y97.583 E5.31636
G1 X97.943 Y97.169 E5.33324
G1 X98.541 Y96.823 E5.35187
G1 X99.141 Y96.611 E5.36903
G1 X99.396 Y96.553 E5.37610
G1 X99.813 Y96.509 E5.38739
G1 X100.433 Y96.527 E5.40412
G1 X100.876 Y96.612 E5.41627
G1 X101.267 Y96.742 E5.42739
G1 X101.678 Y96.936 E5.43966
G1 X101.901 Y97.066 E5.44661
G1 X102.223 Y97.305 E5.45741
G1 X102.417 Y97.474 E5.46437
G1 X102.831 Y97.943 E5.48124
G1 X103.176 Y98.541 E5.49986
G1 X103.321 Y98.915 E5.51068
G1 X103.439 Y99.350 E5.52282
G1 X103.488 Y99.759 E5.53394
G1 X103.494 Y100.006 E5.54060
G1 X103.472 Y100.406 E5.55140
G1 X103.434 Y100.661 E5.55836
G1 X103.384 Y100.891 E5.56472
G1 X103.240 Y101.313 E5.57673
G1 X103.067 Y101.680 E5.58767
G1 X102.837 Y102.048 E5.59937
G1 X102.445 Y102.494 E5.61540
G1 X102.391 Y102.547 F7800.000
G1 Z2.150 F7800.000
G1 X102.391 Y102.547 F7800.000
G1 F600.000
G1 X102.029 Y102.849 E5.62800
G1 X101.683 Y103.061 E5.63886
G1 X101.281 Y103.250 E5.65073
G1 X100.901 Y103.377 E5.66144
G1 X100.649 Y103.433 E5.66832
G1 X100.252 Y103.486 E5.67903
G1 X99.994 Y103.494 E5.68592
G1 X99.594 Y103.472 E5.69662
G1 X99.339 Y103.434 E5.70351
G1 X99.108 Y103.384 E5.70982
G1 X98.683 Y103.238 E5.72184
G1 X98.322 Y103.064 E5.73255
G1 X98.099 Y102.934 E5.73944
G1 X97.777 Y102.695 E5.75014
G1 X97.453 Y102.391 E5.76202
G1 X97.151 Y102.029 E5.77462
G1 X96.939 Y101.683 E5.78548
G1 X96.750 Y101.281 E5.79735
G1 X96.623 Y100.901 E5.80805
G1 X96.567 Y100.649 E5.81494
G1 X96.514 Y100.252 E5.82565
G1 X96.506 Y99.994 E5.83254
G1 X96.536 Y99.530 E5.84498
G1 X96.616 Y99.131 E5.85584
G1 X96.670 Y98.924 E5.86156
G1 X96.841 Y98.507 E5.87359
G1 X96.951 Y98.286 E5.88019
G1 X97.283 Y97.795 E5.89603
G1 X97.609 Y97.453 E5.90864
G1 X97.947 Y97.174 E5.92036
G1 X98.286 Y96.951 E5.93122
G1 X98.717 Y96.744 E5.94398
G1 X99.110 Y96.619 E5.95499
G1 X99.351 Y96.567 E5.96159
G1 X99.748 Y96.514 E5.97230
G1 X100.006 Y96.506 E5.97918
G1 X100.406 Y96.528 E5.98989
G1 X100.661 Y96.566 E5.99678
G1 X100.891 Y96.616 E6.00309
G1 X101.317 Y96.762 E6.01511
G1 X101.678 Y96.936 E6.02582
G1 X101.901 Y97.066 E6.03270
G1 X102.223 Y97.305 E6.04341
G1 X102.547 Y97.609 E6.05528
G1 X102.849 Y97.971 E6.06789
G1 X103.061 Y98.317 E6.07874
G1 X103.250 Y98.719 E6.09061
G1 X103.377 Y99.099 E6.10132
G1 X103.433 Y99.351 E6.10821
G1 X103.486 Y99.748 E6.11891
G1 X103.494 Y100.006 E6.12580
G1 X103.472 Y100.406 E6.13651
G1 X103.434 Y100.661 E6.14340
G1 X103.384 Y100.891 E6.14971
G1 X103.238 Y101.317 E6.16173
G1 X103.064 Y101.678 E6.17243
G1 X102.934 Y101.901 E6.17932
G1 X102.695 Y102.223 E6.19003
G1 X102.445 Y102.494 E6.19990
G1 X102.391 Y102.547 F7800.000
G1 Z2.450 F7800.000
G1 X102.391 Y102.547 F7800.000
G1 F600.000
G1 X102.029 Y102.849 E6.21250
G1 X101.683 Y103.061 E6.22336
G1 X101.281 Y103.250 E6.23523
G1 X100.901 Y103.377 E6.24594
G1 X100.649 Y103.433 E6.25282
G1 X100.252 Y103.486 E6.26353
G1 X99.994 Y103.494 E6.27042
G1 X99.594 Y103.472 E6.28112
G1 X99.339 Y103.434 E6.28801
G1 X99.108 Y103.384 E6.29432
G1 X98.683 Y103.238 E6.30634
G1 X98.322 Y103.064 E6.31705
