; generated by Slic3r 1.3.1-dev (Build 2ef957d) on 2019-11-25 at 16:25:35

; external perimeters extrusion width = 0.55mm (4.37mm^3/s)
; perimeters extrusion width = 0.70mm (11.44mm^3/s)
; infill extrusion width = 0.62mm (13.45mm^3/s)
; solid infill extrusion width = 0.70mm (3.81mm^3/s)
; top infill extrusion width = 0.70mm (2.86mm^3/s)

M107
G92 E0
M104 S200 ; set temperature
G28 ; home all axes
G1 Z5 F5000 ; lift nozzle

; Filament gcode

M109 S200 ; set temperature and wait for it to be reached
G21 ; set units to millimeters
G90 ; use absolute coordinates
M82 ; use absolute distances for extrusion
G92 E0
G1 Z0.350 F7800.000
G1 E-2.00000 F2400.00000
G92 E0
G1 X72.443 Y72.162 F7800.000
G1 E2.00000 F2400.00000
G1 F1800.000
G1 X73.143 Y71.583 E2.02812
G1 X73.846 Y71.137 E2.05386
G1 X74.632 Y70.765 E2.08079
G1 X75.496 Y70.484 E2.10891
G1 X76.314 Y70.328 E2.13465
G1 X77.182 Y70.271 E2.16158
G1 X122.818 Y70.271 E3.57362
G1 X123.686 Y70.328 E3.60054
G1 X124.504 Y70.484 E3.62629
G1 X125.368 Y70.765 E3.65441
G1 X126.154 Y71.137 E3.68133
G1 X126.857 Y71.583 E3.70708
G1 X127.557 Y72.162 E3.73520
G1 X128.151 Y72.798 E3.76212
G1 X128.640 Y73.471 E3.78786
G1 X129.078 Y74.268 E3.81598
G1 X129.384 Y75.041 E3.84173
G1 X129.603 Y75.884 E3.86867
G1 X129.717 Y76.785 E3.89677
G1 X129.730 Y77.201 E3.90965
G1 X129.730 Y122.799 E5.32050
G1 X129.714 Y123.253 E5.33457
G1 X129.603 Y124.116 E5.36148
G1 X129.396 Y124.922 E5.38723
G1 X129.078 Y125.732 E5.41417
G1 X128.640 Y126.529 E5.44228
G1 X128.151 Y127.202 E5.46803
G1 X127.557 Y127.838 E5.49495
G1 X126.857 Y128.417 E5.52307
G1 X126.154 Y128.863 E5.54881
G1 X125.368 Y129.235 E5.57573
G1 X124.504 Y129.516 E5.60386
G1 X123.686 Y129.672 E5.62960
G1 X122.818 Y129.729 E5.65653
G1 X77.182 Y129.729 E7.06857
G1 X76.352 Y129.677 E7.09431
G1 X75.496 Y129.516 E7.12123
G1 X74.632 Y129.235 E7.14936
G1 X73.879 Y128.881 E7.17510
G1 X73.143 Y128.417 E7.20202
G1 X72.443 Y127.838 E7.23014
G1 X71.849 Y127.202 E7.25707
G1 X71.360 Y126.529 E7.28282
G1 X70.922 Y125.732 E7.31094
G1 X70.616 Y124.959 E7.33668
G1 X70.397 Y124.116 E7.36360
G1 X70.286 Y123.253 E7.39053
G1 X70.270 Y122.799 E7.40460
G1 X70.270 Y77.201 E8.81545
G1 X70.283 Y76.785 E8.82833
G1 X70.397 Y75.884 E8.85644
G1 X70.616 Y75.042 E8.88337
G1 X70.922 Y74.268 E8.90912
G1 X71.360 Y73.471 E8.93723
G1 X71.849 Y72.798 E8.96297
G1 X72.392 Y72.217 E8.98758
G1 E6.98758 F2400.00000
G92 E0
G1 X117.173 Y116.980 F7800.000
G1 E2.00000 F2400.00000
G1 F1800.000
G1 X116.775 Y117.354 E2.01692
G1 X116.332 Y117.675 E2.03383
G1 X115.853 Y117.939 E2.05074
G1 X115.345 Y118.140 E2.06766
G1 X114.816 Y118.276 E2.08457
G1 X114.273 Y118.344 E2.10148
G1 X113.727 Y118.344 E2.11840
G1 X113.184 Y118.276 E2.13531
G1 X112.655 Y118.140 E2.15223
G1 X112.147 Y117.939 E2.16914
G1 X111.668 Y117.675 E2.18606
G1 X111.225 Y117.354 E2.20296
G1 X110.827 Y116.980 E2.21988
G1 X110.478 Y116.558 E2.23680
G1 X110.186 Y116.097 E2.25371
G1 X109.953 Y115.602 E2.27062
G1 X109.784 Y115.083 E2.28754
G1 X109.681 Y114.546 E2.30445
G1 X109.647 Y114.000 E2.32137
G1 X109.681 Y113.454 E2.33828
G1 X109.784 Y112.917 E2.35519
G1 X109.953 Y112.398 E2.37211
G1 X110.186 Y111.903 E2.38902
G1 X110.478 Y111.442 E2.40593
G1 X110.827 Y111.020 E2.42285
G1 X111.225 Y110.646 E2.43977
G1 X111.668 Y110.325 E2.45667
G1 X112.147 Y110.061 E2.47359
G1 X112.655 Y109.860 E2.49051
G1 X113.184 Y109.724 E2.50742
G1 X113.727 Y109.656 E2.52433
G1 X114.273 Y109.656 E2.54125
G1 X114.816 Y109.724 E2.55816
G1 X115.345 Y109.860 E2.57507
G1 X115.853 Y110.061 E2.59199
G1 X116.332 Y110.325 E2.60891
G1 X116.775 Y110.646 E2.62581
G1 X117.173 Y111.020 E2.64273
G1 X117.522 Y111.442 E2.65965
G1 X117.814 Y111.903 E2.67656
G1 X118.047 Y112.398 E2.69347
G1 X118.216 Y112.917 E2.71039
G1 X118.319 Y113.454 E2.72730
G1 X118.353 Y114.000 E2.74421
G1 X118.319 Y114.546 E2.76113
G1 X118.216 Y115.083 E2.77804
G1 X118.047 Y115.602 E2.79496
G1 X117.814 Y116.097 E2.81187
G1 X117.522 Y116.558 E2.82878
G1 X117.221 Y116.922 E2.84338
G1 X116.717 Y116.551 F7800.000
G1 F1800.000
G1 X116.375 Y116.872 E2.85786
G1 X115.997 Y117.147 E2.87234
G1 X115.587 Y117.372 E2.88682
G1 X115.152 Y117.544 E2.90130
G1 X114.698 Y117.661 E2.91578
G1 X114.234 Y117.719 E2.93026
G1 X113.766 Y117.719 E2.94475
G1 X113.302 Y117.661 E2.95923
G1 X112.848 Y117.544 E2.97371
G1 X112.413 Y117.372 E2.98819
G1 X112.003 Y117.147 E3.00267
G1 X111.624 Y116.872 E3.01715
G1 X111.283 Y116.551 E3.03163
G1 X110.985 Y116.190 E3.04612
G1 X110.734 Y115.795 E3.06059
G1 X110.535 Y115.372 E3.07507
G1 X110.390 Y114.927 E3.08956
G1 X110.303 Y114.467 E3.10404
G1 X110.273 Y114.000 E3.11852
G1 X110.303 Y113.533 E3.13300
G1 X110.390 Y113.073 E3.14748
G1 X110.535 Y112.628 E3.16196
G1 X110.734 Y112.205 E3.17644
G1 X110.985 Y111.810 E3.19092
G1 X111.283 Y111.449 E3.20540
G1 X111.624 Y111.128 E3.21989
G1 X112.003 Y110.853 E3.23437
G1 X112.413 Y110.628 E3.24885
G1 X112.848 Y110.456 E3.26333
G1 X113.302 Y110.339 E3.27781
G1 X113.766 Y110.281 E3.29229
G1 X114.234 Y110.281 E3.30677
G1 X114.698 Y110.339 E3.32125
G1 X115.152 Y110.456 E3.33573
G1 X115.587 Y110.628 E3.35022
G1 X115.997 Y110.853 E3.36470
G1 X116.376 Y111.128 E3.37918
G1 X116.717 Y111.449 E3.39366
G1 X117.015 Y111.810 E3.40814
G1 X117.266 Y112.205 E3.42262
G1 X117.465 Y112.628 E3.43710
G1 X117.610 Y113.073 E3.45158
G1 X117.697 Y113.533 E3.46606
G1 X117.727 Y114.000 E3.48054
G1 X117.697 Y114.467 E3.49503
G1 X117.610 Y114.927 E3.50951
G1 X117.465 Y115.372 E3.52399
G1 X117.266 Y115.795 E3.53847
G1 X117.015 Y116.190 E3.55295
G1 X116.765 Y116.493 E3.56511
G1 X116.260 Y116.123 F7800.000
G1 F1800.000
G1 X115.976 Y116.389 E3.57716
G1 X115.661 Y116.618 E3.58921
G1 X115.320 Y116.806 E3.60126
G1 X114.958 Y116.949 E3.61330
G1 X114.581 Y117.046 E3.62535
G1 X114.195 Y117.095 E3.63740
G1 X113.805 Y117.095 E3.64945
G1 X113.419 Y117.046 E3.66150
G1 X113.042 Y116.949 E3.67354
G1 X112.680 Y116.806 E3.68559
G1 X112.339 Y116.618 E3.69764
G1 X112.024 Y116.389 E3.70969
G1 X111.740 Y116.123 E3.72174
G1 X111.491 Y115.823 E3.73379
G1 X111.283 Y115.494 E3.74583
G1 X111.117 Y115.141 E3.75788
G1 X110.997 Y114.771 E3.76993
G1 X110.924 Y114.389 E3.78198
G1 X110.899 Y114.000 E3.79403
G1 X110.924 Y113.611 E3.80608
G1 X110.997 Y113.229 E3.81812
G1 X111.117 Y112.859 E3.83017
G1 X111.283 Y112.506 E3.84222
G1 X111.491 Y112.177 E3.85427
G1 X111.740 Y111.877 E3.86631
G1 X112.024 Y111.611 E3.87836
G1 X112.339 Y111.382 E3.89041
G1 X112.680 Y111.194 E3.90246
G1 X113.042 Y111.051 E3.91451
G1 X113.419 Y110.954 E3.92656
G1 X113.805 Y110.905 E3.93860
G1 X114.195 Y110.905 E3.95065
G1 X114.581 Y110.954 E3.96270
G1 X114.958 Y111.051 E3.97475
G1 X115.320 Y111.194 E3.98680
G1 X115.661 Y111.382 E3.99885
G1 X115.976 Y111.611 E4.01089
G1 X116.260 Y111.877 E4.02294
G1 X116.509 Y112.177 E4.03499
G1 X116.717 Y112.506 E4.04704
G1 X116.883 Y112.859 E4.05909
G1 X117.003 Y113.229 E4.07113
G1 X117.076 Y113.611 E4.08318
G1 X117.101 Y114.000 E4.09523
G1 X117.076 Y114.389 E4.10728
G1 X117.003 Y114.771 E4.11933
G1 X116.883 Y115.141 E4.13137
G1 X116.717 Y115.494 E4.14342
G1 X116.509 Y115.823 E4.15547
G1 X116.308 Y116.065 E4.16520
G1 X116.260 Y116.123 F7800.000
G1 E2.16520 F2400.00000
G92 E0
G1 X90.322 Y114.490 F7800.000
G1 E2.00000 F2400.00000
G1 F1800.000
G1 X90.216 Y115.083 E2.01864
G1 X90.047 Y115.602 E2.03555
G1 X89.814 Y116.097 E2.05246
G1 X89.522 Y116.558 E2.06937
G1 X89.173 Y116.980 E2.08629
G1 X88.775 Y117.354 E2.10321
G1 X88.332 Y117.675 E2.12012
G1 X87.853 Y117.939 E2.13703
G1 X87.345 Y118.140 E2.15395
G1 X86.816 Y118.276 E2.17086
G1 X86.273 Y118.344 E2.18777
G1 X85.727 Y118.344 E2.20469
G1 X85.184 Y118.276 E2.22161
G1 X84.655 Y118.140 E2.23852
G1 X84.147 Y117.939 E2.25543
G1 X83.668 Y117.675 E2.27235
G1 X83.225 Y117.354 E2.28926
G1 X82.827 Y116.980 E2.30617
G1 X82.478 Y116.558 E2.32309
G1 X82.186 Y116.097 E2.34000
G1 X81.953 Y115.602 E2.35691
G1 X81.784 Y115.083 E2.37383
G1 X81.681 Y114.546 E2.39074
G1 X81.647 Y114.000 E2.40766
G1 X81.681 Y113.454 E2.42457
G1 X81.784 Y112.917 E2.44149
G1 X81.953 Y112.398 E2.45840
G1 X82.186 Y111.903 E2.47531
G1 X82.478 Y111.442 E2.49222
G1 X82.827 Y111.020 E2.50914
G1 X83.225 Y110.646 E2.52606
G1 X83.668 Y110.325 E2.54297
G1 X84.147 Y110.061 E2.55988
G1 X84.655 Y109.860 E2.57680
G1 X85.184 Y109.724 E2.59371
G1 X85.727 Y109.656 E2.61062
G1 X86.273 Y109.656 E2.62754
G1 X86.816 Y109.724 E2.64446
G1 X87.345 Y109.860 E2.66137
G1 X87.853 Y110.061 E2.67828
G1 X88.332 Y110.325 E2.69520
G1 X88.775 Y110.646 E2.71211
G1 X89.173 Y111.020 E2.72902
G1 X89.522 Y111.442 E2.74594
G1 X89.814 Y111.903 E2.76285
G1 X90.047 Y112.398 E2.77976
G1 X90.216 Y112.917 E2.79668
G1 X90.319 Y113.454 E2.81359
G1 X90.353 Y114.000 E2.83051
G1 X90.327 Y114.415 E2.84337
G1 X89.698 Y114.450 F7800.000
G1 F1800.000
G1 X89.610 Y114.927 E2.85836
G1 X89.465 Y115.372 E2.87284
G1 X89.266 Y115.795 E2.88732
G1 X89.015 Y116.190 E2.90180
G1 X88.717 Y116.551 E2.91629
G1 X88.376 Y116.872 E2.93077
G1 X87.997 Y117.147 E2.94525
G1 X87.587 Y117.372 E2.95973
G1 X87.152 Y117.544 E2.97421
G1 X86.698 Y117.661 E2.98869
G1 X86.234 Y117.719 E3.00317
G1 X85.766 Y117.719 E3.01765
G1 X85.302 Y117.661 E3.03214
G1 X84.848 Y117.544 E3.04662
G1 X84.413 Y117.372 E3.06110
G1 X84.003 Y117.147 E3.07558
G1 X83.624 Y116.872 E3.09006
G1 X83.283 Y116.551 E3.10454
G1 X82.985 Y116.190 E3.11902
G1 X82.734 Y115.795 E3.13350
G1 X82.535 Y115.372 E3.14798
G1 X82.390 Y114.927 E3.16246
G1 X82.303 Y114.467 E3.17694
G1 X82.273 Y114.000 E3.19143
G1 X82.303 Y113.533 E3.20591
G1 X82.390 Y113.073 E3.22039
G1 X82.535 Y112.628 E3.23487
G1 X82.734 Y112.205 E3.24935
G1 X82.985 Y111.810 E3.26383
G1 X83.283 Y111.449 E3.27831
G1 X83.624 Y111.128 E3.29280
G1 X84.003 Y110.853 E3.30727
G1 X84.413 Y110.628 E3.32176
G1 X84.848 Y110.456 E3.33624
G1 X85.302 Y110.339 E3.35072
G1 X85.766 Y110.281 E3.36520
G1 X86.234 Y110.281 E3.37968
G1 X86.698 Y110.339 E3.39416
G1 X87.152 Y110.456 E3.40864
G1 X87.587 Y110.628 E3.42312
G1 X87.997 Y110.853 E3.43761
G1 X88.376 Y111.128 E3.45208
G1 X88.717 Y111.449 E3.46657
G1 X89.015 Y111.810 E3.48105
G1 X89.266 Y112.205 E3.49553
G1 X89.465 Y112.628 E3.51001
G1 X89.610 Y113.073 E3.52449
G1 X89.697 Y113.533 E3.53897
G1 X89.727 Y114.000 E3.55345
G1 X89.703 Y114.375 E3.56509
G1 X89.076 Y114.389 F7800.000
G1 F1800.000
G1 X89.003 Y114.771 E3.57714
G1 X88.883 Y115.141 E3.58919
G1 X88.717 Y115.494 E3.60124
G1 X88.509 Y115.823 E3.61328
G1 X88.260 Y116.123 E3.62533
G1 X87.976 Y116.389 E3.63738
G1 X87.661 Y116.618 E3.64943
G1 X87.320 Y116.806 E3.66148
G1 X86.958 Y116.949 E3.67353
G1 X86.581 Y117.046 E3.68557
G1 X86.195 Y117.095 E3.69762
G1 X85.805 Y117.095 E3.70967
G1 X85.419 Y117.046 E3.72172
G1 X85.042 Y116.949 E3.73377
G1 X84.680 Y116.806 E3.74582
G1 X84.339 Y116.618 E3.75786
G1 X84.024 Y116.389 E3.76991
G1 X83.740 Y116.123 E3.78196
G1 X83.491 Y115.823 E3.79401
G1 X83.283 Y115.494 E3.80606
G1 X83.117 Y115.141 E3.81811
G1 X82.997 Y114.771 E3.83015
G1 X82.924 Y114.389 E3.84220
G1 X82.899 Y114.000 E3.85425
G1 X82.924 Y113.611 E3.86630
G1 X82.997 Y113.229 E3.87835
G1 X83.117 Y112.859 E3.89039
G1 X83.283 Y112.506 E3.90244
G1 X83.491 Y112.177 E3.91449
G1 X83.740 Y111.877 E3.92654
G1 X84.024 Y111.611 E3.93859
G1 X84.339 Y111.382 E3.95063
G1 X84.680 Y111.194 E3.96268
G1 X85.042 Y111.051 E3.97473
G1 X85.419 Y110.954 E3.98678
G1 X85.805 Y110.905 E3.99883
G1 X86.195 Y110.905 E4.01088
G1 X86.581 Y110.954 E4.02292
G1 X86.958 Y111.051 E4.03497
G1 X87.320 Y111.194 E4.04702
G1 X87.661 Y111.382 E4.05907
G1 X87.976 Y111.611 E4.07112
G1 X88.260 Y111.877 E4.08317
G1 X88.509 Y112.177 E4.09521
G1 X88.717 Y112.506 E4.10726
G1 X88.883 Y112.859 E4.11931
G1 X89.003 Y113.229 E4.13136
G1 X89.076 Y113.611 E4.14340
G1 X89.101 Y114.000 E4.15545
G1 X89.081 Y114.314 E4.16518
G1 X89.076 Y114.389 F7800.000
G1 E2.16518 F2400.00000
G92 E0
G1 X91.126 Y111.567 F7800.000
G1 E2.00000 F2400.00000
G1 F1800.000
G1 X90.692 Y111.252 E2.01661
G1 X89.355 Y109.996 E2.07335
G1 X88.186 Y108.583 E2.13009
G1 X87.203 Y107.035 E2.18684
G1 X86.423 Y105.376 E2.24358
G1 X85.856 Y103.632 E2.30032
G1 X85.512 Y101.830 E2.35706
G1 X85.397 Y100.000 E2.41380
G1 X85.512 Y98.170 E2.47055
G1 X85.856 Y96.368 E2.52729
G1 X86.423 Y94.624 E2.58403
G1 X87.203 Y92.965 E2.64077
G1 X88.186 Y91.417 E2.69751
G1 X89.355 Y90.004 E2.75425
G1 X90.692 Y88.748 E2.81100
G1 X92.175 Y87.670 E2.86774
G1 X93.782 Y86.787 E2.92448
G1 X95.487 Y86.112 E2.98122
G1 X97.264 Y85.656 E3.03796
G1 X99.083 Y85.426 E3.09471
G1 X100.917 Y85.426 E3.15145
G1 X102.736 Y85.656 E3.20819
G1 X104.513 Y86.112 E3.26493
G1 X106.218 Y86.787 E3.32167
G1 X107.825 Y87.670 E3.37841
G1 X109.308 Y88.748 E3.43516
G1 X110.645 Y90.004 E3.49190
G1 X111.814 Y91.417 E3.54864
G1 X112.797 Y92.965 E3.60538
G1 X113.577 Y94.624 E3.66212
G1 X114.144 Y96.368 E3.71887
G1 X114.488 Y98.170 E3.77561
G1 X114.603 Y100.000 E3.83235
G1 X114.488 Y101.830 E3.88909
G1 X114.144 Y103.632 E3.94583
G1 X113.577 Y105.376 E4.00257
G1 X112.797 Y107.035 E4.05932
G1 X111.814 Y108.583 E4.11606
G1 X110.645 Y109.996 E4.17280
G1 X109.308 Y111.252 E4.22954
G1 X107.825 Y112.330 E4.28628
G1 X106.218 Y113.213 E4.34303
G1 X104.513 Y113.888 E4.39977
G1 X102.736 Y114.344 E4.45651
G1 X100.917 Y114.574 E4.51325
G1 X99.083 Y114.574 E4.56999
G1 X97.264 Y114.344 E4.62673
G1 X95.487 Y113.888 E4.68348
G1 X93.782 Y113.213 E4.74022
G1 X92.175 Y112.330 E4.79696
G1 X91.187 Y111.611 E4.83477
G1 X91.493 Y111.062 F7800.000
G1 F1800.000
G1 X91.091 Y110.769 E4.85016
G1 X89.811 Y109.568 E4.90447
G1 X88.693 Y108.215 E4.95878
G1 X87.752 Y106.733 E5.01309
G1 X87.005 Y105.145 E5.06740
G1 X86.462 Y103.476 E5.12171
G1 X86.133 Y101.752 E5.17602
G1 X86.023 Y100.000 E5.23033
G1 X86.133 Y98.248 E5.28464
G1 X86.462 Y96.524 E5.33895
G1 X87.005 Y94.855 E5.39325
G1 X87.752 Y93.267 E5.44756
G1 X88.693 Y91.785 E5.50187
G1 X89.811 Y90.432 E5.55618
G1 X91.091 Y89.231 E5.61049
G1 X92.511 Y88.199 E5.66480
G1 X94.049 Y87.353 E5.71911
G1 X95.681 Y86.707 E5.77342
G1 X97.381 Y86.271 E5.82773
G1 X99.122 Y86.051 E5.88203
G1 X100.878 Y86.051 E5.93634
G1 X102.619 Y86.271 E5.99065
G1 X104.319 Y86.707 E6.04496
G1 X105.951 Y87.353 E6.09927
G1 X107.489 Y88.199 E6.15358
G1 X108.909 Y89.231 E6.20789
G1 X110.189 Y90.432 E6.26220
G1 X111.307 Y91.785 E6.31650
G1 X112.248 Y93.267 E6.37081
G1 X112.995 Y94.855 E6.42512
G1 X113.538 Y96.524 E6.47943
G1 X113.867 Y98.248 E6.53374
G1 X113.977 Y100.000 E6.58805
G1 X113.867 Y101.752 E6.64236
G1 X113.538 Y103.476 E6.69667
G1 X112.995 Y105.145 E6.75098
G1 X112.248 Y106.733 E6.80529
G1 X111.307 Y108.215 E6.85960
G1 X110.189 Y109.568 E6.91390
G1 X108.909 Y110.769 E6.96821
G1 X107.489 Y111.801 E7.02252
G1 X105.951 Y112.647 E7.07683
G1 X104.319 Y113.293 E7.13114
G1 X102.619 Y113.729 E7.18545
G1 X100.878 Y113.949 E7.23976
G1 X99.122 Y113.949 E7.29407
G1 X97.381 Y113.729 E7.34837
G1 X95.681 Y113.293 E7.40268
G1 X94.049 Y112.647 E7.45699
G1 X92.511 Y111.801 E7.51130
G1 X91.554 Y111.106 E7.54789
G1 X91.861 Y110.556 F7800.000
G1 F1800.000
G1 X91.490 Y110.287 E7.56207
G1 X90.268 Y109.139 E7.61395
G1 X89.199 Y107.847 E7.66582
G1 X88.301 Y106.432 E7.71770
G1 X87.587 Y104.915 E7.76958
G1 X87.069 Y103.320 E7.82145
G1 X86.755 Y101.673 E7.87333
G1 X86.649 Y100.000 E7.92521
G1 X86.755 Y98.327 E7.97708
G1 X87.069 Y96.680 E8.02896
G1 X87.587 Y95.085 E8.08083
G1 X88.301 Y93.568 E8.13271
G1 X89.199 Y92.153 E8.18459
G1 X90.268 Y90.861 E8.23646
G1 X91.490 Y89.713 E8.28834
G1 X92.846 Y88.728 E8.34021
G1 X94.316 Y87.920 E8.39209
G1 X95.874 Y87.303 E8.44397
G1 X97.498 Y86.886 E8.49584
G1 X99.162 Y86.676 E8.54772
G1 X100.838 Y86.676 E8.59959
G1 X102.502 Y86.886 E8.65147
G1 X104.126 Y87.303 E8.70335
G1 X105.684 Y87.920 E8.75522
G1 X107.154 Y88.728 E8.80710
G1 X108.510 Y89.713 E8.85897
G1 X109.732 Y90.861 E8.91085
G1 X110.801 Y92.153 E8.96273
G1 X111.699 Y93.568 E9.01460
G1 X112.413 Y95.085 E9.06648
G1 X112.931 Y96.680 E9.11835
G1 X113.245 Y98.327 E9.17023
G1 X113.351 Y100.000 E9.22211
G1 X113.245 Y101.673 E9.27398
G1 X112.931 Y103.320 E9.32586
G1 X112.413 Y104.915 E9.37773
G1 X111.699 Y106.432 E9.42961
G1 X110.801 Y107.847 E9.48149
G1 X109.732 Y109.139 E9.53336
G1 X108.510 Y110.287 E9.58524
G1 X107.154 Y111.272 E9.63711
G1 X105.684 Y112.080 E9.68899
