; generated by Slic3r 1.3.1-dev (Build 2ef957d) on 2019-11-25 at 16:25:53

; external perimeters extrusion width = 0.55mm (4.37mm^3/s)
; perimeters extrusion width = 0.70mm (11.44mm^3/s)
; infill extrusion width = 0.62mm (13.45mm^3/s)
; solid infill extrusion width = 0.70mm (3.81mm^3/s)
; top infill extrusion width = 0.70mm (2.86mm^3/s)

M107
G92 E0
M104 S200 ; set temperature
G28 ; home all axes
G1 Z5 F5000 ; lift nozzle

; Filament gcode

M109 S200 ; set temperature and wait for it to be reached
G21 ; set units to millimeters
G90 ; use absolute coordinates
M82 ; use absolute distances for extrusion
G92 E0
G1 Z0.350 F7800.000
G1 E-2.00000 F2400.00000
G92 E0
G1 X44.915 Y38.253 F7800.000
G1 E2.00000 F2400.00000
G1 F1800.000
G1 X46.668 Y36.774 E2.07096
G1 X48.820 Y35.981 E2.14192
G1 X50.000 Y35.875 E2.17858
G1 X150.000 Y35.875 E5.27271
G1 X152.259 Y36.272 E5.34367
G1 X154.247 Y37.415 E5.41463
G1 X155.726 Y39.168 E5.48559
G1 X156.519 Y41.320 E5.55656
G1 X156.625 Y42.500 E5.59321
G1 X156.625 Y157.500 E9.15146
G1 X156.228 Y159.759 E9.22242
G1 X155.085 Y161.747 E9.29338
G1 X153.332 Y163.226 E9.36435
G1 X151.180 Y164.019 E9.43531
G1 X150.000 Y164.125 E9.47196
G1 X50.000 Y164.125 E12.56609
G1 X47.741 Y163.728 E12.63705
G1 X45.753 Y162.585 E12.70802
G1 X44.274 Y160.832 E12.77898
G1 X43.481 Y158.680 E12.84994
G1 X43.375 Y157.500 E12.88659
G1 X43.375 Y42.500 E16.44484
G1 X43.772 Y40.241 E16.51580
G1 X44.878 Y38.318 E16.58445
G1 E14.58445 F2400.00000
G92 E0
G1 X137.924 Y147.188 F7800.000
G1 E2.00000 F2400.00000
G1 F1800.000
G1 X140.076 Y147.188 E2.06659
G1 X141.817 Y148.453 E2.13318
G1 X142.482 Y150.500 E2.19976
G1 X141.817 Y152.547 E2.26635
G1 X140.076 Y153.812 E2.33294
G1 X137.924 Y153.812 E2.39953
G1 X136.183 Y152.547 E2.46612
G1 X135.518 Y150.500 E2.53270
G1 X136.183 Y148.453 E2.59929
G1 X137.863 Y147.232 E2.66356
G1 X138.127 Y147.813 F7800.000
G1 F1800.000
G1 X139.873 Y147.813 E2.71758
G1 X141.285 Y148.840 E2.77161
G1 X141.825 Y150.500 E2.82563
G1 X141.285 Y152.160 E2.87965
G1 X139.873 Y153.187 E2.93368
G1 X138.127 Y153.187 E2.98770
G1 X136.715 Y152.160 E3.04172
G1 X136.175 Y150.500 E3.09575
G1 X136.715 Y148.840 E3.14977
G1 X138.066 Y147.857 E3.20147
G1 X138.330 Y148.438 F7800.000
G1 F1800.000
G1 X139.670 Y148.438 E3.24293
G1 X140.754 Y149.226 E3.28439
G1 X141.168 Y150.500 E3.32585
G1 X140.754 Y151.774 E3.36731
G1 X139.670 Y152.562 E3.40877
G1 X138.330 Y152.562 E3.45022
G1 X137.246 Y151.774 E3.49168
G1 X136.832 Y150.500 E3.53314
G1 X137.246 Y149.226 E3.57460
G1 X138.269 Y148.482 E3.61374
G1 X138.434 Y147.949 F7800.000
G1 E1.61374 F2400.00000
G92 E0
G1 X121.817 Y136.547 F7800.000
G1 E2.00000 F2400.00000
G1 F1800.000
G1 X120.076 Y137.812 E2.06659
G1 X117.924 Y137.812 E2.13317
G1 X116.183 Y136.547 E2.19976
G1 X115.518 Y134.500 E2.26635
G1 X116.183 Y132.453 E2.33294
G1 X117.924 Y131.188 E2.39952
G1 X120.076 Y131.188 E2.46611
G1 X121.817 Y132.453 E2.53270
G1 X122.482 Y134.500 E2.59928
G1 X121.840 Y136.475 E2.66355
G1 X121.285 Y136.161 F7800.000
G1 F1800.000
G1 X119.873 Y137.187 E2.71757
G1 X118.127 Y137.187 E2.77160
G1 X116.715 Y136.161 E2.82562
G1 X116.175 Y134.500 E2.87964
G1 X116.715 Y132.839 E2.93366
G1 X118.127 Y131.813 E2.98769
G1 X119.873 Y131.813 E3.04171
G1 X121.285 Y132.839 E3.09573
G1 X121.825 Y134.500 E3.14975
G1 X121.309 Y136.089 E3.20146
G1 X120.754 Y135.774 F7800.000
G1 F1800.000
G1 X119.670 Y136.562 E3.24291
G1 X118.330 Y136.562 E3.28437
G1 X117.246 Y135.774 E3.32583
G1 X116.832 Y134.500 E3.36729
G1 X117.246 Y133.226 E3.40875
G1 X118.330 Y132.438 E3.45021
G1 X119.670 Y132.438 E3.49166
G1 X120.754 Y133.226 E3.53312
G1 X121.168 Y134.500 E3.57458
G1 X120.777 Y135.703 E3.61372
G1 X120.754 Y135.774 F7800.000
G1 E1.61372 F2400.00000
G92 E0
G1 X104.855 Y131.295 F7800.000
G1 E2.00000 F2400.00000
G1 F1800.000
G1 X104.855 Y143.920 E2.39062
G1 X102.960 Y144.140 E2.44965
G1 X102.217 Y144.180 E2.47265
G1 X100.796 Y144.206 E2.51665
G1 X99.965 Y144.179 E2.54236
G1 X99.285 Y144.091 E2.56357
G1 X98.634 Y143.940 E2.58425
G1 X98.017 Y143.722 E2.60450
G1 X97.449 Y143.445 E2.62408
G1 X96.923 Y143.112 E2.64330
G1 X96.442 Y142.722 E2.66249
G1 X96.014 Y142.280 E2.68151
G1 X95.644 Y141.797 E2.70034
G1 X95.330 Y141.277 E2.71914
G1 X95.071 Y140.724 E2.73803
G1 X94.869 Y140.146 E2.75698
G1 X94.717 Y139.554 E2.77589
G1 X94.612 Y138.949 E2.79490
G1 X94.550 Y138.328 E2.81421
G1 X94.529 Y137.690 E2.83394
G1 X94.549 Y137.095 E2.85236
G1 X94.608 Y136.507 E2.87067
G1 X94.707 Y135.926 E2.88889
G1 X94.848 Y135.347 E2.90732
G1 X95.040 Y134.770 E2.92615
G1 X95.288 Y134.210 E2.94511
G1 X95.590 Y133.679 E2.96400
G1 X95.947 Y133.175 E2.98312
G1 X96.369 Y132.703 E3.00271
G1 X96.851 Y132.278 E3.02258
G1 X97.381 Y131.911 E3.04251
G1 X97.965 Y131.594 E3.06309
G1 X98.616 Y131.336 E3.08474
G1 X99.314 Y131.156 E3.10706
G1 X100.041 Y131.054 E3.12977
G1 X100.774 Y131.022 E3.15248
G1 X101.602 Y131.034 E3.17808
G1 X103.069 Y131.104 E3.22352
G1 X104.780 Y131.287 E3.27679
G1 X104.230 Y131.857 F7800.000
G1 F1800.000
G1 X104.230 Y143.363 E3.63281
G1 X102.907 Y143.517 E3.67402
G1 X102.195 Y143.555 E3.69608
G1 X100.800 Y143.581 E3.73925
G1 X100.016 Y143.556 E3.76353
G1 X99.396 Y143.476 E3.78286
G1 X98.810 Y143.340 E3.80149
G1 X98.259 Y143.144 E3.81955
G1 X97.753 Y142.898 E3.83697
G1 X97.288 Y142.604 E3.85399
G1 X96.865 Y142.260 E3.87087
G1 X96.488 Y141.871 E3.88761
G1 X96.161 Y141.445 E3.90425
G1 X95.882 Y140.982 E3.92097
G1 X95.651 Y140.487 E3.93787
G1 X95.467 Y139.965 E3.95500
G1 X95.329 Y139.423 E3.97231
G1 X95.231 Y138.864 E3.98987
G1 X95.174 Y138.287 E4.00782
G1 X95.155 Y137.691 E4.02627
G1 X95.173 Y137.137 E4.04342
G1 X95.228 Y136.590 E4.06040
G1 X95.319 Y136.053 E4.07727
G1 X95.449 Y135.520 E4.09424
G1 X95.624 Y134.995 E4.11136
G1 X95.847 Y134.491 E4.12842
G1 X96.117 Y134.015 E4.14537
G1 X96.437 Y133.565 E4.16243
G1 X96.810 Y133.147 E4.17978
G1 X97.237 Y132.771 E4.19736
G1 X97.709 Y132.444 E4.21513
G1 X98.230 Y132.161 E4.23349
G1 X98.810 Y131.932 E4.25277
G1 X99.436 Y131.770 E4.27280
G1 X100.099 Y131.677 E4.29349
G1 X100.783 Y131.647 E4.31469
G1 X101.582 Y131.659 E4.33941
G1 X103.020 Y131.727 E4.38397
G1 X104.155 Y131.849 E4.41929
G1 X103.605 Y132.418 F7800.000
G1 F1800.000
G1 X103.605 Y142.807 E4.74071
G1 X102.854 Y142.894 E4.76411
G1 X102.172 Y142.931 E4.78524
G1 X100.804 Y142.956 E4.82757
G1 X100.066 Y142.932 E4.85043
G1 X99.507 Y142.860 E4.86786
G1 X98.985 Y142.739 E4.88444
G1 X98.502 Y142.567 E4.90032
G1 X98.058 Y142.351 E4.91558
G1 X97.653 Y142.095 E4.93039
G1 X97.287 Y141.799 E4.94497
G1 X96.963 Y141.463 E4.95943
G1 X96.678 Y141.092 E4.97389
G1 X96.434 Y140.688 E4.98850
G1 X96.230 Y140.251 E5.00342
G1 X96.066 Y139.784 E5.01874
G1 X95.940 Y139.292 E5.03445
G1 X95.851 Y138.779 E5.05055
G1 X95.798 Y138.246 E5.06714
G1 X95.780 Y137.691 E5.08431
G1 X95.797 Y137.178 E5.10019
G1 X95.847 Y136.674 E5.11585
G1 X95.932 Y136.180 E5.13138
G1 X96.050 Y135.693 E5.14688
G1 X96.207 Y135.221 E5.16228
G1 X96.406 Y134.772 E5.17745
G1 X96.645 Y134.351 E5.19245
G1 X96.926 Y133.955 E5.20745
G1 X97.251 Y133.591 E5.22257
G1 X97.623 Y133.264 E5.23787
G1 X98.037 Y132.977 E5.25346
G1 X98.496 Y132.728 E5.26961
G1 X99.003 Y132.527 E5.28652
G1 X99.558 Y132.384 E5.30425
G1 X100.156 Y132.300 E5.32293
G1 X100.792 Y132.272 E5.34262
G1 X101.562 Y132.284 E5.36646
G1 X102.972 Y132.351 E5.41013
G1 X103.531 Y132.411 E5.42750
G1 X104.105 Y132.429 F7800.000
G1 E3.42750 F2400.00000
G92 E0
G1 X100.076 Y147.188 F7800.000
G1 E2.00000 F2400.00000
G1 F1800.000
G1 X101.817 Y148.453 E2.06659
G1 X102.482 Y150.500 E2.13317
G1 X101.817 Y152.547 E2.19976
G1 X100.076 Y153.812 E2.26635
G1 X97.924 Y153.812 E2.33294
G1 X96.183 Y152.547 E2.39953
G1 X95.518 Y150.500 E2.46611
G1 X96.183 Y148.453 E2.53270
G1 X97.924 Y147.188 E2.59929
G1 X100.001 Y147.188 E2.66356
G1 X99.873 Y147.813 F7800.000
G1 F1800.000
G1 X101.285 Y148.840 E2.71758
G1 X101.825 Y150.500 E2.77161
G1 X101.285 Y152.160 E2.82563
G1 X99.873 Y153.187 E2.87965
G1 X98.127 Y153.187 E2.93368
G1 X96.715 Y152.160 E2.98770
G1 X96.175 Y150.500 E3.04172
G1 X96.715 Y148.840 E3.09574
G1 X98.127 Y147.813 E3.14977
G1 X99.798 Y147.813 E3.20147
G1 X99.670 Y148.438 F7800.000
G1 F1800.000
G1 X100.754 Y149.226 E3.24293
G1 X101.168 Y150.500 E3.28439
G1 X100.754 Y151.774 E3.32585
G1 X99.670 Y152.562 E3.36731
G1 X98.330 Y152.562 E3.40877
G1 X97.246 Y151.774 E3.45023
G1 X96.832 Y150.500 E3.49168
G1 X97.246 Y149.226 E3.53314
G1 X98.330 Y148.438 E3.57460
G1 X99.595 Y148.438 E3.61374
G1 X99.670 Y148.438 F7800.000
G1 E1.61374 F2400.00000
G92 E0
G1 X94.427 Y143.494 F7800.000
G1 E2.00000 F2400.00000
G1 F1800.000
G1 X91.395 Y151.686 E2.27027
G1 X88.903 Y151.686 E2.34737
G1 X88.519 Y150.652 E2.38148
G1 X87.979 Y151.152 E2.40424
G1 X87.029 Y151.572 E2.43637
G1 X86.060 Y151.692 E2.46659
G1 X85.470 Y151.656 E2.48485
G1 X84.936 Y151.546 E2.50173
G1 X84.426 Y151.353 E2.51862
G1 X83.963 Y151.084 E2.53519
G1 X83.495 Y150.699 E2.55395
G1 X83.129 Y151.686 E2.58652
G1 X80.637 Y151.686 E2.66362
G1 X79.991 Y149.947 E2.72101
G1 X79.416 Y150.167 E2.74006
G1 X78.922 Y150.224 E2.75544
G1 X78.431 Y150.169 E2.77076
G1 X77.934 Y149.985 E2.78714
G1 X77.636 Y149.764 E2.79863
G1 X77.636 Y151.558 E2.85412
G1 X66.890 Y151.558 E3.18662
G1 X66.890 Y147.846 E3.30146
G1 X66.982 Y147.846 E3.30432
G1 X66.831 Y147.435 E3.31786
G1 X66.753 Y146.674 E3.34155
G1 X66.781 Y146.189 E3.35656
G1 X66.868 Y145.739 E3.37074
G1 X67.017 Y145.312 E3.38476
G1 X67.219 Y144.920 E3.39840
G1 X67.475 Y144.562 E3.41200
G1 X67.778 Y144.247 E3.42554
G1 X68.118 Y143.984 E3.43883
G1 X68.481 Y143.776 E3.45178
G1 X68.904 Y143.601 E3.46593
G1 X69.600 Y143.450 E3.48799
G1 X70.034 Y143.429 E3.50142
G1 X70.579 Y143.452 E3.51830
G1 X71.075 Y143.534 E3.53385
G1 X71.352 Y143.618 E3.54281
G1 X71.725 Y143.476 E3.55518
G1 X72.224 Y143.420 E3.57071
G1 X72.725 Y143.478 E3.58631
G1 X73.241 Y143.680 E3.60345
G1 X73.400 Y143.807 E3.60976
G1 X73.917 Y143.598 E3.62703
G1 X74.604 Y143.450 E3.64876
G1 X75.045 Y143.428 E3.66244
G1 X75.631 Y143.462 E3.68060
G1 X76.176 Y143.570 E3.69778
G1 X77.476 Y144.008 E3.74023
G1 X77.911 Y143.671 E3.75725
G1 X78.423 Y143.476 E3.77422
G1 X78.922 Y143.420 E3.78976
G1 X79.466 Y143.494 E3.80673
G1 X81.612 Y143.494 E3.87312
G1 X81.895 Y144.253 E3.89818
G1 X82.170 Y143.494 E3.92314
G1 X85.386 Y143.494 E4.02263
G1 X85.962 Y143.424 E4.04058
G1 X86.544 Y143.460 E4.05862
G1 X86.711 Y143.494 E4.06390
G1 X89.877 Y143.494 E4.16187
G1 X90.161 Y144.253 E4.18693
G1 X90.436 Y143.494 E4.21191
G1 X94.352 Y143.494 E4.33307
G1 X93.529 Y144.119 F7800.000
G1 F1800.000
G1 X90.960 Y151.061 E4.56210
G1 X89.337 Y151.061 E4.61231
G1 X88.682 Y149.299 E4.67047
G1 X88.252 Y150.048 E4.69719
G1 X87.631 Y150.622 E4.72337
G1 X86.860 Y150.963 E4.74944
G1 X86.040 Y151.065 E4.77502
G1 X85.552 Y151.035 E4.79013
G1 X85.111 Y150.944 E4.80408
G1 X84.695 Y150.787 E4.81783
G1 X84.321 Y150.569 E4.83124
G1 X83.991 Y150.298 E4.84445
G1 X83.711 Y149.979 E4.85759
G1 X83.321 Y149.368 E4.88000
G1 X82.694 Y151.061 E4.93584
G1 X81.072 Y151.061 E4.98604
G1 X80.220 Y148.769 E5.06169
G1 X79.915 Y149.191 E5.07780
G1 X79.608 Y149.424 E5.08972
G1 X79.266 Y149.555 E5.10105
G1 X78.921 Y149.595 E5.11180
G1 X78.576 Y149.557 E5.12255
G1 X78.235 Y149.430 E5.13381
G1 X77.927 Y149.202 E5.14567
G1 X77.692 Y148.890 E5.15774
G1 X77.546 Y148.491 E5.17090
G1 X77.546 Y147.908 E5.18894
G1 X77.692 Y147.512 E5.20198
G1 X77.917 Y147.209 E5.21368
G1 X78.423 Y146.817 E5.23346
G1 X77.927 Y146.450 E5.25254
G1 X77.692 Y146.138 E5.26462
G1 X77.546 Y145.739 E5.27778
G1 X77.546 Y145.156 E5.29581
G1 X77.692 Y144.760 E5.30885
G1 X77.917 Y144.457 E5.32055
G1 X78.220 Y144.222 E5.33241
G1 X78.572 Y144.088 E5.34404
G1 X78.921 Y144.049 E5.35493
G1 X79.271 Y144.089 E5.36582
G1 X79.347 Y144.119 E5.36836
G1 X81.178 Y144.119 E5.42500
G1 X81.680 Y145.463 E5.46939
G1 X82.120 Y145.463 E5.48301
G1 X82.608 Y144.119 E5.52726
G1 X85.423 Y144.119 E5.61436
G1 X85.980 Y144.051 E5.63172
G1 X86.461 Y144.081 E5.64664
G1 X86.648 Y144.119 E5.65252
G1 X89.443 Y144.119 E5.73902
G1 X89.946 Y145.463 E5.78341
G1 X90.386 Y145.463 E5.79704
G1 X90.874 Y144.119 E5.84128
G1 X93.454 Y144.119 E5.92112
G1 X92.632 Y144.744 F7800.000
G1 F1800.000
G1 X90.525 Y150.436 E6.10892
G1 X89.772 Y150.436 E6.13222
G1 X88.654 Y147.427 E6.23154
G1 X88.355 Y147.469 E6.24087
G1 X88.286 Y148.369 E6.26880
G1 X88.093 Y149.070 E6.29127
G1 X87.758 Y149.654 E6.31211
G1 X87.283 Y150.093 E6.33212
G1 X86.692 Y150.354 E6.35212
G1 X86.020 Y150.437 E6.37306
G1 X85.635 Y150.414 E6.38502
G1 X85.285 Y150.342 E6.39605
G1 X84.965 Y150.221 E6.40664
G1 X84.679 Y150.054 E6.41690
G1 X84.427 Y149.847 E6.42698
G1 X84.212 Y149.602 E6.43708
G1 X84.033 Y149.323 E6.44732
G1 X83.892 Y149.015 E6.45780
G1 X83.787 Y148.683 E6.46858
G1 X83.714 Y148.328 E6.47979
G1 X83.671 Y147.954 E6.49144
G1 X83.656 Y147.533 E6.50449
G1 X83.352 Y147.484 E6.51402
G1 X82.259 Y150.436 E6.61142
G1 X81.506 Y150.436 E6.63472
G1 X79.723 Y145.638 E6.79309
G1 X79.463 Y145.998 E6.80684
G1 X79.301 Y146.121 E6.81312
G1 X79.117 Y146.192 E6.81924
G1 X78.920 Y146.214 E6.82536
G1 X78.721 Y146.192 E6.83155
G1 X78.535 Y146.123 E6.83770
G1 X78.371 Y146.002 E6.84399
G1 X78.247 Y145.837 E6.85038
G1 X78.171 Y145.628 E6.85726
G1 X78.171 Y145.267 E6.86842
G1 X78.247 Y145.061 E6.87524
G1 X78.368 Y144.898 E6.88151
G1 X78.530 Y144.773 E6.88784
G1 X78.720 Y144.700 E6.89413
G1 X78.920 Y144.678 E6.90037
G1 X79.118 Y144.701 E6.90654
G1 X79.229 Y144.744 E6.91021
G1 X80.744 Y144.744 E6.95710
G1 X81.246 Y146.088 E7.00149
G1 X82.558 Y146.088 E7.04208
G1 X83.046 Y144.744 E7.08633
G1 X84.366 Y144.744 E7.12717
G1 X84.242 Y145.080 E7.13827
G1 X84.487 Y145.245 E7.14740
G1 X84.728 Y145.023 E7.15755
G1 X85.323 Y144.761 E7.17765
G1 X85.999 Y144.679 E7.19872
G1 X86.379 Y144.702 E7.21052
G1 X86.726 Y144.773 E7.22146
G1 X87.044 Y144.894 E7.23201
G1 X87.328 Y145.061 E7.24221
G1 X87.545 Y145.240 E7.25088
G1 X87.779 Y145.073 E7.25978
G1 X87.657 Y144.744 E7.27065
G1 X89.010 Y144.744 E7.31253
G1 X89.512 Y146.088 E7.35692
G1 X90.824 Y146.088 E7.39751
G1 X91.312 Y144.744 E7.44175
G1 X92.557 Y144.744 E7.48027
G1 X93.132 Y144.756 F7800.000
G1 E5.48027 F2400.00000
G92 E0
G1 X79.656 Y148.021 F7800.000
G1 E2.00000 F2400.00000
G1 F1800.000
G1 X79.656 Y148.378 E2.01103
G1 X79.583 Y148.584 E2.01779
G1 X79.463 Y148.750 E2.02413
G1 X79.301 Y148.873 E2.03041
G1 X79.117 Y148.944 E2.03653
G1 X78.920 Y148.966 E2.04265
G1 X78.721 Y148.944 E2.04884
G1 X78.535 Y148.875 E2.05499
G1 X78.371 Y148.754 E2.06128
G1 X78.247 Y148.589 E2.06767
G1 X78.171 Y148.380 E2.07455
G1 X78.171 Y148.019 E2.08571
G1 X78.247 Y147.813 E2.09253
G1 X78.368 Y147.650 E2.09880
G1 X78.530 Y147.525 E2.10513
G1 X78.720 Y147.452 E2.11142
G1 X78.920 Y147.430 E2.11766
G1 X79.118 Y147.453 E2.12383
G1 X79.307 Y147.527 E2.13009
G1 X79.466 Y147.654 E2.13640
G1 X79.583 Y147.817 E2.14262
G1 X79.630 Y147.951 E2.14700
G1 X79.989 Y148.149 F7800.000
G1 E0.14700 F2400.00000
G92 E0
G1 X77.011 Y148.471 F7800.000
G1 E2.00000 F2400.00000
G1 F1800.000
G1 X77.011 Y150.933 E2.07617
G1 X72.571 Y150.933 E2.21355
G1 X72.571 Y149.467 E2.25889
G1 X73.256 Y148.428 E2.29740
G1 X72.840 Y148.011 E2.31565
G1 X72.547 Y147.485 E2.33429
G1 X72.384 Y146.825 E2.35532
G1 X72.223 Y146.843 E2.36032
G1 X71.878 Y146.805 E2.37108
G1 X71.641 Y146.717 E2.37888
G1 X71.641 Y150.933 E2.50933
G1 X67.514 Y150.933 E2.63702
G1 X67.514 Y148.471 E2.71319
G1 X68.104 Y148.471 E2.73144
G1 X67.671 Y147.909 E2.75340
G1 X67.444 Y147.293 E2.77369
G1 X67.380 Y146.660 E2.79339
G1 X67.403 Y146.267 E2.80558
G1 X67.473 Y145.902 E2.81706
G1 X67.593 Y145.560 E2.82830
G1 X67.754 Y145.246 E2.83922
G1 X67.957 Y144.962 E2.85000
G1 X68.197 Y144.713 E2.86070
G1 X68.466 Y144.505 E2.87125
G1 X68.757 Y144.338 E2.88162
G1 X69.091 Y144.200 E2.89280
G1 X69.682 Y144.071 E2.91153
G1 X70.036 Y144.054 E2.92247
G1 X70.514 Y144.075 E2.93730
G1 X70.932 Y144.144 E2.95041
G1 X71.428 Y144.294 E2.96645
G1 X71.522 Y144.222 E2.97013
G1 X71.873 Y144.088 E2.98175
G1 X72.223 Y144.049 E2.99264
G1 X72.572 Y144.089 E3.00352
G1 X72.924 Y144.227 E3.01522
G1 X73.226 Y144.468 E3.02714
G1 X73.327 Y144.609 E3.03252
G1 X73.485 Y144.491 E3.03862
G1 X73.773 Y144.331 E3.04883
