; generated by Slic3r 1.3.1-dev (Build 2ef957d) on 2019-11-25 at 16:25:52

; external perimeters extrusion width = 0.55mm (4.37mm^3/s)
; perimeters extrusion width = 0.70mm (11.44mm^3/s)
; infill extrusion width = 0.62mm (13.45mm^3/s)
; solid infill extrusion width = 0.70mm (3.81mm^3/s)
; top infill extrusion width = 0.70mm (2.86mm^3/s)

M107
G92 E0
M104 S200 ; set temperature
G28 ; home all axes
G1 Z5 F5000 ; lift nozzle

; Filament gcode

M109 S200 ; set temperature and wait for it to be reached
G21 ; set units to millimeters
G90 ; use absolute coordinates
M82 ; use absolute distances for extrusion
G92 E0
G1 Z0.350 F7800.000
G1 E-2.00000 F2400.00000
G92 E0
G1 X44.915 Y38.253 F7800.000
G1 E2.00000 F2400.00000
G1 F1800.000
G1 X46.668 Y36.774 E2.07096
G1 X48.820 Y35.981 E2.14192
G1 X50.000 Y35.875 E2.17858
G1 X150.000 Y35.875 E5.27271
G1 X152.259 Y36.272 E5.34367
G1 X154.247 Y37.415 E5.41463
G1 X155.726 Y39.168 E5.48559
G1 X156.519 Y41.320 E5.55656
G1 X156.625 Y42.500 E5.59321
G1 X156.625 Y157.500 E9.15146
G1 X156.228 Y159.759 E9.22242
G1 X155.085 Y161.747 E9.29338
G1 X153.332 Y163.226 E9.36435
G1 X151.180 Y164.019 E9.43531
G1 X150.000 Y164.125 E9.47196
G1 X50.000 Y164.125 E12.56609
G1 X47.741 Y163.728 E12.63705
G1 X45.753 Y162.585 E12.70802
G1 X44.274 Y160.832 E12.77898
G1 X43.481 Y158.680 E12.84994
G1 X43.375 Y157.500 E12.88659
G1 X43.375 Y42.500 E16.44484
G1 X43.772 Y40.241 E16.51580
G1 X44.878 Y38.318 E16.58445
G1 E14.58445 F2400.00000
G92 E0
G1 X80.076 Y144.188 F7800.000
G1 E2.00000 F2400.00000
G1 F1800.000
G1 X81.817 Y145.453 E2.06659
G1 X82.482 Y147.500 E2.13318
G1 X81.817 Y149.547 E2.19976
G1 X80.076 Y150.812 E2.26635
G1 X77.924 Y150.812 E2.33294
G1 X76.183 Y149.547 E2.39952
G1 X75.518 Y147.500 E2.46611
G1 X76.183 Y145.453 E2.53270
G1 X77.924 Y144.188 E2.59929
G1 X80.001 Y144.188 E2.66355
G1 X79.873 Y144.813 F7800.000
G1 F1800.000
G1 X81.285 Y145.839 E2.71757
G1 X81.825 Y147.500 E2.77160
G1 X81.285 Y149.161 E2.82562
G1 X79.873 Y150.187 E2.87964
G1 X78.127 Y150.187 E2.93366
G1 X76.715 Y149.161 E2.98769
G1 X76.175 Y147.500 E3.04171
G1 X76.715 Y145.839 E3.09573
G1 X78.127 Y144.813 E3.14976
G1 X79.798 Y144.813 E3.20146
G1 X79.670 Y145.438 F7800.000
G1 F1800.000
G1 X80.754 Y146.226 E3.24291
G1 X81.168 Y147.500 E3.28437
G1 X80.754 Y148.774 E3.32583
G1 X79.670 Y149.562 E3.36729
G1 X78.330 Y149.562 E3.40875
G1 X77.246 Y148.774 E3.45021
G1 X76.832 Y147.500 E3.49166
G1 X77.246 Y146.226 E3.53312
G1 X78.330 Y145.438 E3.57458
G1 X79.595 Y145.438 E3.61372
G1 X79.670 Y145.438 F7800.000
G1 E1.61372 F2400.00000
G92 E0
G1 X78.388 Y136.506 F7800.000
G1 E2.00000 F2400.00000
G1 F1800.000
G1 X78.105 Y135.747 E2.02505
G1 X77.830 Y136.506 E2.05002
G1 X74.611 Y136.506 E2.14960
G1 X74.039 Y136.576 E2.16745
G1 X73.455 Y136.540 E2.18553
G1 X73.290 Y136.506 E2.19076
G1 X70.123 Y136.506 E2.28875
G1 X69.839 Y135.747 E2.31381
G1 X69.564 Y136.506 E2.33879
G1 X65.573 Y136.506 E2.46227
G1 X68.605 Y128.315 E2.73254
G1 X71.097 Y128.315 E2.80964
G1 X71.481 Y129.348 E2.84375
G1 X72.021 Y128.850 E2.86648
G1 X72.971 Y128.428 E2.89864
G1 X73.942 Y128.308 E2.92890
G1 X74.529 Y128.345 E2.94711
G1 X75.063 Y128.453 E2.96398
G1 X75.573 Y128.647 E2.98086
G1 X76.036 Y128.915 E2.99741
G1 X76.506 Y129.301 E3.01622
G1 X76.871 Y128.315 E3.04878
G1 X79.363 Y128.315 E3.12588
G1 X80.009 Y130.053 E3.18325
G1 X80.671 Y129.799 E3.20521
G1 X81.484 Y129.799 E3.23036
G1 X82.070 Y130.016 E3.24968
G1 X82.364 Y130.236 E3.26106
G1 X82.364 Y128.443 E3.31657
G1 X93.110 Y128.443 E3.64907
G1 X93.110 Y132.154 E3.76391
G1 X93.018 Y132.154 E3.76676
G1 X93.169 Y132.565 E3.78031
G1 X93.247 Y133.327 E3.80400
G1 X93.219 Y133.810 E3.81899
G1 X93.133 Y134.260 E3.83315
G1 X92.983 Y134.688 E3.84719
G1 X92.781 Y135.080 E3.86082
G1 X92.526 Y135.438 E3.87444
G1 X92.221 Y135.754 E3.88801
G1 X91.883 Y136.015 E3.90124
G1 X91.519 Y136.225 E3.91422
G1 X91.137 Y136.382 E3.92702
G1 X90.706 Y136.501 E3.94085
G1 X90.009 Y136.574 E3.96252
G1 X89.421 Y136.548 E3.98074
G1 X88.926 Y136.467 E3.99626
G1 X88.648 Y136.382 E4.00526
G1 X88.276 Y136.525 E4.01760
G1 X87.776 Y136.580 E4.03316
G1 X87.274 Y136.523 E4.04878
G1 X86.758 Y136.318 E4.06597
G1 X86.601 Y136.193 E4.07219
G1 X86.081 Y136.402 E4.08951
G1 X85.367 Y136.556 E4.11212
G1 X84.669 Y136.566 E4.13372
G1 X84.064 Y136.489 E4.15258
G1 X82.490 Y136.019 E4.20342
G1 X82.091 Y136.328 E4.21903
G1 X81.578 Y136.525 E4.23605
G1 X81.078 Y136.580 E4.25161
G1 X80.532 Y136.506 E4.26865
G1 X78.463 Y136.506 E4.33265
G1 E2.33265 F2400.00000
G92 E0
G1 X82.758 Y135.447 F7800.000
G1 E2.00000 F2400.00000
G1 F1800.000
G1 X83.498 Y132.822 E2.08437
G1 X83.498 Y132.069 E2.10769
G1 X83.846 Y131.529 E2.12754
G1 X82.989 Y131.529 E2.15403
G1 X82.989 Y129.067 E2.23020
G1 X87.429 Y129.067 E2.36758
G1 X87.429 Y130.533 E2.41292
G1 X86.744 Y131.572 E2.45143
G1 X87.160 Y131.989 E2.46967
G1 X87.437 Y132.486 E2.48728
G1 X87.550 Y132.839 E2.49874
G1 X87.589 Y133.176 E2.50923
G1 X88.070 Y133.176 E2.52413
G1 X88.359 Y133.283 E2.53365
G1 X88.359 Y129.067 E2.66408
G1 X92.486 Y129.067 E2.79176
G1 X92.486 Y131.529 E2.86793
G1 X91.896 Y131.529 E2.88618
G1 X92.329 Y132.092 E2.90814
G1 X92.556 Y132.707 E2.92843
G1 X92.621 Y133.340 E2.94812
G1 X92.597 Y133.733 E2.96029
G1 X92.527 Y134.097 E2.97176
G1 X92.407 Y134.440 E2.98303
G1 X92.246 Y134.754 E2.99393
G1 X92.044 Y135.038 E3.00472
G1 X91.803 Y135.287 E3.01545
G1 X91.534 Y135.495 E3.02596
G1 X91.243 Y135.662 E3.03635
G1 X90.934 Y135.790 E3.04670
G1 X90.590 Y135.885 E3.05775
G1 X89.991 Y135.947 E3.07638
G1 X89.486 Y135.925 E3.09202
G1 X89.068 Y135.857 E3.10511
G1 X88.571 Y135.706 E3.12118
G1 X88.479 Y135.778 E3.12481
G1 X88.127 Y135.913 E3.13646
G1 X87.777 Y135.951 E3.14736
G1 X87.427 Y135.912 E3.15826
G1 X87.074 Y135.772 E3.16999
G1 X86.773 Y135.532 E3.18190
G1 X86.673 Y135.391 E3.18725
G1 X86.516 Y135.509 E3.19334
G1 X86.227 Y135.670 E3.20356
G1 X85.897 Y135.803 E3.21457
G1 X85.296 Y135.932 E3.23360
G1 X84.704 Y135.940 E3.25191
G1 X84.194 Y135.875 E3.26783
G1 X82.830 Y135.468 E3.31186
G1 X83.527 Y135.024 F7800.000
G1 F1800.000
G1 X83.873 Y133.796 E3.35135
G1 X84.451 Y134.029 E3.37065
G1 X84.691 Y134.087 E3.37826
G1 X84.972 Y134.107 E3.38699
G1 X85.205 Y134.085 E3.39423
G1 X85.404 Y134.020 E3.40070
G1 X85.588 Y133.877 E3.40793
G1 X85.673 Y133.746 E3.41275
G1 X85.727 Y133.515 E3.42008
G1 X85.704 Y133.318 E3.42623
G1 X85.651 Y133.193 E3.43044
G1 X85.568 Y133.102 E3.43423
G1 X85.435 Y133.027 E3.43895
G1 X85.243 Y132.973 E3.44512
G1 X84.976 Y132.952 E3.45343
G1 X84.123 Y132.952 E3.47980
G1 X84.123 Y132.252 E3.50145
G1 X84.991 Y130.904 E3.55105
G1 X83.614 Y130.904 E3.59364
G1 X83.614 Y129.692 E3.63114
G1 X86.804 Y129.692 E3.72985
G1 X86.804 Y130.345 E3.75006
G1 X85.833 Y131.817 E3.80462
G1 X86.166 Y131.948 E3.81569
G1 X86.365 Y132.076 E3.82300
G1 X86.656 Y132.369 E3.83579
G1 X86.861 Y132.736 E3.84880
G1 X86.937 Y132.971 E3.85644
G1 X86.988 Y133.418 E3.87035
G1 X86.969 Y133.711 E3.87942
G1 X86.850 Y134.298 E3.89796
G1 X87.396 Y133.879 E3.91925
G1 X87.601 Y133.801 E3.92604
G1 X87.958 Y133.801 E3.93709
G1 X88.164 Y133.877 E3.94388
G1 X88.328 Y133.999 E3.95020
G1 X88.451 Y134.164 E3.95657
G1 X88.528 Y134.374 E3.96348
G1 X88.798 Y134.365 E3.97186
G1 X88.936 Y133.901 E3.98684
G1 X89.578 Y134.080 E4.00747
G1 X89.970 Y134.107 E4.01963
G1 X90.203 Y134.084 E4.02685
G1 X90.387 Y134.021 E4.03287
G1 X90.535 Y133.923 E4.03837
G1 X90.641 Y133.796 E4.04347
G1 X90.707 Y133.629 E4.04903
G1 X90.733 Y133.398 E4.05623
G1 X90.708 Y133.183 E4.06292
G1 X90.647 Y133.037 E4.06783
G1 X90.550 Y132.930 E4.07228
G1 X90.402 Y132.843 E4.07758
G1 X90.193 Y132.784 E4.08431
G1 X89.916 Y132.761 E4.09293
G1 X88.984 Y132.815 E4.12182
G1 X88.984 Y129.692 E4.21844
G1 X91.861 Y129.692 E4.30746
G1 X91.861 Y130.904 E4.34496
G1 X90.207 Y130.904 E4.39614
G1 X90.207 Y131.552 E4.41617
G1 X90.662 Y131.600 E4.43035
G1 X91.109 Y131.758 E4.44501
G1 X91.490 Y132.026 E4.45941
G1 X91.776 Y132.397 E4.47392
G1 X91.942 Y132.849 E4.48881
G1 X91.994 Y133.354 E4.50451
G1 X91.976 Y133.655 E4.51385
G1 X91.922 Y133.934 E4.52264
G1 X91.832 Y134.193 E4.53113
G1 X91.711 Y134.428 E4.53930
G1 X91.562 Y134.638 E4.54727
G1 X91.385 Y134.821 E4.55514
G1 X91.186 Y134.975 E4.56293
G1 X90.967 Y135.100 E4.57073
G1 X90.731 Y135.198 E4.57865
G1 X90.473 Y135.269 E4.58691
G1 X89.972 Y135.321 E4.60250
G1 X89.550 Y135.303 E4.61557
G1 X89.210 Y135.247 E4.62622
G1 X88.404 Y135.002 E4.65229
G1 X88.330 Y135.102 E4.65614
G1 X88.169 Y135.227 E4.66247
G1 X87.979 Y135.301 E4.66878
G1 X87.778 Y135.322 E4.67502
G1 X87.580 Y135.300 E4.68119
G1 X87.391 Y135.225 E4.68747
G1 X87.232 Y135.098 E4.69377
G1 X87.115 Y134.934 E4.70000
G1 X87.043 Y134.731 E4.70667
G1 X87.043 Y134.426 E4.71610
G1 X86.785 Y134.341 E4.72449
G1 X86.551 Y134.658 E4.73667
G1 X86.374 Y134.834 E4.74440
G1 X86.175 Y134.983 E4.75209
G1 X85.957 Y135.105 E4.75981
G1 X85.713 Y135.203 E4.76794
G1 X85.225 Y135.308 E4.78339
G1 X84.740 Y135.315 E4.79841
G1 X84.324 Y135.262 E4.81139
G1 X83.599 Y135.045 E4.83480
G1 X83.044 Y134.895 F7800.000
G1 E2.83480 F2400.00000
G92 E0
G1 X78.822 Y135.881 F7800.000
G1 E2.00000 F2400.00000
G1 F1800.000
G1 X78.320 Y134.537 E2.04439
G1 X77.880 Y134.537 E2.05801
G1 X77.392 Y135.881 E2.10226
G1 X74.573 Y135.881 E2.18946
G1 X74.020 Y135.949 E2.20671
G1 X73.538 Y135.919 E2.22166
G1 X73.353 Y135.881 E2.22748
G1 X70.557 Y135.881 E2.31402
G1 X70.054 Y134.537 E2.35842
G1 X69.614 Y134.537 E2.37204
G1 X69.126 Y135.881 E2.41628
G1 X66.471 Y135.881 E2.49845
G1 X69.040 Y128.939 E2.72747
G1 X70.663 Y128.939 E2.77768
G1 X71.317 Y130.701 E2.83583
G1 X71.748 Y129.952 E2.86255
G1 X72.369 Y129.379 E2.88870
G1 X73.139 Y129.037 E2.91479
G1 X73.961 Y128.936 E2.94040
G1 X74.447 Y128.966 E2.95547
G1 X74.889 Y129.056 E2.96942
G1 X75.304 Y129.213 E2.98316
G1 X75.678 Y129.430 E2.99655
G1 X76.010 Y129.702 E3.00981
G1 X76.290 Y130.022 E3.02297
G1 X76.679 Y130.632 E3.04536
G1 X77.306 Y128.939 E3.10120
G1 X78.928 Y128.939 E3.15140
G1 X79.780 Y131.232 E3.22706
G1 X80.083 Y130.811 E3.24308
G1 X80.389 Y130.576 E3.25503
G1 X80.787 Y130.424 E3.26821
G1 X81.372 Y130.424 E3.28632
G1 X81.768 Y130.571 E3.29938
G1 X82.076 Y130.801 E3.31126
G1 X82.308 Y131.110 E3.32324
G1 X82.454 Y131.509 E3.33637
G1 X82.454 Y132.094 E3.35447
G1 X82.308 Y132.487 E3.36744
G1 X82.083 Y132.791 E3.37914
G1 X81.579 Y133.181 E3.39888
G1 X82.076 Y133.552 E3.41807
G1 X82.308 Y133.863 E3.43006
G1 X82.454 Y134.261 E3.44318
G1 X82.454 Y134.846 E3.46127
G1 X82.308 Y135.239 E3.47425
G1 X82.083 Y135.543 E3.48594
G1 X81.781 Y135.777 E3.49779
G1 X81.429 Y135.913 E3.50945
G1 X81.079 Y135.951 E3.52035
G1 X80.729 Y135.912 E3.53126
G1 X80.651 Y135.881 E3.53382
G1 X78.897 Y135.881 E3.58811
G1 X79.256 Y135.256 F7800.000
G1 F1800.000
G1 X78.754 Y133.912 E3.63250
G1 X77.442 Y133.912 E3.67309
G1 X76.954 Y135.256 E3.71733
G1 X75.634 Y135.256 E3.75818
G1 X75.758 Y134.920 E3.76928
G1 X75.513 Y134.755 E3.77841
G1 X75.272 Y134.977 E3.78857
G1 X74.677 Y135.239 E3.80866
G1 X74.001 Y135.322 E3.82973
G1 X73.620 Y135.298 E3.84155
G1 X73.274 Y135.227 E3.85248
G1 X72.956 Y135.106 E3.86302
G1 X72.671 Y134.939 E3.87322
G1 X72.455 Y134.760 E3.88190
G1 X72.221 Y134.927 E3.89080
G1 X72.343 Y135.256 E3.90168
G1 X70.990 Y135.256 E3.94355
G1 X70.488 Y133.912 E3.98794
G1 X69.176 Y133.912 E4.02853
G1 X68.688 Y135.256 E4.07278
G1 X67.368 Y135.256 E4.11362
G1 X69.475 Y129.564 E4.30141
G1 X70.228 Y129.564 E4.32471
G1 X71.346 Y132.573 E4.42403
G1 X71.645 Y132.531 E4.43336
G1 X71.714 Y131.630 E4.46130
G1 X71.907 Y130.930 E4.48378
G1 X72.242 Y130.346 E4.50461
G1 X72.717 Y129.908 E4.52460
G1 X73.308 Y129.646 E4.54461
G1 X73.980 Y129.563 E4.56556
G1 X74.365 Y129.587 E4.57751
G1 X74.715 Y129.658 E4.58854
G1 X75.035 Y129.779 E4.59913
G1 X75.321 Y129.945 E4.60937
G1 X75.573 Y130.153 E4.61947
G1 X75.788 Y130.399 E4.62959
G1 X75.967 Y130.677 E4.63982
G1 X76.108 Y130.984 E4.65028
G1 X76.213 Y131.317 E4.66108
G1 X76.286 Y131.671 E4.67227
G1 X76.329 Y132.046 E4.68394
G1 X76.344 Y132.467 E4.69698
G1 X76.648 Y132.516 E4.70652
G1 X77.741 Y129.564 E4.80392
G1 X78.494 Y129.564 E4.82721
G1 X80.277 Y134.363 E4.98561
G1 X80.536 Y134.003 E4.99934
G1 X80.698 Y133.879 E5.00564
G1 X80.902 Y133.801 E5.01242
G1 X81.260 Y133.801 E5.02348
G1 X81.466 Y133.877 E5.03027
G1 X81.629 Y133.999 E5.03658
G1 X81.753 Y134.164 E5.04295
G1 X81.829 Y134.372 E5.04981
G1 X81.829 Y134.733 E5.06099
G1 X81.753 Y134.939 E5.06777
G1 X81.632 Y135.102 E5.07405
G1 X81.471 Y135.227 E5.08038
G1 X81.280 Y135.301 E5.08668
G1 X81.080 Y135.322 E5.09292
G1 X80.882 Y135.300 E5.09910
G1 X80.771 Y135.256 E5.10277
G1 X79.331 Y135.256 E5.14734
G1 X78.769 Y135.370 F7800.000
G1 E3.14734 F2400.00000
G92 E0
G1 X81.280 Y132.548 F7800.000
G1 E2.00000 F2400.00000
G1 F1800.000
G1 X81.080 Y132.570 E2.00625
G1 X80.881 Y132.548 E2.01242
G1 X80.693 Y132.473 E2.01869
G1 X80.534 Y132.346 E2.02500
G1 X80.417 Y132.182 E2.03123
G1 X80.344 Y131.979 E2.03789
G1 X80.344 Y131.622 E2.04895
G1 X80.417 Y131.416 E2.05570
G1 X80.536 Y131.251 E2.06200
G1 X80.698 Y131.127 E2.06830
G1 X80.902 Y131.049 E2.07508
G1 X81.260 Y131.049 E2.08614
G1 X81.466 Y131.125 E2.09294
G1 X81.629 Y131.247 E2.09925
G1 X81.752 Y131.412 E2.10561
G1 X81.829 Y131.620 E2.11247
G1 X81.829 Y131.981 E2.12366
G1 X81.753 Y132.187 E2.13044
G1 X81.632 Y132.350 E2.13672
G1 X81.470 Y132.475 E2.14305
G1 X81.350 Y132.521 E2.14702
G1 X81.225 Y132.742 F7800.000
G1 E0.14702 F2400.00000
G92 E0
G1 X62.482 Y129.500 F7800.000
G1 E2.00000 F2400.00000
G1 F1800.000
G1 X61.817 Y131.547 E2.06659
G1 X60.076 Y132.812 E2.13317
G1 X57.924 Y132.812 E2.19976
G1 X56.183 Y131.547 E2.26635
G1 X55.518 Y129.500 E2.33294
G1 X56.183 Y127.453 E2.39952
G1 X57.924 Y126.188 E2.46611
G1 X60.076 Y126.188 E2.53270
G1 X61.817 Y127.453 E2.59929
G1 X62.459 Y129.429 E2.66355
G1 X61.825 Y129.500 F7800.000
G1 F1800.000
G1 X61.285 Y131.161 E2.71758
G1 X59.873 Y132.187 E2.77160
G1 X58.127 Y132.187 E2.82562
G1 X56.714 Y131.161 E2.87964
G1 X56.175 Y129.500 E2.93367
G1 X56.714 Y127.839 E2.98769
G1 X58.127 Y126.813 E3.04171
G1 X59.873 Y126.813 E3.09574
G1 X61.285 Y127.839 E3.14976
G1 X61.802 Y129.429 E3.20146
G1 X61.168 Y129.500 F7800.000
G1 F1800.000
G1 X60.754 Y130.774 E3.24292
G1 X59.670 Y131.562 E3.28438
G1 X58.330 Y131.562 E3.32583
G1 X57.246 Y130.774 E3.36729
G1 X56.832 Y129.500 E3.40875
G1 X57.246 Y128.226 E3.45021
G1 X58.330 Y127.438 E3.49167
G1 X59.670 Y127.438 E3.53313
G1 X60.754 Y128.226 E3.57458
G1 X61.145 Y129.429 E3.61372
G1 X61.168 Y129.500 F7800.000
G1 E1.61372 F2400.00000
G92 E0
G1 X95.023 Y135.922 F7800.000
G1 E2.00000 F2400.00000
G1 F1800.000
G1 X99.376 Y135.922 E2.13467
G1 X99.376 Y140.146 E2.26537
G1 X100.843 Y140.146 E2.31077
G1 X100.843 Y135.922 E2.44147
G1 X105.195 Y135.922 E2.57611
G1 X105.195 Y148.850 E2.97611
G1 X100.843 Y148.850 E3.11075
G1 X100.843 Y144.370 E3.24937
G1 X99.376 Y144.370 E3.29477
G1 X99.376 Y148.850 E3.43339
G1 X95.023 Y148.850 E3.56806
G1 X95.023 Y135.997 E3.96574
G1 X95.648 Y136.547 F7800.000
G1 F1800.000
G1 X98.751 Y136.547 E4.06174
G1 X98.751 Y140.771 E4.19244
G1 X101.468 Y140.771 E4.27651
G1 X101.468 Y136.547 E4.40721
G1 X104.570 Y136.547 E4.50318
G1 X104.570 Y148.225 E4.86451
G1 X101.468 Y148.225 E4.96048
G1 X101.468 Y143.745 E5.09910
G1 X98.751 Y143.745 E5.18317
G1 X98.751 Y148.225 E5.32179
G1 X95.648 Y148.225 E5.41779
G1 X95.648 Y136.622 E5.77680
G1 X96.273 Y137.172 F7800.000
G1 F1800.000
G1 X98.126 Y137.172 E5.83413
G1 X98.126 Y141.396 E5.96483
G1 X102.093 Y141.396 E6.08757
G1 X102.093 Y137.172 E6.21827
G1 X103.945 Y137.172 E6.27557
G1 X103.945 Y147.600 E6.59823
G1 X102.093 Y147.600 E6.65553
G1 X102.093 Y143.120 E6.79415
G1 X98.126 Y143.120 E6.91689
G1 X98.126 Y147.600 E7.05551
G1 X96.273 Y147.600 E7.11285
G1 X96.273 Y137.247 E7.43318
G1 X96.244 Y136.673 F7800.000
G1 E5.43318 F2400.00000
G92 E0
G1 X97.924 Y132.812 F7800.000
G1 E2.00000 F2400.00000
G1 F1800.000
G1 X96.183 Y131.547 E2.06659
G1 X95.518 Y129.500 E2.13317
G1 X96.183 Y127.453 E2.19976
G1 X97.924 Y126.188 E2.26635
G1 X100.076 Y126.188 E2.33294
G1 X101.817 Y127.453 E2.39952
G1 X102.482 Y129.500 E2.46611
G1 X101.817 Y131.547 E2.53270
G1 X100.076 Y132.812 E2.59929
G1 X97.999 Y132.812 E2.66355
