;FLAVOR:Repetier
;TIME:4361
;MINX:56.982
;MINY:88.644
;MINZ:0.3
;MAXX:134.602
;MAXY:101.833
;MAXZ:49.9
;Generated with Cura_SteamEngine 4.3.0
M190 S45
M104 S190
M109 S190
M82 ;absolute extrusion mode
G28 ;Home
G1 Z15.0 F6000 ;Move the platform down 15mm
;Prime the extruder
G92 E0
G1 F200 E3
G92 E0
G92 E0
G92 E0
G1 F1500 E-0.7
;LAYER_COUNT:249
;LAYER:0
M107 P1
M202 X500 Y500
G0 F1500 X58.497 Y90.202 Z0.3
M201 X500 Y500
;TYPE:SKIRT
G1 F1500 E0
G1 F900 X58.789 Y90.018 E0.01636
G1 X59.343 Y89.74 E0.04574
G1 X59.543 Y89.655 E0.05604
G1 X60.087 Y89.46 E0.08343
G1 X60.224 Y89.416 E0.09024
G1 X60.849 Y89.247 E0.12093
G1 X60.947 Y89.224 E0.1257
G1 X61.473 Y89.113 E0.15118
G1 X61.545 Y89.099 E0.15466
G1 X62.118 Y89.002 E0.1822
G1 X62.175 Y88.994 E0.18493
G1 X62.791 Y88.91 E0.2144
G1 X62.842 Y88.903 E0.21684
G1 X63.505 Y88.832 E0.24844
G1 X63.549 Y88.828 E0.25053
G1 X64.253 Y88.77 E0.28401
G1 X64.29 Y88.767 E0.28577
G1 X65.037 Y88.721 E0.32124
G1 X65.062 Y88.72 E0.32243
G1 X65.583 Y88.695 E0.34715
G1 X65.606 Y88.694 E0.34824
G1 X66.146 Y88.675 E0.37385
G1 X66.171 Y88.674 E0.37504
G1 X67.299 Y88.65 E0.42851
G1 X67.328 Y88.65 E0.42989
G1 X68.526 Y88.644 E0.48667
G1 X68.557 Y88.644 E0.48814
G1 X70.473 Y88.667 E0.57895
G1 X70.5 Y88.668 E0.58023
G1 X72.551 Y88.724 E0.67748
G1 X72.573 Y88.724 E0.67852
G1 X75.5 Y88.839 E0.81736
G1 X75.515 Y88.84 E0.81807
G1 X87.101 Y89.396 E1.36783
G1 X108.677 Y90.247 E2.39123
G1 X108.677 Y90.248 E2.39128
G1 X119.328 Y90.541 E2.89628
G1 X128.144 Y90.68 E3.31417
G1 X132.817 Y90.719 E3.53566
G1 X133.193 Y90.762 E3.5536
G1 X133.553 Y90.883 E3.5716
G1 X133.878 Y91.076 E3.58951
G1 X134.157 Y91.334 E3.60752
G1 X134.375 Y91.644 E3.62549
G1 X134.523 Y91.992 E3.64341
G1 X134.602 Y92.519 E3.66867
G1 X134.602 Y92.991 E3.69104
G1 X134.562 Y93.368 E3.709
G1 X134.444 Y93.728 E3.72696
G1 X134.254 Y94.055 E3.74489
G1 X133.999 Y94.336 E3.76287
G1 X133.69 Y94.556 E3.78085
G1 X133.262 Y94.731 E3.80276
G1 X130.563 Y95.444 E3.93507
G1 X130.538 Y95.451 E3.9363
G1 X127.463 Y96.217 E4.0865
G1 X127.437 Y96.223 E4.08776
G1 X124.51 Y96.906 E4.23022
G1 X124.487 Y96.911 E4.23133
G1 X121.826 Y97.495 E4.36045
G1 X121.805 Y97.5 E4.36148
G1 X119.637 Y97.949 E4.46641
G1 X119.618 Y97.952 E4.46732
G1 X117.318 Y98.403 E4.57841
G1 X117.304 Y98.406 E4.57909
G1 X115.703 Y98.706 E4.65629
G1 X115.685 Y98.709 E4.65715
G1 X113.192 Y99.15 E4.77715
G1 X113.174 Y99.154 E4.77802
G1 X111.457 Y99.44 E4.86052
G1 X111.442 Y99.442 E4.86124
G1 X109.685 Y99.72 E4.94555
G1 X109.669 Y99.722 E4.94631
G1 X107.877 Y99.989 E5.03218
G1 X107.862 Y99.991 E5.0329
G1 X106.04 Y100.247 E5.1201
G1 X106.023 Y100.25 E5.12092
G1 X104.176 Y100.491 E5.2092
G1 X104.165 Y100.492 E5.20973
G1 X103.233 Y100.608 E5.25424
G1 X103.219 Y100.61 E5.25491
G1 X101.341 Y100.828 E5.34452
G1 X101.322 Y100.83 E5.34542
G1 X99.431 Y101.03 E5.43555
G1 X99.419 Y101.031 E5.43612
G1 X98.469 Y101.125 E5.48136
G1 X98.458 Y101.126 E5.48189
G1 X97.508 Y101.214 E5.52711
G1 X97.494 Y101.216 E5.52778
G1 X95.59 Y101.377 E5.61834
G1 X95.576 Y101.378 E5.619
G1 X94.624 Y101.451 E5.66426
G1 X94.612 Y101.452 E5.66483
G1 X93.66 Y101.519 E5.71006
G1 X93.645 Y101.52 E5.71077
G1 X91.748 Y101.637 E5.80085
G1 X91.732 Y101.637 E5.80161
G1 X90.787 Y101.687 E5.84646
G1 X90.769 Y101.688 E5.84732
G1 X88.889 Y101.769 E5.9365
G1 X88.869 Y101.77 E5.93745
G1 X87.922 Y101.8 E5.98236
G1 X87.903 Y101.801 E5.98326
G1 X86.96 Y101.821 E6.02797
G1 X86.943 Y101.821 E6.02877
G1 X86.006 Y101.832 E6.07318
G1 X85.987 Y101.832 E6.07409
G1 X85.057 Y101.833 E6.11816
G1 X85.039 Y101.833 E6.11902
G1 X84.115 Y101.825 E6.16281
G1 X84.096 Y101.825 E6.16371
G1 X83.181 Y101.807 E6.20709
G1 X83.162 Y101.806 E6.20799
G1 X82.254 Y101.779 E6.25104
G1 X82.234 Y101.778 E6.25199
G1 X81.336 Y101.741 E6.29459
G1 X81.319 Y101.741 E6.2954
G1 X80.431 Y101.696 E6.33754
G1 X80.409 Y101.694 E6.33858
G1 X79.531 Y101.639 E6.38028
G1 X79.514 Y101.638 E6.38109
G1 X78.647 Y101.575 E6.42229
G1 X78.624 Y101.573 E6.42338
G1 X77.769 Y101.5 E6.46405
G1 X77.753 Y101.499 E6.46481
G1 X76.915 Y101.42 E6.50471
G1 X76.891 Y101.418 E6.50585
G1 X76.056 Y101.328 E6.54565
G1 X76.034 Y101.325 E6.5467
G1 X75.218 Y101.227 E6.58566
G1 X75.2 Y101.225 E6.58651
G1 X74.397 Y101.12 E6.6249
G1 X74.377 Y101.117 E6.62586
G1 X73.589 Y101.005 E6.66358
G1 X73.566 Y101.002 E6.66468
G1 X72.794 Y100.882 E6.70171
G1 X72.77 Y100.878 E6.70286
G1 X72.013 Y100.75 E6.73925
G1 X71.995 Y100.747 E6.74011
G1 X71.255 Y100.614 E6.77575
G1 X71.229 Y100.609 E6.777
G1 X70.505 Y100.468 E6.81196
G1 X70.485 Y100.464 E6.81293
G1 X69.778 Y100.318 E6.84714
G1 X69.751 Y100.312 E6.84846
G1 X69.063 Y100.159 E6.88186
G1 X69.041 Y100.154 E6.88293
G1 X68.371 Y99.996 E6.91556
G1 X68.35 Y99.991 E6.91658
G1 X67.698 Y99.829 E6.94842
G1 X67.67 Y99.822 E6.94979
G1 X67.038 Y99.654 E6.98078
G1 X67.014 Y99.647 E6.98197
G1 X66.401 Y99.475 E7.01214
G1 X66.373 Y99.467 E7.01352
G1 X65.782 Y99.291 E7.04275
G1 X65.757 Y99.284 E7.04398
G1 X65.183 Y99.104 E7.07249
G1 X65.155 Y99.094 E7.0739
G1 X64.604 Y98.911 E7.10142
G1 X64.576 Y98.902 E7.10281
G1 X64.045 Y98.716 E7.12948
G1 X64.016 Y98.706 E7.13093
G1 X63.507 Y98.518 E7.15665
G1 X63.474 Y98.505 E7.15833
G1 X62.987 Y98.314 E7.18312
G1 X62.954 Y98.3 E7.18482
G1 X62.489 Y98.107 E7.20869
G1 X62.448 Y98.09 E7.21079
G1 X61.791 Y97.798 E7.24487
G1 X61.739 Y97.774 E7.24758
G1 X61.135 Y97.482 E7.27938
G1 X61.073 Y97.45 E7.28268
G1 X60.52 Y97.156 E7.31237
G1 X60.454 Y97.119 E7.31595
G1 X59.953 Y96.825 E7.34349
G1 X59.882 Y96.782 E7.34742
G1 X59.435 Y96.491 E7.3727
G1 X59.333 Y96.419 E7.37862
G1 X58.817 Y96.03 E7.40924
G1 X58.689 Y95.923 E7.41715
G1 X58.272 Y95.543 E7.44389
G1 X58.102 Y95.367 E7.45549
G1 X57.717 Y94.906 E7.48395
G1 X57.503 Y94.584 E7.50228
G1 X57.269 Y94.135 E7.52628
G1 X57.098 Y93.647 E7.55078
G1 X57.013 Y93.21 E7.57188
G1 X56.982 Y92.779 E7.59236
G1 X56.99 Y92.614 E7.60019
G1 X57.072 Y92.158 E7.62215
G1 X57.198 Y91.76 E7.64194
G1 X57.35 Y91.412 E7.65994
G1 X57.477 Y91.219 E7.67089
G1 X57.748 Y90.86 E7.69221
G1 X58.086 Y90.519 E7.71496
G1 X58.497 Y90.202 E7.73956
G0 F1500 X58.741 Y90.518
G1 F900 X58.968 Y90.376 E7.75225
G1 X59.522 Y90.098 E7.78163
G1 X59.678 Y90.031 E7.78968
G1 X60.222 Y89.836 E7.81707
G1 X60.329 Y89.803 E7.82237
G1 X60.954 Y89.634 E7.85306
G1 X61.03 Y89.615 E7.85677
G1 X61.556 Y89.504 E7.88225
G1 X61.611 Y89.494 E7.8849
G1 X62.184 Y89.397 E7.91245
G1 X62.229 Y89.39 E7.91461
G1 X62.845 Y89.306 E7.94407
G1 X62.885 Y89.301 E7.94598
G1 X63.548 Y89.23 E7.97758
G1 X63.582 Y89.227 E7.9792
G1 X64.286 Y89.169 E8.01268
G1 X64.315 Y89.167 E8.01406
G1 X65.062 Y89.121 E8.04953
G1 X65.081 Y89.12 E8.05043
G1 X65.602 Y89.095 E8.07515
G1 X65.62 Y89.094 E8.07601
G1 X66.16 Y89.075 E8.10162
G1 X66.179 Y89.074 E8.10252
G1 X67.307 Y89.05 E8.15599
G1 X67.33 Y89.05 E8.15708
G1 X68.528 Y89.044 E8.21387
G1 X68.552 Y89.044 E8.215
G1 X70.468 Y89.067 E8.30582
G1 X70.489 Y89.068 E8.30682
G1 X72.54 Y89.124 E8.40406
G1 X72.557 Y89.124 E8.40487
G1 X75.484 Y89.239 E8.5437
G1 X75.496 Y89.24 E8.54427
G1 X87.085 Y89.796 E9.09417
G1 X108.661 Y90.647 E10.11758
G1 X119.322 Y90.942 E10.62306
G1 X119.322 Y90.941 E10.6231
G1 X128.138 Y91.08 E11.041
G1 X132.814 Y91.119 E11.26263
G1 X133.145 Y91.162 E11.27845
G1 X133.457 Y91.282 E11.29429
G1 X133.731 Y91.472 E11.31009
G1 X133.953 Y91.722 E11.32594
G1 X134.109 Y92.017 E11.34175
G1 X134.191 Y92.341 E11.35759
G1 X134.202 Y92.519 E11.36605
G1 X134.202 Y92.991 E11.38842
G1 X134.162 Y93.323 E11.40427
G1 X134.045 Y93.635 E11.42006
G1 X133.857 Y93.912 E11.43593
G1 X133.609 Y94.135 E11.45173
G1 X133.16 Y94.345 E11.47523
G1 X130.461 Y95.058 E11.60754
G1 X130.441 Y95.062 E11.6085
G1 X127.366 Y95.828 E11.7587
G1 X127.346 Y95.833 E11.75968
G1 X124.419 Y96.516 E11.90213
G1 X124.401 Y96.52 E11.903
G1 X121.74 Y97.104 E12.03213
G1 X121.724 Y97.108 E12.03291
G1 X119.556 Y97.557 E12.13784
G1 X119.541 Y97.56 E12.13857
G1 X117.241 Y98.011 E12.24965
G1 X117.23 Y98.013 E12.25018
G1 X115.629 Y98.313 E12.32738
G1 X115.615 Y98.316 E12.32806
G1 X113.122 Y98.757 E12.44805
G1 X113.108 Y98.759 E12.44872
G1 X111.391 Y99.045 E12.53122
G1 X111.38 Y99.047 E12.53175
G1 X109.623 Y99.325 E12.61606
G1 X109.61 Y99.327 E12.61669
G1 X107.818 Y99.594 E12.70256
G1 X107.807 Y99.595 E12.70308
G1 X105.985 Y99.851 E12.79029
G1 X105.971 Y99.853 E12.79096
G1 X104.124 Y100.094 E12.87924
G1 X104.116 Y100.095 E12.87962
G1 X103.184 Y100.211 E12.92413
G1 X103.172 Y100.213 E12.92471
G1 X101.294 Y100.431 E13.01432
G1 X101.28 Y100.432 E13.01498
G1 X99.389 Y100.632 E13.10511
G1 X99.38 Y100.633 E13.10554
G1 X98.43 Y100.727 E13.15078
G1 X98.421 Y100.728 E13.15121
G1 X97.471 Y100.816 E13.19643
G1 X97.46 Y100.817 E13.19695
G1 X95.556 Y100.978 E13.28752
G1 X95.545 Y100.979 E13.28804
G1 X94.593 Y101.052 E13.33329
G1 X94.584 Y101.053 E13.33372
G1 X93.632 Y101.12 E13.37895
G1 X93.62 Y101.12 E13.37952
G1 X91.723 Y101.237 E13.4696
G1 X91.711 Y101.238 E13.47017
G1 X90.766 Y101.288 E13.51503
G1 X90.752 Y101.289 E13.51569
G1 X88.872 Y101.37 E13.60488
G1 X88.856 Y101.37 E13.60564
G1 X87.909 Y101.4 E13.65054
G1 X87.895 Y101.401 E13.65121
G1 X86.952 Y101.421 E13.69591
G1 X86.938 Y101.421 E13.69658
G1 X86.001 Y101.432 E13.74099
G1 X85.987 Y101.432 E13.74165
G1 X85.057 Y101.433 E13.78573
G1 X85.043 Y101.433 E13.78639
G1 X84.119 Y101.425 E13.83019
G1 X84.103 Y101.425 E13.83095
G1 X83.188 Y101.407 E13.87432
G1 X83.174 Y101.406 E13.87499
G1 X82.266 Y101.379 E13.91804
G1 X82.25 Y101.379 E13.9188
G1 X81.352 Y101.342 E13.9614
G1 X81.339 Y101.341 E13.96202
G1 X80.451 Y101.296 E14.00416
G1 X80.434 Y101.295 E14.00496
G1 X79.556 Y101.24 E14.04666
G1 X79.543 Y101.239 E14.04728
G1 X78.676 Y101.176 E14.08848
G1 X78.658 Y101.175 E14.08933
G1 X77.803 Y101.102 E14.13
G1 X77.791 Y101.101 E14.13057
G1 X76.953 Y101.022 E14.17047
G1 X76.934 Y101.02 E14.17137
G1 X76.099 Y100.93 E14.21118
G1 X76.082 Y100.928 E14.21199
G1 X75.266 Y100.83 E14.25094
G1 X75.251 Y100.828 E14.25166
G1 X74.448 Y100.723 E14.29004
G1 X74.433 Y100.721 E14.29076
G1 X73.645 Y100.609 E14.32848
G1 X73.627 Y100.606 E14.32935
G1 X72.855 Y100.486 E14.36638
G1 X72.837 Y100.483 E14.36724
G1 X72.08 Y100.355 E14.40363
G1 X72.065 Y100.353 E14.40435
G1 X71.325 Y100.22 E14.43998
G1 X71.305 Y100.216 E14.44095
G1 X70.581 Y100.075 E14.47591
G1 X70.566 Y100.072 E14.47663
G1 X69.859 Y99.926 E14.51085
G1 X69.838 Y99.922 E14.51186
G1 X69.15 Y99.769 E14.54526
G1 X69.133 Y99.765 E14.54609
G1 X68.463 Y99.607 E14.57872
G1 X68.446 Y99.603 E14.57955
G1 X67.794 Y99.441 E14.61139
G1 X67.772 Y99.435 E14.61247
G1 X67.14 Y99.267 E14.64346
G1 X67.122 Y99.262 E14.64435
G1 X66.509 Y99.09 E14.67452
G1 X66.487 Y99.084 E14.6756
G1 X65.896 Y98.908 E14.70483
G1 X65.877 Y98.902 E14.70578
G1 X65.303 Y98.722 E14.73429
G1 X65.281 Y98.715 E14.73538
G1 X64.73 Y98.532 E14.7629
G1 X64.708 Y98.524 E14.76401
G1 X64.177 Y98.338 E14.79068
G1 X64.155 Y98.33 E14.79178
G1 X63.646 Y98.142 E14.8175
G1 X63.62 Y98.132 E14.81882
G1 X63.133 Y97.941 E14.84362
G1 X63.107 Y97.931 E14.84494
G1 X62.642 Y97.738 E14.8688
G1 X62.61 Y97.724 E14.87045
G1 X61.953 Y97.432 E14.90453
G1 X61.913 Y97.413 E14.90663
G1 X61.309 Y97.121 E14.93842
G1 X61.261 Y97.097 E14.94097
G1 X60.708 Y96.803 E14.97065
G1 X60.656 Y96.774 E14.97347
G1 X60.155 Y96.48 E15.00101
G1 X60.1 Y96.446 E15.00407
G1 X59.653 Y96.155 E15.02935
G1 X59.574 Y96.1 E15.03391
G1 X59.058 Y95.711 E15.06454
G1 X58.958 Y95.628 E15.0707
G1 X58.541 Y95.248 E15.09744
G1 X58.409 Y95.11 E15.10649
G1 X58.024 Y94.649 E15.13496
G1 X57.857 Y94.399 E15.14921
G1 X57.623 Y93.95 E15.1732
G1 X57.491 Y93.57 E15.19227
G1 X57.406 Y93.133 E15.21337
G1 X57.382 Y92.798 E15.22929
G1 X57.39 Y92.633 E15.23712
G1 X57.453 Y92.278 E15.25421
G1 X57.579 Y91.88 E15.27399
G1 X57.797 Y91.46 E15.29642
G1 X58.068 Y91.101 E15.31774
G1 X58.33 Y90.835 E15.33543
G1 X58.741 Y90.518 E15.36003
G0 F1500 X58.985 Y90.835
G1 F900 X59.147 Y90.733 E15.36911
G1 X59.701 Y90.455 E15.39849
G1 X59.813 Y90.408 E15.40424
G1 X60.357 Y90.213 E15.43163
G1 X60.433 Y90.189 E15.43541
G1 X61.058 Y90.02 E15.4661
G1 X61.113 Y90.007 E15.46877
G1 X61.639 Y89.896 E15.49425
G1 X61.678 Y89.888 E15.49614
G1 X62.251 Y89.791 E15.52368
G1 X62.283 Y89.786 E15.52522
G1 X62.899 Y89.702 E15.55469
G1 X62.928 Y89.699 E15.55607
G1 X63.591 Y89.628 E15.58767
G1 X63.615 Y89.625 E15.58882
G1 X64.319 Y89.567 E15.6223
G1 X64.34 Y89.566 E15.62329
G1 X65.087 Y89.52 E15.65876
G1 X65.1 Y89.519 E15.65938
G1 X65.621 Y89.494 E15.6841
G1 X65.634 Y89.494 E15.68472
G1 X66.174 Y89.475 E15.71033
G1 X66.188 Y89.474 E15.71099
G1 X67.316 Y89.45 E15.76447
G1 X67.332 Y89.45 E15.76523
G1 X68.53 Y89.444 E15.82201
G1 X68.547 Y89.444 E15.82281
G1 X70.463 Y89.467 E15.91363
G1 X70.478 Y89.467 E15.91434
G1 X72.529 Y89.523 E16.01159
G1 X72.541 Y89.524 E16.01216
G1 X75.468 Y89.639 E16.15099
G1 X75.477 Y89.639 E16.15142
G1 X87.078 Y90.196 E16.70189
G1 X108.634 Y91.047 E17.72435
G1 X108.634 Y91.046 E17.72439
G1 X119.328 Y91.341 E18.23144
G1 X128.132 Y91.48 E18.64876
G1 X132.81 Y91.519 E18.87048
G1 X133.089 Y91.561 E18.88386
G1 X133.345 Y91.68 E18.89724
G1 X133.558 Y91.865 E18.91061
G1 X133.711 Y92.102 E18.92398
G1 X133.791 Y92.372 E18.93732
G1 X133.802 Y92.519 E18.94431
G1 X133.802 Y92.991 E18.96668
G1 X133.762 Y93.27 E18.98004
G1 X133.646 Y93.527 E18.9934
G1 X133.463 Y93.742 E19.00679
G1 X133.227 Y93.896 E19.02014
G1 X133.057 Y93.958 E19.02872
G1 X130.358 Y94.671 E19.16103
G1 X130.345 Y94.674 E19.16166
G1 X127.27 Y95.44 E19.31186
G1 X127.255 Y95.444 E19.31259
G1 X124.328 Y96.127 E19.45505
G1 X124.315 Y96.13 E19.45568
G1 X121.654 Y96.714 E19.5848
G1 X121.643 Y96.716 E19.58533
G1 X119.475 Y97.165 E19.69026
G1 X119.464 Y97.167 E19.69079
G1 X117.164 Y97.618 E19.80188
G1 X117.156 Y97.62 E19.80227
G1 X115.555 Y97.92 E19.87947
G1 X115.545 Y97.922 E19.87996
G1 X113.052 Y98.363 E19.99995
G1 X113.042 Y98.364 E20.00042
G1 X111.325 Y98.65 E20.08292
G1 X111.317 Y98.652 E20.08331
G1 X109.56 Y98.93 E20.16762
G1 X109.551 Y98.931 E20.16805
G1 X107.759 Y99.198 E20.25392
G1 X107.751 Y99.199 E20.25431
G1 X105.929 Y99.455 E20.34151
G1 X105.919 Y99.457 E20.34199
G1 X104.072 Y99.698 E20.43027
G1 X104.067 Y99.698 E20.43051
G1 X103.135 Y99.814 E20.47503
G1 X103.126 Y99.815 E20.47545
G1 X101.248 Y100.033 E20.56506
G1 X101.238 Y100.034 E20.56554
G1 X99.347 Y100.234 E20.65566
G1 X99.34 Y100.235 E20.656
G1 X98.39 Y100.329 E20.70124
G1 X98.384 Y100.33 E20.70153
G1 X97.434 Y100.418 E20.74675
G1 X97.426 Y100.418 E20.74713
G1 X95.522 Y100.579 E20.83769
G1 X95.514 Y100.58 E20.83808
G1 X94.562 Y100.653 E20.88333
G1 X94.556 Y100.654 E20.88362
G1 X93.604 Y100.721 E20.92885
G1 X93.596 Y100.721 E20.92923
G1 X91.699 Y100.838 E21.01931
G1 X91.69 Y100.839 E21.01974
G1 X90.745 Y100.889 E21.06459
G1 X90.735 Y100.889 E21.06506
G1 X88.855 Y100.97 E21.15425
G1 X88.844 Y100.97 E21.15477
G1 X87.897 Y101 E21.19968
G1 X87.886 Y101.001 E21.2002
G1 X86.943 Y101.021 E21.24491
G1 X86.934 Y101.021 E21.24533
G1 X85.997 Y101.032 E21.28974
G1 X85.986 Y101.032 E21.29027
G1 X85.056 Y101.033 E21.33434
G1 X85.046 Y101.033 E21.33482
G1 X84.122 Y101.025 E21.37861
G1 X84.111 Y101.025 E21.37913
G1 X83.196 Y101.007 E21.42251
G1 X83.186 Y101.007 E21.42298
G1 X82.278 Y100.98 E21.46604
G1 X82.267 Y100.979 E21.46656
G1 X81.369 Y100.942 E21.50916
G1 X81.359 Y100.942 E21.50963
G1 X80.471 Y100.897 E21.55177
G1 X80.459 Y100.896 E21.55235
G1 X79.581 Y100.841 E21.59404
G1 X79.572 Y100.84 E21.59447
G1 X78.705 Y100.777 E21.63567
G1 X78.692 Y100.776 E21.63629
G1 X77.837 Y100.703 E21.67696
G1 X77.828 Y100.703 E21.67739
G1 X76.99 Y100.624 E21.71728
G1 X76.977 Y100.622 E21.7179
G1 X76.142 Y100.532 E21.75771
G1 X76.13 Y100.531 E21.75828
G1 X75.314 Y100.433 E21.79723
G1 X75.303 Y100.432 E21.79775
G1 X74.5 Y100.327 E21.83614
G1 X74.489 Y100.325 E21.83667
G1 X73.701 Y100.213 E21.87439
G1 X73.688 Y100.211 E21.87501
G1 X72.916 Y100.091 E21.91204
G1 X72.903 Y100.089 E21.91267
G1 X72.146 Y99.961 E21.94905
G1 X72.136 Y99.959 E21.94954
G1 X71.396 Y99.826 E21.98517
G1 X71.382 Y99.824 E21.98584
G1 X70.658 Y99.683 E22.0208
G1 X70.647 Y99.68 E22.02134
G1 X69.94 Y99.534 E22.05556
G1 X69.925 Y99.531 E22.05628
G1 X69.237 Y99.378 E22.08969
G1 X69.224 Y99.375 E22.09032
