; generated by Slic3r 1.3.1-dev (Build 2ef957d) on 2019-11-25 at 18:33:13

; external perimeters extrusion width = 0.55mm (1.90mm^3/s)
; perimeters extrusion width = 0.70mm (2.71mm^3/s)
; infill extrusion width = 0.62mm (2.41mm^3/s)
; solid infill extrusion width = 0.70mm (2.04mm^3/s)
; top infill extrusion width = 0.70mm (2.04mm^3/s)

M107
G92 E0
;D3D:START:START
T0
M104 S215 T0

G21
G90
M107
T0
G28
G29
M109 T0 S215 T0
G0 F3000
M107
T0
G92 E0
G0 X0 Y149 Z0.1 F3600
G1 Y49 E6.5 F1200
G0 Z1
G92 E0
; Filament gcode

G21 ; set units to millimeters
G90 ; use absolute coordinates
M82 ; use absolute distances for extrusion
G92 E0
G1 Z0.090 F7800.000
G1 E-2.00000 F2400.00000
G92 E0
G1 X25.000 Y-31.080 F7800.000
G1 E2.00000 F2400.00000
G1 F1800.000
G1 X27.160 Y-30.683 E2.00655
G1 X29.038 Y-29.545 E2.01310
G1 X30.390 Y-27.813 E2.01965
G1 X31.080 Y-25.000 E2.02828
G1 X31.080 Y25.000 E2.17737
G1 X30.683 Y27.160 E2.18391
G1 X29.545 Y29.038 E2.19046
G1 X27.813 Y30.390 E2.19701
G1 X25.000 Y31.080 E2.20565
G1 X-25.000 Y31.080 E2.35473
G1 X-27.160 Y30.683 E2.36128
G1 X-29.038 Y29.545 E2.36783
G1 X-30.390 Y27.813 E2.37438
G1 X-31.080 Y25.000 E2.38301
G1 X-31.080 Y-25.000 E2.53210
G1 X-30.683 Y-27.160 E2.53864
G1 X-29.545 Y-29.038 E2.54519
G1 X-27.813 Y-30.390 E2.55174
G1 X-25.000 Y-31.080 E2.56038
G1 X24.925 Y-31.080 E2.70924
G1 E0.70924 F2400.00000
G92 E0
G1 X24.711 Y-24.711 F7800.000
G1 E2.00000 F2400.00000
G1 F1800.000
G1 X24.711 Y24.711 E2.14736
G1 X-24.711 Y24.711 E2.29472
G1 X-24.711 Y-24.711 E2.44209
G1 X24.636 Y-24.711 E2.58922
G1 X24.791 Y-24.791 F7800.000
G1 F1800.000
G1 X24.791 Y24.791 E2.73706
G1 X-24.791 Y24.791 E2.88490
G1 X-24.791 Y-24.791 E3.03274
G1 X24.716 Y-24.791 E3.18035
G1 X24.871 Y-24.871 F7800.000
G1 F1800.000
G1 X24.871 Y24.871 E3.32866
G1 X-24.871 Y24.871 E3.47698
G1 X-24.871 Y-24.871 E3.62529
G1 X24.796 Y-24.871 E3.77338
G1 X24.950 Y-24.951 F7800.000
G1 F1800.000
G1 X24.950 Y24.950 E3.92216
G1 X-24.951 Y24.950 E4.07095
G1 X-24.951 Y-24.951 E4.21974
G1 X24.875 Y-24.951 E4.36830
G1 X24.821 Y-24.468 F7800.000
G1 E2.36830 F2400.00000
G92 E0
G1 X-24.600 Y-24.663 F7800.000
G1 E2.00000 F2400.00000
G1 F1800.000
G1 X-24.663 Y-24.600 E2.00027
G1 X-24.663 Y-24.487 E2.00060
G1 X-24.487 Y-24.663 E2.00134
G1 X-24.374 Y-24.663 E2.00168
G1 X-24.663 Y-24.374 E2.00290
G1 X-24.663 Y-24.261 E2.00323
G1 X-24.261 Y-24.663 E2.00493
G1 X-24.149 Y-24.663 E2.00526
G1 X-24.663 Y-24.149 E2.00743
G1 X-24.663 Y-24.036 E2.00777
G1 X-24.036 Y-24.663 E2.01041
G1 X-23.923 Y-24.663 E2.01075
G1 X-24.663 Y-23.923 E2.01387
G1 X-24.663 Y-23.811 E2.01420
G1 X-23.811 Y-24.663 E2.01780
G1 X-23.698 Y-24.663 E2.01813
G1 X-24.663 Y-23.698 E2.02220
G1 X-24.663 Y-23.585 E2.02254
G1 X-23.585 Y-24.663 E2.02709
G1 X-23.472 Y-24.663 E2.02742
G1 X-24.663 Y-23.472 E2.03244
G1 X-24.663 Y-23.360 E2.03278
G1 X-23.360 Y-24.663 E2.03828
G1 X-23.247 Y-24.663 E2.03861
G1 X-24.663 Y-23.247 E2.04459
G1 X-24.663 Y-23.134 E2.04492
G1 X-23.134 Y-24.663 E2.05137
G1 X-23.021 Y-24.663 E2.05171
G1 X-24.663 Y-23.021 E2.05863
G1 X-24.663 Y-22.909 E2.05897
G1 X-22.909 Y-24.663 E2.06636
G1 X-22.796 Y-24.663 E2.06670
G1 X-24.663 Y-22.796 E2.07457
G1 X-24.663 Y-22.683 E2.07491
G1 X-22.683 Y-24.663 E2.08326
G1 X-22.571 Y-24.663 E2.08360
G1 X-24.663 Y-22.571 E2.09242
G1 X-24.663 Y-22.458 E2.09276
G1 X-22.458 Y-24.663 E2.10206
G1 X-22.345 Y-24.663 E2.10240
G1 X-24.663 Y-22.345 E2.11217
G1 X-24.663 Y-22.232 E2.11251
G1 X-22.232 Y-24.663 E2.12276
G1 X-22.120 Y-24.663 E2.12310
G1 X-24.663 Y-22.120 E2.13382
G1 X-24.663 Y-22.007 E2.13416
G1 X-22.007 Y-24.663 E2.14536
G1 X-21.894 Y-24.663 E2.14570
G1 X-24.663 Y-21.894 E2.15738
G1 X-24.663 Y-21.781 E2.15771
G1 X-21.781 Y-24.663 E2.16987
G1 X-21.669 Y-24.663 E2.17020
G1 X-24.663 Y-21.669 E2.18283
G1 X-24.663 Y-21.556 E2.18317
G1 X-21.556 Y-24.663 E2.19627
G1 X-21.443 Y-24.663 E2.19661
G1 X-24.663 Y-21.443 E2.21019
G1 X-24.663 Y-21.330 E2.21053
G1 X-21.330 Y-24.663 E2.22458
G1 X-21.218 Y-24.663 E2.22492
G1 X-24.663 Y-21.218 E2.23945
G1 X-24.663 Y-21.105 E2.23979
G1 X-21.105 Y-24.663 E2.25479
G1 X-20.992 Y-24.663 E2.25513
G1 X-24.663 Y-20.992 E2.27061
G1 X-24.663 Y-20.880 E2.27095
G1 X-20.880 Y-24.663 E2.28691
G1 X-20.767 Y-24.663 E2.28724
G1 X-24.663 Y-20.767 E2.30368
G1 X-24.663 Y-20.654 E2.30401
G1 X-20.654 Y-24.663 E2.32092
G1 X-20.541 Y-24.663 E2.32126
G1 X-24.663 Y-20.541 E2.33864
G1 X-24.663 Y-20.429 E2.33898
G1 X-20.429 Y-24.663 E2.35684
G1 X-20.316 Y-24.663 E2.35717
G1 X-24.663 Y-20.316 E2.37551
G1 X-24.663 Y-20.203 E2.37585
G1 X-20.203 Y-24.663 E2.39466
G1 X-20.090 Y-24.663 E2.39499
G1 X-24.663 Y-20.090 E2.41428
G1 X-24.663 Y-19.978 E2.41462
G1 X-19.978 Y-24.663 E2.43438
G1 X-19.865 Y-24.663 E2.43471
G1 X-24.663 Y-19.865 E2.45495
G1 X-24.663 Y-19.752 E2.45529
G1 X-19.752 Y-24.663 E2.47600
G1 X-19.640 Y-24.663 E2.47634
G1 X-24.663 Y-19.640 E2.49752
G1 X-24.663 Y-19.527 E2.49786
G1 X-19.527 Y-24.663 E2.51952
G1 X-19.414 Y-24.663 E2.51986
G1 X-24.663 Y-19.414 E2.54200
G1 X-24.663 Y-19.301 E2.54234
G1 X-19.301 Y-24.663 E2.56495
G1 X-19.189 Y-24.663 E2.56529
G1 X-24.663 Y-19.189 E2.58838
G1 X-24.663 Y-19.076 E2.58871
G1 X-19.076 Y-24.663 E2.61228
G1 X-18.963 Y-24.663 E2.61262
G1 X-24.663 Y-18.963 E2.63666
G1 X-24.663 Y-18.850 E2.63699
G1 X-18.850 Y-24.663 E2.66151
G1 X-18.738 Y-24.663 E2.66185
G1 X-24.663 Y-18.738 E2.68684
G1 X-24.663 Y-18.625 E2.68718
G1 X-18.625 Y-24.663 E2.71264
G1 X-18.512 Y-24.663 E2.71298
G1 X-24.663 Y-18.512 E2.73892
G1 X-24.663 Y-18.400 E2.73926
G1 X-18.400 Y-24.663 E2.76568
G1 X-18.287 Y-24.663 E2.76602
G1 X-24.663 Y-18.287 E2.79291
G1 X-24.663 Y-18.174 E2.79325
G1 X-18.174 Y-24.663 E2.82062
G1 X-18.061 Y-24.663 E2.82095
G1 X-24.663 Y-18.061 E2.84880
G1 X-24.663 Y-17.949 E2.84913
G1 X-17.949 Y-24.663 E2.87746
G1 X-17.836 Y-24.663 E2.87779
G1 X-24.663 Y-17.836 E2.90659
G1 X-24.663 Y-17.723 E2.90692
G1 X-17.723 Y-24.663 E2.93620
G1 X-17.610 Y-24.663 E2.93653
G1 X-24.663 Y-17.610 E2.96628
G1 X-24.663 Y-17.498 E2.96662
G1 X-17.498 Y-24.663 E2.99684
G1 X-17.385 Y-24.663 E2.99718
G1 X-24.663 Y-17.385 E3.02787
G1 X-24.663 Y-17.272 E3.02821
G1 X-17.272 Y-24.663 E3.05938
G1 X-17.159 Y-24.663 E3.05972
G1 X-24.663 Y-17.159 E3.09137
G1 X-24.663 Y-17.047 E3.09171
G1 X-17.047 Y-24.663 E3.12383
G1 X-16.934 Y-24.663 E3.12417
G1 X-24.663 Y-16.934 E3.15677
G1 X-24.663 Y-16.821 E3.15710
G1 X-16.821 Y-24.663 E3.19018
G1 X-16.709 Y-24.663 E3.19052
G1 X-24.663 Y-16.709 E3.22407
G1 X-24.663 Y-16.596 E3.22440
G1 X-16.596 Y-24.663 E3.25843
G1 X-16.483 Y-24.663 E3.25877
G1 X-24.663 Y-16.483 E3.29327
G1 X-24.663 Y-16.370 E3.29361
G1 X-16.370 Y-24.663 E3.32858
G1 X-16.258 Y-24.663 E3.32892
G1 X-24.663 Y-16.258 E3.36437
G1 X-24.663 Y-16.145 E3.36471
G1 X-16.145 Y-24.663 E3.40064
G1 X-16.032 Y-24.663 E3.40098
G1 X-24.663 Y-16.032 E3.43738
G1 X-24.663 Y-15.919 E3.43772
G1 X-15.919 Y-24.663 E3.47460
G1 X-15.807 Y-24.663 E3.47493
G1 X-24.663 Y-15.807 E3.51229
G1 X-24.663 Y-15.694 E3.51262
G1 X-15.694 Y-24.663 E3.55046
G1 X-15.581 Y-24.663 E3.55079
G1 X-24.663 Y-15.581 E3.58910
G1 X-24.663 Y-15.469 E3.58943
G1 X-15.469 Y-24.663 E3.62822
G1 X-15.356 Y-24.663 E3.62855
G1 X-24.663 Y-15.356 E3.66781
G1 X-24.663 Y-15.243 E3.66815
G1 X-15.243 Y-24.663 E3.70788
G1 X-15.130 Y-24.663 E3.70822
G1 X-24.663 Y-15.130 E3.74842
G1 X-24.663 Y-15.018 E3.74876
G1 X-15.018 Y-24.663 E3.78944
G1 X-14.905 Y-24.663 E3.78978
G1 X-24.663 Y-14.905 E3.83094
G1 X-24.663 Y-14.792 E3.83128
G1 X-14.792 Y-24.663 E3.87291
G1 X-14.679 Y-24.663 E3.87325
G1 X-24.663 Y-14.679 E3.91536
G1 X-24.663 Y-14.567 E3.91569
G1 X-14.567 Y-24.663 E3.95828
G1 X-14.454 Y-24.663 E3.95862
G1 X-24.663 Y-14.454 E4.00168
G1 X-24.663 Y-14.341 E4.00202
G1 X-14.341 Y-24.663 E4.04555
G1 X-14.229 Y-24.663 E4.04589
G1 X-24.663 Y-14.229 E4.08990
G1 X-24.663 Y-14.116 E4.09024
G1 X-14.116 Y-24.663 E4.13473
G1 X-14.003 Y-24.663 E4.13506
G1 X-24.663 Y-14.003 E4.18003
G1 X-24.663 Y-13.890 E4.18036
G1 X-13.890 Y-24.663 E4.22580
G1 X-13.778 Y-24.663 E4.22614
G1 X-24.663 Y-13.778 E4.27205
G1 X-24.663 Y-13.665 E4.27239
G1 X-13.665 Y-24.663 E4.31878
G1 X-13.552 Y-24.663 E4.31911
G1 X-24.663 Y-13.552 E4.36598
G1 X-24.663 Y-13.439 E4.36632
G1 X-13.439 Y-24.663 E4.41366
G1 X-13.327 Y-24.663 E4.41399
G1 X-24.663 Y-13.327 E4.46181
G1 X-24.663 Y-13.214 E4.46215
G1 X-13.214 Y-24.663 E4.51044
G1 X-13.101 Y-24.663 E4.51077
G1 X-24.663 Y-13.101 E4.55954
G1 X-24.663 Y-12.988 E4.55988
G1 X-12.988 Y-24.663 E4.60912
G1 X-12.876 Y-24.663 E4.60946
G1 X-24.663 Y-12.876 E4.65918
G1 X-24.663 Y-12.763 E4.65951
G1 X-12.763 Y-24.663 E4.70971
G1 X-12.650 Y-24.663 E4.71004
G1 X-24.663 Y-12.650 E4.76071
G1 X-24.663 Y-12.538 E4.76105
G1 X-12.538 Y-24.663 E4.81219
G1 X-12.425 Y-24.663 E4.81253
G1 X-24.663 Y-12.425 E4.86415
G1 X-24.663 Y-12.312 E4.86449
G1 X-12.312 Y-24.663 E4.91658
G1 X-12.199 Y-24.663 E4.91692
G1 X-24.663 Y-12.199 E4.96949
G1 X-24.663 Y-12.087 E4.96983
G1 X-12.087 Y-24.663 E5.02287
G1 X-11.974 Y-24.663 E5.02321
G1 X-24.663 Y-11.974 E5.07673
G1 X-24.663 Y-11.861 E5.07707
G1 X-11.861 Y-24.663 E5.13107
G1 X-11.748 Y-24.663 E5.13140
G1 X-24.663 Y-11.748 E5.18588
G1 X-24.663 Y-11.636 E5.18621
G1 X-11.636 Y-24.663 E5.24116
G1 X-11.523 Y-24.663 E5.24150
G1 X-24.663 Y-11.523 E5.29692
G1 X-24.663 Y-11.410 E5.29726
G1 X-11.410 Y-24.663 E5.35316
G1 X-11.298 Y-24.663 E5.35350
G1 X-24.663 Y-11.298 E5.40987
G1 X-24.663 Y-11.185 E5.41021
G1 X-11.185 Y-24.663 E5.46706
G1 X-11.072 Y-24.663 E5.46740
G1 X-24.663 Y-11.072 E5.52472
G1 X-24.663 Y-10.959 E5.52506
G1 X-10.959 Y-24.663 E5.58286
G1 X-10.847 Y-24.663 E5.58320
G1 X-24.663 Y-10.847 E5.64148
G1 X-24.663 Y-10.734 E5.64181
G1 X-10.734 Y-24.663 E5.70057
G1 X-10.621 Y-24.663 E5.70090
G1 X-24.663 Y-10.621 E5.76013
G1 X-24.663 Y-10.508 E5.76047
G1 X-10.508 Y-24.663 E5.82017
G1 X-10.396 Y-24.663 E5.82051
G1 X-24.663 Y-10.396 E5.88069
G1 X-24.663 Y-10.283 E5.88102
G1 X-10.283 Y-24.663 E5.94168
G1 X-10.170 Y-24.663 E5.94201
G1 X-24.663 Y-10.170 E6.00314
G1 X-24.663 Y-10.058 E6.00348
G1 X-10.058 Y-24.663 E6.06509
G1 X-9.945 Y-24.663 E6.06542
G1 X-24.663 Y-9.945 E6.12751
G1 X-24.663 Y-9.832 E6.12784
G1 X-9.832 Y-24.663 E6.19040
G1 X-9.719 Y-24.663 E6.19074
G1 X-24.663 Y-9.719 E6.25377
G1 X-24.663 Y-9.607 E6.25410
G1 X-9.607 Y-24.663 E6.31761
G1 X-9.494 Y-24.663 E6.31795
G1 X-24.663 Y-9.494 E6.38193
G1 X-24.663 Y-9.381 E6.38227
G1 X-9.381 Y-24.663 E6.44673
G1 X-9.268 Y-24.663 E6.44706
G1 X-24.663 Y-9.268 E6.51200
G1 X-24.663 Y-9.156 E6.51234
G1 X-9.156 Y-24.663 E6.57775
G1 X-9.043 Y-24.663 E6.57808
G1 X-24.663 Y-9.043 E6.64397
G1 X-24.663 Y-8.930 E6.64430
G1 X-8.930 Y-24.663 E6.71066
G1 X-8.817 Y-24.663 E6.71100
G1 X-24.663 Y-8.817 E6.77784
G1 X-24.663 Y-8.705 E6.77817
G1 X-8.705 Y-24.663 E6.84549
G1 X-8.592 Y-24.663 E6.84582
G1 X-24.663 Y-8.592 E6.91361
G1 X-24.663 Y-8.479 E6.91395
G1 X-8.479 Y-24.663 E6.98221
G1 X-8.367 Y-24.663 E6.98255
G1 X-24.663 Y-8.367 E7.05129
G1 X-24.663 Y-8.254 E7.05162
G1 X-8.254 Y-24.663 E7.12084
G1 X-8.141 Y-24.663 E7.12117
G1 X-24.663 Y-8.141 E7.19086
G1 X-24.663 Y-8.028 E7.19120
G1 X-8.028 Y-24.663 E7.26136
G1 X-7.916 Y-24.663 E7.26170
G1 X-24.663 Y-7.916 E7.33234
G1 X-24.663 Y-7.803 E7.33268
G1 X-7.803 Y-24.663 E7.40379
G1 X-7.690 Y-24.663 E7.40413
G1 X-24.663 Y-7.690 E7.47572
G1 X-24.663 Y-7.577 E7.47606
G1 X-7.577 Y-24.663 E7.54812
G1 X-7.465 Y-24.663 E7.54846
G1 X-24.663 Y-7.465 E7.62100
G1 X-24.663 Y-7.352 E7.62134
G1 X-7.352 Y-24.663 E7.69436
G1 X-7.239 Y-24.663 E7.69469
G1 X-24.663 Y-7.239 E7.76819
G1 X-24.663 Y-7.127 E7.76852
G1 X-7.127 Y-24.663 E7.84249
G1 X-7.014 Y-24.663 E7.84283
G1 X-24.663 Y-7.014 E7.91727
G1 X-24.663 Y-6.901 E7.91761
G1 X-6.901 Y-24.663 E7.99253
G1 X-6.788 Y-24.663 E7.99287
G1 X-24.663 Y-6.788 E8.06826
G1 X-24.663 Y-6.676 E8.06860
G1 X-6.676 Y-24.663 E8.14447
G1 X-6.563 Y-24.663 E8.14481
G1 X-24.663 Y-6.563 E8.22115
G1 X-24.663 Y-6.450 E8.22149
G1 X-6.450 Y-24.663 E8.29831
G1 X-6.337 Y-24.663 E8.29865
G1 X-24.663 Y-6.337 E8.37595
G1 X-24.663 Y-6.225 E8.37628
G1 X-6.225 Y-24.663 E8.45406
G1 X-6.112 Y-24.663 E8.45439
G1 X-24.663 Y-6.112 E8.53264
G1 X-24.663 Y-5.999 E8.53298
G1 X-5.999 Y-24.663 E8.61170
G1 X-5.886 Y-24.663 E8.61204
G1 X-24.663 Y-5.887 E8.69124
G1 X-24.663 Y-5.774 E8.69157
G1 X-5.774 Y-24.663 E8.77125
G1 X-5.661 Y-24.663 E8.77159
G1 X-24.663 Y-5.661 E8.85174
G1 X-24.663 Y-5.548 E8.85207
G1 X-5.548 Y-24.663 E8.93270
G1 X-5.436 Y-24.663 E8.93304
G1 X-24.663 Y-5.436 E9.01414
G1 X-24.663 Y-5.323 E9.01447
G1 X-5.323 Y-24.663 E9.09605
G1 X-5.210 Y-24.663 E9.09639
G1 X-24.663 Y-5.210 E9.17844
G1 X-24.663 Y-5.097 E9.17878
G1 X-5.097 Y-24.663 E9.26131
G1 X-4.985 Y-24.663 E9.26164
G1 X-24.663 Y-4.985 E9.34465
G1 X-24.663 Y-4.872 E9.34498
G1 X-4.872 Y-24.663 E9.42846
G1 X-4.759 Y-24.663 E9.42880
G1 X-24.663 Y-4.759 E9.51275
G1 X-24.663 Y-4.646 E9.51309
G1 X-4.646 Y-24.663 E9.59752
G1 X-4.534 Y-24.663 E9.59786
G1 X-24.663 Y-4.534 E9.68276
G1 X-24.663 Y-4.421 E9.68310
G1 X-4.421 Y-24.663 E9.76848
G1 X-4.308 Y-24.663 E9.76882
G1 X-24.663 Y-4.308 E9.85467
G1 X-24.663 Y-4.196 E9.85501
G1 X-4.196 Y-24.663 E9.94134
G1 X-4.083 Y-24.663 E9.94168
G1 X-24.663 Y-4.083 E10.02848
G1 X-24.663 Y-3.970 E10.02882
G1 X-3.970 Y-24.663 E10.11610
G1 X-3.857 Y-24.663 E10.11644
G1 X-24.663 Y-3.857 E10.20420
G1 X-24.663 Y-3.745 E10.20454
G1 X-3.745 Y-24.663 E10.29277
G1 X-3.632 Y-24.663 E10.29311
G1 X-24.663 Y-3.632 E10.38182
G1 X-24.663 Y-3.519 E10.38215
G1 X-3.519 Y-24.663 E10.47134
G1 X-3.406 Y-24.663 E10.47167
G1 X-24.663 Y-3.406 E10.56134
G1 X-24.663 Y-3.294 E10.56167
G1 X-3.294 Y-24.663 E10.65181
G1 X-3.181 Y-24.663 E10.65214
G1 X-24.663 Y-3.181 E10.74276
G1 X-24.663 Y-3.068 E10.74309
G1 X-3.068 Y-24.663 E10.83418
G1 X-2.956 Y-24.663 E10.83452
G1 X-24.663 Y-2.956 E10.92608
G1 X-24.663 Y-2.843 E10.92642
G1 X-2.843 Y-24.663 E11.01845
G1 X-2.730 Y-24.663 E11.01879
G1 X-24.663 Y-2.730 E11.11130
G1 X-24.663 Y-2.617 E11.11164
G1 X-2.617 Y-24.663 E11.20463
G1 X-2.505 Y-24.663 E11.20497
G1 X-24.663 Y-2.505 E11.29843
G1 X-24.663 Y-2.392 E11.29877
G1 X-2.392 Y-24.663 E11.39271
G1 X-2.279 Y-24.663 E11.39304
G1 X-24.663 Y-2.279 E11.48746
G1 X-24.663 Y-2.166 E11.48780
G1 X-2.166 Y-24.663 E11.58269
G1 X-2.054 Y-24.663 E11.58302
G1 X-24.663 Y-2.054 E11.67839
G1 X-24.663 Y-1.941 E11.67873
G1 X-1.941 Y-24.663 E11.77457
G1 X-1.828 Y-24.663 E11.77491
G1 X-24.663 Y-1.828 E11.87122
G1 X-24.663 Y-1.716 E11.87156
G1 X-1.715 Y-24.663 E11.96835
G1 X-1.603 Y-24.663 E11.96869
G1 X-24.663 Y-1.603 E12.06596
G1 X-24.663 Y-1.490 E12.06630
G1 X-1.490 Y-24.663 E12.16404
G1 X-1.377 Y-24.663 E12.16438
G1 X-24.663 Y-1.377 E12.26260
G1 X-24.663 Y-1.265 E12.26293
G1 X-1.265 Y-24.663 E12.36163
G1 X-1.152 Y-24.663 E12.36196
G1 X-24.663 Y-1.152 E12.46114
G1 X-24.663 Y-1.039 E12.46147
G1 X-1.039 Y-24.663 E12.56112
G1 X-0.926 Y-24.663 E12.56145
G1 X-24.663 Y-0.926 E12.66158
G1 X-24.663 Y-0.814 E12.66191
G1 X-0.814 Y-24.663 E12.76251
G1 X-0.701 Y-24.663 E12.76285
G1 X-24.663 Y-0.701 E12.86392
G1 X-24.663 Y-0.588 E12.86426
G1 X-0.588 Y-24.663 E12.96580
G1 X-0.475 Y-24.663 E12.96614
G1 X-24.663 Y-0.475 E13.06816
G1 X-24.663 Y-0.363 E13.06850
G1 X-0.363 Y-24.663 E13.17100
G1 X-0.250 Y-24.663 E13.17134
G1 X-24.663 Y-0.250 E13.27431
G1 X-24.663 Y-0.137 E13.27465
G1 X-0.137 Y-24.663 E13.37810
G1 X-0.025 Y-24.663 E13.37844
G1 X-24.663 Y-0.025 E13.48236
G1 X-24.663 Y0.088 E13.48270
G1 X0.088 Y-24.663 E13.58710
G1 X0.201 Y-24.663 E13.58744
G1 X-24.663 Y0.201 E13.69231
G1 X-24.663 Y0.314 E13.69265
G1 X0.314 Y-24.663 E13.79800
G1 X0.426 Y-24.663 E13.79834
G1 X-24.663 Y0.426 E13.90417
G1 X-24.663 Y0.539 E13.90450
G1 X0.539 Y-24.663 E14.01081
G1 X0.652 Y-24.663 E14.01114
G1 X-24.663 Y0.652 E14.11792
G1 X-24.663 Y0.765 E14.11826
G1 X0.765 Y-24.663 E14.22551
G1 X0.877 Y-24.663 E14.22585
G1 X-24.663 Y0.877 E14.33358
G1 X-24.663 Y0.990 E14.33391
G1 X0.990 Y-24.663 E14.44212
G1 X1.103 Y-24.663 E14.44246
G1 X-24.663 Y1.103 E14.55114
G1 X-24.663 Y1.215 E14.55147
G1 X1.215 Y-24.663 E14.66063
G1 X1.328 Y-24.663 E14.66097
G1 X-24.663 Y1.328 E14.77060
G1 X-24.663 Y1.441 E14.77093
G1 X1.441 Y-24.663 E14.88104
G1 X1.554 Y-24.663 E14.88138
G1 X-24.663 Y1.554 E14.99196
G1 X-24.663 Y1.666 E14.99230
