; generated by Slic3r 1.3.1-dev (Build 2ef957d) on 2019-11-25 at 18:37:22

; external perimeters extrusion width = 0.55mm (1.90mm^3/s)
; perimeters extrusion width = 0.70mm (2.71mm^3/s)
; infill extrusion width = 0.62mm (2.41mm^3/s)
; solid infill extrusion width = 0.70mm (2.04mm^3/s)
; top infill extrusion width = 0.70mm (2.04mm^3/s)

M107
G92 E0
;D3D:START:START
T0
M104 S215 T0

G21
G90
M107
T0
G28
G29
M109 T0 S215 T0
G0 F3000
M107
T0
G92 E0
G0 X0 Y149 Z0.1 F3600
G1 Y49 E6.5 F1200
G0 Z1
G92 E0
; Filament gcode

G21 ; set units to millimeters
G90 ; use absolute coordinates
M82 ; use absolute distances for extrusion
G92 E0
G1 Z0.090 F7800.000
G1 E-2.00000 F2400.00000
G92 E0
G1 X-2.813 Y-5.390 F7800.000
G1 E2.00000 F2400.00000
G1 F1800.000
G1 X0.000 Y-6.080 E2.00864
G1 X50.000 Y-6.080 E2.15772
G1 X52.160 Y-5.683 E2.16427
G1 X54.038 Y-4.545 E2.17082
G1 X55.390 Y-2.813 E2.17737
G1 X56.080 Y0.000 E2.18600
G1 X56.080 Y50.000 E2.33508
G1 X55.683 Y52.160 E2.34163
G1 X54.545 Y54.038 E2.34818
G1 X52.813 Y55.390 E2.35473
G1 X50.000 Y56.080 E2.36337
G1 X0.000 Y56.080 E2.51245
G1 X-2.160 Y55.683 E2.51900
G1 X-4.038 Y54.545 E2.52555
G1 X-5.390 Y52.813 E2.53210
G1 X-6.080 Y50.000 E2.54073
G1 X-6.080 Y0.000 E2.68982
G1 X-5.683 Y-2.160 E2.69636
G1 X-4.545 Y-4.038 E2.70291
G1 X-2.872 Y-5.344 E2.70924
G1 E0.70924 F2400.00000
G92 E0
G1 X0.289 Y0.289 F7800.000
G1 E2.00000 F2400.00000
G1 F1800.000
G1 X49.711 Y0.289 E2.14736
G1 X49.711 Y49.711 E2.29472
G1 X0.289 Y49.711 E2.44209
G1 X0.289 Y0.364 E2.58922
G1 X0.209 Y0.209 F7800.000
G1 F1800.000
G1 X49.791 Y0.209 E2.73706
G1 X49.791 Y49.791 E2.88490
G1 X0.209 Y49.791 E3.03274
G1 X0.209 Y0.284 E3.18035
G1 X0.129 Y0.129 F7800.000
G1 F1800.000
G1 X49.871 Y0.129 E3.32866
G1 X49.871 Y49.871 E3.47698
G1 X0.129 Y49.871 E3.62529
G1 X0.129 Y0.204 E3.77338
G1 X0.049 Y0.049 F7800.000
G1 F1800.000
G1 X49.950 Y0.049 E3.92216
G1 X49.950 Y49.950 E4.07095
G1 X0.049 Y49.950 E4.21974
G1 X0.049 Y0.124 E4.36830
G1 X0.532 Y0.179 F7800.000
G1 X0.400 Y0.337 F7800.000
G1 F1800.000
G1 X0.337 Y0.400 E4.36857
G1 X0.337 Y0.513 E4.36891
G1 X0.513 Y0.337 E4.36965
G1 X0.626 Y0.337 E4.36998
G1 X0.337 Y0.626 E4.37120
G1 X0.337 Y0.739 E4.37154
G1 X0.739 Y0.337 E4.37323
G1 X0.851 Y0.337 E4.37357
G1 X0.337 Y0.851 E4.37574
G1 X0.337 Y0.964 E4.37607
G1 X0.964 Y0.337 E4.37872
G1 X1.077 Y0.337 E4.37905
G1 X0.337 Y1.077 E4.38217
G1 X0.337 Y1.189 E4.38251
G1 X1.189 Y0.337 E4.38610
G1 X1.302 Y0.337 E4.38644
G1 X0.337 Y1.302 E4.39051
G1 X0.337 Y1.415 E4.39084
G1 X1.415 Y0.337 E4.39539
G1 X1.528 Y0.337 E4.39573
G1 X0.337 Y1.528 E4.40075
G1 X0.337 Y1.640 E4.40108
G1 X1.640 Y0.337 E4.40658
G1 X1.753 Y0.337 E4.40692
G1 X0.337 Y1.753 E4.41289
G1 X0.337 Y1.866 E4.41323
G1 X1.866 Y0.337 E4.41967
G1 X1.979 Y0.337 E4.42001
G1 X0.337 Y1.979 E4.42693
G1 X0.337 Y2.091 E4.42727
G1 X2.091 Y0.337 E4.43467
G1 X2.204 Y0.337 E4.43500
G1 X0.337 Y2.204 E4.44288
G1 X0.337 Y2.317 E4.44321
G1 X2.317 Y0.337 E4.45156
G1 X2.429 Y0.337 E4.45190
G1 X0.337 Y2.429 E4.46073
G1 X0.337 Y2.542 E4.46106
G1 X2.542 Y0.337 E4.47036
G1 X2.655 Y0.337 E4.47070
G1 X0.337 Y2.655 E4.48048
G1 X0.337 Y2.768 E4.48081
G1 X2.768 Y0.337 E4.49106
G1 X2.880 Y0.337 E4.49140
G1 X0.337 Y2.880 E4.50213
G1 X0.337 Y2.993 E4.50246
G1 X2.993 Y0.337 E4.51367
G1 X3.106 Y0.337 E4.51400
G1 X0.337 Y3.106 E4.52568
G1 X0.337 Y3.219 E4.52602
G1 X3.219 Y0.337 E4.53817
G1 X3.331 Y0.337 E4.53851
G1 X0.337 Y3.331 E4.55114
G1 X0.337 Y3.444 E4.55147
G1 X3.444 Y0.337 E4.56458
G1 X3.557 Y0.337 E4.56491
G1 X0.337 Y3.557 E4.57849
G1 X0.337 Y3.670 E4.57883
G1 X3.670 Y0.337 E4.59289
G1 X3.782 Y0.337 E4.59322
G1 X0.337 Y3.782 E4.60775
G1 X0.337 Y3.895 E4.60809
G1 X3.895 Y0.337 E4.62310
G1 X4.008 Y0.337 E4.62343
G1 X0.337 Y4.008 E4.63892
G1 X0.337 Y4.120 E4.63925
G1 X4.120 Y0.337 E4.65521
G1 X4.233 Y0.337 E4.65555
G1 X0.337 Y4.233 E4.67198
G1 X0.337 Y4.346 E4.67232
G1 X4.346 Y0.337 E4.68922
G1 X4.459 Y0.337 E4.68956
G1 X0.337 Y4.459 E4.70695
G1 X0.337 Y4.571 E4.70728
G1 X4.571 Y0.337 E4.72514
G1 X4.684 Y0.337 E4.72548
G1 X0.337 Y4.684 E4.74381
G1 X0.337 Y4.797 E4.74415
G1 X4.797 Y0.337 E4.76296
G1 X4.910 Y0.337 E4.76330
G1 X0.337 Y4.910 E4.78258
G1 X0.337 Y5.022 E4.78292
G1 X5.022 Y0.337 E4.80268
G1 X5.135 Y0.337 E4.80302
G1 X0.337 Y5.135 E4.82325
G1 X0.337 Y5.248 E4.82359
G1 X5.248 Y0.337 E4.84430
G1 X5.360 Y0.337 E4.84464
G1 X0.337 Y5.360 E4.86583
G1 X0.337 Y5.473 E4.86616
G1 X5.473 Y0.337 E4.88783
G1 X5.586 Y0.337 E4.88817
G1 X0.337 Y5.586 E4.91030
G1 X0.337 Y5.699 E4.91064
G1 X5.699 Y0.337 E4.93326
G1 X5.811 Y0.337 E4.93359
G1 X0.337 Y5.811 E4.95668
G1 X0.337 Y5.924 E4.95702
G1 X5.924 Y0.337 E4.98058
G1 X6.037 Y0.337 E4.98092
G1 X0.337 Y6.037 E5.00496
G1 X0.337 Y6.150 E5.00530
G1 X6.150 Y0.337 E5.02982
G1 X6.262 Y0.337 E5.03015
G1 X0.337 Y6.262 E5.05514
G1 X0.337 Y6.375 E5.05548
G1 X6.375 Y0.337 E5.08095
G1 X6.488 Y0.337 E5.08128
G1 X0.337 Y6.488 E5.10723
G1 X0.337 Y6.600 E5.10756
G1 X6.600 Y0.337 E5.13398
G1 X6.713 Y0.337 E5.13432
G1 X0.337 Y6.713 E5.16121
G1 X0.337 Y6.826 E5.16155
G1 X6.826 Y0.337 E5.18892
G1 X6.939 Y0.337 E5.18926
G1 X0.337 Y6.939 E5.21710
G1 X0.337 Y7.051 E5.21744
G1 X7.051 Y0.337 E5.24576
G1 X7.164 Y0.337 E5.24610
G1 X0.337 Y7.164 E5.27489
G1 X0.337 Y7.277 E5.27523
G1 X7.277 Y0.337 E5.30450
G1 X7.390 Y0.337 E5.30484
G1 X0.337 Y7.390 E5.33458
G1 X0.337 Y7.502 E5.33492
G1 X7.502 Y0.337 E5.36514
G1 X7.615 Y0.337 E5.36548
G1 X0.337 Y7.615 E5.39618
G1 X0.337 Y7.728 E5.39651
G1 X7.728 Y0.337 E5.42769
G1 X7.841 Y0.337 E5.42802
G1 X0.337 Y7.841 E5.45967
G1 X0.337 Y7.953 E5.46001
G1 X7.953 Y0.337 E5.49213
G1 X8.066 Y0.337 E5.49247
G1 X0.337 Y8.066 E5.52507
G1 X0.337 Y8.179 E5.52541
G1 X8.179 Y0.337 E5.55848
G1 X8.291 Y0.337 E5.55882
G1 X0.337 Y8.291 E5.59237
G1 X0.337 Y8.404 E5.59271
G1 X8.404 Y0.337 E5.62674
G1 X8.517 Y0.337 E5.62707
G1 X0.337 Y8.517 E5.66157
G1 X0.337 Y8.630 E5.66191
G1 X8.630 Y0.337 E5.69689
G1 X8.742 Y0.337 E5.69722
G1 X0.337 Y8.742 E5.73268
G1 X0.337 Y8.855 E5.73301
G1 X8.855 Y0.337 E5.76894
G1 X8.968 Y0.337 E5.76928
G1 X0.337 Y8.968 E5.80568
G1 X0.337 Y9.081 E5.80602
G1 X9.081 Y0.337 E5.84290
G1 X9.193 Y0.337 E5.84324
G1 X0.337 Y9.193 E5.88059
G1 X0.337 Y9.306 E5.88093
G1 X9.306 Y0.337 E5.91876
G1 X9.419 Y0.337 E5.91910
G1 X0.337 Y9.419 E5.95740
G1 X0.337 Y9.531 E5.95774
G1 X9.531 Y0.337 E5.99652
G1 X9.644 Y0.337 E5.99686
G1 X0.337 Y9.644 E6.03611
G1 X0.337 Y9.757 E6.03645
G1 X9.757 Y0.337 E6.07618
G1 X9.870 Y0.337 E6.07652
G1 X0.337 Y9.870 E6.11673
G1 X0.337 Y9.982 E6.11706
G1 X9.982 Y0.337 E6.15775
G1 X10.095 Y0.337 E6.15808
G1 X0.337 Y10.095 E6.19924
G1 X0.337 Y10.208 E6.19958
G1 X10.208 Y0.337 E6.24122
G1 X10.321 Y0.337 E6.24155
G1 X0.337 Y10.321 E6.28366
G1 X0.337 Y10.433 E6.28400
G1 X10.433 Y0.337 E6.32658
G1 X10.546 Y0.337 E6.32692
G1 X0.337 Y10.546 E6.36998
G1 X0.337 Y10.659 E6.37032
G1 X10.659 Y0.337 E6.41386
G1 X10.771 Y0.337 E6.41419
G1 X0.337 Y10.771 E6.45820
G1 X0.337 Y10.884 E6.45854
G1 X10.884 Y0.337 E6.50303
G1 X10.997 Y0.337 E6.50337
G1 X0.337 Y10.997 E6.54833
G1 X0.337 Y11.110 E6.54867
G1 X11.110 Y0.337 E6.59410
G1 X11.222 Y0.337 E6.59444
G1 X0.337 Y11.222 E6.64036
G1 X0.337 Y11.335 E6.64069
G1 X11.335 Y0.337 E6.68708
G1 X11.448 Y0.337 E6.68742
G1 X0.337 Y11.448 E6.73428
G1 X0.337 Y11.561 E6.73462
G1 X11.561 Y0.337 E6.78196
G1 X11.673 Y0.337 E6.78230
G1 X0.337 Y11.673 E6.83011
G1 X0.337 Y11.786 E6.83045
G1 X11.786 Y0.337 E6.87874
G1 X11.899 Y0.337 E6.87908
G1 X0.337 Y11.899 E6.92785
G1 X0.337 Y12.012 E6.92818
G1 X12.012 Y0.337 E6.97743
G1 X12.124 Y0.337 E6.97776
G1 X0.337 Y12.124 E7.02748
G1 X0.337 Y12.237 E7.02782
G1 X12.237 Y0.337 E7.07801
G1 X12.350 Y0.337 E7.07835
G1 X0.337 Y12.350 E7.12902
G1 X0.337 Y12.462 E7.12935
G1 X12.462 Y0.337 E7.18050
G1 X12.575 Y0.337 E7.18083
G1 X0.337 Y12.575 E7.23245
G1 X0.337 Y12.688 E7.23279
G1 X12.688 Y0.337 E7.28489
G1 X12.801 Y0.337 E7.28522
G1 X0.337 Y12.801 E7.33780
G1 X0.337 Y12.913 E7.33813
G1 X12.913 Y0.337 E7.39118
G1 X13.026 Y0.337 E7.39151
G1 X0.337 Y13.026 E7.44504
G1 X0.337 Y13.139 E7.44537
G1 X13.139 Y0.337 E7.49937
G1 X13.252 Y0.337 E7.49971
G1 X0.337 Y13.252 E7.55418
G1 X0.337 Y13.364 E7.55452
G1 X13.364 Y0.337 E7.60947
G1 X13.477 Y0.337 E7.60980
G1 X0.337 Y13.477 E7.66523
G1 X0.337 Y13.590 E7.66556
G1 X13.590 Y0.337 E7.72146
G1 X13.702 Y0.337 E7.72180
G1 X0.337 Y13.702 E7.77818
G1 X0.337 Y13.815 E7.77851
G1 X13.815 Y0.337 E7.83536
G1 X13.928 Y0.337 E7.83570
G1 X0.337 Y13.928 E7.89303
G1 X0.337 Y14.041 E7.89336
G1 X14.041 Y0.337 E7.95117
G1 X14.153 Y0.337 E7.95150
G1 X0.337 Y14.153 E8.00978
G1 X0.337 Y14.266 E8.01012
G1 X14.266 Y0.337 E8.06887
G1 X14.379 Y0.337 E8.06921
G1 X0.337 Y14.379 E8.12843
G1 X0.337 Y14.492 E8.12877
G1 X14.492 Y0.337 E8.18847
G1 X14.604 Y0.337 E8.18881
G1 X0.337 Y14.604 E8.24899
G1 X0.337 Y14.717 E8.24933
G1 X14.717 Y0.337 E8.30998
G1 X14.830 Y0.337 E8.31032
G1 X0.337 Y14.830 E8.37145
G1 X0.337 Y14.942 E8.37179
G1 X14.942 Y0.337 E8.43339
G1 X15.055 Y0.337 E8.43373
G1 X0.337 Y15.055 E8.49581
G1 X0.337 Y15.168 E8.49615
G1 X15.168 Y0.337 E8.55870
G1 X15.281 Y0.337 E8.55904
G1 X0.337 Y15.281 E8.62207
G1 X0.337 Y15.393 E8.62241
G1 X15.393 Y0.337 E8.68592
G1 X15.506 Y0.337 E8.68625
G1 X0.337 Y15.506 E8.75024
G1 X0.337 Y15.619 E8.75057
G1 X15.619 Y0.337 E8.81503
G1 X15.732 Y0.337 E8.81537
G1 X0.337 Y15.732 E8.88030
G1 X0.337 Y15.844 E8.88064
G1 X15.844 Y0.337 E8.94605
G1 X15.957 Y0.337 E8.94639
G1 X0.337 Y15.957 E9.01227
G1 X0.337 Y16.070 E9.01261
G1 X16.070 Y0.337 E9.07897
G1 X16.183 Y0.337 E9.07931
G1 X0.337 Y16.183 E9.14614
G1 X0.337 Y16.295 E9.14648
G1 X16.295 Y0.337 E9.21379
G1 X16.408 Y0.337 E9.21413
G1 X0.337 Y16.408 E9.28191
G1 X0.337 Y16.521 E9.28225
G1 X16.521 Y0.337 E9.35051
G1 X16.633 Y0.337 E9.35085
G1 X0.337 Y16.633 E9.41959
G1 X0.337 Y16.746 E9.41993
G1 X16.746 Y0.337 E9.48914
G1 X16.859 Y0.337 E9.48948
G1 X0.337 Y16.859 E9.55917
G1 X0.337 Y16.972 E9.55950
G1 X16.972 Y0.337 E9.62967
G1 X17.084 Y0.337 E9.63000
G1 X0.337 Y17.084 E9.70064
G1 X0.337 Y17.197 E9.70098
G1 X17.197 Y0.337 E9.77210
G1 X17.310 Y0.337 E9.77243
G1 X0.337 Y17.310 E9.84402
G1 X0.337 Y17.423 E9.84436
G1 X17.423 Y0.337 E9.91643
G1 X17.535 Y0.337 E9.91676
G1 X0.337 Y17.535 E9.98931
G1 X0.337 Y17.648 E9.98964
G1 X17.648 Y0.337 E10.06266
G1 X17.761 Y0.337 E10.06300
G1 X0.337 Y17.761 E10.13649
G1 X0.337 Y17.873 E10.13683
G1 X17.873 Y0.337 E10.21080
G1 X17.986 Y0.337 E10.21113
G1 X0.337 Y17.986 E10.28558
G1 X0.337 Y18.099 E10.28592
G1 X18.099 Y0.337 E10.36084
G1 X18.212 Y0.337 E10.36117
G1 X0.337 Y18.212 E10.43657
G1 X0.337 Y18.324 E10.43690
G1 X18.324 Y0.337 E10.51278
G1 X18.437 Y0.337 E10.51311
G1 X0.337 Y18.437 E10.58946
G1 X0.337 Y18.550 E10.58979
G1 X18.550 Y0.337 E10.66662
G1 X18.663 Y0.337 E10.66695
G1 X0.337 Y18.663 E10.74425
G1 X0.337 Y18.775 E10.74459
G1 X18.775 Y0.337 E10.82236
G1 X18.888 Y0.337 E10.82270
G1 X0.337 Y18.888 E10.90095
G1 X0.337 Y19.001 E10.90128
G1 X19.001 Y0.337 E10.98001
G1 X19.114 Y0.337 E10.98034
G1 X0.337 Y19.113 E11.05954
G1 X0.337 Y19.226 E11.05988
G1 X19.226 Y0.337 E11.13955
G1 X19.339 Y0.337 E11.13989
G1 X0.337 Y19.339 E11.22004
G1 X0.337 Y19.452 E11.22038
G1 X19.452 Y0.337 E11.30100
G1 X19.564 Y0.337 E11.30134
G1 X0.337 Y19.564 E11.38244
G1 X0.337 Y19.677 E11.38278
G1 X19.677 Y0.337 E11.46436
G1 X19.790 Y0.337 E11.46469
G1 X0.337 Y19.790 E11.54674
G1 X0.337 Y19.903 E11.54708
G1 X19.903 Y0.337 E11.62961
G1 X20.015 Y0.337 E11.62995
G1 X0.337 Y20.015 E11.71295
G1 X0.337 Y20.128 E11.71329
G1 X20.128 Y0.337 E11.79677
G1 X20.241 Y0.337 E11.79710
G1 X0.337 Y20.241 E11.88106
G1 X0.337 Y20.354 E11.88139
G1 X20.354 Y0.337 E11.96582
G1 X20.466 Y0.337 E11.96616
G1 X0.337 Y20.466 E12.05107
G1 X0.337 Y20.579 E12.05140
G1 X20.579 Y0.337 E12.13678
G1 X20.692 Y0.337 E12.13712
G1 X0.337 Y20.692 E12.22298
G1 X0.337 Y20.804 E12.22331
G1 X20.804 Y0.337 E12.30964
G1 X20.917 Y0.337 E12.30998
G1 X0.337 Y20.917 E12.39679
G1 X0.337 Y21.030 E12.39713
G1 X21.030 Y0.337 E12.48441
G1 X21.143 Y0.337 E12.48474
G1 X0.337 Y21.143 E12.57250
G1 X0.337 Y21.255 E12.57284
G1 X21.255 Y0.337 E12.66107
G1 X21.368 Y0.337 E12.66141
G1 X0.337 Y21.368 E12.75012
G1 X0.337 Y21.481 E12.75046
G1 X21.481 Y0.337 E12.83964
G1 X21.594 Y0.337 E12.83998
G1 X0.337 Y21.594 E12.92964
G1 X0.337 Y21.706 E12.92998
G1 X21.706 Y0.337 E13.02011
G1 X21.819 Y0.337 E13.02045
G1 X0.337 Y21.819 E13.11106
G1 X0.337 Y21.932 E13.11140
G1 X21.932 Y0.337 E13.20248
G1 X22.044 Y0.337 E13.20282
G1 X0.337 Y22.044 E13.29438
G1 X0.337 Y22.157 E13.29472
G1 X22.157 Y0.337 E13.38676
G1 X22.270 Y0.337 E13.38709
G1 X0.337 Y22.270 E13.47961
G1 X0.337 Y22.383 E13.47994
G1 X22.383 Y0.337 E13.57293
G1 X22.495 Y0.337 E13.57327
G1 X0.337 Y22.495 E13.66674
G1 X0.337 Y22.608 E13.66707
G1 X22.608 Y0.337 E13.76101
G1 X22.721 Y0.337 E13.76135
G1 X0.337 Y22.721 E13.85576
G1 X0.337 Y22.834 E13.85610
G1 X22.834 Y0.337 E13.95099
G1 X22.946 Y0.337 E13.95133
G1 X0.337 Y22.946 E14.04670
G1 X0.337 Y23.059 E14.04703
G1 X23.059 Y0.337 E14.14287
G1 X23.172 Y0.337 E14.14321
G1 X0.337 Y23.172 E14.23953
G1 X0.337 Y23.284 E14.23986
G1 X23.285 Y0.337 E14.33666
G1 X23.397 Y0.337 E14.33699
G1 X0.337 Y23.397 E14.43426
G1 X0.337 Y23.510 E14.43460
G1 X23.510 Y0.337 E14.53234
G1 X23.623 Y0.337 E14.53268
G1 X0.337 Y23.623 E14.63090
G1 X0.337 Y23.735 E14.63124
G1 X23.735 Y0.337 E14.72993
G1 X23.848 Y0.337 E14.73027
G1 X0.337 Y23.848 E14.82944
G1 X0.337 Y23.961 E14.82978
G1 X23.961 Y0.337 E14.92942
G1 X24.074 Y0.337 E14.92976
G1 X0.337 Y24.074 E15.02988
G1 X0.337 Y24.186 E15.03022
G1 X24.186 Y0.337 E15.13081
G1 X24.299 Y0.337 E15.13115
G1 X0.337 Y24.299 E15.23222
G1 X0.337 Y24.412 E15.23256
G1 X24.412 Y0.337 E15.33411
G1 X24.525 Y0.337 E15.33444
G1 X0.337 Y24.525 E15.43647
G1 X0.337 Y24.637 E15.43681
G1 X24.637 Y0.337 E15.53930
G1 X24.750 Y0.337 E15.53964
G1 X0.337 Y24.750 E15.64262
G1 X0.337 Y24.863 E15.64295
G1 X24.863 Y0.337 E15.74640
G1 X24.975 Y0.337 E15.74674
G1 X0.337 Y24.975 E15.85067
G1 X0.337 Y25.088 E15.85100
G1 X25.088 Y0.337 E15.95540
G1 X25.201 Y0.337 E15.95574
G1 X0.337 Y25.201 E16.06062
G1 X0.337 Y25.314 E16.06095
G1 X25.314 Y0.337 E16.16631
G1 X25.426 Y0.337 E16.16664
G1 X0.337 Y25.426 E16.27247
G1 X0.337 Y25.539 E16.27281
G1 X25.539 Y0.337 E16.37911
G1 X25.652 Y0.337 E16.37945
G1 X0.337 Y25.652 E16.48622
G1 X0.337 Y25.765 E16.48656
G1 X25.765 Y0.337 E16.59382
G1 X25.877 Y0.337 E16.59415
G1 X0.337 Y25.877 E16.70188
G1 X0.337 Y25.990 E16.70222
G1 X25.990 Y0.337 E16.81042
G1 X26.103 Y0.337 E16.81076
G1 X0.337 Y26.103 E16.91944
G1 X0.337 Y26.215 E16.91978
G1 X26.215 Y0.337 E17.02893
G1 X26.328 Y0.337 E17.02927
G1 X0.337 Y26.328 E17.13890
G1 X0.337 Y26.441 E17.13924
G1 X26.441 Y0.337 E17.24935
G1 X26.554 Y0.337 E17.24968
G1 X0.337 Y26.554 E17.36027
G1 X0.337 Y26.666 E17.36060
G1 X26.666 Y0.337 E17.47166
G1 X26.779 Y0.337 E17.47200
G1 X0.337 Y26.779 E17.58353
G1 X0.337 Y26.892 E17.58387
G1 X26.892 Y0.337 E17.69588
G1 X27.005 Y0.337 E17.69621
G1 X0.337 Y27.005 E17.80870
G1 X0.337 Y27.117 E17.80903
G1 X27.117 Y0.337 E17.92199
G1 X27.230 Y0.337 E17.92233
G1 X0.337 Y27.230 E18.03577
G1 X0.337 Y27.343 E18.03610
G1 X27.343 Y0.337 E18.15002
G1 X27.456 Y0.337 E18.15035
G1 X0.337 Y27.455 E18.26474
G1 X0.337 Y27.568 E18.26507
G1 X27.568 Y0.337 E18.37994
G1 X27.681 Y0.337 E18.38027
G1 X0.337 Y27.681 E18.49561
G1 X0.337 Y27.794 E18.49595
G1 X27.794 Y0.337 E18.61176
G1 X27.906 Y0.337 E18.61210
G1 X0.337 Y27.906 E18.72839
G1 X0.337 Y28.019 E18.72872
G1 X28.019 Y0.337 E18.84549
G1 X28.132 Y0.337 E18.84582
G1 X0.337 Y28.132 E18.96306
G1 X0.337 Y28.245 E18.96340
G1 X28.245 Y0.337 E19.08112
G1 X28.357 Y0.337 E19.08145
G1 X0.337 Y28.357 E19.19964
G1 X0.337 Y28.470 E19.19998
G1 X28.470 Y0.337 E19.31865
G1 X28.583 Y0.337 E19.31898
G1 X0.337 Y28.583 E19.43813
G1 X0.337 Y28.696 E19.43846
G1 X28.696 Y0.337 E19.55808
G1 X28.808 Y0.337 E19.55842
G1 X0.337 Y28.808 E19.67851
G1 X0.337 Y28.921 E19.67885
G1 X28.921 Y0.337 E19.79941
G1 X29.034 Y0.337 E19.79975
G1 X0.337 Y29.034 E19.92079
G1 X0.337 Y29.146 E19.92113
G1 X29.146 Y0.337 E20.04265
G1 X29.259 Y0.337 E20.04299
G1 X0.337 Y29.259 E20.16498
G1 X0.337 Y29.372 E20.16532
G1 X29.372 Y0.337 E20.28779
G1 X29.485 Y0.337 E20.28812
