; generated by Slic3r 1.3.1-dev (Build 2ef957d) on 2019-11-25 at 16:25:54

; external perimeters extrusion width = 0.55mm (4.37mm^3/s)
; perimeters extrusion width = 0.70mm (11.44mm^3/s)
; infill extrusion width = 0.62mm (13.45mm^3/s)
; solid infill extrusion width = 0.70mm (3.81mm^3/s)
; top infill extrusion width = 0.70mm (2.86mm^3/s)

M107
G92 E0
M104 S200 ; set temperature
G28 ; home all axes
G1 Z5 F5000 ; lift nozzle

; Filament gcode

M109 S200 ; set temperature and wait for it to be reached
G21 ; set units to millimeters
G90 ; use absolute coordinates
M82 ; use absolute distances for extrusion
G92 E0
G1 Z0.350 F7800.000
G1 E-2.00000 F2400.00000
G92 E0
G1 X61.668 Y74.274 F7800.000
G1 E2.00000 F2400.00000
G1 F1800.000
G1 X63.820 Y73.481 E2.07096
G1 X65.000 Y73.375 E2.10761
G1 X135.000 Y73.375 E4.27351
G1 X137.259 Y73.772 E4.34447
G1 X139.247 Y74.915 E4.41543
G1 X140.726 Y76.668 E4.48639
G1 X141.519 Y78.820 E4.55735
G1 X141.625 Y80.000 E4.59401
G1 X141.625 Y120.000 E5.83166
G1 X141.228 Y122.259 E5.90262
G1 X140.085 Y124.247 E5.97358
G1 X138.332 Y125.726 E6.04455
G1 X136.180 Y126.519 E6.11551
G1 X135.000 Y126.625 E6.15216
G1 X65.000 Y126.625 E8.31805
G1 X62.741 Y126.228 E8.38901
G1 X60.753 Y125.085 E8.45998
G1 X59.274 Y123.332 E8.53094
G1 X58.481 Y121.180 E8.60190
G1 X58.375 Y120.000 E8.63855
G1 X58.375 Y80.000 E9.87620
G1 X58.772 Y77.741 E9.94717
G1 X59.915 Y75.753 E10.01813
G1 X61.611 Y74.322 E10.08677
G1 E8.08677 F2400.00000
G92 E0
G1 X125.202 Y113.201 F7800.000
G1 E2.00000 F2400.00000
G1 F1800.000
G1 X124.598 Y113.182 E2.01868
G1 X124.009 Y113.050 E2.03736
G1 X123.455 Y112.810 E2.05603
G1 X122.956 Y112.471 E2.07471
G1 X122.529 Y112.044 E2.09338
G1 X122.190 Y111.545 E2.11206
G1 X121.960 Y111.014 E2.12995
G1 X121.854 Y110.600 E2.14319
G1 X121.800 Y110.176 E2.15641
G1 X121.818 Y109.598 E2.17430
G1 X121.950 Y109.009 E2.19298
G1 X122.180 Y108.478 E2.21087
G1 X122.409 Y108.117 E2.22409
G1 X122.681 Y107.788 E2.23732
G1 X123.115 Y107.405 E2.25522
G1 X123.635 Y107.098 E2.27390
G1 X124.202 Y106.894 E2.29257
G1 X124.774 Y106.803 E2.31046
G1 X125.201 Y106.803 E2.32369
G1 X125.625 Y106.857 E2.33691
G1 X126.181 Y107.018 E2.35481
G1 X126.718 Y107.292 E2.37348
G1 X127.195 Y107.662 E2.39216
G1 X127.594 Y108.115 E2.41084
G1 X127.902 Y108.635 E2.42951
G1 X128.106 Y109.203 E2.44819
G1 X128.201 Y109.798 E2.46686
G1 X128.182 Y110.402 E2.48553
G1 X128.050 Y110.991 E2.50421
G1 X127.820 Y111.522 E2.52211
G1 X127.591 Y111.883 E2.53533
G1 X127.319 Y112.212 E2.54856
G1 X126.885 Y112.595 E2.56646
G1 X126.365 Y112.902 E2.58513
G1 X125.798 Y113.106 E2.60380
G1 X125.276 Y113.189 E2.62015
G1 X125.162 Y112.574 F7800.000
G1 F1800.000
G1 X124.677 Y112.559 E2.63518
G1 X124.203 Y112.453 E2.65020
G1 X123.757 Y112.260 E2.66522
G1 X123.356 Y111.987 E2.68024
G1 X123.013 Y111.644 E2.69526
G1 X122.740 Y111.243 E2.71028
G1 X122.553 Y110.811 E2.72482
G1 X122.469 Y110.483 E2.73532
G1 X122.426 Y110.146 E2.74580
G1 X122.441 Y109.677 E2.76034
G1 X122.547 Y109.203 E2.77537
G1 X122.734 Y108.772 E2.78991
G1 X122.915 Y108.485 E2.80040
G1 X123.131 Y108.224 E2.81088
G1 X123.484 Y107.913 E2.82543
G1 X123.902 Y107.666 E2.84045
G1 X124.359 Y107.502 E2.85547
G1 X124.823 Y107.428 E2.87001
G1 X125.162 Y107.428 E2.88051
G1 X125.498 Y107.471 E2.89099
G1 X125.949 Y107.602 E2.90554
G1 X126.382 Y107.822 E2.92056
G1 X126.766 Y108.120 E2.93558
G1 X127.087 Y108.484 E2.95060
G1 X127.334 Y108.902 E2.96562
G1 X127.498 Y109.359 E2.98064
G1 X127.574 Y109.838 E2.99566
G1 X127.559 Y110.323 E3.01068
G1 X127.453 Y110.797 E3.02570
G1 X127.266 Y111.228 E3.04024
G1 X127.085 Y111.515 E3.05073
G1 X126.869 Y111.776 E3.06122
G1 X126.516 Y112.087 E3.07577
G1 X126.098 Y112.334 E3.09079
G1 X125.641 Y112.498 E3.10581
G1 X125.236 Y112.562 E3.11850
G1 X125.123 Y111.948 F7800.000
G1 F1800.000
G1 X124.755 Y111.936 E3.12987
G1 X124.397 Y111.856 E3.14123
G1 X124.060 Y111.710 E3.15260
G1 X123.756 Y111.504 E3.16397
G1 X123.496 Y111.244 E3.17533
G1 X123.290 Y110.940 E3.18670
G1 X123.146 Y110.608 E3.19789
G1 X123.084 Y110.365 E3.20564
G1 X123.053 Y110.117 E3.21339
G1 X123.064 Y109.755 E3.22458
G1 X123.144 Y109.397 E3.23595
G1 X123.288 Y109.065 E3.24714
G1 X123.422 Y108.853 E3.25489
G1 X123.581 Y108.660 E3.26264
G1 X123.853 Y108.421 E3.27384
G1 X124.169 Y108.234 E3.28521
G1 X124.515 Y108.110 E3.29657
G1 X124.872 Y108.053 E3.30776
G1 X125.123 Y108.053 E3.31552
G1 X125.371 Y108.085 E3.32326
G1 X125.718 Y108.185 E3.33446
G1 X126.046 Y108.352 E3.34582
G1 X126.336 Y108.577 E3.35719
G1 X126.579 Y108.853 E3.36855
G1 X126.766 Y109.169 E3.37992
G1 X126.890 Y109.515 E3.39128
G1 X126.948 Y109.877 E3.40265
G1 X126.936 Y110.245 E3.41401
G1 X126.856 Y110.603 E3.42538
G1 X126.712 Y110.935 E3.43657
G1 X126.578 Y111.147 E3.44432
G1 X126.419 Y111.340 E3.45207
G1 X126.147 Y111.579 E3.46327
G1 X125.831 Y111.766 E3.47464
G1 X125.485 Y111.890 E3.48600
G1 X125.197 Y111.936 E3.49504
G1 X125.123 Y111.948 F7800.000
G1 E1.49504 F2400.00000
G92 E0
G1 X125.123 Y93.197 F7800.000
G1 E2.00000 F2400.00000
G1 F1800.000
G1 X124.799 Y93.197 E2.01002
G1 X124.375 Y93.143 E2.02324
G1 X123.819 Y92.982 E2.04114
G1 X123.282 Y92.708 E2.05981
G1 X122.805 Y92.338 E2.07849
G1 X122.406 Y91.885 E2.09717
G1 X122.098 Y91.365 E2.11584
G1 X121.894 Y90.797 E2.13452
G1 X121.799 Y90.201 E2.15319
G1 X121.818 Y89.598 E2.17186
G1 X121.950 Y89.009 E2.19054
G1 X122.180 Y88.478 E2.20844
G1 X122.409 Y88.117 E2.22166
G1 X122.681 Y87.788 E2.23489
G1 X123.115 Y87.405 E2.25279
G1 X123.635 Y87.098 E2.27146
G1 X124.202 Y86.894 E2.29013
G1 X124.798 Y86.799 E2.30880
G1 X125.402 Y86.818 E2.32748
G1 X125.991 Y86.950 E2.34616
G1 X126.545 Y87.190 E2.36484
G1 X127.044 Y87.529 E2.38352
G1 X127.471 Y87.956 E2.40219
G1 X127.810 Y88.455 E2.42087
G1 X128.040 Y88.986 E2.43876
G1 X128.146 Y89.400 E2.45199
G1 X128.200 Y89.824 E2.46522
G1 X128.182 Y90.402 E2.48310
G1 X128.050 Y90.991 E2.50178
G1 X127.820 Y91.522 E2.51968
G1 X127.591 Y91.883 E2.53290
G1 X127.319 Y92.212 E2.54612
G1 X126.885 Y92.595 E2.56402
G1 X126.365 Y92.902 E2.58270
G1 X125.798 Y93.106 E2.60137
G1 X125.198 Y93.197 E2.62014
G1 X125.123 Y92.572 F7800.000
G1 F1800.000
G1 X124.838 Y92.572 E2.62895
G1 X124.502 Y92.529 E2.63943
G1 X124.051 Y92.398 E2.65398
G1 X123.618 Y92.178 E2.66899
G1 X123.234 Y91.880 E2.68402
G1 X122.913 Y91.516 E2.69904
G1 X122.666 Y91.098 E2.71406
G1 X122.502 Y90.641 E2.72908
G1 X122.426 Y90.162 E2.74410
G1 X122.441 Y89.677 E2.75912
G1 X122.547 Y89.203 E2.77414
G1 X122.734 Y88.772 E2.78868
G1 X122.915 Y88.485 E2.79917
G1 X123.131 Y88.224 E2.80966
G1 X123.484 Y87.913 E2.82421
G1 X123.902 Y87.666 E2.83923
G1 X124.359 Y87.502 E2.85425
G1 X124.838 Y87.426 E2.86926
G1 X125.323 Y87.441 E2.88428
G1 X125.797 Y87.547 E2.89931
G1 X126.243 Y87.740 E2.91433
G1 X126.644 Y88.013 E2.92935
G1 X126.987 Y88.356 E2.94437
G1 X127.260 Y88.757 E2.95939
G1 X127.447 Y89.189 E2.97393
G1 X127.531 Y89.517 E2.98443
G1 X127.574 Y89.854 E2.99491
G1 X127.559 Y90.323 E3.00945
G1 X127.453 Y90.797 E3.02447
G1 X127.266 Y91.228 E3.03902
G1 X127.085 Y91.515 E3.04950
G1 X126.869 Y91.776 E3.05999
G1 X126.516 Y92.087 E3.07454
G1 X126.098 Y92.334 E3.08956
G1 X125.641 Y92.498 E3.10458
G1 X125.197 Y92.569 E3.11849
G1 X125.123 Y91.947 F7800.000
G1 F1800.000
G1 X124.877 Y91.947 E3.12608
G1 X124.629 Y91.915 E3.13383
G1 X124.282 Y91.815 E3.14502
G1 X123.954 Y91.648 E3.15638
G1 X123.664 Y91.423 E3.16775
G1 X123.421 Y91.147 E3.17911
G1 X123.234 Y90.831 E3.19048
G1 X123.110 Y90.485 E3.20185
G1 X123.052 Y90.123 E3.21321
G1 X123.064 Y89.755 E3.22457
G1 X123.144 Y89.397 E3.23594
G1 X123.288 Y89.065 E3.24713
G1 X123.422 Y88.853 E3.25489
G1 X123.581 Y88.660 E3.26263
G1 X123.853 Y88.421 E3.27383
G1 X124.169 Y88.234 E3.28520
G1 X124.515 Y88.110 E3.29656
G1 X124.877 Y88.052 E3.30792
G1 X125.245 Y88.064 E3.31929
G1 X125.603 Y88.144 E3.33065
G1 X125.940 Y88.290 E3.34202
G1 X126.244 Y88.496 E3.35339
G1 X126.504 Y88.756 E3.36475
G1 X126.710 Y89.060 E3.37612
G1 X126.854 Y89.392 E3.38731
G1 X126.916 Y89.635 E3.39506
G1 X126.947 Y89.883 E3.40281
G1 X126.936 Y90.245 E3.41400
G1 X126.856 Y90.603 E3.42537
G1 X126.712 Y90.935 E3.43657
G1 X126.578 Y91.147 E3.44432
G1 X126.419 Y91.340 E3.45206
G1 X126.147 Y91.579 E3.46326
G1 X125.831 Y91.766 E3.47463
G1 X125.485 Y91.890 E3.48599
G1 X125.197 Y91.936 E3.49503
G1 X125.018 Y92.169 F7800.000
G1 E1.49503 F2400.00000
G92 E0
G1 X97.044 Y91.061 F7800.000
G1 E2.00000 F2400.00000
G1 F1800.000
G1 X97.006 Y91.663 E2.01867
G1 X96.862 Y92.223 E2.03657
G1 X96.693 Y92.615 E2.04978
G1 X96.475 Y92.983 E2.06301
G1 X96.106 Y93.429 E2.08091
G1 X95.641 Y93.814 E2.09959
G1 X95.112 Y94.104 E2.11826
G1 X94.538 Y94.291 E2.13694
G1 X93.940 Y94.366 E2.15562
G1 X93.337 Y94.329 E2.17429
G1 X92.777 Y94.185 E2.19218
G1 X92.385 Y94.015 E2.20541
G1 X92.017 Y93.797 E2.21864
G1 X91.571 Y93.429 E2.23653
G1 X91.186 Y92.964 E2.25521
G1 X90.896 Y92.435 E2.27388
G1 X90.709 Y91.861 E2.29256
G1 X90.634 Y91.262 E2.31123
G1 X90.670 Y90.685 E2.32913
G1 X90.763 Y90.268 E2.34235
G1 X90.908 Y89.865 E2.35558
G1 X91.186 Y89.359 E2.37347
G1 X91.571 Y88.894 E2.39215
G1 X92.036 Y88.509 E2.41083
G1 X92.565 Y88.218 E2.42950
G1 X93.139 Y88.031 E2.44818
G1 X93.738 Y87.956 E2.46686
G1 X94.341 Y87.994 E2.48553
G1 X94.901 Y88.138 E2.50342
G1 X95.293 Y88.307 E2.51664
G1 X95.661 Y88.525 E2.52987
G1 X96.106 Y88.894 E2.54777
G1 X96.491 Y89.359 E2.56645
G1 X96.782 Y89.888 E2.58512
G1 X96.969 Y90.462 E2.60380
G1 X97.035 Y90.986 E2.62015
G1 X96.417 Y91.080 F7800.000
G1 F1800.000
G1 X96.386 Y91.565 E2.63517
G1 X96.269 Y92.020 E2.64972
G1 X96.135 Y92.331 E2.66020
G1 X95.962 Y92.623 E2.67069
G1 X95.663 Y92.985 E2.68524
G1 X95.289 Y93.294 E2.70026
G1 X94.863 Y93.528 E2.71528
G1 X94.401 Y93.678 E2.73030
G1 X93.920 Y93.739 E2.74532
G1 X93.435 Y93.709 E2.76034
G1 X92.980 Y93.592 E2.77488
G1 X92.669 Y93.457 E2.78537
G1 X92.377 Y93.285 E2.79586
G1 X92.015 Y92.985 E2.81040
G1 X91.706 Y92.611 E2.82542
G1 X91.472 Y92.185 E2.84044
G1 X91.322 Y91.724 E2.85546
G1 X91.261 Y91.242 E2.87049
G1 X91.290 Y90.773 E2.88503
G1 X91.364 Y90.442 E2.89552
G1 X91.479 Y90.123 E2.90601
G1 X91.706 Y89.711 E2.92055
G1 X92.015 Y89.337 E2.93557
G1 X92.389 Y89.028 E2.95059
G1 X92.815 Y88.794 E2.96561
G1 X93.276 Y88.644 E2.98063
G1 X93.758 Y88.583 E2.99565
G1 X94.242 Y88.614 E3.01067
G1 X94.698 Y88.731 E3.02522
G1 X95.009 Y88.865 E3.03570
G1 X95.300 Y89.038 E3.04619
G1 X95.663 Y89.337 E3.06074
G1 X95.972 Y89.711 E3.07576
G1 X96.206 Y90.137 E3.09078
G1 X96.356 Y90.599 E3.10580
G1 X96.407 Y91.006 E3.11850
G1 X95.789 Y91.100 F7800.000
G1 F1800.000
G1 X95.766 Y91.466 E3.12986
G1 X95.676 Y91.817 E3.14106
G1 X95.577 Y92.047 E3.14881
G1 X95.449 Y92.262 E3.15656
G1 X95.219 Y92.541 E3.16775
G1 X94.936 Y92.775 E3.17912
G1 X94.614 Y92.952 E3.19048
G1 X94.265 Y93.066 E3.20185
G1 X93.900 Y93.112 E3.21321
G1 X93.534 Y93.089 E3.22458
G1 X93.183 Y92.999 E3.23577
G1 X92.953 Y92.899 E3.24352
G1 X92.738 Y92.772 E3.25127
G1 X92.459 Y92.541 E3.26247
G1 X92.225 Y92.258 E3.27383
G1 X92.048 Y91.936 E3.28520
G1 X91.934 Y91.587 E3.29656
G1 X91.888 Y91.222 E3.30793
G1 X91.911 Y90.861 E3.31912
G1 X91.966 Y90.617 E3.32687
G1 X92.050 Y90.381 E3.33462
G1 X92.225 Y90.064 E3.34582
G1 X92.459 Y89.781 E3.35718
G1 X92.742 Y89.547 E3.36855
G1 X93.064 Y89.370 E3.37991
G1 X93.413 Y89.257 E3.39128
G1 X93.778 Y89.211 E3.40264
G1 X94.144 Y89.234 E3.41401
G1 X94.495 Y89.324 E3.42520
G1 X94.724 Y89.423 E3.43295
G1 X94.940 Y89.551 E3.44070
G1 X95.219 Y89.781 E3.45190
G1 X95.453 Y90.064 E3.46326
G1 X95.630 Y90.386 E3.47463
G1 X95.743 Y90.735 E3.48599
G1 X95.780 Y91.025 E3.49504
G1 X95.789 Y91.100 F7800.000
G1 E1.49504 F2400.00000
G92 E0
G1 X92.147 Y96.180 F7800.000
G1 E2.00000 F2400.00000
G1 F1800.000
G1 X93.771 Y95.242 E2.05802
G1 X94.436 Y95.050 E2.07942
G1 X95.184 Y95.217 E2.10316
G1 X98.278 Y97.003 E2.21369
G1 X98.789 Y97.524 E2.23627
G1 X98.984 Y98.227 E2.25884
G1 X98.984 Y101.773 E2.36855
G1 X98.789 Y102.475 E2.39112
G1 X98.278 Y102.997 E2.41370
G1 X95.206 Y104.770 E2.52344
G1 X94.500 Y104.952 E2.54601
G1 X93.793 Y104.770 E2.56858
G1 X92.147 Y103.820 E2.62739
G1 X91.840 Y104.340 E2.64610
G1 X91.554 Y104.761 E2.66185
G1 X91.242 Y105.163 E2.67759
G1 X90.905 Y105.545 E2.69334
G1 X90.545 Y105.905 E2.70909
G1 X90.163 Y106.242 E2.72483
G1 X89.761 Y106.554 E2.74058
G1 X89.340 Y106.840 E2.75632
G1 X88.902 Y107.099 E2.77207
G1 X88.449 Y107.330 E2.78781
G1 X87.982 Y107.532 E2.80356
G1 X87.503 Y107.704 E2.81931
G1 X86.939 Y107.868 E2.83748
G1 X86.036 Y108.035 E2.86591
G1 X85.509 Y108.085 E2.88229
G1 X85.000 Y108.101 E2.89803
G1 X84.491 Y108.085 E2.91378
G1 X83.985 Y108.037 E2.92952
G1 X83.482 Y107.957 E2.94527
G1 X82.985 Y107.846 E2.96102
G1 X82.497 Y107.704 E2.97676
G1 X82.018 Y107.532 E2.99251
G1 X81.551 Y107.330 E3.00825
G1 X81.098 Y107.099 E3.02400
G1 X80.660 Y106.840 E3.03974
G1 X80.239 Y106.554 E3.05549
G1 X79.837 Y106.242 E3.07123
G1 X79.455 Y105.905 E3.08698
G1 X79.095 Y105.545 E3.10273
G1 X78.758 Y105.163 E3.11847
G1 X78.446 Y104.761 E3.13422
G1 X78.160 Y104.340 E3.14996
G1 X77.853 Y103.820 E3.16868
G1 X76.206 Y104.770 E3.22749
G1 X75.500 Y104.952 E3.25006
G1 X74.793 Y104.770 E3.27263
G1 X71.722 Y102.997 E3.38236
G1 X71.211 Y102.476 E3.40494
G1 X71.016 Y101.773 E3.42751
G1 X71.016 Y98.227 E3.53723
G1 X71.211 Y97.524 E3.55980
G1 X71.722 Y97.003 E3.58238
G1 X74.771 Y95.242 E3.69133
G1 X75.436 Y95.050 E3.71272
G1 X76.184 Y95.217 E3.73646
G1 X77.853 Y96.180 E3.79607
G1 X78.160 Y95.660 E3.81478
G1 X78.446 Y95.239 E3.83053
G1 X78.758 Y94.837 E3.84627
G1 X79.095 Y94.455 E3.86202
G1 X79.455 Y94.095 E3.87776
G1 X79.837 Y93.758 E3.89351
G1 X80.239 Y93.446 E3.90926
G1 X80.660 Y93.160 E3.92500
G1 X81.098 Y92.901 E3.94075
G1 X81.551 Y92.670 E3.95649
G1 X82.018 Y92.468 E3.97224
G1 X82.497 Y92.296 E3.98798
G1 X83.061 Y92.132 E4.00616
G1 X83.964 Y91.965 E4.03459
G1 X84.491 Y91.915 E4.05096
G1 X85.000 Y91.899 E4.06671
G1 X85.509 Y91.915 E4.08246
G1 X86.015 Y91.963 E4.09820
G1 X86.518 Y92.043 E4.11395
G1 X87.015 Y92.154 E4.12969
G1 X87.503 Y92.296 E4.14544
G1 X87.982 Y92.468 E4.16119
G1 X88.449 Y92.670 E4.17693
G1 X88.902 Y92.901 E4.19268
G1 X89.340 Y93.160 E4.20842
G1 X89.761 Y93.446 E4.22417
G1 X90.163 Y93.758 E4.23991
G1 X90.545 Y94.095 E4.25566
G1 X90.905 Y94.455 E4.27141
G1 X91.242 Y94.837 E4.28715
G1 X91.554 Y95.239 E4.30290
G1 X91.840 Y95.660 E4.31864
G1 X92.109 Y96.116 E4.33504
G1 X91.870 Y97.062 F7800.000
G1 F1800.000
G1 X94.018 Y95.821 E4.41180
G1 X94.456 Y95.694 E4.42589
G1 X94.955 Y95.806 E4.44171
G1 X97.891 Y97.501 E4.54663
G1 X98.230 Y97.847 E4.56160
G1 X98.359 Y98.313 E4.57655
G1 X98.359 Y101.687 E4.68098
G1 X98.230 Y102.153 E4.69593
G1 X97.891 Y102.499 E4.71089
G1 X94.968 Y104.186 E4.81534
G1 X94.500 Y104.307 E4.83029
G1 X94.032 Y104.186 E4.84525
G1 X91.870 Y102.938 E4.92249
G1 X91.551 Y103.601 E4.94526
G1 X91.312 Y104.005 E4.95979
G1 X91.048 Y104.394 E4.97432
G1 X90.760 Y104.765 E4.98885
G1 X90.449 Y105.117 E5.00338
G1 X90.117 Y105.449 E5.01791
G1 X89.765 Y105.760 E5.03245
G1 X89.394 Y106.048 E5.04698
G1 X89.005 Y106.312 E5.06151
G1 X88.601 Y106.551 E5.07604
G1 X88.183 Y106.764 E5.09057
G1 X87.752 Y106.950 E5.10510
G1 X87.310 Y107.110 E5.11963
G1 X86.795 Y107.259 E5.13623
G1 X85.949 Y107.415 E5.16283
G1 X85.469 Y107.461 E5.17775
G1 X85.000 Y107.475 E5.19228
G1 X84.531 Y107.461 E5.20681
G1 X84.063 Y107.416 E5.22134
G1 X83.599 Y107.343 E5.23587
G1 X83.141 Y107.241 E5.25040
G1 X82.690 Y107.110 E5.26493
G1 X82.248 Y106.950 E5.27946
G1 X81.817 Y106.764 E5.29399
G1 X81.399 Y106.551 E5.30852
G1 X80.994 Y106.312 E5.32305
G1 X80.606 Y106.048 E5.33758
G1 X80.235 Y105.760 E5.35211
G1 X79.883 Y105.449 E5.36664
G1 X79.551 Y105.117 E5.38117
G1 X79.240 Y104.765 E5.39570
G1 X78.952 Y104.394 E5.41023
G1 X78.688 Y104.005 E5.42477
G1 X78.449 Y103.601 E5.43930
G1 X78.130 Y102.938 E5.46207
G1 X75.968 Y104.186 E5.53931
G1 X75.500 Y104.307 E5.55427
G1 X75.032 Y104.186 E5.56922
G1 X72.109 Y102.499 E5.67366
G1 X71.770 Y102.153 E5.68863
G1 X71.641 Y101.687 E5.70358
G1 X71.641 Y98.313 E5.80801
G1 X71.770 Y97.847 E5.82296
G1 X72.109 Y97.501 E5.83793
G1 X75.018 Y95.821 E5.94189
G1 X75.456 Y95.694 E5.95598
G1 X75.955 Y95.806 E5.97179
G1 X78.130 Y97.062 E6.04952
