; generated by Slic3r 1.3.1-dev (Build 2ef957d) on 2019-11-25 at 16:25:48

; external perimeters extrusion width = 0.55mm (4.37mm^3/s)
; perimeters extrusion width = 0.70mm (11.44mm^3/s)
; infill extrusion width = 0.62mm (13.45mm^3/s)
; solid infill extrusion width = 0.70mm (3.81mm^3/s)
; top infill extrusion width = 0.70mm (2.86mm^3/s)

M107
G92 E0
M104 S200 ; set temperature
G28 ; home all axes
G1 Z5 F5000 ; lift nozzle

; Filament gcode

M109 S200 ; set temperature and wait for it to be reached
G21 ; set units to millimeters
G90 ; use absolute coordinates
M82 ; use absolute distances for extrusion
G92 E0
G1 Z0.350 F7800.000
G1 E-2.00000 F2400.00000
G92 E0
G1 X59.756 Y61.638 F7800.000
G1 E2.00000 F2400.00000
G1 F1800.000
G1 X64.241 Y57.427 E2.19034
G1 X64.882 Y56.897 E2.21608
G1 X69.858 Y53.281 E2.40642
G1 X70.561 Y52.835 E2.43216
G1 X75.952 Y49.872 E2.62250
G1 X76.704 Y49.517 E2.64824
G1 X82.424 Y47.253 E2.83858
G1 X83.215 Y46.996 E2.86432
G1 X89.174 Y45.466 E3.05466
G1 X89.991 Y45.310 E3.08040
G1 X96.094 Y44.539 E3.27074
G1 X96.924 Y44.487 E3.29648
G1 X103.076 Y44.487 E3.48682
G1 X103.906 Y44.539 E3.51256
G1 X110.009 Y45.310 E3.70290
G1 X110.826 Y45.466 E3.72864
G1 X116.785 Y46.996 E3.91898
G1 X117.576 Y47.253 E3.94472
G1 X123.296 Y49.517 E4.13506
G1 X124.048 Y49.872 E4.16080
G1 X129.439 Y52.835 E4.35114
G1 X130.142 Y53.281 E4.37688
G1 X135.118 Y56.897 E4.56722
G1 X135.759 Y57.427 E4.59296
G1 X140.244 Y61.638 E4.78330
G1 X140.813 Y62.245 E4.80904
G1 X144.734 Y66.984 E4.99938
G1 X145.223 Y67.658 E5.02512
G1 X148.519 Y72.852 E5.21546
G1 X148.920 Y73.581 E5.24120
G1 X151.539 Y79.147 E5.43154
G1 X151.846 Y79.920 E5.45728
G1 X153.747 Y85.771 E5.64762
G1 X153.954 Y86.577 E5.67336
G1 X155.106 Y92.619 E5.86370
G1 X155.211 Y93.445 E5.88944
G1 X155.597 Y99.584 E6.07978
G1 X155.597 Y100.416 E6.10552
G1 X155.211 Y106.555 E6.29586
G1 X155.106 Y107.381 E6.32160
G1 X153.954 Y113.423 E6.51194
G1 X153.747 Y114.229 E6.53768
G1 X151.846 Y120.080 E6.72802
G1 X151.539 Y120.853 E6.75376
G1 X148.920 Y126.419 E6.94410
G1 X148.519 Y127.148 E6.96984
G1 X145.223 Y132.342 E7.16018
G1 X144.734 Y133.016 E7.18593
G1 X140.813 Y137.755 E7.37627
G1 X140.244 Y138.362 E7.40200
G1 X135.759 Y142.573 E7.59234
G1 X135.118 Y143.103 E7.61808
G1 X130.142 Y146.719 E7.80842
G1 X129.439 Y147.165 E7.83416
G1 X124.048 Y150.128 E8.02450
G1 X123.296 Y150.483 E8.05025
G1 X117.576 Y152.747 E8.24058
G1 X116.785 Y153.004 E8.26633
G1 X110.826 Y154.534 E8.45666
G1 X110.009 Y154.690 E8.48241
G1 X103.906 Y155.461 E8.67274
G1 X103.076 Y155.513 E8.69849
G1 X96.924 Y155.513 E8.88882
G1 X96.094 Y155.461 E8.91457
G1 X89.991 Y154.690 E9.10490
G1 X89.174 Y154.534 E9.13064
G1 X83.215 Y153.004 E9.32098
G1 X82.424 Y152.747 E9.34672
G1 X76.704 Y150.483 E9.53706
G1 X75.952 Y150.128 E9.56281
G1 X70.561 Y147.165 E9.75315
G1 X69.858 Y146.719 E9.77889
G1 X64.882 Y143.103 E9.96922
G1 X64.241 Y142.573 E9.99497
G1 X59.756 Y138.362 E10.18531
G1 X59.187 Y137.755 E10.21104
G1 X55.266 Y133.016 E10.40138
G1 X54.777 Y132.342 E10.42713
G1 X51.481 Y127.148 E10.61747
G1 X51.080 Y126.419 E10.64321
G1 X48.461 Y120.853 E10.83354
G1 X48.154 Y120.080 E10.85929
G1 X46.253 Y114.229 E11.04962
G1 X46.046 Y113.423 E11.07537
G1 X44.894 Y107.381 E11.26570
G1 X44.789 Y106.555 E11.29145
G1 X44.403 Y100.416 E11.48178
G1 X44.403 Y99.584 E11.50753
G1 X44.789 Y93.445 E11.69787
G1 X44.894 Y92.619 E11.72361
G1 X46.046 Y86.577 E11.91395
G1 X46.253 Y85.771 E11.93969
G1 X48.154 Y79.920 E12.13002
G1 X48.461 Y79.147 E12.15577
G1 X51.080 Y73.581 E12.34610
G1 X51.481 Y72.852 E12.37185
G1 X54.777 Y67.658 E12.56219
G1 X55.266 Y66.984 E12.58793
G1 X59.187 Y62.245 E12.77827
G1 X59.705 Y61.693 E12.80169
G1 E10.80169 F2400.00000
G92 E0
G1 X131.120 Y129.064 F7800.000
G1 E2.00000 F2400.00000
G1 F1800.000
G1 X130.513 Y128.713 E2.02168
G1 X129.752 Y130.168 E2.07246
G1 X129.353 Y130.743 E2.09414
G1 X127.147 Y132.815 E2.18777
G1 X122.820 Y135.958 E2.35325
G1 X118.133 Y138.535 E2.51873
G1 X116.410 Y139.217 E2.57609
G1 X116.085 Y138.729 E2.59422
G1 X114.910 Y139.661 E2.64063
G1 X114.195 Y140.094 E2.66648
G1 X113.160 Y140.504 E2.70092
G1 X107.980 Y141.834 E2.86640
G1 X102.674 Y142.504 E3.03188
G1 X99.216 Y142.504 E3.13887
G1 X99.098 Y141.883 E3.15841
G1 X97.489 Y142.297 E3.20980
G1 X96.587 Y142.410 E3.23795
G1 X92.020 Y141.834 E3.38038
G1 X86.840 Y140.503 E3.54586
G1 X81.975 Y138.578 E3.70773
G1 X82.121 Y137.892 E3.72941
G1 X80.503 Y137.619 E3.78020
G1 X79.832 Y137.416 E3.80187
G1 X77.180 Y135.958 E3.89550
G1 X72.853 Y132.815 E4.06098
G1 X68.955 Y129.153 E4.22647
G1 X67.773 Y127.725 E4.28383
G1 X68.137 Y127.266 E4.30195
G1 X66.887 Y126.436 E4.34835
G1 X66.255 Y125.890 E4.37421
G1 X65.546 Y125.033 E4.40864
G1 X62.680 Y120.517 E4.57412
G1 X60.403 Y115.678 E4.73960
G1 X59.334 Y112.389 E4.84660
G1 X59.888 Y112.085 E4.86614
G1 X58.998 Y110.682 E4.91753
G1 X58.610 Y109.859 E4.94567
G1 X57.748 Y105.338 E5.08810
G1 X57.412 Y100.000 E5.25358
G1 X57.741 Y94.779 E5.41545
G1 X58.437 Y94.705 E5.43713
G1 X58.198 Y93.082 E5.48792
G1 X58.183 Y92.382 E5.50959
G1 X58.750 Y89.409 E5.60323
G1 X60.403 Y84.322 E5.76871
G1 X62.680 Y79.483 E5.93419
G1 X63.673 Y77.918 E5.99155
G1 X64.222 Y78.122 E6.00967
G1 X64.626 Y76.677 E6.05608
G1 X64.949 Y75.907 E6.08194
G1 X65.546 Y74.967 E6.11637
G1 X68.955 Y70.847 E6.28185
G1 X72.853 Y67.185 E6.44733
G1 X75.651 Y65.153 E6.55432
G1 X76.111 Y65.585 E6.57386
G1 X77.170 Y64.306 E6.62525
G1 X77.833 Y63.683 E6.65340
G1 X81.867 Y61.465 E6.79583
G1 X86.840 Y59.497 E6.96131
G1 X91.907 Y58.195 E7.12318
G1 X92.192 Y58.836 E7.14486
G1 X93.662 Y58.106 E7.19565
G1 X94.324 Y57.875 E7.21732
G1 X97.326 Y57.496 E7.31096
G1 X102.674 Y57.496 E7.47644
G1 X107.980 Y58.166 E7.64192
G1 X109.776 Y58.627 E7.69928
G1 X109.751 Y59.213 E7.71740
G1 X111.250 Y59.150 E7.76381
G1 X112.083 Y59.220 E7.78967
G1 X113.160 Y59.497 E7.82411
G1 X118.133 Y61.465 E7.98958
G1 X122.820 Y64.042 E8.15506
G1 X125.617 Y66.074 E8.26206
G1 X125.348 Y66.646 E8.28160
G1 X126.893 Y67.257 E8.33299
G1 X127.690 Y67.695 E8.36114
G1 X131.045 Y70.847 E8.50356
G1 X134.454 Y74.967 E8.66905
G1 X137.258 Y79.385 E8.83092
G1 X136.737 Y79.853 E8.85260
G1 X137.885 Y81.026 E8.90339
G1 X138.309 Y81.584 E8.92506
G1 X139.597 Y84.322 E9.01869
G1 X141.250 Y89.409 E9.18417
G1 X142.252 Y94.662 E9.34965
G1 X142.369 Y96.512 E9.40701
G1 X141.804 Y96.670 E9.42514
G1 X142.327 Y98.076 E9.47155
G1 X142.518 Y98.889 E9.49740
G1 X142.588 Y100.000 E9.53184
G1 X142.252 Y105.338 E9.69732
G1 X141.250 Y110.591 E9.86280
G1 X140.181 Y113.880 E9.96979
G1 X139.555 Y113.801 E9.98933
G1 X139.450 Y115.458 E10.04072
G1 X139.280 Y116.352 E10.06887
G1 X137.320 Y120.517 E10.21130
G1 X134.454 Y125.033 E10.37678
G1 X131.167 Y129.006 E10.53633
G1 X130.975 Y128.258 F7800.000
G1 F1800.000
G1 X130.261 Y127.846 E10.56183
G1 X129.217 Y129.843 E10.63156
G1 X128.877 Y130.332 E10.64999
G1 X126.747 Y132.332 E10.74038
G1 X122.484 Y135.430 E10.90342
G1 X117.867 Y137.968 E11.06647
G1 X116.650 Y138.450 E11.10696
G1 X116.230 Y137.818 E11.13045
G1 X114.552 Y139.147 E11.19667
G1 X113.916 Y139.532 E11.21969
G1 X112.967 Y139.908 E11.25128
G1 X107.863 Y141.219 E11.41433
G1 X102.635 Y141.879 E11.57738
G1 X99.733 Y141.879 E11.66716
G1 X99.587 Y141.113 E11.69129
G1 X97.372 Y141.682 E11.76206
G1 X96.587 Y141.781 E11.78654
G1 X92.137 Y141.219 E11.92531
G1 X87.033 Y139.908 E12.08836
G1 X82.696 Y138.191 E12.23268
G1 X82.868 Y137.385 E12.25818
G1 X80.646 Y137.009 E12.32791
G1 X80.076 Y136.837 E12.34634
G1 X77.516 Y135.430 E12.43672
G1 X73.253 Y132.332 E12.59977
G1 X69.411 Y128.725 E12.76282
G1 X68.577 Y127.716 E12.80331
G1 X69.049 Y127.122 E12.82680
G1 X67.266 Y125.937 E12.89302
G1 X66.703 Y125.451 E12.91603
G1 X66.052 Y124.665 E12.94762
G1 X63.229 Y120.215 E13.11067
G1 X60.985 Y115.447 E13.27372
G1 X60.088 Y112.688 E13.36350
G1 X60.772 Y112.312 E13.38763
G1 X59.546 Y110.381 E13.45840
G1 X59.209 Y109.665 E13.48288
G1 X58.369 Y105.259 E13.62165
G1 X58.038 Y100.000 E13.78470
G1 X58.331 Y95.345 E13.92902
G1 X59.151 Y95.259 E13.95452
G1 X58.822 Y93.029 E14.02425
G1 X58.809 Y92.434 E14.04267
G1 X59.356 Y89.564 E14.13306
G1 X60.985 Y84.553 E14.29611
G1 X63.229 Y79.785 E14.45916
G1 X63.930 Y78.680 E14.49965
G1 X64.641 Y78.945 E14.52314
G1 X65.217 Y76.883 E14.58936
G1 X65.505 Y76.198 E14.61237
G1 X66.052 Y75.335 E14.64396
G1 X69.411 Y71.275 E14.80701
G1 X73.253 Y67.668 E14.97006
G1 X75.600 Y65.962 E15.05984
G1 X76.169 Y66.496 E15.08398
G1 X77.626 Y64.734 E15.15474
G1 X78.203 Y64.192 E15.17922
G1 X82.133 Y62.032 E15.31799
G1 X87.033 Y60.092 E15.48104
G1 X91.551 Y58.932 E15.62536
G1 X91.886 Y59.685 E15.65086
G1 X93.905 Y58.683 E15.72060
G1 X94.467 Y58.487 E15.73902
G1 X97.365 Y58.121 E15.82941
G1 X102.635 Y58.121 E15.99246
G1 X107.863 Y58.781 E16.15550
G1 X109.130 Y59.107 E16.19599
G1 X109.098 Y59.865 E16.21948
G1 X111.237 Y59.776 E16.28570
G1 X111.978 Y59.838 E16.30872
G1 X112.967 Y60.092 E16.34031
G1 X117.867 Y62.032 E16.50336
G1 X122.484 Y64.570 E16.66641
G1 X124.832 Y66.276 E16.75619
G1 X124.500 Y66.982 E16.78033
G1 X126.626 Y67.824 E16.85109
G1 X127.319 Y68.205 E16.87558
G1 X130.589 Y71.275 E17.01434
G1 X133.948 Y75.335 E17.17739
G1 X136.447 Y79.274 E17.32171
G1 X135.834 Y79.825 E17.34721
G1 X137.411 Y81.435 E17.41695
G1 X137.771 Y81.910 E17.43537
G1 X139.015 Y84.553 E17.52576
G1 X140.644 Y89.564 E17.68880
G1 X141.631 Y94.741 E17.85185
G1 X141.713 Y96.047 E17.89234
G1 X140.982 Y96.251 E17.91583
G1 X141.728 Y98.257 E17.98205
G1 X141.898 Y98.981 E18.00507
G1 X141.962 Y100.000 E18.03666
G1 X141.631 Y105.259 E18.19971
G1 X140.644 Y110.436 E18.36276
G1 X139.747 Y113.195 E18.45254
G1 X138.973 Y113.097 E18.47667
G1 X138.829 Y115.380 E18.54744
G1 X138.681 Y116.157 E18.57192
G1 X136.771 Y120.215 E18.71069
G1 X133.948 Y124.665 E18.87374
G1 X131.022 Y128.201 E19.01574
G1 X130.830 Y127.453 F7800.000
G1 F1800.000
G1 X129.983 Y126.964 E19.04600
G1 X129.898 Y127.191 E19.05348
G1 X128.681 Y129.519 E19.13478
G1 X128.401 Y129.922 E19.14995
G1 X126.348 Y131.850 E19.23709
G1 X122.149 Y134.901 E19.39771
G1 X117.600 Y137.402 E19.55832
G1 X116.890 Y137.683 E19.58193
G1 X116.374 Y136.906 E19.61080
G1 X114.195 Y138.633 E19.69683
G1 X113.637 Y138.971 E19.71700
G1 X112.773 Y139.313 E19.74575
G1 X107.746 Y140.603 E19.90637
G1 X102.595 Y141.254 E20.06698
G1 X100.250 Y141.254 E20.13955
G1 X100.069 Y140.306 E20.16941
G1 X99.799 Y140.413 E20.17840
G1 X97.255 Y141.066 E20.25969
G1 X96.587 Y141.151 E20.28052
G1 X92.254 Y140.603 E20.41563
G1 X87.227 Y139.313 E20.57625
G1 X83.417 Y137.804 E20.70300
G1 X83.621 Y136.848 E20.73327
G1 X83.379 Y136.838 E20.74075
G1 X80.789 Y136.399 E20.82205
G1 X80.319 Y136.258 E20.83722
G1 X77.851 Y134.901 E20.92436
G1 X73.652 Y131.850 E21.08497
G1 X69.868 Y128.296 E21.24559
G1 X69.381 Y127.708 E21.26921
G1 X69.960 Y126.977 E21.29806
G1 X67.645 Y125.439 E21.38409
G1 X67.151 Y125.013 E21.40427
G1 X66.559 Y124.297 E21.43302
G1 X63.777 Y119.914 E21.59363
G1 X61.567 Y115.217 E21.75425
G1 X60.842 Y112.986 E21.82682
G1 X61.688 Y112.521 E21.85668
G1 X61.503 Y112.298 E21.86566
G1 X60.095 Y110.079 E21.94696
G1 X59.808 Y109.470 E21.96778
G1 X58.990 Y105.181 E22.10289
G1 X58.664 Y100.000 E22.26351
G1 X58.922 Y95.911 E22.39027
G1 X59.893 Y95.809 E22.42049
G1 X59.831 Y95.589 E22.42756
G1 X59.446 Y92.977 E22.50926
G1 X59.435 Y92.487 E22.52443
G1 X59.963 Y89.720 E22.61157
G1 X61.567 Y84.783 E22.77219
G1 X63.777 Y80.086 E22.93280
G1 X64.186 Y79.442 E22.95642
G1 X65.060 Y79.767 E22.98528
G1 X65.808 Y77.089 E23.07130
G1 X66.061 Y76.488 E23.09148
G1 X66.559 Y75.703 E23.12023
G1 X69.868 Y71.704 E23.28085
G1 X73.652 Y68.150 E23.44146
G1 X75.549 Y66.772 E23.51403
G1 X76.253 Y67.432 E23.54389
G1 X76.408 Y67.187 E23.55287
G1 X78.083 Y65.163 E23.63417
G1 X78.574 Y64.702 E23.65499
G1 X82.400 Y62.598 E23.79010
G1 X87.227 Y60.687 E23.95072
G1 X91.195 Y59.669 E24.07748
G1 X91.592 Y60.562 E24.10775
G1 X91.794 Y60.428 E24.11523
G1 X94.147 Y59.260 E24.19652
G1 X94.610 Y59.099 E24.21170
G1 X97.405 Y58.746 E24.29884
G1 X102.595 Y58.746 E24.45945
G1 X107.746 Y59.397 E24.62007
G1 X108.485 Y59.586 E24.64368
G1 X108.446 Y60.518 E24.67254
G1 X111.224 Y60.402 E24.75857
G1 X111.873 Y60.456 E24.77875
G1 X112.773 Y60.687 E24.80750
G1 X117.600 Y62.598 E24.96812
G1 X122.149 Y65.099 E25.12873
G1 X124.046 Y66.478 E25.20130
G1 X123.635 Y67.351 E25.23116
G1 X123.917 Y67.423 E25.24014
G1 X126.359 Y68.390 E25.32144
G1 X126.949 Y68.715 E25.34226
G1 X130.132 Y71.704 E25.47737
G1 X133.441 Y75.703 E25.63799
G1 X135.636 Y79.163 E25.76475
G1 X134.909 Y79.817 E25.79502
G1 X135.099 Y79.967 E25.80250
G1 X136.937 Y81.844 E25.88380
G1 X137.234 Y82.235 E25.89897
G1 X138.433 Y84.783 E25.98611
G1 X140.037 Y89.720 E26.14672
G1 X141.010 Y94.819 E26.30734
G1 X141.058 Y95.581 E26.33095
G1 X140.159 Y95.832 E26.35981
G1 X141.128 Y98.438 E26.44584
G1 X141.277 Y99.073 E26.46601
G1 X141.336 Y100.000 E26.49477
G1 X141.010 Y105.181 E26.65538
G1 X140.037 Y110.280 E26.81600
G1 X139.312 Y112.510 E26.88857
G1 X138.355 Y112.389 E26.91843
G1 X138.373 Y112.679 E26.92741
G1 X138.208 Y115.301 E27.00871
G1 X138.082 Y115.963 E27.02953
G1 X136.223 Y119.914 E27.16464
G1 X133.441 Y124.297 E27.32526
G1 X130.878 Y127.395 E27.44970
G1 X130.566 Y127.878 F7800.000
G1 E25.44970 F2400.00000
G92 E0
G1 X101.422 Y101.335 F7800.000
G1 E2.00000 F2400.00000
G1 F1800.000
G1 X101.243 Y101.503 E2.00758
G1 X101.045 Y101.647 E2.01516
G1 X100.831 Y101.765 E2.02274
G1 X100.603 Y101.855 E2.03032
G1 X100.366 Y101.916 E2.03790
G1 X100.122 Y101.947 E2.04548
G1 X99.878 Y101.947 E2.05306
G1 X99.634 Y101.916 E2.06064
G1 X99.397 Y101.855 E2.06822
G1 X99.169 Y101.765 E2.07580
G1 X98.955 Y101.647 E2.08338
G1 X98.757 Y101.503 E2.09096
G1 X98.578 Y101.335 E2.09854
G1 X98.422 Y101.147 E2.10612
G1 X98.291 Y100.940 E2.11370
G1 X98.186 Y100.718 E2.12127
G1 X98.111 Y100.485 E2.12885
G1 X98.065 Y100.244 E2.13643
G1 X98.049 Y100.000 E2.14401
G1 X98.065 Y99.756 E2.15159
G1 X98.111 Y99.515 E2.15917
G1 X98.186 Y99.282 E2.16675
G1 X98.291 Y99.060 E2.17433
G1 X98.422 Y98.853 E2.18191
G1 X98.578 Y98.665 E2.18949
G1 X98.757 Y98.497 E2.19707
G1 X98.955 Y98.353 E2.20465
G1 X99.169 Y98.235 E2.21223
G1 X99.397 Y98.145 E2.21981
G1 X99.634 Y98.084 E2.22739
G1 X99.877 Y98.053 E2.23497
G1 X100.122 Y98.053 E2.24255
G1 X100.366 Y98.084 E2.25013
G1 X100.603 Y98.145 E2.25771
G1 X100.831 Y98.235 E2.26529
G1 X101.045 Y98.353 E2.27287
G1 X101.243 Y98.497 E2.28045
G1 X101.422 Y98.665 E2.28803
G1 X101.578 Y98.853 E2.29561
G1 X101.709 Y99.060 E2.30319
G1 X101.814 Y99.282 E2.31077
G1 X101.889 Y99.515 E2.31835
G1 X101.935 Y99.756 E2.32593
G1 X101.951 Y100.000 E2.33351
G1 X101.935 Y100.244 E2.34109
G1 X101.889 Y100.485 E2.34867
G1 X101.814 Y100.718 E2.35624
G1 X101.709 Y100.940 E2.36382
G1 X101.578 Y101.147 E2.37140
G1 X101.470 Y101.278 E2.37666
G1 X101.422 Y101.335 F7800.000
G1 X101.850 Y101.791 F7800.000
G1 F1800.000
G1 X101.643 Y101.985 E2.38546
G1 X101.381 Y102.176 E2.39547
G1 X101.097 Y102.332 E2.40548
G1 X100.796 Y102.451 E2.41550
G1 X100.483 Y102.531 E2.42551
G1 X100.162 Y102.572 E2.43552
G1 X99.838 Y102.572 E2.44554
G1 X99.517 Y102.531 E2.45555
G1 X99.204 Y102.451 E2.46556
G1 X98.903 Y102.332 E2.47557
G1 X98.619 Y102.176 E2.48559
G1 X98.357 Y101.985 E2.49560
G1 X98.122 Y101.764 E2.50561
G1 X97.915 Y101.515 E2.51562
G1 X97.742 Y101.241 E2.52564
G1 X97.604 Y100.949 E2.53565
G1 X97.504 Y100.641 E2.54566
G1 X97.444 Y100.323 E2.55567
G1 X97.423 Y100.000 E2.56569
G1 X97.444 Y99.677 E2.57570
G1 X97.504 Y99.359 E2.58571
G1 X97.604 Y99.051 E2.59572
G1 X97.742 Y98.759 E2.60574
G1 X97.915 Y98.485 E2.61575
G1 X98.122 Y98.236 E2.62576
G1 X98.357 Y98.015 E2.63577
G1 X98.619 Y97.824 E2.64579
G1 X98.903 Y97.668 E2.65580
G1 X99.204 Y97.549 E2.66581
G1 X99.517 Y97.469 E2.67582
G1 X99.838 Y97.428 E2.68584
G1 X100.162 Y97.428 E2.69585
G1 X100.483 Y97.469 E2.70586
G1 X100.796 Y97.549 E2.71587
G1 X101.097 Y97.668 E2.72589
G1 X101.381 Y97.824 E2.73590
G1 X101.643 Y98.015 E2.74591
G1 X101.878 Y98.236 E2.75592
G1 X102.085 Y98.485 E2.76594
G1 X102.258 Y98.759 E2.77595
G1 X102.396 Y99.051 E2.78596
G1 X102.496 Y99.359 E2.79598
G1 X102.556 Y99.677 E2.80599
G1 X102.577 Y100.000 E2.81600
