; generated by Slic3r 1.3.1-dev (Build 2ef957d) on 2019-11-25 at 16:25:53

; external perimeters extrusion width = 0.55mm (4.37mm^3/s)
; perimeters extrusion width = 0.70mm (11.44mm^3/s)
; infill extrusion width = 0.62mm (13.45mm^3/s)
; solid infill extrusion width = 0.70mm (3.81mm^3/s)
; top infill extrusion width = 0.70mm (2.86mm^3/s)

M107
G92 E0
M104 S200 ; set temperature
G28 ; home all axes
G1 Z5 F5000 ; lift nozzle

; Filament gcode

M109 S200 ; set temperature and wait for it to be reached
G21 ; set units to millimeters
G90 ; use absolute coordinates
M82 ; use absolute distances for extrusion
G92 E0
G1 Z0.350 F7800.000
G1 E-2.00000 F2400.00000
G92 E0
G1 X61.668 Y76.774 F7800.000
G1 E2.00000 F2400.00000
G1 F1800.000
G1 X63.820 Y75.981 E2.07096
G1 X65.000 Y75.875 E2.10761
G1 X135.000 Y75.875 E4.27351
G1 X137.259 Y76.272 E4.34447
G1 X139.247 Y77.415 E4.41543
G1 X140.726 Y79.168 E4.48639
G1 X141.519 Y81.320 E4.55735
G1 X141.625 Y82.500 E4.59401
G1 X141.625 Y117.500 E5.67695
G1 X141.228 Y119.759 E5.74791
G1 X140.085 Y121.747 E5.81888
G1 X138.332 Y123.226 E5.88984
G1 X136.180 Y124.019 E5.96080
G1 X135.000 Y124.125 E5.99745
G1 X65.000 Y124.125 E8.16334
G1 X62.741 Y123.728 E8.23431
G1 X60.753 Y122.585 E8.30527
G1 X59.274 Y120.832 E8.37623
G1 X58.481 Y118.680 E8.44719
G1 X58.375 Y117.500 E8.48384
G1 X58.375 Y82.500 E9.56679
G1 X58.772 Y80.241 E9.63775
G1 X59.915 Y78.253 E9.70871
G1 X61.611 Y76.822 E9.77736
G1 E7.77736 F2400.00000
G92 E0
G1 X119.823 Y108.688 F7800.000
G1 E2.00000 F2400.00000
G1 F1800.000
G1 X116.045 Y109.085 E2.11754
G1 X112.432 Y107.912 E2.23508
G1 X109.609 Y105.370 E2.35261
G1 X108.064 Y101.899 E2.47015
G1 X108.064 Y98.101 E2.58769
G1 X109.609 Y94.630 E2.70523
G1 X112.432 Y92.088 E2.82277
G1 X116.045 Y90.915 E2.94031
G1 X119.823 Y91.312 E3.05784
G1 X123.113 Y93.211 E3.17538
G1 X125.346 Y96.284 E3.29292
G1 X126.136 Y100.000 E3.41046
G1 X125.346 Y103.716 E3.52800
G1 X123.113 Y106.789 E3.64554
G1 X119.888 Y108.651 E3.76076
G1 X119.626 Y108.081 F7800.000
G1 F1800.000
G1 X116.112 Y108.450 E3.87008
G1 X112.752 Y107.358 E3.97940
G1 X110.126 Y104.994 E4.08871
G1 X108.689 Y101.767 E4.19803
G1 X108.689 Y98.233 E4.30735
G1 X110.126 Y95.006 E4.41667
G1 X112.752 Y92.642 E4.52599
G1 X116.112 Y91.550 E4.63531
G1 X119.626 Y91.919 E4.74463
G1 X122.685 Y93.686 E4.85395
G1 X124.762 Y96.544 E4.96327
G1 X125.497 Y100.000 E5.07259
G1 X124.762 Y103.456 E5.18190
G1 X122.685 Y106.314 E5.29122
G1 X119.691 Y108.043 E5.39822
G1 X119.428 Y107.473 F7800.000
G1 F1800.000
G1 X116.179 Y107.815 E5.49932
G1 X113.071 Y106.805 E5.60042
G1 X110.643 Y104.619 E5.70152
G1 X109.314 Y101.634 E5.80262
G1 X109.314 Y98.366 E5.90372
G1 X110.643 Y95.381 E6.00482
G1 X113.071 Y93.195 E6.10592
G1 X116.179 Y92.185 E6.20702
G1 X119.428 Y92.527 E6.30812
G1 X122.258 Y94.160 E6.40922
G1 X124.178 Y96.804 E6.51032
G1 X124.858 Y100.000 E6.61142
G1 X124.178 Y103.196 E6.71252
G1 X122.258 Y105.840 E6.81362
G1 X119.493 Y107.436 E6.91240
G1 X119.428 Y107.473 F7800.000
G1 E4.91240 F2400.00000
G92 E0
G1 X101.600 Y114.350 F7800.000
G1 E2.00000 F2400.00000
G1 F1800.000
G1 X101.600 Y85.650 E2.88800
G1 X66.600 Y85.650 E3.97095
G1 X66.600 Y84.100 E4.01892
G1 X133.400 Y84.100 E6.08581
G1 X133.400 Y115.900 E7.06976
G1 X66.600 Y115.900 E9.13666
G1 X66.600 Y114.350 E9.18463
G1 X101.525 Y114.350 E10.26525
G1 X100.975 Y113.725 F7800.000
G1 F1800.000
G1 X100.975 Y86.275 E11.11459
G1 X65.975 Y86.275 E12.19753
G1 X65.975 Y83.475 E12.28417
G1 X134.025 Y83.475 E14.38974
G1 X134.025 Y116.525 E15.41236
G1 X65.975 Y116.525 E17.51792
G1 X65.975 Y113.725 E17.60456
G1 X100.900 Y113.725 E18.68519
G1 X100.350 Y113.100 F7800.000
G1 F1800.000
G1 X100.350 Y86.900 E19.49585
G1 X65.350 Y86.900 E20.57880
G1 X65.350 Y82.850 E20.70411
G1 X134.650 Y82.850 E22.84834
G1 X134.650 Y117.150 E23.90963
G1 X65.350 Y117.150 E26.05386
G1 X65.350 Y113.100 E26.17917
G1 X100.275 Y113.100 E27.25980
G1 X100.850 Y113.081 F7800.000
G1 E25.25980 F2400.00000
G92 E0
G1 X101.912 Y115.125 F7800.000
G1 E2.00000 F2400.00000
G1 F1800.000
G1 X66.912 Y115.125 E3.47384
G1 E1.47384 F2400.00000
G92 E0
G1 X66.912 Y84.875 F7800.000
G1 E2.00000 F2400.00000
G1 F1800.000
G1 X101.912 Y84.875 E3.47384
G1 X102.780 Y84.482 F7800.000
G1 F1800.000
G1 X102.294 Y84.968 E3.49536
G1 X102.294 Y85.862 E3.52334
G1 X103.674 Y84.482 E3.58444
G1 X104.568 Y84.482 E3.61242
G1 X101.982 Y87.068 E3.72691
G1 X101.982 Y87.962 E3.75489
G1 X105.462 Y84.482 E3.90895
G1 X106.356 Y84.482 E3.93693
G1 X101.982 Y88.856 E4.13056
G1 X101.982 Y89.750 E4.15854
G1 X107.250 Y84.482 E4.39174
G1 X108.144 Y84.482 E4.41972
G1 X101.982 Y90.644 E4.69249
G1 X101.982 Y91.538 E4.72047
G1 X109.038 Y84.482 E5.03280
G1 X109.932 Y84.482 E5.06078
G1 X101.982 Y92.432 E5.41269
G1 X101.982 Y93.326 E5.44067
G1 X110.826 Y84.482 E5.83215
G1 X111.720 Y84.482 E5.86013
G1 X101.982 Y94.220 E6.29118
G1 X101.982 Y95.114 E6.31916
G1 X112.614 Y84.482 E6.78978
G1 X113.508 Y84.482 E6.81776
G1 X101.982 Y96.008 E7.32795
G1 X101.982 Y96.902 E7.35593
G1 X114.402 Y84.482 E7.90568
G1 X115.296 Y84.482 E7.93366
G1 X101.982 Y97.796 E8.52299
G1 X101.982 Y98.690 E8.55097
G1 X116.190 Y84.482 E9.17987
G1 X117.083 Y84.482 E9.20785
G1 X101.982 Y99.583 E9.87632
G1 X101.982 Y100.477 E9.90430
G1 X117.977 Y84.482 E10.61233
G1 X118.871 Y84.482 E10.64031
G1 X108.908 Y94.445 E11.08134
G1 X111.870 Y91.778 E11.20609
G1 X112.757 Y91.490 E11.23529
G1 X119.765 Y84.482 E11.54551
G1 X120.659 Y84.482 E11.57349
G1 X114.081 Y91.060 E11.86465
G1 X115.405 Y90.629 E11.90823
G1 X121.553 Y84.482 E12.18036
G1 X122.447 Y84.482 E12.20834
G1 X116.343 Y90.586 E12.47854
G1 X117.152 Y90.671 E12.50400
G1 X123.341 Y84.482 E12.77797
G1 X124.235 Y84.482 E12.80595
G1 X117.961 Y90.756 E13.08369
G1 X118.770 Y90.841 E13.10915
G1 X125.129 Y84.482 E13.39064
G1 X126.023 Y84.482 E13.41862
G1 X119.578 Y90.926 E13.70389
G1 X119.777 Y90.947 E13.71015
G1 X120.205 Y91.194 E13.72559
G1 X126.917 Y84.482 E14.02270
G1 X127.811 Y84.482 E14.05068
G1 X120.771 Y91.521 E14.36227
G1 X121.338 Y91.848 E14.38275
G1 X128.705 Y84.482 E14.70883
G1 X129.599 Y84.482 E14.73681
G1 X121.905 Y92.175 E15.07737
G1 X122.472 Y92.503 E15.09785
G1 X130.493 Y84.482 E15.45289
G1 X131.387 Y84.482 E15.48087
G1 X123.038 Y92.830 E15.85039
G1 X123.297 Y92.979 E15.85975
G1 X123.502 Y93.261 E15.87063
G1 X132.281 Y84.482 E16.25922
G1 X133.018 Y84.482 E16.28231
G1 X133.018 Y84.638 E16.28720
G1 X123.878 Y93.778 E16.69180
G1 X124.254 Y94.296 E16.71183
G1 X133.018 Y85.532 E17.09977
G1 X133.018 Y86.426 E17.12775
G1 X124.630 Y94.814 E17.49904
G1 X125.006 Y95.332 E17.51907
G1 X133.018 Y87.320 E17.87372
G1 X133.018 Y88.214 E17.90170
G1 X125.383 Y95.849 E18.23969
G1 X125.686 Y96.267 E18.25586
G1 X125.716 Y96.410 E18.26040
G1 X133.018 Y89.108 E18.58361
G1 X133.018 Y90.002 E18.61159
G1 X125.873 Y97.147 E18.92787
G1 X126.030 Y97.884 E18.95146
G1 X133.018 Y90.896 E19.26080
G1 X133.018 Y91.789 E19.28878
G1 X126.187 Y98.621 E19.59118
G1 X126.343 Y99.358 E19.61477
G1 X133.018 Y92.683 E19.91023
G1 X133.018 Y93.577 E19.93821
G1 X126.500 Y100.096 E20.22674
G1 X126.531 Y100.243 E20.23145
G1 X126.338 Y101.151 E20.26052
G1 X133.018 Y94.471 E20.55621
G1 X133.018 Y95.365 E20.58419
G1 X126.097 Y102.287 E20.89056
G1 X125.856 Y103.422 E20.92689
G1 X133.018 Y96.259 E21.24394
G1 X133.018 Y97.153 E21.27192
G1 X124.978 Y105.194 E21.62783
G1 E19.62783 F2400.00000
G92 E0
G1 X132.532 Y115.518 F7800.000
G1 E2.00000 F2400.00000
G1 F1800.000
G1 X133.018 Y115.032 E2.02152
G1 X133.018 Y114.138 E2.04950
G1 X131.638 Y115.518 E2.11059
G1 X130.744 Y115.518 E2.13857
G1 X133.018 Y113.244 E2.23923
G1 X133.018 Y112.350 E2.26721
G1 X129.850 Y115.518 E2.40744
G1 X128.956 Y115.518 E2.43542
G1 X133.018 Y111.456 E2.61522
G1 X133.018 Y110.562 E2.64320
G1 X128.062 Y115.518 E2.86257
G1 X127.168 Y115.518 E2.89055
G1 X133.018 Y109.668 E3.14949
G1 X133.018 Y108.775 E3.17747
G1 X126.275 Y115.518 E3.47598
G1 X125.381 Y115.518 E3.50396
G1 X133.018 Y107.881 E3.84204
G1 X133.018 Y106.987 E3.87002
G1 X124.487 Y115.518 E4.24767
G1 X123.593 Y115.518 E4.27565
G1 X133.018 Y106.093 E4.69286
G1 X133.018 Y105.199 E4.72084
G1 X122.699 Y115.518 E5.17763
G1 X121.805 Y115.518 E5.20561
G1 X133.018 Y104.305 E5.70197
G1 X133.018 Y103.411 E5.72995
G1 X120.911 Y115.518 E6.26588
G1 X120.017 Y115.518 E6.29386
G1 X133.018 Y102.517 E6.86935
G1 X133.018 Y101.623 E6.89733
G1 X119.123 Y115.518 E7.51240
G1 X118.229 Y115.518 E7.54038
G1 X133.018 Y100.729 E8.19502
G1 X133.018 Y99.835 E8.22300
G1 X117.335 Y115.518 E8.91720
G1 X116.441 Y115.518 E8.94518
G1 X133.018 Y98.941 E9.67896
G1 X133.018 Y98.047 E9.70694
G1 X115.547 Y115.518 E10.48029
G1 X114.653 Y115.518 E10.50827
G1 X122.287 Y107.885 E10.84616
G1 X120.263 Y109.053 E10.91929
G1 X120.220 Y109.057 E10.92065
G1 X113.759 Y115.518 E11.20663
G1 X112.865 Y115.518 E11.23461
G1 X119.221 Y109.162 E11.51595
G1 X118.222 Y109.267 E11.54739
G1 X111.971 Y115.518 E11.82408
G1 X111.077 Y115.518 E11.85206
G1 X117.223 Y109.372 E12.12411
G1 X116.224 Y109.477 E12.15554
G1 X110.183 Y115.518 E12.42294
G1 X109.289 Y115.518 E12.45092
G1 X115.549 Y109.259 E12.72798
G1 X114.874 Y109.040 E12.75018
G1 X108.396 Y115.518 E13.03694
G1 X107.502 Y115.518 E13.06492
G1 X114.199 Y108.821 E13.36138
G1 X113.524 Y108.602 E13.38359
G1 X106.608 Y115.518 E13.68976
G1 X105.714 Y115.518 E13.71774
G1 X112.850 Y108.382 E14.03361
G1 X112.356 Y108.222 E14.04986
G1 X112.230 Y108.108 E14.05517
G1 X104.820 Y115.518 E14.38317
G1 X103.926 Y115.518 E14.41115
G1 X111.759 Y107.685 E14.75790
G1 X111.289 Y107.261 E14.77771
G1 X103.032 Y115.518 E15.14320
G1 X102.294 Y115.518 E15.16629
G1 X102.294 Y115.362 E15.17118
G1 X110.819 Y106.838 E15.54851
G1 X110.348 Y106.414 E15.56832
G1 X102.294 Y114.468 E15.92483
G1 X102.294 Y114.280 E15.93071
G1 X101.982 Y114.280 E15.94049
G1 X101.982 Y113.887 E15.95281
G1 X109.878 Y105.991 E16.30233
G1 X109.407 Y105.567 E16.32214
G1 X101.982 Y112.993 E16.65083
G1 X101.982 Y112.099 E16.67881
G1 X109.102 Y104.978 E16.99399
G1 X108.827 Y104.360 E17.01519
G1 X101.982 Y111.205 E17.31818
G1 X101.982 Y110.311 E17.34616
G1 X108.551 Y103.741 E17.63696
G1 X108.276 Y103.123 E17.65815
G1 X101.982 Y109.417 E17.93677
G1 X101.982 Y108.523 E17.96475
G1 X108.001 Y102.504 E18.23117
G1 X107.725 Y101.885 E18.25236
G1 X101.982 Y107.629 E18.50659
G1 X101.982 Y106.735 E18.53457
G1 X107.682 Y101.034 E18.78691
G1 X107.682 Y100.140 E18.81489
G1 X101.982 Y105.841 E19.06722
G1 X101.982 Y104.947 E19.09520
G1 X107.682 Y99.247 E19.34753
G1 X107.682 Y98.353 E19.37551
G1 X101.982 Y104.053 E19.62785
G1 X101.982 Y103.159 E19.65583
G1 X107.896 Y97.245 E19.91762
G1 X108.613 Y95.634 E19.97282
G1 X101.982 Y102.265 E20.26637
G1 X101.982 Y101.371 E20.29435
G1 X109.331 Y94.022 E20.61965
G1 Z0.650 F7800.000
G1 X109.716 Y105.292 F7800.000
G1 F3600.000
G1 X108.193 Y101.872 E20.72066
G1 X108.193 Y98.128 E20.82166
G1 X109.716 Y94.708 E20.92266
G1 X112.498 Y92.202 E21.02366
G1 X116.059 Y91.045 E21.12467
G1 X119.782 Y91.437 E21.22567
G1 X123.025 Y93.309 E21.32667
G1 X125.226 Y96.338 E21.42768
G1 X126.004 Y100.000 E21.52868
G1 X125.226 Y103.662 E21.62968
G1 X123.025 Y106.691 E21.73069
G1 X119.782 Y108.563 E21.83169
G1 X116.059 Y108.955 E21.93269
G1 X112.498 Y107.798 E22.03370
G1 X109.771 Y105.343 E22.13268
G1 X110.241 Y104.911 F7800.000
G1 F3600.000
G1 X108.828 Y101.737 E22.22639
G1 X108.828 Y98.263 E22.32010
G1 X110.241 Y95.089 E22.41382
G1 X112.823 Y92.765 E22.50753
G1 X116.127 Y91.691 E22.60125
G1 X119.582 Y92.055 E22.69496
G1 X122.590 Y93.792 E22.78867
G1 X124.632 Y96.602 E22.88239
G1 X125.354 Y100.000 E22.97610
G1 X124.632 Y103.398 E23.06982
G1 X122.590 Y106.208 E23.16353
G1 X119.582 Y107.945 E23.25725
G1 X116.127 Y108.309 E23.35096
G1 X112.823 Y107.235 E23.44467
G1 X110.297 Y104.961 E23.53636
G1 X110.705 Y104.574 F7800.000
G1 F1800.000
G1 X109.389 Y101.618 E23.60305
G1 X109.389 Y98.382 E23.66973
G1 X110.705 Y95.426 E23.73642
G1 X113.109 Y93.261 E23.80311
G1 X116.187 Y92.261 E23.86979
G1 X119.404 Y92.600 E23.93648
G1 X122.207 Y94.217 E24.00317
G1 X124.108 Y96.835 E24.06985
G1 X124.781 Y100.000 E24.13654
G1 X124.108 Y103.165 E24.20323
G1 X122.207 Y105.783 E24.26991
G1 X119.404 Y107.400 E24.33660
G1 X116.187 Y107.739 E24.40329
G1 X113.109 Y106.739 E24.46997
G1 X110.761 Y104.624 E24.53511
G1 X110.705 Y104.574 F7800.000
G1 X101.471 Y114.221 F7800.000
G1 F3600.000
G1 X101.471 Y85.779 E25.30239
G1 X66.471 Y85.779 E26.24657
G1 X66.471 Y83.971 E26.29533
G1 X133.529 Y83.971 E28.10431
G1 X133.529 Y116.029 E28.96911
G1 X66.471 Y116.029 E30.77809
G1 X66.471 Y114.221 E30.82685
G1 X101.396 Y114.221 E31.76901
G1 X100.836 Y113.586 F7800.000
G1 F3600.000
G1 X100.836 Y86.414 E32.50199
G1 X65.836 Y86.414 E33.44617
G1 X65.836 Y83.336 E33.52922
G1 X134.164 Y83.336 E35.37250
G1 X134.164 Y116.664 E36.27159
G1 X65.836 Y116.664 E38.11486
G1 X65.836 Y113.586 E38.19792
G1 X100.761 Y113.586 E39.14007
G1 X100.275 Y113.025 F7800.000
G1 F1800.000
G1 X100.275 Y86.975 E39.67697
G1 X65.275 Y86.975 E40.39833
G1 X65.275 Y82.775 E40.48490
G1 X134.725 Y82.775 E41.91628
G1 X134.725 Y117.225 E42.62631
G1 X65.275 Y117.225 E44.05770
G1 X65.275 Y113.025 E44.14426
G1 X100.200 Y113.025 E44.86408
G1 X100.775 Y113.005 F7800.000
G1 X101.860 Y98.701 F7800.000
G1 F1200.000
G1 X101.860 Y97.798 E44.88852
G1 X108.999 Y104.937 E45.16199
G1 X108.275 Y103.310 E45.21023
G1 X101.860 Y96.896 E45.45595
G1 X101.860 Y95.993 E45.48040
G1 X107.804 Y101.938 E45.70811
G1 X107.804 Y101.035 E45.73255
G1 X101.860 Y95.091 E45.96026
G1 X101.860 Y94.188 E45.98471
G1 X107.804 Y100.133 E46.21242
G1 X107.804 Y99.230 E46.23687
G1 X101.860 Y93.285 E46.46458
G1 X101.860 Y92.383 E46.48902
G1 X107.804 Y98.328 E46.71673
G1 X107.804 Y98.240 E46.71910
G1 X108.055 Y97.676 E46.73582
G1 X101.860 Y91.480 E46.97315
G1 X101.860 Y90.578 E46.99760
G1 X108.333 Y97.052 E47.24558
G1 X108.611 Y96.427 E47.26409
G1 X101.860 Y89.675 E47.52272
G1 X101.860 Y88.773 E47.54717
G1 X108.890 Y95.803 E47.81645
G1 X109.168 Y95.178 E47.83496
G1 X101.860 Y87.870 E48.11490
G1 X101.860 Y86.968 E48.13934
G1 X109.452 Y94.560 E48.43015
G1 X109.927 Y94.132 E48.44746
G1 X101.860 Y86.065 E48.75647
G1 X101.860 Y85.163 E48.78092
G1 X110.401 Y93.704 E49.10811
G1 E47.10811 F2400.00000
G92 E0
G1 X122.764 Y92.528 F7800.000
G1 E2.00000 F2400.00000
G1 F1200.000
G1 X114.595 Y84.360 E2.31290
G1 X113.692 Y84.360 E2.33735
G1 X120.628 Y91.296 E2.60303
G1 X120.230 Y91.066 E2.61547
G1 X119.410 Y90.980 E2.63782
G1 X112.790 Y84.360 E2.89140
G1 X111.887 Y84.360 E2.91585
G1 X118.401 Y90.874 E3.16536
G1 X117.393 Y90.768 E3.19283
G1 X110.985 Y84.360 E3.43829
G1 X110.082 Y84.360 E3.46273
G1 X116.384 Y90.662 E3.70413
G1 X116.238 Y90.646 E3.70811
G1 X115.655 Y90.835 E3.72470
G1 X109.180 Y84.360 E3.97276
G1 X108.277 Y84.360 E3.99720
G1 X114.974 Y91.057 E4.25374
G1 X114.293 Y91.278 E4.27314
G1 X107.375 Y84.360 E4.53815
G1 X106.472 Y84.360 E4.56260
G1 X113.612 Y91.499 E4.83609
G1 X112.931 Y91.721 E4.85550
G1 X105.569 Y84.360 E5.13747
G1 X104.667 Y84.360 E5.16191
G1 X112.301 Y91.994 E5.45434
G1 X111.826 Y92.422 E5.47165
G1 X103.764 Y84.360 E5.78047
G1 X102.862 Y84.360 E5.80491
G1 X111.351 Y92.849 E6.13010
G1 X110.876 Y93.277 E6.14741
G1 X101.959 Y84.360 E6.48899
G1 X101.057 Y84.360 E6.51343
G1 X102.087 Y85.390 E6.55291
G1 X101.185 Y85.390 E6.57736
G1 X100.154 Y84.360 E6.61684
G1 X99.252 Y84.360 E6.64129
G1 X100.282 Y85.390 E6.68077
G1 X99.380 Y85.390 E6.70522
G1 X98.349 Y84.360 E6.74470
G1 X97.447 Y84.360 E6.76914
G1 X98.477 Y85.390 E6.80863
G1 X97.575 Y85.390 E6.83307
G1 X96.544 Y84.360 E6.87256
G1 X95.641 Y84.360 E6.89700
G1 X96.672 Y85.390 E6.93648
G1 X95.770 Y85.390 E6.96093
G1 X94.739 Y84.360 E7.00041
G1 X93.836 Y84.360 E7.02486
G1 X94.867 Y85.390 E7.06434
G1 X93.965 Y85.390 E7.08879
G1 X92.934 Y84.360 E7.12827
G1 X92.031 Y84.360 E7.15271
G1 X93.062 Y85.390 E7.19220
G1 X92.159 Y85.390 E7.21664
G1 X91.129 Y84.360 E7.25613
G1 X90.226 Y84.360 E7.28057
G1 X91.257 Y85.390 E7.32005
G1 X90.354 Y85.390 E7.34450
G1 X89.324 Y84.360 E7.38398
G1 X88.421 Y84.360 E7.40843
G1 X89.452 Y85.390 E7.44791
G1 X88.549 Y85.390 E7.47236
G1 X87.519 Y84.360 E7.51184
G1 X86.616 Y84.360 E7.53628
G1 X87.647 Y85.390 E7.57577
