; generated by Slic3r 1.3.1-dev (Build 2ef957d) on 2019-11-25 at 16:25:43

; external perimeters extrusion width = 0.55mm (4.37mm^3/s)
; perimeters extrusion width = 0.70mm (11.44mm^3/s)
; infill extrusion width = 0.62mm (13.45mm^3/s)
; solid infill extrusion width = 0.70mm (3.81mm^3/s)
; top infill extrusion width = 0.70mm (2.86mm^3/s)

M107
G92 E0
M104 S200 ; set temperature
G28 ; home all axes
G1 Z5 F5000 ; lift nozzle

; Filament gcode

M109 S200 ; set temperature and wait for it to be reached
G21 ; set units to millimeters
G90 ; use absolute coordinates
M82 ; use absolute distances for extrusion
G92 E0
G1 Z0.350 F7800.000
G1 E-2.00000 F2400.00000
G92 E0
G1 X97.391 Y92.338 F7800.000
G1 E2.00000 F2400.00000
G1 F699.570
G1 X99.143 Y90.859 E2.07096
G1 X101.296 Y90.066 E2.14192
G1 X103.589 Y90.055 E2.21289
G1 X105.749 Y90.826 E2.28385
G1 X107.516 Y92.287 E2.35481
G1 X108.285 Y93.402 E2.39669
G1 X109.088 Y94.868 E2.44844
G1 X109.810 Y96.948 E2.51656
G1 X110.140 Y98.896 E2.57769
G1 X110.140 Y101.104 E2.64599
G1 X109.810 Y103.052 E2.70712
G1 X109.088 Y105.132 E2.77524
G1 X108.285 Y106.598 E2.82699
G1 X106.851 Y108.388 E2.89795
G1 X104.893 Y109.583 E2.96891
G1 X102.645 Y110.038 E3.03988
G1 X100.377 Y109.699 E3.11084
G1 X98.360 Y108.607 E3.18180
G1 X96.836 Y106.893 E3.25276
G1 X95.988 Y104.762 E3.32373
G1 X95.850 Y103.416 E3.36560
G1 X95.850 Y96.584 E3.57697
G1 X96.247 Y94.326 E3.64793
G1 X97.353 Y92.403 E3.71657
G1 E1.71657 F2400.00000
G92 E0
G1 X103.168 Y100.498 F7800.000
G1 E2.00000 F2400.00000
G1 F1800.000
G1 X102.825 Y100.470 E2.01067
G1 X102.825 Y99.530 E2.03973
G1 X103.168 Y99.502 E2.05040
G1 X103.252 Y100.000 E2.06604
G1 X103.181 Y100.424 E2.07936
G1 X102.880 Y100.310 F7800.000
G1 X102.996 Y100.484 F7800.000
G1 F1800.000
G1 X102.800 Y102.820 E2.17617
G1 E0.17617 F2400.00000
G92 E0
G1 X102.996 Y99.516 F7800.000
G1 E2.00000 F2400.00000
G1 F1800.000
G1 X102.800 Y97.180 E2.09681
G1 Z0.650 F7800.000
G1 E0.09681 F2400.00000
G92 E0
G1 X101.923 Y102.777 F7800.000
G1 E2.00000 F2400.00000

G1 F3600.000
G1 X101.712 Y103.161 E2.01218
G1 X101.258 Y103.574 E2.02923
G1 X101.258 Y103.012 E2.04484
G1 X101.646 Y102.580 E2.06096
G1 X101.862 Y102.733 E2.06832

G1 X102.331 Y102.032 F7800.000
G1 F600.000
G1 X102.224 Y101.991 E2.07140

G1 F3600.000
G1 X102.018 Y101.910 E2.07755
G1 X102.224 Y101.085 E2.10117

G1 F600.000
G1 X102.323 Y100.690 E2.11215
G1 X102.682 Y100.765 E2.12205
G1 X102.529 Y101.670 E2.14680
G1 X102.367 Y101.967 E2.15592
G1 E0.15592 F2400.00000
G92 E0
G1 X102.323 Y99.310 F7800.000
G1 E2.00000 F2400.00000
G1 F600.000
G1 X102.224 Y98.915 E2.01098

G1 F3600.000
G1 X102.018 Y98.090 E2.03460
G1 X102.224 Y98.009 E2.04075

G1 F600.000
G1 X102.331 Y97.968 E2.04382
G1 X102.529 Y98.330 E2.05497
G1 X102.682 Y99.235 E2.07972
G1 X102.396 Y99.294 E2.08760
G1 E0.08760 F2400.00000
G92 E0
G1 X101.646 Y97.420 F7800.000
G1 E2.00000 F2400.00000

G1 F3600.000
G1 X101.258 Y96.988 E2.01612
G1 X101.258 Y96.426 E2.03173
G1 X101.712 Y96.839 E2.04878
G1 X101.923 Y97.223 E2.06097
G1 X101.707 Y97.377 E2.06832

G1 E0.06832 F2400.00000
G92 E0
G1 X100.697 Y95.158 F7800.000
G1 E2.00000 F2400.00000

G1 F3600.000
G1 X102.159 Y96.487 E2.05487
G1 X102.225 Y96.607 E2.05867

G1 F600.000
G1 X103.066 Y98.143 E2.09477
G1 X103.380 Y100.000 E2.13358
G1 X103.066 Y101.857 E2.17239
G1 X102.225 Y103.393 E2.20849

G1 F3600.000
G1 X102.159 Y103.513 E2.21229
G1 X100.697 Y104.842 E2.26715
G1 X100.697 Y102.798 E2.32393
G1 X101.420 Y101.992 E2.35400
G1 X101.917 Y100.000 E2.41102
G1 X101.420 Y98.008 E2.46804
G1 X100.697 Y97.202 E2.49811
G1 X100.697 Y95.233 E2.55281

G1 E0.55281 F2400.00000
G92 E0
G1 X101.946 Y97.692 F7800.000
G1 E2.00000 F2400.00000
G1 F600.000
G1 X101.733 Y97.808 E2.00159
G1 X101.729 Y97.825 E2.00171
G1 F600.000
G1 X101.697 Y97.914 E2.00203
G1 X101.946 Y97.692 F7800.000
G1 F600.000
G1 X102.373 Y97.462 E2.00712
G1 E0.00712 F2400.00000
G92 E0
G1 X101.697 Y102.086 F7800.000
G1 E2.00000 F2400.00000
G1 F600.000
G1 X101.729 Y102.175 E2.00032
G1 F600.000
G1 X101.733 Y102.192 E2.00044
G1 X101.946 Y102.308 E2.00203
G1 F600.000
G1 X102.373 Y102.538 E2.00712
G1 Z0.950 F7800.000
G1 X101.693 Y102.580 F7800.000
G1 F600.000
G1 X101.970 Y102.777 E2.01629
G1 X101.760 Y103.161 E2.02812
G1 X101.209 Y103.662 E2.04819
G1 X100.952 Y103.406 E2.05797
G1 X101.643 Y102.636 E2.08588
G1 X102.066 Y101.910 F7800.000
G1 F600.000
G1 X102.370 Y100.690 E2.11980
G1 X102.730 Y100.765 E2.12970
G1 X102.577 Y101.670 E2.15446
G1 X102.378 Y102.032 E2.16560
G1 X102.136 Y101.938 E2.17263
G1 X102.370 Y99.310 F7800.000
G1 F600.000
G1 X102.066 Y98.090 E2.20655
G1 X102.378 Y97.968 E2.21559
G1 X102.577 Y98.330 E2.22674
G1 X102.730 Y99.235 E2.25149
G1 X102.444 Y99.294 E2.25937
G1 X101.693 Y97.420 F7800.000
G1 F600.000
G1 X100.952 Y96.594 E2.28930
G1 X101.209 Y96.338 E2.29908
G1 X101.760 Y96.839 E2.31915
G1 X101.970 Y97.223 E2.33098
G1 X101.754 Y97.377 E2.33813
G1 E0.33813 F2400.00000
G92 E0
G1 X98.803 Y95.992 F7800.000
G1 E2.00000 F2400.00000

G1 F3600.000
G1 X98.803 Y94.433 E2.04328
G1 X99.055 Y94.454 E2.05030
G1 X100.172 Y94.938 E2.08413

G1 F1800.000
G1 X100.803 Y95.211 E2.09829
G1 X102.206 Y96.487 E2.13738
G1 X103.114 Y98.143 E2.17630
G1 X103.427 Y100.000 E2.21511
G1 X103.114 Y101.857 E2.25392
G1 X102.206 Y103.513 E2.29284
G1 X100.803 Y104.789 E2.33194
G1 X100.172 Y105.062 E2.34610

G1 F3600.000
G1 X99.055 Y105.546 E2.37992
G1 X98.803 Y105.567 E2.38694
G1 X98.803 Y104.008 E2.43023
G1 X100.092 Y103.526 E2.46845
G1 X100.172 Y103.436 E2.47181

G1 F1800.000
G1 X101.468 Y101.992 E2.51179
G1 X101.965 Y100.000 E2.55410
G1 X101.468 Y98.008 E2.59641
G1 X100.172 Y96.564 E2.63639

G1 F3600.000
G1 X100.092 Y96.474 E2.63975
G1 X98.873 Y96.018 E2.67589

G1 X99.083 Y95.290 F7800.000
G1 F600.000
G1 X100.407 Y95.824 E2.72805
G1 F600.000
G1 X100.570 Y95.952 E2.73498
G1 X100.883 Y96.267 E2.74979
G1 X101.776 Y97.825 F7800.000
G1 F600.000
G1 X101.745 Y97.914 E2.75011
G1 X101.776 Y97.825 F7800.000
G1 F600.000
G1 X101.780 Y97.808 E2.75023
G1 X101.994 Y97.692 E2.75182
G1 F600.000
G1 X102.421 Y97.462 E2.75692
G1 X101.745 Y102.086 F7800.000
G1 F600.000
G1 X101.776 Y102.175 E2.75723
G1 F600.000
G1 X101.780 Y102.192 E2.75735
G1 X101.994 Y102.308 E2.75895
G1 F600.000
G1 X102.421 Y102.538 E2.76404
G1 X100.883 Y103.733 F7800.000
G1 F600.000
G1 X100.570 Y104.048 E2.77885
G1 X100.407 Y104.176 E2.78578
G1 F600.000
G1 X99.083 Y104.710 E2.83795
M106 S255
G1 Z1.250 F7800.000
G1 X99.395 Y104.403 F7800.000
G1 F600.000
G1 X99.534 Y104.748 E2.84798
G1 X98.965 Y104.995 E2.86473
G1 X98.694 Y105.017 E2.87206
G1 X98.621 Y104.693 E2.88101
G1 X99.325 Y104.429 E2.90128
G1 X101.000 Y103.406 F7800.000
G1 F600.000
G1 X101.741 Y102.580 E2.93122
G1 X102.018 Y102.777 E2.94039
G1 X101.807 Y103.161 E2.95222
G1 X101.257 Y103.662 E2.97229
G1 X101.053 Y103.459 E2.98004
G1 X102.113 Y101.910 F7800.000
G1 F600.000
G1 X102.418 Y100.690 E3.01396
G1 X102.777 Y100.765 E3.02386
G1 X102.624 Y101.670 E3.04862
G1 X102.426 Y102.032 E3.05976
G1 X102.183 Y101.938 E3.06679
G1 X102.418 Y99.310 F7800.000
G1 F600.000
G1 X102.113 Y98.090 E3.10071
G1 X102.426 Y97.968 E3.10975
G1 X102.624 Y98.330 E3.12090
G1 X102.777 Y99.235 E3.14565
G1 X102.491 Y99.294 E3.15353
G1 X101.741 Y97.420 F7800.000
G1 F600.000
G1 X101.000 Y96.594 E3.18346
G1 X101.257 Y96.338 E3.19324
G1 X101.807 Y96.839 E3.21331
G1 X102.018 Y97.223 E3.22514
G1 X101.802 Y97.377 E3.23229
G1 X99.395 Y95.597 F7800.000
G1 F600.000
G1 X98.621 Y95.307 E3.25458
G1 X98.694 Y94.983 E3.26354
G1 X98.965 Y95.005 E3.27087
G1 X99.534 Y95.252 E3.28762
G1 X99.423 Y95.527 E3.29562
G1 E1.29562 F2400.00000
G92 E0
G1 X96.909 Y95.903 F7800.000
G1 E2.00000 F2400.00000
M106 S255

G1 F3600.000
G1 X96.909 Y94.371 E2.04256
G1 X97.200 Y94.298 E2.05089
G1 X98.278 Y94.386 E2.08093
M106 S255

G1 F1800.000
G1 X99.103 Y94.454 E2.09798
G1 X100.850 Y95.211 E2.13724
G1 X102.254 Y96.487 E2.17633
G1 X103.161 Y98.143 E2.21525
G1 X103.475 Y100.000 E2.25406
G1 X103.161 Y101.857 E2.29287
G1 X102.254 Y103.513 E2.33179
G1 X100.850 Y104.789 E2.37089
G1 X99.103 Y105.546 E2.41014
G1 X98.278 Y105.614 E2.42719
M106 S255

G1 F3600.000
G1 X97.200 Y105.702 E2.45724
G1 X96.909 Y105.629 E2.46557
G1 X96.909 Y104.097 E2.50812
G1 X98.201 Y104.252 E2.54427
G1 X98.278 Y104.223 E2.54656
M106 S255

G1 F1800.000
G1 X100.139 Y103.526 E2.58752
G1 X101.515 Y101.992 E2.62999
G1 X102.012 Y100.000 E2.67230
G1 X101.515 Y98.008 E2.71461
G1 X100.139 Y96.474 E2.75709
G1 X98.278 Y95.777 E2.79805
M106 S255

G1 F3600.000
G1 X98.201 Y95.748 E2.80034
G1 X96.983 Y95.894 E2.83440
M106 S255

G1 E0.83440 F2400.00000
G92 E0
G1 X101.824 Y97.825 F7800.000
G1 E2.00000 F2400.00000
G1 F600.000
G1 X101.792 Y97.914 E2.00032
G1 X101.824 Y97.825 F7800.000
G1 F600.000
G1 X101.828 Y97.808 E2.00044
G1 X102.041 Y97.692 E2.00203
G1 F600.000
G1 X102.468 Y97.462 E2.00712
G1 X101.792 Y102.086 F7800.000
G1 F600.000
G1 X101.824 Y102.175 E2.00744
G1 F600.000
G1 X101.828 Y102.192 E2.00756
G1 X102.041 Y102.308 E2.00915
G1 F600.000
G1 X102.468 Y102.538 E2.01425
G1 Z1.550 F7800.000
G1 X96.795 Y104.642 F7800.000
G1 F600.000
G1 X97.736 Y104.755 E2.03982
G1 X97.729 Y105.100 E2.04912
G1 X97.294 Y105.135 E2.06091
G1 X96.730 Y104.994 E2.07660
G1 X96.781 Y104.716 E2.08423
G1 X98.669 Y104.693 F7800.000
G1 F600.000
G1 X99.443 Y104.403 E2.10653
G1 X99.582 Y104.748 E2.11656
G1 X99.012 Y104.995 E2.13331
G1 X98.741 Y105.017 E2.14064
G1 X98.685 Y104.766 E2.14757
G1 X101.047 Y103.406 F7800.000
G1 F600.000
G1 X101.788 Y102.580 E2.17751
G1 X102.066 Y102.777 E2.18668
G1 X101.855 Y103.161 E2.19851
G1 X101.304 Y103.662 E2.21858
G1 X101.100 Y103.459 E2.22633
G1 X102.161 Y101.910 F7800.000
G1 F600.000
G1 X102.465 Y100.690 E2.26025
G1 X102.825 Y100.765 E2.27015
G1 X102.672 Y101.670 E2.29491
G1 X102.473 Y102.032 E2.30605
G1 X102.231 Y101.938 E2.31307
G1 X102.465 Y99.310 F7800.000
G1 F600.000
G1 X102.161 Y98.090 E2.34699
G1 X102.473 Y97.968 E2.35604
G1 X102.672 Y98.330 E2.36718
G1 X102.825 Y99.235 E2.39194
G1 X102.539 Y99.294 E2.39981
G1 X101.788 Y97.420 F7800.000
G1 F600.000
G1 X101.047 Y96.594 E2.42975
G1 X101.304 Y96.338 E2.43953
G1 X101.855 Y96.839 E2.45960
G1 X102.066 Y97.223 E2.47143
G1 X101.849 Y97.377 E2.47857
G1 X99.443 Y95.597 F7800.000
G1 F600.000
G1 X98.669 Y95.307 E2.50087
G1 X98.741 Y94.983 E2.50982
G1 X99.012 Y95.005 E2.51716
G1 X99.582 Y95.252 E2.53390
G1 X99.471 Y95.527 E2.54191
G1 X97.736 Y95.245 F7800.000
G1 F600.000
G1 X96.795 Y95.358 E2.56748
G1 X96.730 Y95.006 E2.57714
G1 X97.294 Y94.865 E2.59283
G1 X97.729 Y94.900 E2.60462
G1 X97.735 Y95.170 E2.61190
G1 E0.61190 F2400.00000
G92 E0
G1 X95.015 Y95.008 F7800.000
G1 E2.00000 F2400.00000
M106 S255

G1 F3600.000
G1 X95.397 Y94.761 E2.01263
G1 X96.384 Y94.514 E2.04089
M106 S255

G1 F1800.000
G1 X97.248 Y94.298 E2.05924
G1 X99.150 Y94.454 E2.09858
G1 X100.898 Y95.211 E2.13784
G1 X102.301 Y96.487 E2.17693
G1 X103.209 Y98.143 E2.21585
G1 X103.522 Y100.000 E2.25466
G1 X103.209 Y101.857 E2.29347
G1 X102.301 Y103.513 E2.33239
G1 X100.898 Y104.789 E2.37148
G1 X99.150 Y105.546 E2.41074
G1 X97.248 Y105.702 E2.45008
G1 X96.384 Y105.486 E2.46843
M106 S255

G1 F3600.000
G1 X95.397 Y105.239 E2.49669
G1 X95.015 Y104.992 E2.50932
G1 X95.015 Y103.206 E2.55893
G1 X96.170 Y104.003 E2.59790
G1 X96.384 Y104.028 E2.60388
M106 S255

G1 F1800.000
G1 X98.248 Y104.252 E2.64258
G1 X100.187 Y103.526 E2.68524
G1 X101.563 Y101.992 E2.72772
G1 X102.060 Y100.000 E2.77003
G1 X101.563 Y98.008 E2.81233
G1 X100.187 Y96.474 E2.85481
G1 X98.248 Y95.748 E2.89747
G1 X96.384 Y95.972 E2.93617
M106 S255

G1 F3600.000
G1 X96.191 Y95.995 E2.94157
G1 X95.015 Y96.797 E2.98111
G1 X95.015 Y95.083 E3.02872
M106 S255

G1 E1.02872 F2400.00000
G92 E0
G1 X101.871 Y97.825 F7800.000
G1 E2.00000 F2400.00000
G1 F600.000
G1 X101.840 Y97.914 E2.00032
G1 X101.871 Y97.825 F7800.000
G1 F600.000
G1 X101.876 Y97.808 E2.00044
G1 X102.089 Y97.692 E2.00203
G1 F600.000
G1 X102.516 Y97.462 E2.00712
G1 X101.840 Y102.086 F7800.000
G1 F600.000
G1 X101.871 Y102.175 E2.00744
G1 F600.000
G1 X101.876 Y102.192 E2.00756
G1 X102.089 Y102.308 E2.00915
G1 F600.000
G1 X102.516 Y102.538 E2.01425
G1 Z1.850 F7800.000
G1 E0.01425 F2400.00000
G92 E0
G1 X95.863 Y96.251 F7800.000
G1 E2.00000 F2400.00000
G1 F1800.000
G1 X96.239 Y95.995 E2.00937
G1 X98.296 Y95.748 E2.05208
G1 X100.234 Y96.474 E2.09474
G1 X101.610 Y98.008 E2.13721
G1 X102.107 Y100.000 E2.17952
G1 X101.610 Y101.992 E2.22183
G1 X100.234 Y103.526 E2.26430
G1 X98.296 Y104.252 E2.30697
G1 X96.239 Y104.005 E2.34967
G1 X94.532 Y102.841 E2.39225
G1 X94.490 Y102.763 E2.39409
M106 S255

G1 F3600.000
G1 X93.567 Y101.026 E2.44872
G1 X93.567 Y98.974 E2.50571
G1 X94.490 Y97.237 E2.56035
M106 S255

G1 F1800.000
G1 X94.532 Y97.159 E2.56219
G1 X95.801 Y96.293 E2.59384
G1 X95.825 Y95.798 F7800.000
G1 X94.927 Y96.210 F7800.000
G1 F1817.467
G1 X94.490 Y96.508 E2.60813
M106 S255

G1 F3600.000
G1 X94.313 Y96.629 E2.61407
G1 X94.090 Y96.390 E2.62316
G1 X94.230 Y96.212 E2.62944
G1 X94.490 Y96.044 E2.63804
M106 S255

G1 F1817.467
G1 X94.719 Y95.896 E2.64540
G1 X94.886 Y96.148 E2.65353
G1 X96.842 Y95.358 F7800.000
G1 F600.000
G1 X96.777 Y95.006 E2.66319
G1 X97.342 Y94.865 E2.67888
G1 X97.777 Y94.900 E2.69067
G1 X97.783 Y95.245 E2.69997
G1 X96.917 Y95.349 E2.72352
G1 X98.716 Y95.307 F7800.000
G1 F600.000
G1 X98.789 Y94.983 E2.73247
G1 X99.060 Y95.005 E2.73981
G1 X99.629 Y95.252 E2.75656
G1 X99.490 Y95.597 E2.76659
G1 X98.787 Y95.333 E2.78686
G1 X101.095 Y96.594 F7800.000
G1 F600.000
G1 X101.352 Y96.338 E2.79663
G1 X101.902 Y96.839 E2.81671
G1 X102.113 Y97.223 E2.82853
G1 X101.836 Y97.420 E2.83770
G1 X101.145 Y96.650 E2.86562
G1 X102.208 Y98.090 F7800.000
G1 F600.000
G1 X102.521 Y97.968 E2.87466
G1 X102.719 Y98.330 E2.88581
G1 X102.872 Y99.235 E2.91056
G1 X102.513 Y99.310 E2.92046
G1 X102.227 Y98.163 E2.95236
G1 X102.513 Y100.690 F7800.000
G1 F600.000
G1 X102.872 Y100.765 E2.96226
G1 X102.719 Y101.670 E2.98702
G1 X102.521 Y102.032 E2.99816
G1 X102.208 Y101.910 E3.00720
G1 X102.495 Y100.763 E3.03910
G1 X101.836 Y102.580 F7800.000
G1 F600.000
G1 X102.113 Y102.777 E3.04827
G1 X101.902 Y103.161 E3.06010
G1 X101.352 Y103.662 E3.08017
G1 X101.095 Y103.406 E3.08995
G1 X101.786 Y102.636 E3.11786
G1 X99.490 Y104.403 F7800.000
G1 F600.000
G1 X99.629 Y104.748 E3.12789
G1 X99.060 Y104.995 E3.14464
G1 X98.789 Y105.017 E3.15198
G1 X98.716 Y104.693 E3.16093
G1 X99.420 Y104.429 E3.18120
G1 X97.783 Y104.755 F7800.000
G1 F600.000
G1 X97.777 Y105.100 E3.19050
G1 X97.342 Y105.135 E3.20229
G1 X96.777 Y104.994 E3.21798
G1 X96.842 Y104.642 E3.22764
G1 X97.709 Y104.746 E3.25119
G1 X94.928 Y103.790 F7800.000
G1 F1817.467
G1 X94.719 Y104.104 E3.26134
G1 X94.490 Y103.956 E3.26871
M106 S255

G1 F3600.000
G1 X94.230 Y103.788 E3.27731
G1 X94.090 Y103.610 E3.28358
G1 X94.313 Y103.371 E3.29267
G1 X94.490 Y103.492 E3.29861
M106 S255

G1 F1817.467
G1 X94.866 Y103.748 E3.31088
G1 X94.419 Y104.577 F7800.000
M106 S255

G1 F3600.000
G1 X93.847 Y104.208 E3.32979
G1 X93.121 Y103.286 E3.36239
G1 X93.121 Y96.714 E3.54496
G1 X93.847 Y95.792 E3.57756
G1 X94.490 Y95.377 E3.59881
M106 S255

G1 F1800.000
G1 X95.445 Y94.761 E3.62223
G1 X97.295 Y94.298 E3.66154
G1 X99.198 Y94.454 E3.70088
G1 X100.945 Y95.211 E3.74014
G1 X102.349 Y96.487 E3.77924
G1 X103.256 Y98.143 E3.81816
G1 X103.570 Y100.000 E3.85697
G1 X103.256 Y101.857 E3.89577
G1 X102.349 Y103.513 E3.93469
G1 X100.945 Y104.789 E3.97379
G1 X99.198 Y105.546 E4.01305
G1 X97.295 Y105.702 E4.05239
G1 X95.445 Y105.239 E4.09170
G1 X94.490 Y104.623 E4.11512
M106 S255

G1 F3600.000
G1 X94.482 Y104.618 E4.11537
M106 S255

G1 E2.11537 F2400.00000
G92 E0
G1 X101.887 Y102.086 F7800.000
G1 E2.00000 F2400.00000
G1 F605.822
G1 X101.919 Y102.175 E2.00032
G1 F605.822
G1 X101.923 Y102.192 E2.00044
G1 X102.137 Y102.308 E2.00203
G1 F605.822
G1 X102.563 Y102.538 E2.00712
G1 X101.887 Y97.914 F7800.000
G1 F605.822
G1 X101.919 Y97.825 E2.00744
G1 F605.822
G1 X101.923 Y97.808 E2.00756
G1 X102.137 Y97.692 E2.00915
G1 F605.822
G1 X102.563 Y97.462 E2.01425
M106 S252.45
G1 Z2.150 F7800.000
G1 E0.01425 F2400.00000
G92 E0
G1 X95.278 Y103.318 F7800.000
G1 E2.00000 F2400.00000
G1 F900.000
G1 X94.579 Y102.841 E2.01743
