; generated by Slic3r 1.3.1-dev (Build 2ef957d) on 2019-11-25 at 16:25:50

; external perimeters extrusion width = 0.55mm (4.37mm^3/s)
; perimeters extrusion width = 0.70mm (11.44mm^3/s)
; infill extrusion width = 0.62mm (13.45mm^3/s)
; solid infill extrusion width = 0.70mm (3.81mm^3/s)
; top infill extrusion width = 0.70mm (2.86mm^3/s)

M107
G92 E0
M104 S200 ; set temperature
G28 ; home all axes
G1 Z5 F5000 ; lift nozzle

; Filament gcode

M109 S200 ; set temperature and wait for it to be reached
G21 ; set units to millimeters
G90 ; use absolute coordinates
M82 ; use absolute distances for extrusion
G92 E0
G1 Z0.350 F7800.000
G1 E-2.00000 F2400.00000
G92 E0
G1 X80.065 Y80.903 F7800.000
G1 E2.00000 F2400.00000
G1 F1800.000
G1 X81.818 Y79.424 E2.07096
G1 X83.970 Y78.631 E2.14192
G1 X85.150 Y78.525 E2.17858
G1 X114.850 Y78.525 E3.09753
G1 X117.109 Y78.922 E3.16850
G1 X119.097 Y80.065 E3.23946
G1 X120.576 Y81.818 E3.31042
G1 X121.369 Y83.970 E3.38138
G1 X121.475 Y85.150 E3.41803
G1 X121.475 Y114.850 E4.33699
G1 X121.078 Y117.109 E4.40795
G1 X119.935 Y119.097 E4.47891
G1 X118.182 Y120.576 E4.54988
G1 X116.030 Y121.369 E4.62084
G1 X114.850 Y121.475 E4.65749
G1 X85.150 Y121.475 E5.57645
G1 X82.891 Y121.078 E5.64741
G1 X80.903 Y119.935 E5.71837
G1 X79.424 Y118.182 E5.78933
G1 X78.631 Y116.030 E5.86030
G1 X78.525 Y114.850 E5.89695
G1 X78.525 Y85.150 E6.81590
G1 X78.922 Y82.891 E6.88687
G1 X80.028 Y80.968 E6.95551
G1 E4.95551 F2400.00000
G92 E0
G1 X104.777 Y104.486 F7800.000
G1 E2.00000 F2400.00000
G1 F1800.000
G1 X104.195 Y105.032 E2.02468
G1 X103.830 Y105.315 E2.03897
G1 X103.178 Y105.729 E2.06288
G1 X102.767 Y105.939 E2.07717
G1 X102.048 Y106.223 E2.10107
G1 X101.605 Y106.352 E2.11536
G1 X100.846 Y106.497 E2.13926
G1 X100.411 Y106.538 E2.15277
G1 X99.975 Y106.551 E2.16628
G1 X99.179 Y106.501 E2.19097
G1 X98.395 Y106.352 E2.21565
G1 X97.952 Y106.223 E2.22994
G1 X97.210 Y105.929 E2.25462
G1 X96.511 Y105.545 E2.27930
G1 X96.129 Y105.285 E2.29359
G1 X95.514 Y104.777 E2.31827
G1 X94.970 Y104.197 E2.34289
G1 X94.685 Y103.831 E2.35724
G1 X94.271 Y103.178 E2.38115
G1 X94.073 Y102.789 E2.39466
G1 X93.899 Y102.388 E2.40818
G1 X93.653 Y101.630 E2.43286
G1 X93.503 Y100.846 E2.45754
G1 X93.462 Y100.411 E2.47105
G1 X93.449 Y99.975 E2.48456
G1 X93.499 Y99.179 E2.50925
G1 X93.648 Y98.395 E2.53393
G1 X93.770 Y97.976 E2.54744
G1 X93.918 Y97.565 E2.56095
G1 X94.258 Y96.843 E2.58563
G1 X94.685 Y96.170 E2.61032
G1 X94.968 Y95.805 E2.62461
G1 X95.497 Y95.241 E2.64851
G1 X95.825 Y94.953 E2.66202
G1 X96.170 Y94.685 E2.67553
G1 X96.843 Y94.258 E2.70022
G1 X97.588 Y93.907 E2.72568
G1 X98.370 Y93.653 E2.75114
G1 X99.154 Y93.503 E2.77582
G1 X99.589 Y93.462 E2.78934
G1 X100.025 Y93.449 E2.80285
G1 X100.821 Y93.499 E2.82753
G1 X101.605 Y93.648 E2.85221
G1 X102.024 Y93.770 E2.86572
G1 X102.435 Y93.918 E2.87923
G1 X103.132 Y94.246 E2.90307
G1 X103.531 Y94.482 E2.91742
G1 X104.157 Y94.936 E2.94133
G1 X104.503 Y95.241 E2.95562
G1 X105.031 Y95.803 E2.97947
G1 X105.315 Y96.169 E2.99381
G1 X105.742 Y96.843 E3.01850
G1 X106.093 Y97.588 E3.04396
G1 X106.347 Y98.370 E3.06942
G1 X106.497 Y99.154 E3.09410
G1 X106.538 Y99.589 E3.10762
G1 X106.551 Y100.025 E3.12113
G1 X106.501 Y100.821 E3.14581
G1 X106.352 Y101.605 E3.17049
G1 X106.230 Y102.024 E3.18400
G1 X106.082 Y102.435 E3.19751
G1 X105.742 Y103.157 E3.22220
G1 X105.301 Y103.852 E3.24766
G1 X104.825 Y104.428 E3.27080
G1 X104.320 Y104.057 F7800.000
G1 F1800.000
G1 X103.789 Y104.556 E3.29336
G1 X103.471 Y104.803 E3.30582
G1 X102.868 Y105.185 E3.32790
G1 X102.509 Y105.368 E3.34037
G1 X101.846 Y105.631 E3.36245
G1 X101.459 Y105.743 E3.37491
G1 X100.758 Y105.877 E3.39699
G1 X100.372 Y105.914 E3.40898
G1 X99.985 Y105.926 E3.42098
G1 X99.257 Y105.880 E3.44353
G1 X98.541 Y105.744 E3.46608
G1 X98.154 Y105.631 E3.47855
G1 X97.476 Y105.363 E3.50111
G1 X96.838 Y105.012 E3.52366
G1 X96.504 Y104.785 E3.53613
G1 X95.943 Y104.321 E3.55868
G1 X95.445 Y103.791 E3.58117
G1 X95.197 Y103.471 E3.59370
G1 X94.815 Y102.868 E3.61578
G1 X94.639 Y102.523 E3.62777
G1 X94.485 Y102.167 E3.63977
G1 X94.259 Y101.474 E3.66232
G1 X94.123 Y100.758 E3.68487
G1 X94.086 Y100.372 E3.69687
G1 X94.074 Y99.985 E3.70886
G1 X94.120 Y99.257 E3.73141
G1 X94.257 Y98.541 E3.75397
G1 X94.365 Y98.169 E3.76596
G1 X94.496 Y97.804 E3.77795
G1 X94.806 Y97.145 E3.80051
G1 X95.197 Y96.529 E3.82306
G1 X95.444 Y96.211 E3.83553
G1 X95.932 Y95.691 E3.85761
G1 X96.223 Y95.434 E3.86960
G1 X96.529 Y95.197 E3.88159
G1 X97.145 Y94.806 E3.90414
G1 X97.818 Y94.489 E3.92717
G1 X98.526 Y94.259 E3.95020
G1 X99.242 Y94.123 E3.97276
G1 X100.015 Y94.074 E3.99673
G1 X100.743 Y94.120 E4.01928
G1 X101.459 Y94.257 E4.04184
G1 X102.196 Y94.496 E4.06581
G1 X102.839 Y94.799 E4.08782
G1 X103.188 Y95.005 E4.10035
G1 X103.765 Y95.424 E4.12244
G1 X104.068 Y95.691 E4.13490
G1 X104.555 Y96.210 E4.15693
G1 X104.803 Y96.529 E4.16944
G1 X105.194 Y97.145 E4.19200
G1 X105.511 Y97.818 E4.21503
G1 X105.741 Y98.526 E4.23806
G1 X105.877 Y99.242 E4.26062
G1 X105.914 Y99.628 E4.27261
G1 X105.926 Y100.015 E4.28460
G1 X105.880 Y100.743 E4.30715
G1 X105.743 Y101.459 E4.32971
G1 X105.635 Y101.831 E4.34170
G1 X105.504 Y102.196 E4.35369
G1 X105.194 Y102.855 E4.37625
G1 X104.795 Y103.484 E4.39928
G1 X104.368 Y103.999 E4.41998
G1 X103.864 Y103.629 F7800.000
G1 F1800.000
G1 X103.383 Y104.080 E4.44041
G1 X103.111 Y104.291 E4.45105
G1 X102.558 Y104.642 E4.47131
G1 X102.252 Y104.798 E4.48195
G1 X101.643 Y105.039 E4.50221
G1 X101.313 Y105.135 E4.51285
G1 X100.670 Y105.258 E4.53311
G1 X100.333 Y105.290 E4.54358
G1 X99.994 Y105.300 E4.55405
G1 X99.336 Y105.259 E4.57448
G1 X98.687 Y105.135 E4.59490
G1 X98.357 Y105.039 E4.60555
G1 X97.743 Y104.796 E4.62597
G1 X97.165 Y104.478 E4.64640
G1 X96.880 Y104.285 E4.65704
G1 X96.371 Y103.864 E4.67746
G1 X95.921 Y103.384 E4.69783
G1 X95.709 Y103.111 E4.70853
G1 X95.358 Y102.558 E4.72879
G1 X95.204 Y102.257 E4.73926
G1 X95.070 Y101.946 E4.74974
G1 X94.866 Y101.318 E4.77016
G1 X94.742 Y100.670 E4.79059
G1 X94.710 Y100.333 E4.80106
G1 X94.700 Y99.994 E4.81153
G1 X94.741 Y99.336 E4.83196
G1 X94.865 Y98.687 E4.85239
G1 X94.959 Y98.362 E4.86286
G1 X95.074 Y98.044 E4.87333
G1 X95.355 Y97.446 E4.89376
G1 X95.709 Y96.889 E4.91418
G1 X95.920 Y96.617 E4.92483
G1 X96.368 Y96.140 E4.94508
G1 X96.622 Y95.916 E4.95556
G1 X96.889 Y95.709 E4.96603
G1 X97.446 Y95.355 E4.98645
G1 X98.049 Y95.072 E5.00705
G1 X98.682 Y94.866 E5.02765
G1 X99.330 Y94.742 E5.04807
G1 X100.005 Y94.700 E5.06901
G1 X100.664 Y94.741 E5.08943
G1 X101.313 Y94.865 E5.10986
G1 X101.956 Y95.074 E5.13080
G1 X102.547 Y95.352 E5.15099
G1 X102.845 Y95.528 E5.16169
G1 X103.374 Y95.913 E5.18195
G1 X103.632 Y96.140 E5.19259
G1 X104.079 Y96.616 E5.21280
G1 X104.291 Y96.889 E5.22349
G1 X104.645 Y97.446 E5.24392
G1 X104.928 Y98.049 E5.26451
G1 X105.134 Y98.682 E5.28511
G1 X105.258 Y99.330 E5.30554
G1 X105.290 Y99.667 E5.31601
G1 X105.300 Y100.005 E5.32648
G1 X105.259 Y100.664 E5.34691
G1 X105.135 Y101.313 E5.36733
G1 X105.041 Y101.638 E5.37781
G1 X104.926 Y101.956 E5.38828
G1 X104.645 Y102.554 E5.40870
G1 X104.288 Y103.116 E5.42930
G1 X103.912 Y103.571 E5.44758
G1 X103.864 Y103.629 F7800.000
G1 E3.44758 F2400.00000
G92 E0
G1 X113.250 Y113.250 F7800.000
G1 E2.00000 F2400.00000
G1 F1800.000
G1 X86.750 Y113.250 E2.81996
G1 X86.750 Y86.750 E3.63992
G1 X113.250 Y86.750 E4.45988
G1 X113.250 Y113.175 E5.27751
G1 X113.875 Y113.875 F7800.000
G1 F1800.000
G1 X86.125 Y113.875 E6.13614
G1 X86.125 Y86.125 E6.99477
G1 X113.875 Y86.125 E7.85340
G1 X113.875 Y113.800 E8.70971
G1 X114.500 Y114.500 F7800.000
G1 F1800.000
G1 X85.500 Y114.500 E9.60701
G1 X85.500 Y85.500 E10.50430
G1 X114.500 Y85.500 E11.40160
G1 X114.500 Y114.425 E12.29658
G1 X114.017 Y114.371 F7800.000
G1 E10.29658 F2400.00000
G92 E0
G1 X112.382 Y112.868 F7800.000
G1 E2.00000 F2400.00000
G1 F1800.000
G1 X112.868 Y112.382 E2.02133
G1 X112.868 Y111.496 E2.04881
G1 X111.496 Y112.868 E2.10901
G1 X110.610 Y112.868 E2.13649
G1 X112.868 Y110.610 E2.23556
G1 X112.868 Y109.724 E2.26304
G1 X109.724 Y112.868 E2.40097
G1 X108.838 Y112.868 E2.42845
G1 X112.868 Y108.838 E2.60525
G1 X112.868 Y107.952 E2.63274
G1 X107.952 Y112.868 E2.84840
G1 X107.066 Y112.868 E2.87589
G1 X112.868 Y107.066 E3.13042
G1 X112.868 Y106.180 E3.15790
G1 X106.180 Y112.868 E3.45131
G1 X105.294 Y112.868 E3.47879
G1 X112.868 Y105.294 E3.81106
G1 X112.868 Y104.408 E3.83854
G1 X104.408 Y112.868 E4.20968
G1 X103.522 Y112.868 E4.23716
G1 X112.868 Y103.522 E4.64717
G1 X112.868 Y102.636 E4.67465
G1 X102.636 Y112.868 E5.12352
G1 X101.750 Y112.868 E5.15101
G1 X112.868 Y101.750 E5.63874
G1 X112.868 Y100.864 E5.66623
G1 X100.864 Y112.868 E6.19283
G1 X99.978 Y112.868 E6.22032
G1 X112.868 Y99.978 E6.78579
G1 X112.868 Y99.092 E6.81328
G1 X99.092 Y112.868 E7.41762
G1 X98.206 Y112.868 E7.44510
G1 X112.868 Y98.206 E8.08831
G1 X112.868 Y97.320 E8.11579
G1 X97.320 Y112.868 E8.79787
G1 X96.434 Y112.868 E8.82535
G1 X102.887 Y106.416 E9.10840
G1 X102.494 Y106.572 E9.12149
G1 X101.994 Y106.717 E9.13765
G1 X101.631 Y106.786 E9.14913
G1 X95.548 Y112.868 E9.41594
G1 X94.663 Y112.868 E9.44342
G1 X100.610 Y106.921 E9.70432
G1 X100.208 Y106.934 E9.71679
G1 X99.741 Y106.904 E9.73132
G1 X93.777 Y112.868 E9.99296
G1 X92.891 Y112.868 E10.02044
G1 X98.954 Y106.805 E10.28643
G1 X98.492 Y106.717 E10.30101
G1 X98.232 Y106.641 E10.30943
G1 X92.005 Y112.868 E10.58260
G1 X91.119 Y112.868 E10.61009
G1 X97.579 Y106.408 E10.89349
G1 X97.186 Y106.253 E10.90659
G1 X96.968 Y106.133 E10.91431
G1 X90.233 Y112.868 E11.20979
G1 X89.347 Y112.868 E11.23728
G1 X96.399 Y105.816 E11.54665
G1 X95.881 Y105.448 E11.56636
G1 X88.461 Y112.868 E11.89191
G1 X87.575 Y112.868 E11.91939
G1 X95.397 Y105.046 E12.26253
G1 X94.960 Y104.597 E12.28197
G1 X87.132 Y112.425 E12.62538
G1 X87.132 Y111.539 E12.65286
G1 X94.551 Y104.120 E12.97833
G1 X94.416 Y103.947 E12.98512
G1 X94.192 Y103.593 E12.99813
G1 X87.132 Y110.653 E13.30786
G1 X87.132 Y109.767 E13.33534
G1 X93.864 Y103.035 E13.63068
G1 X93.584 Y102.429 E13.65139
G1 X87.132 Y108.881 E13.93447
G1 X87.132 Y107.996 E13.96195
G1 X93.362 Y101.765 E14.23527
G1 X93.290 Y101.542 E14.24254
G1 X93.195 Y101.046 E14.25820
G1 X87.132 Y107.110 E14.52420
G1 X87.132 Y106.224 E14.55168
G1 X93.087 Y100.268 E14.81294
G1 X93.066 Y99.722 E14.82989
G1 X93.088 Y99.382 E14.84047
G1 X87.132 Y105.338 E15.10176
G1 X87.132 Y104.452 E15.12924
G1 X93.214 Y98.370 E15.39606
G1 X93.283 Y98.006 E15.40754
G1 X93.418 Y97.540 E15.42261
G1 X93.565 Y97.132 E15.43604
G1 X87.132 Y103.566 E15.71828
G1 X87.132 Y102.680 E15.74576
G1 X102.680 Y87.132 E16.42784
G1 X101.794 Y87.132 E16.45533
G1 X87.132 Y101.794 E17.09854
G1 X87.132 Y100.908 E17.12602
G1 X100.908 Y87.132 E17.73037
G1 X100.022 Y87.132 E17.75785
G1 X87.132 Y100.022 E18.32333
G1 X87.132 Y99.136 E18.35081
G1 X99.136 Y87.132 E18.87742
G1 X98.250 Y87.132 E18.90491
G1 X87.132 Y98.250 E19.39265
G1 X87.132 Y97.364 E19.42013
G1 X97.364 Y87.132 E19.86901
G1 X96.478 Y87.132 E19.89649
G1 X87.132 Y96.478 E20.30650
G1 X87.132 Y95.592 E20.33398
G1 X95.592 Y87.132 E20.70512
G1 X94.706 Y87.132 E20.73261
G1 X87.132 Y94.706 E21.06488
G1 X87.132 Y93.820 E21.09236
G1 X93.820 Y87.132 E21.38577
G1 X92.934 Y87.132 E21.41325
G1 X87.132 Y92.934 E21.66779
G1 X87.132 Y92.048 E21.69527
G1 X92.048 Y87.132 E21.91094
G1 X91.162 Y87.132 E21.93842
G1 X87.132 Y91.162 E22.11523
G1 X87.132 Y90.276 E22.14271
G1 X90.276 Y87.132 E22.28064
G1 X89.390 Y87.132 E22.30813
G1 X87.132 Y89.390 E22.40719
G1 X87.132 Y88.504 E22.43468
G1 X88.504 Y87.132 E22.49488
G1 X87.618 Y87.132 E22.52236
G1 X87.132 Y87.618 E22.54368
G1 E20.54368 F2400.00000
G92 E0
G1 X93.079 Y97.618 F7800.000
G1 E2.00000 F2400.00000
G1 F1800.000
G1 X93.466 Y96.784 E2.02850
G1 X93.930 Y96.053 E2.05538
G1 X94.249 Y95.641 E2.07154
G1 X94.819 Y95.035 E2.09733
G1 X95.183 Y94.714 E2.11240
G1 X95.567 Y94.416 E2.12747
G1 X96.298 Y93.952 E2.15435
G1 X97.136 Y93.561 E2.18303
G1 X103.566 Y87.132 E2.46508
G1 X104.452 Y87.132 E2.49256
G1 X98.370 Y93.214 E2.75938
G1 X98.823 Y93.127 E2.77369
G1 X99.390 Y93.079 E2.79136
G1 X105.338 Y87.132 E3.05226
G1 X106.224 Y87.132 E3.07974
G1 X100.260 Y93.096 E3.34138
G1 X100.657 Y93.121 E3.35372
G1 X101.046 Y93.195 E3.36602
G1 X107.110 Y87.132 E3.63201
G1 X107.996 Y87.132 E3.65950
G1 X101.768 Y93.359 E3.93267
G1 X102.430 Y93.583 E3.95435
G1 X108.881 Y87.132 E4.23736
G1 X109.767 Y87.132 E4.26484
G1 X103.033 Y93.866 E4.56027
G1 X103.601 Y94.184 E4.58047
G1 X110.653 Y87.132 E4.88985
G1 X111.539 Y87.132 E4.91733
G1 X104.117 Y94.554 E5.24296
G1 X104.305 Y94.691 E5.25017
G1 X104.603 Y94.954 E5.26251
G1 X112.425 Y87.132 E5.60567
G1 X112.868 Y87.132 E5.61941
G1 X112.868 Y87.575 E5.63315
G1 X105.040 Y95.403 E5.97656
G1 X105.263 Y95.640 E5.98666
G1 X105.449 Y95.880 E5.99607
G1 X112.868 Y88.461 E6.32154
G1 X112.868 Y89.347 E6.34902
G1 X105.808 Y96.407 E6.65875
G1 X106.048 Y96.785 E6.67263
G1 X106.134 Y96.967 E6.67888
G1 X112.868 Y90.233 E6.97432
G1 X112.868 Y91.119 E7.00180
G1 X106.417 Y97.570 E7.28480
G1 X106.638 Y98.235 E7.30655
G1 X112.868 Y92.005 E7.57987
G1 X112.868 Y92.891 E7.60735
G1 X106.805 Y98.954 E7.87334
G1 X106.873 Y99.309 E7.88455
G1 X106.913 Y99.732 E7.89774
G1 X112.868 Y93.777 E8.15901
G1 X112.868 Y94.663 E8.18649
G1 X106.912 Y100.619 E8.44777
G1 X106.879 Y101.143 E8.46407
G1 X106.786 Y101.631 E8.47947
G1 X112.868 Y95.549 E8.74629
G1 X112.868 Y96.434 E8.77377
G1 X106.435 Y102.868 E9.05601
G1 Z0.650 F7800.000
G1 X104.413 Y104.666 F7800.000
G1 F900.000
G1 X104.094 Y104.948 E9.06752
G1 X103.756 Y105.210 E9.07902
G1 X103.095 Y105.630 E9.10016
G1 X102.365 Y105.973 E9.12193
G1 X101.598 Y106.222 E9.14369
G1 X100.828 Y106.369 E9.16483
G1 X100.403 Y106.409 E9.17634
G1 X99.977 Y106.423 E9.18784
G1 X99.195 Y106.373 E9.20898
G1 X98.425 Y106.227 E9.23012
G1 X98.015 Y106.108 E9.24163
G1 X97.614 Y105.963 E9.25313
G1 X96.905 Y105.630 E9.27427
G1 X96.244 Y105.210 E9.29541
G1 X95.906 Y104.948 E9.30692
G1 X95.587 Y104.666 E9.31843
G1 X95.066 Y104.112 E9.33894
G1 X94.790 Y103.756 E9.35107
G1 X94.370 Y103.095 E9.37221
G1 X94.027 Y102.365 E9.39397
G1 X93.778 Y101.598 E9.41574
G1 X93.631 Y100.828 E9.43687
G1 X93.591 Y100.403 E9.44838
G1 X93.577 Y99.977 E9.45989
G1 X93.627 Y99.195 E9.48103
G1 X93.773 Y98.425 E9.50217
G1 X93.892 Y98.015 E9.51367
G1 X94.037 Y97.614 E9.52518
G1 X94.370 Y96.905 E9.54632
G1 X94.790 Y96.244 E9.56746
G1 X95.052 Y95.906 E9.57896
G1 X95.334 Y95.586 E9.59047
G1 X95.888 Y95.066 E9.61098
G1 X96.244 Y94.790 E9.62312
G1 X96.905 Y94.370 E9.64425
G1 X97.635 Y94.027 E9.66602
G1 X98.402 Y93.778 E9.68778
G1 X99.172 Y93.631 E9.70892
G1 X99.597 Y93.591 E9.72043
G1 X100.023 Y93.577 E9.73193
G1 X100.805 Y93.627 E9.75307
G1 X101.575 Y93.773 E9.77421
G1 X101.984 Y93.892 E9.78572
G1 X102.386 Y94.037 E9.79723
G1 X103.095 Y94.370 E9.81836
G1 X103.756 Y94.790 E9.83950
G1 X104.112 Y95.066 E9.85164
G1 X104.666 Y95.586 E9.87215
G1 X104.948 Y95.906 E9.88365
G1 X105.210 Y96.244 E9.89516
G1 X105.630 Y96.905 E9.91630
G1 X105.973 Y97.635 E9.93806
G1 X106.222 Y98.402 E9.95983
G1 X106.369 Y99.172 E9.98097
G1 X106.409 Y99.597 E9.99247
G1 X106.423 Y100.023 E10.00398
G1 X106.373 Y100.805 E10.02512
G1 X106.227 Y101.575 E10.04626
G1 X106.108 Y101.985 E10.05777
G1 X105.963 Y102.386 E10.06927
G1 X105.630 Y103.095 E10.09041
G1 X105.210 Y103.756 E10.11155
G1 X104.934 Y104.112 E10.12368
G1 X104.465 Y104.611 E10.14217
G1 X103.971 Y104.209 F7800.000
G1 F900.000
G1 X103.391 Y104.689 E10.16248
G1 X102.788 Y105.071 E10.18173
G1 X102.130 Y105.381 E10.20134
G1 X101.439 Y105.605 E10.22094
G1 X100.738 Y105.739 E10.24019
G1 X99.987 Y105.786 E10.26050
G1 X99.275 Y105.742 E10.27975
G1 X98.574 Y105.608 E10.29901
G1 X97.858 Y105.375 E10.31932
G1 X97.212 Y105.071 E10.33857
G1 X96.609 Y104.689 E10.35782
G1 X96.029 Y104.209 E10.37813
G1 X95.550 Y103.699 E10.39702
G1 X95.311 Y103.391 E10.40754
G1 X94.929 Y102.788 E10.42679
G1 X94.619 Y102.130 E10.44639
G1 X94.395 Y101.439 E10.46600
G1 X94.261 Y100.738 E10.48525
G1 X94.214 Y99.987 E10.50556
G1 X94.258 Y99.275 E10.52481
G1 X94.392 Y98.574 E10.54406
G1 X94.625 Y97.858 E10.56437
G1 X94.929 Y97.212 E10.58362
G1 X95.311 Y96.609 E10.60287
G1 X95.791 Y96.029 E10.62318
