; generated by Slic3r 1.3.1-dev (Build 2ef957d) on 2019-11-25 at 09:24:25

; external perimeters extrusion width = 0.55mm (4.37mm^3/s)
; perimeters extrusion width = 0.70mm (11.44mm^3/s)
; infill extrusion width = 0.62mm (13.45mm^3/s)
; solid infill extrusion width = 0.70mm (3.81mm^3/s)
; top infill extrusion width = 0.70mm (2.86mm^3/s)

M107
G92 E0
M104 S200 ; set temperature
G28 ; home all axes
G1 Z5 F5000 ; lift nozzle

; Filament gcode

M109 S200 ; set temperature and wait for it to be reached
G21 ; set units to millimeters
G90 ; use absolute coordinates
M82 ; use absolute distances for extrusion
G92 E0
G1 Z0.350 F7800.000
G1 E-2.00000 F2400.00000
G92 E0
G1 X86.792 Y75.763 F7800.000
G1 E2.00000 F2400.00000
G1 F1800.000
G1 X88.571 Y74.315 E2.07096
G1 X91.800 Y73.475 E2.17419
G1 X108.200 Y73.475 E2.68162
G1 X110.459 Y73.872 E2.75259
G1 X112.447 Y75.015 E2.82355
G1 X114.386 Y77.730 E2.92677
G1 X126.186 Y108.530 E3.94731
G1 X126.625 Y110.900 E4.02189
G1 X126.625 Y119.900 E4.30036
G1 X126.228 Y122.159 E4.37132
G1 X125.085 Y124.147 E4.44229
G1 X123.332 Y125.626 E4.51325
G1 X121.180 Y126.419 E4.58421
G1 X120.000 Y126.525 E4.62086
G1 X80.000 Y126.525 E5.85851
G1 X77.741 Y126.128 E5.92948
G1 X75.753 Y124.985 E6.00044
G1 X74.274 Y123.232 E6.07140
G1 X73.481 Y121.080 E6.14236
G1 X73.375 Y119.900 E6.17901
G1 X73.375 Y110.900 E6.45749
G1 X73.814 Y108.530 E6.53206
G1 X85.614 Y77.730 E7.55260
G1 X86.754 Y75.827 E7.62124
G1 E5.62124 F2400.00000
G92 E0
G1 X104.996 Y108.130 F7800.000
G1 E2.00000 F2400.00000
G1 F1800.000
G1 X104.696 Y108.511 E2.01500
G1 X104.367 Y108.867 E2.03001
G1 X104.011 Y109.196 E2.04501
G1 X103.630 Y109.496 E2.06001
G1 X103.227 Y109.766 E2.07502
G1 X102.804 Y110.002 E2.09002
G1 X102.363 Y110.206 E2.10502
G1 X101.908 Y110.373 E2.12003
G1 X101.442 Y110.505 E2.13503
G1 X100.966 Y110.600 E2.15003
G1 X100.485 Y110.657 E2.16504
G1 X100.000 Y110.676 E2.18004
G1 X99.515 Y110.657 E2.19505
G1 X99.034 Y110.600 E2.21005
G1 X98.558 Y110.505 E2.22506
G1 X98.092 Y110.373 E2.24006
G1 X97.637 Y110.206 E2.25506
G1 X97.196 Y110.002 E2.27007
G1 X96.773 Y109.766 E2.28507
G1 X96.370 Y109.496 E2.30007
G1 X95.989 Y109.196 E2.31508
G1 X95.633 Y108.867 E2.33008
G1 X95.304 Y108.511 E2.34509
G1 X95.004 Y108.130 E2.36009
G1 X94.734 Y107.727 E2.37509
G1 X94.497 Y107.304 E2.39010
G1 X94.294 Y106.863 E2.40510
G1 X94.127 Y106.408 E2.42010
G1 X93.995 Y105.942 E2.43511
G1 X93.900 Y105.466 E2.45011
G1 X93.843 Y104.985 E2.46511
G1 X93.824 Y104.500 E2.48012
G1 X93.843 Y104.015 E2.49512
G1 X93.900 Y103.534 E2.51013
G1 X93.995 Y103.058 E2.52513
G1 X94.127 Y102.592 E2.54013
G1 X94.294 Y102.137 E2.55514
G1 X94.497 Y101.696 E2.57014
G1 X94.734 Y101.273 E2.58514
G1 X95.004 Y100.870 E2.60015
G1 X95.304 Y100.489 E2.61515
G1 X95.633 Y100.133 E2.63015
G1 X95.989 Y99.804 E2.64516
G1 X96.370 Y99.504 E2.66016
G1 X96.773 Y99.234 E2.67517
G1 X97.196 Y98.997 E2.69017
G1 X97.637 Y98.794 E2.70517
G1 X98.092 Y98.627 E2.72018
G1 X98.558 Y98.495 E2.73518
G1 X99.034 Y98.400 E2.75018
G1 X99.515 Y98.343 E2.76519
G1 X100.000 Y98.324 E2.78019
G1 X100.485 Y98.343 E2.79520
G1 X100.966 Y98.400 E2.81020
G1 X101.442 Y98.495 E2.82520
G1 X101.908 Y98.627 E2.84021
G1 X102.363 Y98.794 E2.85521
G1 X102.804 Y98.997 E2.87021
G1 X103.227 Y99.234 E2.88522
G1 X103.630 Y99.504 E2.90022
G1 X104.011 Y99.804 E2.91523
G1 X104.367 Y100.133 E2.93023
G1 X104.696 Y100.489 E2.94523
G1 X104.996 Y100.870 E2.96024
G1 X105.266 Y101.273 E2.97524
G1 X105.503 Y101.696 E2.99024
G1 X105.706 Y102.137 E3.00525
G1 X105.873 Y102.592 E3.02025
G1 X106.005 Y103.058 E3.03526
G1 X106.100 Y103.534 E3.05026
G1 X106.157 Y104.015 E3.06526
G1 X106.176 Y104.500 E3.08027
G1 X106.157 Y104.985 E3.09527
G1 X106.098 Y105.480 E3.11071
G1 X105.905 Y106.322 E3.13745
G1 X105.706 Y106.863 E3.15529
G1 X105.503 Y107.304 E3.17029
G1 X105.266 Y107.727 E3.18529
G1 X105.038 Y108.068 E3.19798
G1 X104.490 Y107.762 F7800.000
G1 F1800.000
G1 X104.220 Y108.105 E3.21146
G1 X103.925 Y108.425 E3.22495
G1 X103.605 Y108.720 E3.23843
G1 X103.262 Y108.990 E3.25192
G1 X102.900 Y109.232 E3.26540
G1 X102.520 Y109.445 E3.27888
G1 X102.124 Y109.628 E3.29237
G1 X101.715 Y109.779 E3.30585
G1 X101.296 Y109.897 E3.31934
G1 X100.868 Y109.982 E3.33282
G1 X100.435 Y110.033 E3.34631
G1 X100.000 Y110.050 E3.35979
G1 X99.565 Y110.033 E3.37327
G1 X99.132 Y109.982 E3.38676
G1 X98.704 Y109.897 E3.40024
G1 X98.285 Y109.779 E3.41373
G1 X97.876 Y109.628 E3.42721
G1 X97.480 Y109.445 E3.44070
G1 X97.100 Y109.232 E3.45418
G1 X96.738 Y108.990 E3.46766
G1 X96.395 Y108.720 E3.48115
G1 X96.075 Y108.425 E3.49463
G1 X95.780 Y108.105 E3.50812
G1 X95.510 Y107.762 E3.52160
G1 X95.268 Y107.400 E3.53509
G1 X95.055 Y107.020 E3.54857
G1 X94.872 Y106.624 E3.56205
G1 X94.721 Y106.215 E3.57554
G1 X94.603 Y105.796 E3.58902
G1 X94.518 Y105.368 E3.60251
G1 X94.467 Y104.935 E3.61599
G1 X94.450 Y104.500 E3.62948
G1 X94.467 Y104.065 E3.64296
G1 X94.518 Y103.632 E3.65645
G1 X94.603 Y103.204 E3.66993
G1 X94.721 Y102.785 E3.68342
G1 X94.872 Y102.376 E3.69690
G1 X95.055 Y101.980 E3.71038
G1 X95.268 Y101.600 E3.72387
G1 X95.510 Y101.238 E3.73735
G1 X95.780 Y100.895 E3.75084
G1 X96.075 Y100.575 E3.76432
G1 X96.395 Y100.280 E3.77781
G1 X96.738 Y100.010 E3.79129
G1 X97.100 Y99.768 E3.80477
G1 X97.480 Y99.555 E3.81826
G1 X97.876 Y99.372 E3.83174
G1 X98.285 Y99.221 E3.84523
G1 X98.704 Y99.103 E3.85871
G1 X99.132 Y99.018 E3.87220
G1 X99.565 Y98.967 E3.88568
G1 X100.000 Y98.950 E3.89917
G1 X100.435 Y98.967 E3.91265
G1 X100.868 Y99.018 E3.92613
G1 X101.296 Y99.103 E3.93962
G1 X101.715 Y99.221 E3.95310
G1 X102.124 Y99.372 E3.96659
G1 X102.520 Y99.555 E3.98007
G1 X102.900 Y99.768 E3.99356
G1 X103.262 Y100.010 E4.00704
G1 X103.605 Y100.280 E4.02052
G1 X103.925 Y100.575 E4.03401
G1 X104.220 Y100.895 E4.04749
G1 X104.490 Y101.238 E4.06098
G1 X104.732 Y101.600 E4.07446
G1 X104.945 Y101.980 E4.08795
G1 X105.128 Y102.376 E4.10143
G1 X105.279 Y102.785 E4.11492
G1 X105.397 Y103.204 E4.12840
G1 X105.482 Y103.632 E4.14188
G1 X105.533 Y104.065 E4.15537
G1 X105.550 Y104.500 E4.16885
G1 X105.533 Y104.935 E4.18234
G1 X105.481 Y105.373 E4.19598
G1 X105.305 Y106.144 E4.22044
G1 X105.128 Y106.624 E4.23627
G1 X104.945 Y107.020 E4.24976
G1 X104.732 Y107.400 E4.26324
G1 X104.532 Y107.700 E4.27441
G1 X104.490 Y107.762 F7800.000
G1 E2.27441 F2400.00000
G92 E0
G1 X106.600 Y112.500 F7800.000
G1 E2.00000 F2400.00000
G1 F1800.000
G1 X118.400 Y112.500 E2.36511
G1 X118.400 Y118.300 E2.54458
G1 X81.600 Y118.300 E3.68324
G1 X81.600 Y112.500 E3.86271
G1 X93.400 Y112.500 E4.22782
G1 X93.400 Y107.119 E4.39431
G1 X93.694 Y107.054 E4.40364
G1 X93.940 Y107.588 E4.42181
G1 X94.201 Y108.053 E4.43833
G1 X94.498 Y108.498 E4.45486
G1 X94.828 Y108.917 E4.47138
G1 X95.191 Y109.309 E4.48790
G1 X95.583 Y109.672 E4.50443
G1 X96.002 Y110.002 E4.52095
G1 X96.447 Y110.299 E4.53748
G1 X96.912 Y110.560 E4.55399
G1 X97.397 Y110.783 E4.57052
G1 X97.898 Y110.968 E4.58705
G1 X98.412 Y111.113 E4.60356
G1 X98.936 Y111.217 E4.62009
G1 X99.466 Y111.280 E4.63661
G1 X100.000 Y111.301 E4.65313
G1 X100.534 Y111.280 E4.66966
G1 X101.064 Y111.217 E4.68618
G1 X101.588 Y111.113 E4.70271
G1 X102.102 Y110.968 E4.71922
G1 X102.603 Y110.783 E4.73575
G1 X103.088 Y110.560 E4.75228
G1 X103.553 Y110.299 E4.76879
G1 X103.998 Y110.002 E4.78532
G1 X104.417 Y109.672 E4.80184
G1 X104.809 Y109.309 E4.81837
G1 X105.172 Y108.917 E4.83489
G1 X105.502 Y108.498 E4.85141
G1 X105.799 Y108.053 E4.86794
G1 X106.060 Y107.588 E4.88446
G1 X106.306 Y107.054 E4.90263
G1 X106.600 Y107.119 E4.91196
G1 X106.600 Y112.425 E5.07613
G1 E3.07613 F2400.00000
G92 E0
G1 X102.574 Y89.758 F7800.000
G1 E2.00000 F2400.00000
G1 F1800.000
G1 X105.147 Y85.300 E2.15926
G1 X103.069 Y81.700 E2.28789
G1 X106.600 Y81.700 E2.39716
G1 X106.600 Y101.881 E3.02160
G1 X106.306 Y101.946 E3.03093
G1 X106.060 Y101.412 E3.04911
G1 X105.799 Y100.946 E3.06563
G1 X105.502 Y100.502 E3.08215
G1 X105.172 Y100.083 E3.09868
G1 X104.809 Y99.691 E3.11520
G1 X104.417 Y99.328 E3.13172
G1 X103.998 Y98.998 E3.14824
G1 X103.554 Y98.701 E3.16477
G1 X103.088 Y98.440 E3.18129
G1 X102.603 Y98.217 E3.19781
G1 X102.102 Y98.032 E3.21434
G1 X101.588 Y97.887 E3.23086
G1 X101.064 Y97.783 E3.24738
G1 X100.534 Y97.720 E3.26391
G1 X100.000 Y97.699 E3.28043
G1 X99.466 Y97.720 E3.29695
G1 X98.936 Y97.783 E3.31348
G1 X98.412 Y97.887 E3.33000
G1 X97.898 Y98.032 E3.34652
G1 X97.397 Y98.217 E3.36304
G1 X96.912 Y98.440 E3.37957
G1 X96.446 Y98.701 E3.39609
G1 X96.002 Y98.998 E3.41261
G1 X95.583 Y99.328 E3.42914
G1 X95.191 Y99.691 E3.44566
G1 X94.828 Y100.083 E3.46218
G1 X94.498 Y100.502 E3.47871
G1 X94.201 Y100.946 E3.49523
G1 X93.940 Y101.412 E3.51175
G1 X93.694 Y101.946 E3.52993
G1 X93.400 Y101.881 E3.53926
G1 X93.400 Y81.700 E4.16370
G1 X96.931 Y81.700 E4.27297
G1 X94.853 Y85.300 E4.40159
G1 X97.426 Y89.758 E4.56086
G1 X102.499 Y89.758 E4.71780
G1 X102.213 Y89.133 F7800.000
G1 F1800.000
G1 X97.787 Y89.133 E4.85474
G1 X95.574 Y85.300 E4.99167
G1 X97.787 Y81.467 E5.12861
G1 X102.213 Y81.467 E5.26555
G1 X104.426 Y85.300 E5.40249
G1 X102.250 Y89.068 E5.53710
G1 X101.852 Y88.508 F7800.000
G1 F1800.000
G1 X98.148 Y88.508 E5.65171
G1 X96.296 Y85.300 E5.76632
G1 X98.148 Y82.092 E5.88094
G1 X101.852 Y82.092 E5.99555
G1 X103.704 Y85.300 E6.11016
G1 X101.890 Y88.443 E6.22245
G1 X101.852 Y89.008 F7800.000
G1 E4.22245 F2400.00000
G92 E0
G1 X107.225 Y111.875 F7800.000
G1 E2.00000 F2400.00000
G1 F1800.000
G1 X119.025 Y111.875 E2.36511
G1 X119.025 Y118.925 E2.58325
G1 X80.975 Y118.925 E3.76057
G1 X80.975 Y111.875 E3.97872
G1 X92.775 Y111.875 E4.34383
G1 X92.775 Y81.075 E5.29682
G1 X107.225 Y81.075 E5.74393
G1 X107.225 Y111.800 E6.69460
G1 X107.850 Y111.250 F7800.000
G1 F1800.000
G1 X119.650 Y111.250 E7.05971
G1 X119.650 Y119.550 E7.31652
G1 X80.350 Y119.550 E8.53251
G1 X80.350 Y111.250 E8.78933
G1 X92.150 Y111.250 E9.15443
G1 X92.150 Y80.450 E10.10743
G1 X107.850 Y80.450 E10.59320
G1 X107.850 Y111.175 E11.54388
G1 X107.928 Y111.744 F7800.000
G1 E9.54388 F2400.00000
G92 E0
G1 X105.905 Y108.526 F7800.000
G1 E2.00000 F2400.00000
G1 F1800.000
G1 X106.288 Y108.023 E2.00283
G1 X106.522 Y106.782 F7800.000
G1 F1800.000
G1 X106.589 Y106.186 E2.02145
G1 F1800.000
G1 X106.656 Y105.591 E2.03726
G1 F1800.000
G1 X106.690 Y105.035 E2.04932
G1 F1800.000
G1 X106.700 Y104.492 E2.05930
G1 X106.675 Y103.710 E2.07366
G1 F1800.000
G1 X106.641 Y103.265 E2.08317
G1 F1800.000
G1 X106.605 Y102.902 E2.09224
G1 F1800.000
G1 X106.511 Y102.221 E2.11218
G1 X106.288 Y100.977 F7800.000
G1 F1800.000
G1 X105.905 Y100.473 E2.11501
G1 X105.732 Y99.866 F7800.000
G1 F1800.000
G1 X106.218 Y99.379 E2.13637
G1 X106.218 Y98.493 E2.16388
G1 X105.110 Y99.601 E2.21254
G1 X104.657 Y99.167 E2.23199
G1 X106.218 Y97.606 E2.30050
G1 X106.218 Y96.720 E2.32800
G1 X104.168 Y98.771 E2.41800
G1 X103.640 Y98.413 E2.43780
G1 X106.218 Y95.834 E2.55097
G1 X106.218 Y94.947 E2.57847
G1 X103.068 Y98.098 E2.71674
G1 X102.452 Y97.828 E2.73761
G1 X106.218 Y94.061 E2.90291
G1 X106.218 Y93.175 E2.93041
G1 X101.788 Y97.606 E3.12486
G1 X101.491 Y97.522 E3.13443
G1 X101.069 Y97.438 E3.14777
G1 X106.218 Y92.289 E3.37376
G1 X106.218 Y91.402 E3.40126
G1 X100.283 Y97.337 E3.66172
G1 X99.757 Y97.317 E3.67806
G1 X99.404 Y97.331 E3.68903
G1 X106.218 Y90.516 E3.98809
G1 X106.218 Y89.630 E4.01559
G1 X98.401 Y97.447 E4.35864
G1 X98.023 Y97.522 E4.37060
G1 X97.462 Y97.680 E4.38870
G1 X97.176 Y97.786 E4.39816
G1 X106.218 Y88.743 E4.79498
G1 X106.218 Y87.857 E4.82248
G1 X95.149 Y98.926 E5.30826
G1 X94.934 Y99.096 E5.31676
G1 X94.506 Y99.492 E5.33486
G1 X94.011 Y100.046 E5.35791
G1 X93.782 Y99.865 E5.36696
G1 X93.782 Y99.408 E5.38116
G1 X103.050 Y90.140 E5.78789
G1 X102.163 Y90.140 E5.81539
G1 X93.782 Y98.521 E6.18322
G1 X93.782 Y97.635 E6.21073
G1 X101.277 Y90.140 E6.53966
G1 X100.391 Y90.140 E6.56716
G1 X93.782 Y96.749 E6.85720
G1 X93.782 Y95.862 E6.88471
G1 X99.504 Y90.139 E7.13585
G1 X98.618 Y90.139 E7.16336
G1 X93.782 Y94.976 E7.37561
G1 X93.782 Y94.090 E7.40311
G1 X97.732 Y90.139 E7.57646
G1 X97.309 Y90.139 E7.58960
G1 X97.139 Y89.846 E7.60012
G1 X93.782 Y93.203 E7.74746
G1 X93.782 Y92.317 E7.77496
G1 X96.815 Y89.284 E7.90807
G1 X96.490 Y88.722 E7.92820
G1 X93.782 Y91.431 E8.04708
G1 X93.782 Y90.545 E8.07458
G1 X96.166 Y88.160 E8.17921
G1 X95.841 Y87.598 E8.19935
G1 X93.782 Y89.658 E8.28974
G1 X93.782 Y88.772 E8.31725
G1 X95.517 Y87.036 E8.39341
G1 X95.193 Y86.475 E8.41354
G1 X93.782 Y87.886 E8.47546
G1 X93.782 Y86.999 E8.50297
G1 X94.868 Y85.913 E8.55066
G1 X94.544 Y85.351 E8.57079
G1 X93.782 Y86.113 E8.60424
G1 X93.782 Y85.227 E8.63174
G1 X94.952 Y84.057 E8.68310
G1 X96.092 Y82.082 E8.75386
G1 X96.040 Y82.082 E8.75546
G1 X93.782 Y84.340 E8.85459
G1 X93.782 Y83.454 E8.88209
G1 X95.154 Y82.082 E8.94233
G1 X94.268 Y82.082 E8.96983
G1 X93.782 Y82.568 E8.99116
G1 E6.99116 F2400.00000
G92 E0
G1 X104.417 Y82.568 F7800.000
G1 E2.00000 F2400.00000
G1 F1800.000
G1 X103.908 Y82.568 E2.01581
G1 X104.094 Y82.891 E2.02738
G1 X104.903 Y82.082 E2.06288
G1 X105.790 Y82.082 E2.09039
G1 X104.419 Y83.453 E2.15055
G1 X104.743 Y84.014 E2.17068
G1 X106.218 Y82.539 E2.23542
G1 X106.218 Y83.426 E2.26292
G1 X105.068 Y84.576 E2.31342
G1 X105.392 Y85.138 E2.33356
G1 X106.218 Y84.312 E2.36982
G1 X106.218 Y85.198 E2.39732
G1 X105.287 Y86.129 E2.43818
G1 X104.077 Y88.226 E2.51332
G1 X106.218 Y86.084 E2.60731
G1 X106.218 Y86.971 E2.63481
G1 X102.866 Y90.323 E2.78194
G1 E0.78194 F2400.00000
G92 E0
G1 X94.095 Y100.473 F7800.000
G1 E2.00000 F2400.00000
G1 F1800.000
G1 X93.712 Y100.977 E2.00178
G1 X93.489 Y102.221 F7800.000
G1 F1800.000
G1 X93.395 Y102.902 E2.02328
G1 F1800.000
G1 X93.359 Y103.265 E2.03305
G1 F1800.000
G1 X93.325 Y103.710 E2.04337
G1 F1800.000
G1 X93.300 Y104.492 E2.05889
G1 F1800.000
G1 X93.310 Y105.035 E2.06830
G1 F1800.000
G1 X93.342 Y105.565 E2.07882
G1 F1800.000
G1 X93.375 Y105.904 E2.08672
G1 F1800.000
G1 X93.395 Y106.098 E2.09188
G1 F1800.000
G1 X93.489 Y106.779 E2.11182
G1 X93.712 Y108.023 F7800.000
G1 F1800.000
G1 X94.095 Y108.526 E2.11360
G1 X94.877 Y109.384 F7800.000
G1 F1800.000
G1 X93.782 Y110.479 E2.16192
G1 X93.782 Y111.370 E2.18973
G1 X95.331 Y109.821 E2.25808
G1 X95.822 Y110.221 E2.27784
G1 X93.782 Y112.261 E2.36787
G1 X93.782 Y113.153 E2.39568
G1 X96.352 Y110.582 E2.50911
G1 X96.926 Y110.899 E2.52957
G1 X89.907 Y117.918 E2.83929
G1 X90.798 Y117.918 E2.86709
G1 X97.545 Y111.171 E3.16481
G1 X97.948 Y111.320 E3.17821
G1 X98.213 Y111.395 E3.18679
G1 X91.689 Y117.918 E3.47465
G1 X92.580 Y117.918 E3.50246
G1 X98.936 Y111.563 E3.78289
G1 X99.727 Y111.663 E3.80776
G1 X93.472 Y117.918 E4.08378
G1 X94.363 Y117.918 E4.11158
G1 X100.612 Y111.669 E4.38734
G1 X101.405 Y111.592 E4.41219
G1 X101.624 Y111.548 E4.41915
G1 X95.254 Y117.918 E4.70023
G1 X96.145 Y117.918 E4.72803
G1 X102.864 Y111.200 E5.02449
G1 X103.085 Y111.118 E5.03185
G1 X103.615 Y110.874 E5.05005
G1 X104.123 Y110.589 E5.06823
G1 X104.608 Y110.265 E5.08643
G1 X104.992 Y109.962 E5.10169
G1 X97.036 Y117.918 E5.45276
G1 E3.45276 F2400.00000
G92 E0
G1 X89.016 Y117.918 F7800.000
G1 E2.00000 F2400.00000
G1 F1800.000
G1 X94.053 Y112.882 E2.22224
G1 X93.161 Y112.882 E2.25005
G1 X88.125 Y117.918 E2.47229
G1 X87.234 Y117.918 E2.50010
G1 X92.270 Y112.882 E2.72234
G1 X91.379 Y112.882 E2.75015
G1 X86.342 Y117.918 E2.97239
G1 X85.451 Y117.918 E3.00019
G1 X90.488 Y112.882 E3.22244
G1 X89.597 Y112.882 E3.25024
G1 X84.560 Y117.918 E3.47249
G1 X83.669 Y117.918 E3.50029
G1 X88.706 Y112.882 E3.72253
G1 X87.815 Y112.882 E3.75034
G1 X82.778 Y117.918 E3.97258
G1 X81.982 Y117.918 E3.99743
G1 X81.982 Y117.824 E4.00039
G1 X86.924 Y112.882 E4.21845
G1 X86.032 Y112.882 E4.24625
G1 X81.982 Y116.932 E4.42499
G1 X81.982 Y116.041 E4.45279
G1 X85.141 Y112.882 E4.59221
G1 X84.250 Y112.882 E4.62001
G1 X81.982 Y115.150 E4.72011
G1 X81.982 Y114.259 E4.74791
G1 X83.359 Y112.882 E4.80869
G1 X82.468 Y112.882 E4.83649
G1 X81.982 Y113.368 E4.85794
G1 E2.85794 F2400.00000
G92 E0
G1 X105.510 Y109.445 F7800.000
G1 E2.00000 F2400.00000
G1 F1800.000
G1 X105.462 Y109.492 E2.00211
G1 X105.996 Y108.958 E2.02567
G1 X106.218 Y109.134 E2.03450
G1 X106.218 Y109.627 E2.04990
G1 X97.927 Y117.918 E2.41574
G1 X98.818 Y117.918 E2.44355
