; Gcode updated with 'stl_info' on 2019-12-09 14:10:05.311261

; stl_min_x = -11.0
; stl_max_x = 19.0
; stl_min_y = -63.77000045776367
; stl_max_y = 63.76919937133789
; stl_min_z = 490.0

; generated by Slic3r 1.3.1-dev (Build adea0d9) on 2019-12-09 at 14:10:04

; external perimeters extrusion width = 0.44mm (2.86mm^3/s)
; perimeters extrusion width = 0.56mm (4.14mm^3/s)
; infill extrusion width = 0.50mm (3.66mm^3/s)
; solid infill extrusion width = 0.56mm (3.10mm^3/s)
; top infill extrusion width = 0.56mm (3.10mm^3/s)

M107
G92 E0
;D3D:START:START
T0
M104 S215 T0

G21
G90
M107
T0
G28
G29
M109 T0 S215 T0
G0 F3000
M107
T0
G92 E0
G0 X0 Y149 Z0.1 F3600
G1 Y49 E6.5 F1200
G0 Z1
G92 E0
; Filament gcode

G21 ; set units to millimeters
G90 ; use absolute coordinates
M82 ; use absolute distances for extrusion
G92 E0
G1 Z0.300 F7800.000
G1 E-2.00000 F2400.00000
G92 E0
G1 X63.696 Y19.619 F7800.000
G1 E2.00000 F2400.00000
G1 F1800.000
G1 X62.261 Y19.823 E2.04803
G1 X60.696 Y20.096 E2.10065
G1 X60.696 Y12.827 E2.34147
G1 X63.101 Y12.470 E2.42200
G1 X65.069 Y12.253 E2.48760
G1 X67.043 Y12.098 E2.55319
G1 X67.704 Y12.067 E2.57512
G1 X67.704 Y17.037 E2.73980
G1 X69.176 Y16.968 E2.78864
G1 X71.696 Y16.928 E2.87213
G1 X71.696 Y11.984 E3.03592
G1 X72.980 Y12.004 E3.07844
G1 X74.957 Y12.098 E3.14404
G1 X76.931 Y12.253 E3.20963
G1 X78.899 Y12.470 E3.27523
G1 X80.857 Y12.749 E3.34075
G1 X82.704 Y13.083 E3.40291
G1 X82.704 Y18.138 E3.57040
G1 X83.664 Y18.337 E3.60288
G1 X86.696 Y19.083 E3.70634
G1 X86.696 Y13.960 E3.87608
G1 X88.584 Y14.476 E3.94092
G1 X89.304 Y14.697 E3.96587
G1 X89.304 Y135.303 E7.96146
G1 X88.584 Y135.524 E7.98642
G1 X86.696 Y136.040 E8.05125
G1 X86.696 Y130.917 E8.22099
G1 X83.664 Y131.663 E8.32445
G1 X82.704 Y131.862 E8.35693
G1 X82.704 Y136.917 E8.52442
G1 X80.857 Y137.251 E8.58658
G1 X78.899 Y137.530 E8.65211
G1 X76.931 Y137.747 E8.71770
G1 X74.957 Y137.902 E8.78330
G1 X72.980 Y137.996 E8.84889
G1 X71.696 Y138.016 E8.89142
G1 X71.696 Y133.072 E9.05520
G1 X69.176 Y133.032 E9.13870
G1 X67.704 Y132.963 E9.18754
G1 X67.704 Y137.933 E9.35221
G1 X67.043 Y137.902 E9.37414
G1 X65.069 Y137.747 E9.43974
G1 X63.101 Y137.530 E9.50533
G1 X60.696 Y137.173 E9.58586
G1 X60.696 Y129.904 E9.82668
G1 X62.261 Y130.177 E9.87930
G1 X63.696 Y130.381 E9.92733
G1 X63.696 Y19.679 E13.59486
G1 X63.431 Y19.925 F7800.000
G1 F1800.000
G1 X62.302 Y20.085 E13.63262
G1 X60.431 Y20.417 E13.69559
G1 X60.431 Y12.604 E13.95444
G1 X61.099 Y12.487 E13.97692
G1 X63.067 Y12.207 E14.04279
G1 X65.044 Y11.989 E14.10866
G1 X67.026 Y11.833 E14.17453
G1 X67.969 Y11.788 E14.20583
G1 X67.969 Y16.759 E14.37050
G1 X69.168 Y16.702 E14.41025
G1 X71.431 Y16.667 E14.48523
G1 X71.431 Y11.714 E14.64929
G1 X72.988 Y11.739 E14.70089
G1 X74.974 Y11.833 E14.76676
G1 X76.956 Y11.989 E14.83264
G1 X78.933 Y12.207 E14.89851
G1 X80.900 Y12.487 E14.96434
G1 X82.969 Y12.861 E15.03401
G1 X82.969 Y17.922 E15.20169
G1 X83.722 Y18.078 E15.22717
G1 X86.431 Y18.744 E15.31956
G1 X86.431 Y13.622 E15.48926
G1 X88.658 Y14.221 E15.56568
G1 X89.569 Y14.501 E15.59727
G1 X89.569 Y135.499 E19.60586
G1 X88.658 Y135.779 E19.63745
G1 X86.431 Y136.378 E19.71386
G1 X86.431 Y131.256 E19.88356
G1 X83.722 Y131.922 E19.97596
G1 X82.969 Y132.078 E20.00144
G1 X82.969 Y137.139 E20.16912
G1 X80.900 Y137.513 E20.23879
G1 X78.933 Y137.793 E20.30462
G1 X76.956 Y138.011 E20.37049
G1 X74.974 Y138.167 E20.43636
G1 X72.988 Y138.261 E20.50224
G1 X71.431 Y138.286 E20.55384
G1 X71.431 Y133.333 E20.71790
G1 X69.168 Y133.298 E20.79287
G1 X67.969 Y133.241 E20.83262
G1 X67.969 Y138.212 E20.99730
G1 X67.026 Y138.167 E21.02859
G1 X65.044 Y138.011 E21.09447
G1 X63.067 Y137.793 E21.16034
G1 X61.099 Y137.513 E21.22621
G1 X60.431 Y137.396 E21.24868
G1 X60.431 Y129.583 E21.50753
G1 X62.302 Y129.915 E21.57051
G1 X63.431 Y130.075 E21.60826
G1 X63.431 Y19.985 E25.25551
G1 X63.165 Y20.231 F7800.000
G1 F1800.000
G1 X62.344 Y20.348 E25.28299
G1 X60.165 Y20.743 E25.35635
G1 X60.165 Y12.380 E25.63341
G1 X61.057 Y12.224 E25.66342
G1 X63.034 Y11.943 E25.72957
G1 X65.019 Y11.724 E25.79572
G1 X67.009 Y11.567 E25.86186
G1 X68.235 Y11.510 E25.90252
G1 X68.235 Y16.480 E26.06720
G1 X69.160 Y16.437 E26.09786
G1 X71.165 Y16.405 E26.16431
G1 X71.165 Y11.445 E26.32865
G1 X72.996 Y11.473 E26.38933
G1 X74.991 Y11.567 E26.45548
G1 X76.981 Y11.724 E26.52163
G1 X78.966 Y11.943 E26.58777
G1 X80.942 Y12.224 E26.65391
G1 X83.235 Y12.639 E26.73110
G1 X83.235 Y17.706 E26.89896
G1 X83.781 Y17.819 E26.91744
G1 X86.165 Y18.405 E26.99877
G1 X86.165 Y13.285 E27.16841
G1 X86.806 Y13.439 E27.19025
G1 X88.732 Y13.966 E27.25640
G1 X89.835 Y14.305 E27.29463
G1 X89.835 Y135.695 E31.31622
G1 X88.732 Y136.034 E31.35445
G1 X86.806 Y136.561 E31.42060
G1 X86.165 Y136.715 E31.44245
G1 X86.165 Y131.595 E31.61208
G1 X83.781 Y132.181 E31.69342
G1 X83.235 Y132.294 E31.71189
G1 X83.235 Y137.361 E31.87976
G1 X80.942 Y137.776 E31.95695
G1 X78.966 Y138.057 E32.02308
G1 X76.981 Y138.276 E32.08923
G1 X74.991 Y138.433 E32.15538
G1 X72.996 Y138.527 E32.22152
G1 X71.165 Y138.555 E32.28220
G1 X71.165 Y133.595 E32.44654
G1 X69.160 Y133.563 E32.51299
G1 X68.235 Y133.520 E32.54366
G1 X68.235 Y138.490 E32.70833
G1 X67.009 Y138.433 E32.74899
G1 X65.019 Y138.276 E32.81514
G1 X63.034 Y138.057 E32.88129
G1 X61.057 Y137.775 E32.94743
G1 X60.165 Y137.620 E32.97744
G1 X60.165 Y129.257 E33.25450
G1 X62.344 Y129.652 E33.32787
G1 X63.165 Y129.769 E33.35534
G1 X63.165 Y20.291 E36.98231
G1 E34.98231 F2400.00000
G92 E0
G1 X61.066 Y12.953 F7800.000
G1 E2.00000 F2400.00000
G1 F1800.000
G1 X60.859 Y13.160 E2.00973
G1 X60.859 Y13.536 E2.02222
G1 X61.508 Y12.887 E2.05268
G1 X61.949 Y12.822 E2.06750
G1 X60.859 Y13.912 E2.11869
G1 X60.859 Y14.289 E2.13118
G1 X62.391 Y12.756 E2.20310
G1 X62.833 Y12.691 E2.21792
G1 X60.859 Y14.665 E2.31058
G1 X60.859 Y15.041 E2.32306
G1 X63.273 Y12.627 E2.43637
G1 X63.696 Y12.580 E2.45050
G1 X60.859 Y15.417 E2.58366
G1 X60.859 Y15.794 E2.59614
G1 X64.119 Y12.533 E2.74915
G1 X64.542 Y12.486 E2.76327
G1 X60.859 Y16.170 E2.93613
G1 X60.859 Y16.546 E2.94862
G1 X64.965 Y12.440 E3.14133
G1 X65.381 Y12.400 E3.15521
G1 X60.859 Y16.922 E3.36746
G1 X60.859 Y17.299 E3.37994
G1 X65.790 Y12.368 E3.61136
G1 X66.198 Y12.335 E3.62495
G1 X60.859 Y17.675 E3.87553
G1 X60.859 Y18.051 E3.88802
G1 X66.606 Y12.303 E4.15776
G1 X67.015 Y12.271 E4.17135
G1 X60.859 Y18.427 E4.46026
G1 X60.859 Y18.804 E4.47275
G1 X67.415 Y12.248 E4.78042
G1 X67.541 Y12.242 E4.78463
G1 X67.541 Y12.497 E4.79310
G1 X60.859 Y19.180 E5.10673
G1 X60.859 Y19.556 E5.11921
G1 X67.541 Y12.873 E5.43283
G1 X67.541 Y13.250 E5.44532
G1 X60.918 Y19.873 E5.75614
G1 X61.374 Y19.793 E5.77149
G1 X67.541 Y13.626 E6.06092
G1 X67.541 Y14.002 E6.07341
G1 X61.830 Y19.714 E6.34145
G1 X62.279 Y19.641 E6.35656
G1 X67.541 Y14.378 E6.60351
G1 X67.541 Y14.755 E6.61599
G1 X62.718 Y19.578 E6.84235
G1 X63.157 Y19.516 E6.85706
G1 X67.541 Y15.131 E7.06283
G1 X67.541 Y15.507 E7.07532
G1 X63.595 Y19.453 E7.26051
G1 X63.859 Y19.416 E7.26934
G1 X63.859 Y19.566 E7.27433
G1 X67.541 Y15.883 E7.44716
G1 X67.541 Y16.260 E7.45965
G1 X63.859 Y19.943 E7.63248
G1 X63.859 Y20.319 E7.64497
G1 X67.541 Y16.636 E7.81780
G1 X67.541 Y17.012 E7.83029
G1 X63.859 Y20.695 E8.00312
G1 X63.859 Y21.071 E8.01561
G1 X67.726 Y17.204 E8.19712
G1 X68.121 Y17.185 E8.21024
G1 X63.859 Y21.448 E8.41027
G1 X63.859 Y21.824 E8.42276
G1 X68.516 Y17.166 E8.64133
G1 X68.911 Y17.148 E8.65445
G1 X63.859 Y22.200 E8.89155
G1 X63.859 Y22.576 E8.90403
G1 X69.305 Y17.130 E9.15964
G1 X69.687 Y17.124 E9.17232
G1 X63.859 Y22.953 E9.44587
G1 X63.859 Y23.329 E9.45835
G1 X70.070 Y17.118 E9.74984
G1 X70.452 Y17.112 E9.76252
G1 X63.859 Y23.705 E10.07195
G1 X63.859 Y24.081 E10.08443
G1 X70.834 Y17.106 E10.41180
G1 X71.217 Y17.100 E10.42448
G1 X63.859 Y24.458 E10.76979
G1 X63.859 Y24.834 E10.78227
G1 X71.599 Y17.094 E11.14551
G1 X71.981 Y17.088 E11.15820
G1 X63.859 Y25.210 E11.53938
G1 X63.859 Y25.586 E11.55187
G1 X77.029 Y12.416 E12.16993
G1 X77.367 Y12.454 E12.18124
G1 X63.859 Y25.963 E12.81520
G1 X63.859 Y26.339 E12.82768
G1 X77.706 Y12.491 E13.47754
G1 X78.045 Y12.529 E13.48885
G1 X63.859 Y26.715 E14.15461
G1 X63.859 Y27.091 E14.16710
G1 X78.384 Y12.566 E14.84876
G1 X78.723 Y12.603 E14.86007
G1 X63.859 Y27.468 E15.55763
G1 X63.859 Y27.844 E15.57012
G1 X79.059 Y12.643 E16.28346
G1 X79.388 Y12.690 E16.29450
G1 X63.859 Y28.220 E17.02330
G1 X63.859 Y28.596 E17.03579
G1 X79.718 Y12.737 E17.78005
G1 X80.047 Y12.784 E17.79109
G1 X63.859 Y28.973 E18.55081
G1 X63.859 Y29.349 E18.56329
G1 X80.377 Y12.831 E19.33847
G1 X80.706 Y12.878 E19.34951
G1 X63.859 Y29.725 E20.14014
G1 X63.859 Y30.101 E20.15262
G1 X81.032 Y12.928 E20.95853
G1 X81.350 Y12.986 E20.96928
G1 X63.859 Y30.478 E21.79015
G1 X63.859 Y30.854 E21.80263
G1 X81.669 Y13.044 E22.63845
G1 X81.988 Y13.101 E22.64920
G1 X63.859 Y31.230 E23.49997
G1 X63.859 Y31.606 E23.51246
G1 X82.306 Y13.159 E24.37819
G1 X82.541 Y13.201 E24.38612
G1 X82.541 Y13.300 E24.38939
G1 X63.859 Y31.983 E25.26616
G1 X63.859 Y32.359 E25.27864
G1 X82.541 Y13.676 E26.15541
G1 X82.541 Y14.052 E26.16789
G1 X63.859 Y32.735 E27.04466
G1 X63.859 Y33.112 E27.05714
G1 X82.541 Y14.429 E27.93391
G1 X82.541 Y14.805 E27.94640
G1 X63.859 Y33.488 E28.82316
G1 X63.859 Y33.864 E28.83565
G1 X82.541 Y15.181 E29.71241
G1 X82.541 Y15.557 E29.72490
G1 X63.859 Y34.240 E30.60166
G1 X63.859 Y34.617 E30.61415
G1 X82.541 Y15.934 E31.49091
G1 X82.541 Y16.310 E31.50340
G1 X63.859 Y34.993 E32.38016
G1 X63.859 Y35.369 E32.39265
G1 X82.541 Y16.686 E33.26941
G1 X82.541 Y17.062 E33.28190
G1 X63.859 Y35.745 E34.15867
G1 X63.859 Y36.122 E34.17115
G1 X82.541 Y17.439 E35.04792
G1 X82.541 Y17.815 E35.06040
G1 X63.859 Y36.498 E35.93717
G1 X63.859 Y36.874 E35.94965
G1 X82.541 Y18.191 E36.82642
G1 X82.541 Y18.251 E36.82841
G1 X82.803 Y18.305 E36.83729
G1 X63.859 Y37.250 E37.72635
G1 X63.859 Y37.627 E37.73883
G1 X83.115 Y18.370 E38.64252
G1 X83.427 Y18.434 E38.65308
G1 X63.859 Y38.003 E39.57140
G1 X63.859 Y38.379 E39.58389
G1 X83.738 Y18.500 E40.51679
G1 X84.040 Y18.574 E40.52711
G1 X63.859 Y38.755 E41.47418
G1 X63.859 Y39.132 E41.48666
G1 X84.342 Y18.649 E42.44791
G1 X84.644 Y18.723 E42.45822
G1 X63.859 Y39.508 E43.43364
G1 X63.859 Y39.884 E43.44612
G1 X84.946 Y18.797 E44.43571
G1 X85.247 Y18.871 E44.44603
G1 X63.859 Y40.260 E45.44978
G1 X63.859 Y40.637 E45.46227
G1 X85.549 Y18.946 E46.48019
G1 X85.851 Y19.020 E46.49051
G1 X63.859 Y41.013 E47.52261
G1 X63.859 Y41.389 E47.53509
G1 X86.153 Y19.094 E48.58136
G1 X86.455 Y19.169 E48.59168
G1 X63.859 Y41.765 E49.65212
G1 X63.859 Y42.142 E49.66460
G1 X86.757 Y19.243 E50.73921
G1 X87.059 Y19.317 E50.74953
G1 X63.859 Y42.518 E51.83831
G1 E49.83831 F2400.00000
G92 E0
G1 X71.859 Y17.210 F7800.000
G1 E2.00000 F2400.00000
G1 F1800.000
G1 X76.680 Y12.388 E2.22628
G1 X76.332 Y12.361 E2.23789
G1 X71.859 Y16.834 E2.44781
G1 X71.859 Y16.458 E2.46030
G1 X75.983 Y12.333 E2.65384
G1 X75.634 Y12.306 E2.66545
G1 X71.859 Y16.081 E2.84263
G1 X71.859 Y15.705 E2.85511
G1 X75.285 Y12.279 E3.01592
G1 X74.933 Y12.254 E3.02763
G1 X71.859 Y15.329 E3.17191
G1 X71.859 Y14.953 E3.18440
G1 X74.574 Y12.237 E3.31182
G1 X74.214 Y12.220 E3.32376
G1 X71.859 Y14.576 E3.43432
G1 X71.859 Y14.200 E3.44680
G1 X73.855 Y12.203 E3.54050
G1 X73.496 Y12.187 E3.55244
G1 X71.859 Y13.824 E3.62928
G1 X71.859 Y13.448 E3.64176
G1 X73.137 Y12.170 E3.70174
G1 X72.768 Y12.162 E3.71397
G1 X71.859 Y13.071 E3.75665
G1 X71.859 Y12.695 E3.76914
G1 X72.398 Y12.156 E3.79444
G1 E1.79444 F2400.00000
G92 E0
G1 X87.235 Y14.251 F7800.000
G1 E2.00000 F2400.00000
G1 F1800.000
G1 X86.859 Y14.627 E2.01765
G1 X86.859 Y15.003 E2.03013
G1 X87.530 Y14.331 E2.06164
G1 X87.825 Y14.412 E2.07180
G1 X86.859 Y15.379 E2.11718
G1 X86.859 Y15.755 E2.12967
G1 X88.121 Y14.493 E2.18890
G1 X88.416 Y14.574 E2.19907
G1 X86.859 Y16.132 E2.27217
G1 X86.859 Y16.508 E2.28466
G1 X88.709 Y14.657 E2.37150
G1 X88.997 Y14.746 E2.38149
G1 X86.859 Y16.884 E2.48184
G1 X86.859 Y17.260 E2.49433
G1 X89.141 Y14.977 E2.60147
G1 X89.141 Y15.354 E2.61395
G1 X86.859 Y17.637 E2.72109
G1 X86.859 Y18.013 E2.73357
G1 X89.141 Y15.730 E2.84071
G1 X89.141 Y16.106 E2.85319
G1 X86.859 Y18.389 E2.96033
G1 X86.859 Y18.765 E2.97281
G1 X89.141 Y16.482 E3.07995
G1 X89.141 Y16.859 E3.09243
G1 X86.859 Y19.142 E3.19957
G1 X86.859 Y19.518 E3.21205
G1 X89.141 Y17.235 E3.31919
G1 X89.141 Y17.611 E3.33167
G1 X63.859 Y42.894 E4.51817
G1 X63.859 Y43.270 E4.53065
G1 X89.141 Y17.987 E5.71715
G1 X89.141 Y18.364 E5.72963
G1 X63.859 Y43.647 E6.91613
G1 X63.859 Y44.023 E6.92861
G1 X89.141 Y18.740 E8.11511
G1 X89.141 Y19.116 E8.12759
G1 X63.859 Y44.399 E9.31409
G1 X63.859 Y44.775 E9.32657
G1 X89.141 Y19.493 E10.51307
G1 X89.141 Y19.869 E10.52555
G1 X63.859 Y45.152 E11.71205
G1 X63.859 Y45.528 E11.72453
G1 X89.141 Y20.245 E12.91103
G1 X89.141 Y20.621 E12.92351
G1 X63.859 Y45.904 E14.11001
G1 X63.859 Y46.280 E14.12250
G1 X89.141 Y20.998 E15.30899
G1 X89.141 Y21.374 E15.32148
G1 X63.859 Y46.657 E16.50797
G1 X63.859 Y47.033 E16.52046
G1 X89.141 Y21.750 E17.70695
G1 X89.141 Y22.126 E17.71944
G1 X63.859 Y47.409 E18.90593
G1 X63.859 Y47.785 E18.91842
G1 X89.141 Y22.503 E20.10491
G1 X89.141 Y22.879 E20.11740
G1 X63.859 Y48.162 E21.30389
G1 X63.859 Y48.538 E21.31638
G1 X89.141 Y23.255 E22.50287
G1 X89.141 Y23.631 E22.51536
G1 X63.859 Y48.914 E23.70185
G1 X63.859 Y49.290 E23.71434
G1 X89.141 Y24.008 E24.90083
G1 X89.141 Y24.384 E24.91332
G1 X63.859 Y49.667 E26.09981
G1 X63.859 Y50.043 E26.11230
G1 X89.141 Y24.760 E27.29879
G1 X89.141 Y25.136 E27.31128
G1 X63.859 Y50.419 E28.49777
G1 X63.859 Y50.796 E28.51026
G1 X89.141 Y25.513 E29.69675
G1 X89.141 Y25.889 E29.70924
G1 X63.859 Y51.172 E30.89573
G1 X63.859 Y51.548 E30.90822
G1 X89.141 Y26.265 E32.09471
G1 X89.141 Y26.641 E32.10720
G1 X63.859 Y51.924 E33.29369
G1 X63.859 Y52.301 E33.30618
G1 X89.141 Y27.018 E34.49267
G1 X89.141 Y27.394 E34.50516
G1 X63.859 Y52.677 E35.69165
G1 X63.859 Y53.053 E35.70414
G1 X89.141 Y27.770 E36.89063
G1 X89.141 Y28.146 E36.90312
G1 X63.859 Y53.429 E38.08961
G1 X63.859 Y53.806 E38.10210
G1 X89.141 Y28.523 E39.28859
G1 X89.141 Y28.899 E39.30108
G1 X63.859 Y54.182 E40.48757
G1 X63.859 Y54.558 E40.50006
G1 X89.141 Y29.275 E41.68655
G1 X89.141 Y29.651 E41.69904
G1 X63.859 Y54.934 E42.88553
G1 X63.859 Y55.311 E42.89802
G1 X89.141 Y30.028 E44.08451
G1 X89.141 Y30.404 E44.09700
G1 X63.859 Y55.687 E45.28349
G1 X63.859 Y56.063 E45.29598
G1 X89.141 Y30.780 E46.48247
G1 X89.141 Y31.156 E46.49496
G1 X63.859 Y56.439 E47.68145
G1 X63.859 Y56.816 E47.69394
G1 X89.141 Y31.533 E48.88043
G1 X89.141 Y31.909 E48.89292
G1 X63.859 Y57.192 E50.07941
G1 X63.859 Y57.568 E50.09190
G1 X89.141 Y32.285 E51.27839
G1 X89.141 Y32.661 E51.29088
G1 X63.859 Y57.944 E52.47738
G1 X63.859 Y58.321 E52.48986
G1 X89.141 Y33.038 E53.67636
G1 X89.141 Y33.414 E53.68884
G1 X63.859 Y58.697 E54.87534
G1 X63.859 Y59.073 E54.88782
G1 X89.141 Y33.790 E56.07432
G1 X89.141 Y34.166 E56.08680
G1 X63.859 Y59.449 E57.27330
G1 X63.859 Y59.826 E57.28578
G1 X89.141 Y34.543 E58.47228
G1 X89.141 Y34.919 E58.48476
G1 X63.859 Y60.202 E59.67126
G1 X63.859 Y60.578 E59.68374
G1 X89.141 Y35.295 E60.87024
G1 X89.141 Y35.672 E60.88272
G1 X63.859 Y60.954 E62.06922
G1 X63.859 Y61.331 E62.08170
G1 X89.141 Y36.048 E63.26820
G1 X89.141 Y36.424 E63.28068
G1 X63.859 Y61.707 E64.46718
G1 X63.859 Y62.083 E64.47966
G1 X89.141 Y36.800 E65.66616
G1 X89.141 Y37.177 E65.67864
G1 X63.859 Y62.459 E66.86514
G1 X63.859 Y62.836 E66.87762
G1 X89.141 Y37.553 E68.06412
G1 X89.141 Y37.929 E68.07660
G1 X63.859 Y63.212 E69.26310
G1 X63.859 Y63.588 E69.27558
G1 X89.141 Y38.305 E70.46208
G1 X89.141 Y38.682 E70.47456
G1 X63.859 Y63.964 E71.66106
G1 X63.859 Y64.341 E71.67354
G1 X89.141 Y39.058 E72.86004
G1 X89.141 Y39.434 E72.87252
G1 X63.859 Y64.717 E74.05902
G1 X63.859 Y65.093 E74.07150
G1 X89.141 Y39.810 E75.25800
G1 X89.141 Y40.187 E75.27048
G1 X63.859 Y65.469 E76.45698
G1 X63.859 Y65.846 E76.46946
G1 X89.141 Y40.563 E77.65596
G1 X89.141 Y40.939 E77.66844
G1 X63.859 Y66.222 E78.85494
G1 X63.859 Y66.598 E78.86742
G1 X89.141 Y41.315 E80.05392
G1 X89.141 Y41.692 E80.06640
G1 X63.859 Y66.975 E81.25290
G1 X63.859 Y67.351 E81.26538
