; Gcode updated with 'stl_info' on 2019-12-09 14:14:13.022319

; stl_min_x = -15.0
; stl_max_x = 15.0
; stl_min_y = -15.0
; stl_max_y = 15.0
; stl_min_z = -7.0

; generated by Slic3r 1.3.1-dev (Build adea0d9) on 2019-12-09 at 14:14:12

; external perimeters extrusion width = 0.44mm (2.86mm^3/s)
; perimeters extrusion width = 0.56mm (4.14mm^3/s)
; infill extrusion width = 0.50mm (3.66mm^3/s)
; solid infill extrusion width = 0.56mm (3.10mm^3/s)
; top infill extrusion width = 0.56mm (3.10mm^3/s)

M107
G92 E0
;D3D:START:START
T0
M104 S215 T0

G21
G90
M107
T0
G28
G29
M109 T0 S215 T0
G0 F3000
M107
T0
G92 E0
G0 X0 Y149 Z0.1 F3600
G1 Y49 E6.5 F1200
G0 Z1
G92 E0
; Filament gcode

G21 ; set units to millimeters
G90 ; use absolute coordinates
M82 ; use absolute distances for extrusion
G92 E0
G1 Z0.300 F7800.000
G1 E-2.00000 F2400.00000
G92 E0
G1 X60.696 Y60.696 F7800.000
G1 E2.00000 F2400.00000
G1 F1800.000
G1 X89.304 Y60.696 E2.94775
G1 X89.304 Y89.304 E3.89551
G1 X60.696 Y89.304 E4.84326
G1 X60.696 Y60.756 E5.78903
G1 X60.431 Y60.431 F7800.000
G1 F1800.000
G1 X89.569 Y60.431 E6.75438
G1 X89.569 Y89.569 E7.71973
G1 X60.431 Y89.569 E8.68509
G1 X60.431 Y60.491 E9.64845
G1 X60.165 Y60.165 F7800.000
G1 F1800.000
G1 X89.835 Y60.165 E10.63141
G1 X89.835 Y89.835 E11.61436
G1 X60.165 Y89.835 E12.59731
G1 X60.165 Y60.225 E13.57828
G1 X60.859 Y61.065 F7800.000
G1 F1800.000
G1 X61.065 Y60.859 E13.58799
G1 X61.442 Y60.859 E13.60051
G1 X60.859 Y61.442 E13.62795
G1 X60.859 Y61.819 E13.64047
G1 X61.819 Y60.859 E13.68562
G1 X62.196 Y60.859 E13.69815
G1 X60.859 Y62.196 E13.76101
G1 X60.859 Y62.573 E13.77354
G1 X62.573 Y60.859 E13.85412
G1 X62.950 Y60.859 E13.86664
G1 X60.859 Y62.950 E13.96493
G1 X60.859 Y63.327 E13.97746
G1 X63.327 Y60.859 E14.09346
G1 X63.703 Y60.859 E14.10599
G1 X60.859 Y63.703 E14.23971
G1 X60.859 Y64.080 E14.25224
G1 X64.080 Y60.859 E14.40367
G1 X64.457 Y60.859 E14.41620
G1 X60.859 Y64.457 E14.58534
G1 X60.859 Y64.834 E14.59787
G1 X64.834 Y60.859 E14.78473
G1 X65.211 Y60.859 E14.79726
G1 X60.859 Y65.211 E15.00183
G1 X60.859 Y65.588 E15.01436
G1 X65.588 Y60.859 E15.23665
G1 X65.965 Y60.859 E15.24917
G1 X60.859 Y65.965 E15.48918
G1 X60.859 Y66.341 E15.50170
G1 X66.341 Y60.859 E15.75942
G1 X66.718 Y60.859 E15.77195
G1 X60.859 Y66.718 E16.04738
G1 X60.859 Y67.095 E16.05991
G1 X67.095 Y60.859 E16.35305
G1 X67.472 Y60.859 E16.36558
G1 X60.859 Y67.472 E16.67644
G1 X60.859 Y67.849 E16.68896
G1 X67.849 Y60.859 E17.01754
G1 X68.226 Y60.859 E17.03006
G1 X60.859 Y68.226 E17.37635
G1 X60.859 Y68.603 E17.38888
G1 X68.603 Y60.859 E17.75288
G1 X68.979 Y60.859 E17.76541
G1 X60.859 Y68.979 E18.14712
G1 X60.859 Y69.356 E18.15965
G1 X69.356 Y60.859 E18.55908
G1 X69.733 Y60.859 E18.57160
G1 X60.859 Y69.733 E18.98875
G1 X60.859 Y70.110 E19.00127
G1 X70.110 Y60.859 E19.43613
G1 X70.487 Y60.859 E19.44866
G1 X60.859 Y70.487 E19.90123
G1 X60.859 Y70.864 E19.91376
G1 X70.864 Y60.859 E20.38404
G1 X71.241 Y60.859 E20.39657
G1 X60.859 Y71.241 E20.88457
G1 X60.859 Y71.617 E20.89710
G1 X71.617 Y60.859 E21.40281
G1 X71.994 Y60.859 E21.41534
G1 X60.859 Y71.994 E21.93876
G1 X60.859 Y72.371 E21.95129
G1 X72.371 Y60.859 E22.49243
G1 X72.748 Y60.859 E22.50496
G1 X60.859 Y72.748 E23.06382
G1 X60.859 Y73.125 E23.07634
G1 X73.125 Y60.859 E23.65291
G1 X73.502 Y60.859 E23.66544
G1 X60.859 Y73.502 E24.25972
G1 X60.859 Y73.879 E24.27225
G1 X73.879 Y60.859 E24.88425
G1 X74.255 Y60.859 E24.89677
G1 X60.859 Y74.255 E25.52649
G1 X60.859 Y74.632 E25.53901
G1 X74.632 Y60.859 E26.18644
G1 X75.009 Y60.859 E26.19897
G1 X60.859 Y75.009 E26.86411
G1 X60.859 Y75.386 E26.87663
G1 X75.386 Y60.859 E27.55949
G1 X75.763 Y60.859 E27.57201
G1 X60.859 Y75.763 E28.27258
G1 X60.859 Y76.140 E28.28511
G1 X76.140 Y60.859 E29.00339
G1 X76.517 Y60.859 E29.01592
G1 X60.859 Y76.517 E29.75191
G1 X60.859 Y76.894 E29.76444
G1 X76.894 Y60.859 E30.51815
G1 X77.270 Y60.859 E30.53068
G1 X60.859 Y77.270 E31.30210
G1 X60.859 Y77.647 E31.31463
G1 X77.647 Y60.859 E32.10377
G1 X78.024 Y60.859 E32.11629
G1 X60.859 Y78.024 E32.92315
G1 X60.859 Y78.401 E32.93567
G1 X78.401 Y60.859 E33.76024
G1 X78.778 Y60.859 E33.77277
G1 X60.859 Y78.778 E34.61505
G1 X60.859 Y79.155 E34.62757
G1 X79.155 Y60.859 E35.48757
G1 X79.532 Y60.859 E35.50010
G1 X60.859 Y79.532 E36.37781
G1 X60.859 Y79.908 E36.39033
G1 X79.908 Y60.859 E37.28575
G1 X80.285 Y60.859 E37.29828
G1 X60.859 Y80.285 E38.21142
G1 X60.859 Y80.662 E38.22394
G1 X80.662 Y60.859 E39.15480
G1 X81.039 Y60.859 E39.16732
G1 X60.859 Y81.039 E40.11589
G1 X60.859 Y81.416 E40.12841
G1 X81.416 Y60.859 E41.09469
G1 X81.793 Y60.859 E41.10722
G1 X60.859 Y81.793 E42.09121
G1 X60.859 Y82.170 E42.10374
G1 X82.170 Y60.859 E43.10545
G1 X82.546 Y60.859 E43.11797
G1 X60.859 Y82.546 E44.13739
G1 X60.859 Y82.923 E44.14992
G1 X82.923 Y60.859 E45.18706
G1 X83.300 Y60.859 E45.19958
G1 X60.859 Y83.300 E46.25443
G1 X60.859 Y83.677 E46.26696
G1 X83.677 Y60.859 E47.33952
G1 X84.054 Y60.859 E47.35205
G1 X60.859 Y84.054 E48.44233
G1 X60.859 Y84.431 E48.45485
G1 X84.431 Y60.859 E49.56284
G1 X84.808 Y60.859 E49.57537
G1 X60.859 Y84.808 E50.70108
G1 X60.859 Y85.184 E50.71360
G1 X85.184 Y60.859 E51.85702
G1 X85.561 Y60.859 E51.86955
G1 X60.859 Y85.561 E53.03068
G1 X60.859 Y85.938 E53.04321
G1 X85.938 Y60.859 E54.22206
G1 X86.315 Y60.859 E54.23458
G1 X60.859 Y86.315 E55.43115
G1 X60.859 Y86.692 E55.44367
G1 X86.692 Y60.859 E56.65795
G1 X87.069 Y60.859 E56.67047
G1 X60.859 Y87.069 E57.90247
G1 X60.859 Y87.446 E57.91499
G1 X87.446 Y60.859 E59.16470
G1 X87.822 Y60.859 E59.17722
G1 X60.859 Y87.822 E60.44464
G1 X60.859 Y88.199 E60.45717
G1 X88.199 Y60.859 E61.74230
G1 X88.576 Y60.859 E61.75482
G1 X60.859 Y88.576 E63.05767
G1 X60.859 Y88.953 E63.07020
G1 X88.953 Y60.859 E64.39076
G1 X89.141 Y60.859 E64.39702
G1 X89.141 Y61.047 E64.40328
G1 X61.047 Y89.141 E65.72384
G1 X61.424 Y89.141 E65.73637
G1 X89.141 Y61.424 E67.03921
G1 X89.141 Y61.801 E67.05174
G1 X61.801 Y89.141 E68.33687
G1 X62.178 Y89.141 E68.34939
G1 X89.141 Y62.178 E69.61681
G1 X89.141 Y62.554 E69.62933
G1 X62.554 Y89.141 E70.87903
G1 X62.931 Y89.141 E70.89156
G1 X89.141 Y62.931 E72.12355
G1 X89.141 Y63.308 E72.13607
G1 X63.308 Y89.141 E73.35034
G1 X63.685 Y89.141 E73.36287
G1 X89.141 Y63.685 E74.55943
G1 X89.141 Y64.062 E74.57196
G1 X64.062 Y89.141 E75.75080
G1 X64.439 Y89.141 E75.76333
G1 X89.141 Y64.439 E76.92446
G1 X89.141 Y64.816 E76.93698
G1 X64.816 Y89.141 E78.08040
G1 X65.192 Y89.141 E78.09293
G1 X89.141 Y65.192 E79.21863
G1 X89.141 Y65.569 E79.23115
G1 X65.569 Y89.141 E80.33914
G1 X65.946 Y89.141 E80.35167
G1 X89.141 Y65.946 E81.44194
G1 X89.141 Y66.323 E81.45447
G1 X66.323 Y89.141 E82.52703
G1 X66.700 Y89.141 E82.53956
G1 X89.141 Y66.700 E83.59440
G1 X89.141 Y67.077 E83.60693
G1 X67.077 Y89.141 E84.64406
G1 X67.454 Y89.141 E84.65659
G1 X89.141 Y67.454 E85.67600
G1 X89.141 Y67.831 E85.68853
G1 X67.830 Y89.141 E86.69024
G1 X68.207 Y89.141 E86.70276
G1 X89.141 Y68.207 E87.68675
G1 X89.141 Y68.584 E87.69928
G1 X68.584 Y89.141 E88.66555
G1 X68.961 Y89.141 E88.67808
G1 X89.141 Y68.961 E89.62664
G1 X89.141 Y69.338 E89.63917
G1 X69.338 Y89.141 E90.57002
G1 X69.715 Y89.141 E90.58254
G1 X89.141 Y69.715 E91.49568
G1 X89.141 Y70.092 E91.50820
G1 X70.092 Y89.141 E92.40362
G1 X70.469 Y89.141 E92.41615
G1 X89.141 Y70.469 E93.29385
G1 X89.141 Y70.845 E93.30638
G1 X70.845 Y89.141 E94.16637
G1 X71.222 Y89.141 E94.17890
G1 X89.141 Y71.222 E95.02118
G1 X89.141 Y71.599 E95.03370
G1 X71.599 Y89.141 E95.85826
G1 X71.976 Y89.141 E95.87079
G1 X89.141 Y71.976 E96.67764
G1 X89.141 Y72.353 E96.69017
G1 X72.353 Y89.141 E97.47930
G1 X72.730 Y89.141 E97.49183
G1 X89.141 Y72.730 E98.26325
G1 X89.141 Y73.107 E98.27578
G1 X73.107 Y89.141 E99.02948
G1 X73.483 Y89.141 E99.04201
G1 X89.141 Y73.483 E99.77800
G1 X89.141 Y73.860 E99.79053
G1 X73.860 Y89.141 E100.50881
G1 X74.237 Y89.141 E100.52133
G1 X89.141 Y74.237 E101.22190
G1 X89.141 Y74.614 E101.23443
G1 X74.614 Y89.141 E101.91728
G1 X74.991 Y89.141 E101.92980
G1 X89.141 Y74.991 E102.59494
G1 X89.141 Y75.368 E102.60747
G1 X75.368 Y89.141 E103.25489
G1 X75.745 Y89.141 E103.26742
G1 X89.141 Y75.745 E103.89712
G1 X89.141 Y76.121 E103.90965
G1 X76.121 Y89.141 E104.52165
G1 X76.498 Y89.141 E104.53417
G1 X89.141 Y76.498 E105.12845
G1 X89.141 Y76.875 E105.14098
G1 X76.875 Y89.141 E105.71755
G1 X77.252 Y89.141 E105.73007
G1 X89.141 Y77.252 E106.28893
G1 X89.141 Y77.629 E106.30145
G1 X77.629 Y89.141 E106.84259
G1 X78.006 Y89.141 E106.85512
G1 X89.141 Y78.006 E107.37854
G1 X89.141 Y78.383 E107.39107
G1 X78.383 Y89.141 E107.89678
G1 X78.759 Y89.141 E107.90930
G1 X89.141 Y78.759 E108.39730
G1 X89.141 Y79.136 E108.40983
G1 X79.136 Y89.141 E108.88011
G1 X79.513 Y89.141 E108.89264
G1 X89.141 Y79.513 E109.34520
G1 X89.141 Y79.890 E109.35773
G1 X79.890 Y89.141 E109.79259
G1 X80.267 Y89.141 E109.80511
G1 X89.141 Y80.267 E110.22225
G1 X89.141 Y80.644 E110.23478
G1 X80.644 Y89.141 E110.63420
G1 X81.021 Y89.141 E110.64673
G1 X89.141 Y81.021 E111.02844
G1 X89.141 Y81.398 E111.04097
G1 X81.397 Y89.141 E111.40497
G1 X81.774 Y89.141 E111.41749
G1 X89.141 Y81.774 E111.76378
G1 X89.141 Y82.151 E111.77630
G1 X82.151 Y89.141 E112.10487
G1 X82.528 Y89.141 E112.11740
G1 X89.141 Y82.528 E112.42826
G1 X89.141 Y82.905 E112.44078
G1 X82.905 Y89.141 E112.73392
G1 X83.282 Y89.141 E112.74645
G1 X89.141 Y83.282 E113.02188
G1 X89.141 Y83.659 E113.03440
G1 X83.659 Y89.141 E113.29212
G1 X84.036 Y89.141 E113.30464
G1 X89.141 Y84.036 E113.54465
G1 X89.141 Y84.412 E113.55717
G1 X84.412 Y89.141 E113.77946
G1 X84.789 Y89.141 E113.79198
G1 X89.141 Y84.789 E113.99656
G1 X89.141 Y85.166 E114.00908
G1 X85.166 Y89.141 E114.19594
G1 X85.543 Y89.141 E114.20847
G1 X89.141 Y85.543 E114.37761
G1 X89.141 Y85.920 E114.39014
G1 X85.920 Y89.141 E114.54157
G1 X86.297 Y89.141 E114.55409
G1 X89.141 Y86.297 E114.68781
G1 X89.141 Y86.674 E114.70033
G1 X86.674 Y89.141 E114.81634
G1 X87.050 Y89.141 E114.82886
G1 X89.141 Y87.050 E114.92715
G1 X89.141 Y87.427 E114.93967
G1 X87.427 Y89.141 E115.02025
G1 X87.804 Y89.141 E115.03277
G1 X89.141 Y87.804 E115.09563
G1 X89.141 Y88.181 E115.10816
G1 X88.181 Y89.141 E115.15331
G1 X88.558 Y89.141 E115.16583
G1 X89.141 Y88.558 E115.19326
G1 X89.141 Y88.935 E115.20579
G1 X88.935 Y89.141 E115.21551
M106 S255
G1 Z0.500 F7800.000
G1 E113.21551 F2400.00000
G92 E0
G1 X60.677 Y60.677 F7800.000
G1 E2.00000 F2400.00000
G1 F2400.000
G1 X89.323 Y60.677 E3.23164
G1 X89.323 Y89.323 E4.46328
G1 X60.677 Y89.323 E5.69491
G1 X60.677 Y60.737 E6.92397
G1 X60.220 Y60.220 F7800.000
G1 F2160.000
G1 X89.780 Y60.220 E7.89996
G1 X89.780 Y89.780 E8.87596
G1 X60.220 Y89.780 E9.85195
G1 X60.220 Y60.280 E10.82596
G1 E8.82596 F2400.00000
G92 E0
G1 X61.395 Y89.007 F7800.000
G1 E2.00000 F2400.00000
G1 F1800.000
G1 X60.993 Y88.605 E2.02462
G1 X60.993 Y87.868 E2.05650
G1 X62.132 Y89.007 E2.12621
G1 X62.868 Y89.007 E2.15809
G1 X60.993 Y87.132 E2.27288
G1 X60.993 Y86.396 E2.30476
G1 X63.604 Y89.007 E2.46463
G1 X64.341 Y89.007 E2.49651
G1 X60.993 Y85.659 E2.70146
G1 X60.993 Y84.923 E2.73334
G1 X65.077 Y89.007 E2.98337
G1 X65.813 Y89.007 E3.01525
G1 X60.993 Y84.187 E3.31036
G1 X60.993 Y83.450 E3.34224
G1 X66.550 Y89.007 E3.68243
G1 X67.286 Y89.007 E3.71431
G1 X60.993 Y82.714 E4.09958
G1 X60.993 Y81.978 E4.13146
G1 X68.022 Y89.007 E4.56181
G1 X68.758 Y89.007 E4.59369
G1 X60.993 Y81.242 E5.06912
G1 X60.993 Y80.505 E5.10100
G1 X69.495 Y89.007 E5.62151
G1 X70.231 Y89.007 E5.65339
G1 X60.993 Y79.769 E6.21898
G1 X60.993 Y79.033 E6.25085
G1 X70.967 Y89.007 E6.86153
G1 X71.704 Y89.007 E6.89340
G1 X60.993 Y78.296 E7.54916
G1 X60.993 Y77.560 E7.58103
G1 X72.440 Y89.007 E8.28187
G1 X73.176 Y89.007 E8.31374
G1 X60.993 Y76.824 E9.05966
G1 X60.993 Y76.087 E9.09153
G1 X73.913 Y89.007 E9.88253
G1 X74.649 Y89.007 E9.91440
G1 X60.993 Y75.351 E10.75048
G1 X60.993 Y74.615 E10.78235
G1 X75.385 Y89.007 E11.66351
G1 X76.122 Y89.007 E11.69538
G1 X60.993 Y73.878 E12.62162
G1 X60.993 Y73.142 E12.65349
G1 X76.858 Y89.007 E13.62481
G1 X77.594 Y89.007 E13.65668
G1 X60.993 Y72.406 E14.67308
G1 X60.993 Y71.670 E14.70495
G1 X78.330 Y89.007 E15.76643
G1 X79.067 Y89.007 E15.79830
G1 X60.993 Y70.933 E16.90486
G1 X60.993 Y70.197 E16.93673
G1 X79.803 Y89.007 E18.08837
G1 X80.539 Y89.007 E18.12024
G1 X60.993 Y69.461 E19.31696
G1 X60.993 Y68.724 E19.34883
G1 X81.276 Y89.007 E20.59063
G1 X82.012 Y89.007 E20.62250
G1 X60.993 Y67.988 E21.90938
G1 X60.993 Y67.252 E21.94125
G1 X82.748 Y89.007 E23.27321
G1 X83.485 Y89.007 E23.30508
G1 X60.993 Y66.515 E24.68212
G1 X60.993 Y65.779 E24.71399
G1 X84.221 Y89.007 E26.13611
G1 X84.957 Y89.007 E26.16798
G1 X60.993 Y65.043 E27.63518
G1 X60.993 Y64.306 E27.66705
G1 X85.694 Y89.007 E29.17933
G1 X86.430 Y89.007 E29.21120
G1 X60.993 Y63.570 E30.76856
G1 X60.993 Y62.834 E30.80043
G1 X87.166 Y89.007 E32.40287
G1 X87.902 Y89.007 E32.43474
G1 X60.993 Y62.097 E34.08226
G1 X60.993 Y61.361 E34.11413
G1 X88.639 Y89.007 E35.80673
G1 X89.007 Y89.007 E35.82266
G1 X89.007 Y88.639 E35.83860
G1 X61.361 Y60.993 E37.53120
G1 X62.098 Y60.993 E37.56307
G1 X89.007 Y87.902 E39.21059
G1 X89.007 Y87.166 E39.24246
G1 X62.834 Y60.993 E40.84490
G1 X63.570 Y60.993 E40.87677
G1 X89.007 Y86.430 E42.43413
G1 X89.007 Y85.694 E42.46600
G1 X64.306 Y60.993 E43.97827
G1 X65.043 Y60.993 E44.01015
G1 X89.007 Y84.957 E45.47734
G1 X89.007 Y84.221 E45.50922
G1 X65.779 Y60.993 E46.93133
G1 X66.515 Y60.993 E46.96321
G1 X89.007 Y83.485 E48.34024
G1 X89.007 Y82.748 E48.37212
G1 X67.252 Y60.993 E49.70407
G1 X67.988 Y60.993 E49.73595
G1 X89.007 Y82.012 E51.02282
G1 X89.007 Y81.276 E51.05470
G1 X68.724 Y60.993 E52.29649
G1 X69.461 Y60.993 E52.32837
G1 X89.007 Y80.539 E53.52508
G1 X89.007 Y79.803 E53.55696
G1 X70.197 Y60.993 E54.70859
G1 X70.933 Y60.993 E54.74047
G1 X89.007 Y79.067 E55.84702
G1 X89.007 Y78.330 E55.87890
G1 X71.670 Y60.993 E56.94037
G1 X72.406 Y60.993 E56.97225
G1 X89.007 Y77.594 E57.98864
G1 X89.007 Y76.858 E58.02051
G1 X73.142 Y60.993 E58.99183
G1 X73.878 Y60.993 E59.02370
G1 X89.007 Y76.122 E59.94994
G1 X89.007 Y75.385 E59.98181
G1 X74.615 Y60.993 E60.86297
G1 X75.351 Y60.993 E60.89484
G1 X89.007 Y74.649 E61.73092
G1 X89.007 Y73.913 E61.76279
G1 X76.087 Y60.993 E62.55379
G1 X76.824 Y60.993 E62.58566
G1 X89.007 Y73.176 E63.33157
G1 X89.007 Y72.440 E63.36345
G1 X77.560 Y60.993 E64.06428
G1 X78.296 Y60.993 E64.09616
G1 X89.007 Y71.704 E64.75191
G1 X89.007 Y70.967 E64.78379
G1 X79.033 Y60.993 E65.39446
G1 X79.769 Y60.993 E65.42634
G1 X89.007 Y70.231 E65.99193
G1 X89.007 Y69.495 E66.02381
G1 X80.505 Y60.993 E66.54432
G1 X81.242 Y60.993 E66.57620
G1 X89.007 Y68.758 E67.05163
G1 X89.007 Y68.022 E67.08351
G1 X81.978 Y60.993 E67.51386
G1 X82.714 Y60.993 E67.54573
G1 X89.007 Y67.286 E67.93101
G1 X89.007 Y66.550 E67.96288
G1 X83.450 Y60.993 E68.30308
G1 X84.187 Y60.993 E68.33495
G1 X89.007 Y65.813 E68.63007
G1 X89.007 Y65.077 E68.66194
G1 X84.923 Y60.993 E68.91197
G1 X85.659 Y60.993 E68.94385
G1 X89.007 Y64.341 E69.14880
G1 X89.007 Y63.604 E69.18068
G1 X86.396 Y60.993 E69.34055
G1 X87.132 Y60.993 E69.37243
G1 X89.007 Y62.868 E69.48722
G1 X89.007 Y62.132 E69.51910
G1 X87.868 Y60.993 E69.58881
G1 X88.605 Y60.993 E69.62069
G1 X89.007 Y61.395 E69.64532
G1 Z0.700 F7800.000
G1 E67.64532 F2400.00000
G92 E0
G1 X60.677 Y60.677 F7800.000
G1 E2.00000 F2400.00000
G1 F2400.000
G1 X89.323 Y60.677 E3.23164
G1 X89.323 Y89.323 E4.46328
G1 X60.677 Y89.323 E5.69491
G1 X60.677 Y60.737 E6.92397
G1 X60.220 Y60.220 F7800.000
G1 F2160.000
G1 X89.780 Y60.220 E7.89996
G1 X89.780 Y89.780 E8.87596
G1 X60.220 Y89.780 E9.85195
G1 X60.220 Y60.280 E10.82596
G1 X60.993 Y61.395 F7800.000
G1 F1800.000
G1 X61.395 Y60.993 E10.85058
G1 X62.132 Y60.993 E10.88246
G1 X60.993 Y62.132 E10.95217
G1 X60.993 Y62.868 E10.98405
G1 X62.868 Y60.993 E11.09884
G1 X63.604 Y60.993 E11.13072
G1 X60.993 Y63.604 E11.29059
G1 X60.993 Y64.341 E11.32247
G1 X64.341 Y60.993 E11.52742
G1 X65.077 Y60.993 E11.55930
G1 X60.993 Y65.077 E11.80933
G1 X60.993 Y65.813 E11.84121
G1 X65.813 Y60.993 E12.13632
G1 X66.550 Y60.993 E12.16820
G1 X60.993 Y66.550 E12.50839
G1 X60.993 Y67.286 E12.54026
G1 X67.286 Y60.993 E12.92554
G1 X68.022 Y60.993 E12.95741
G1 X60.993 Y68.022 E13.38777
