; generated by Slic3r 1.3.1-dev (Build 2ef957d) on 2019-11-25 at 09:24:28

; external perimeters extrusion width = 0.55mm (4.37mm^3/s)
; perimeters extrusion width = 0.70mm (11.44mm^3/s)
; infill extrusion width = 0.62mm (13.45mm^3/s)
; solid infill extrusion width = 0.70mm (3.81mm^3/s)
; top infill extrusion width = 0.70mm (2.86mm^3/s)

M107
G92 E0
M104 S200 ; set temperature
G28 ; home all axes
G1 Z5 F5000 ; lift nozzle

; Filament gcode

M109 S200 ; set temperature and wait for it to be reached
G21 ; set units to millimeters
G90 ; use absolute coordinates
M82 ; use absolute distances for extrusion
G92 E0
G1 Z0.350 F7800.000
G1 E-2.00000 F2400.00000
G92 E0
G1 X75.112 Y85.896 F7800.000
G1 E2.00000 F2400.00000
G1 F1800.000
G1 X75.508 Y85.558 E2.01609
G1 X76.257 Y84.968 E2.04561
G1 X76.678 Y84.662 E2.06170
G1 X77.471 Y84.132 E2.09122
G1 X77.915 Y83.860 E2.10733
G1 X78.747 Y83.394 E2.13685
G1 X79.210 Y83.158 E2.15294
G1 X80.077 Y82.759 E2.18245
G1 X80.557 Y82.559 E2.19855
G1 X81.452 Y82.229 E2.22807
G1 X81.947 Y82.069 E2.24415
G1 X82.865 Y81.810 E2.27367
G1 X83.371 Y81.688 E2.28978
G1 X84.307 Y81.502 E2.31930
G1 X84.821 Y81.421 E2.33540
G1 X85.768 Y81.309 E2.36491
G1 X86.286 Y81.268 E2.38099
G1 X87.500 Y81.225 E2.41857
G1 X112.760 Y81.230 E3.20016
G1 X113.714 Y81.268 E3.22968
G1 X114.232 Y81.309 E3.24576
G1 X115.179 Y81.421 E3.27527
G1 X115.693 Y81.502 E3.29137
G1 X116.629 Y81.688 E3.32089
G1 X117.135 Y81.810 E3.33700
G1 X118.053 Y82.069 E3.36652
G1 X118.548 Y82.229 E3.38261
G1 X119.443 Y82.560 E3.41213
G1 X119.923 Y82.759 E3.42821
G1 X120.789 Y83.158 E3.45773
G1 X121.253 Y83.394 E3.47382
G1 X122.085 Y83.860 E3.50334
G1 X122.529 Y84.132 E3.51945
G1 X123.322 Y84.662 E3.54897
G1 X123.743 Y84.968 E3.56506
G1 X124.492 Y85.558 E3.59458
G1 X124.888 Y85.896 E3.61068
G1 X125.588 Y86.544 E3.64020
G1 X125.956 Y86.912 E3.65628
G1 X126.604 Y87.612 E3.68580
G1 X126.941 Y88.007 E3.70188
G1 X127.532 Y88.757 E3.73140
G1 X127.838 Y89.178 E3.74752
G1 X128.368 Y89.971 E3.77703
G1 X128.640 Y90.415 E3.79314
G1 X129.106 Y91.247 E3.82265
G1 X129.342 Y91.710 E3.83874
G1 X129.741 Y92.577 E3.86826
G1 X129.941 Y93.057 E3.88435
G1 X130.271 Y93.952 E3.91387
G1 X130.431 Y94.447 E3.92996
G1 X130.690 Y95.365 E3.95948
G1 X130.812 Y95.871 E3.97558
G1 X130.998 Y96.807 E4.00510
G1 X131.079 Y97.321 E4.02120
G1 X131.191 Y98.268 E4.05072
G1 X131.232 Y98.786 E4.06680
G1 X131.270 Y99.740 E4.09632
G1 X131.270 Y100.260 E4.11243
G1 X131.232 Y101.214 E4.14195
G1 X131.191 Y101.732 E4.15803
G1 X131.079 Y102.679 E4.18755
G1 X130.998 Y103.193 E4.20364
G1 X130.812 Y104.129 E4.23316
G1 X130.690 Y104.635 E4.24927
G1 X130.431 Y105.553 E4.27879
G1 X130.271 Y106.048 E4.29488
G1 X129.941 Y106.943 E4.32439
G1 X129.741 Y107.423 E4.34049
G1 X129.342 Y108.290 E4.37001
G1 X129.106 Y108.753 E4.38609
G1 X128.640 Y109.585 E4.41561
G1 X128.368 Y110.029 E4.43171
G1 X127.838 Y110.822 E4.46123
G1 X127.532 Y111.243 E4.47734
G1 X126.941 Y111.993 E4.50686
G1 X126.604 Y112.388 E4.52294
G1 X125.956 Y113.088 E4.55246
G1 X125.588 Y113.456 E4.56855
G1 X124.888 Y114.104 E4.59807
G1 X124.492 Y114.442 E4.61417
G1 X123.743 Y115.032 E4.64369
G1 X123.322 Y115.338 E4.65978
G1 X122.529 Y115.868 E4.68929
G1 X122.085 Y116.140 E4.70541
G1 X121.253 Y116.606 E4.73493
G1 X120.789 Y116.842 E4.75101
G1 X119.923 Y117.241 E4.78053
G1 X119.443 Y117.440 E4.79662
G1 X118.548 Y117.771 E4.82614
G1 X118.053 Y117.931 E4.84223
G1 X117.135 Y118.190 E4.87175
G1 X116.629 Y118.312 E4.88786
G1 X115.693 Y118.498 E4.91737
G1 X115.179 Y118.579 E4.93347
G1 X114.232 Y118.691 E4.96299
G1 X113.714 Y118.732 E4.97907
G1 X112.500 Y118.775 E5.01664
G1 X87.240 Y118.770 E5.79824
G1 X86.286 Y118.732 E5.82775
G1 X85.768 Y118.691 E5.84383
G1 X84.821 Y118.579 E5.87335
G1 X84.307 Y118.498 E5.88945
G1 X83.371 Y118.312 E5.91897
G1 X82.865 Y118.190 E5.93507
G1 X81.947 Y117.931 E5.96459
G1 X81.452 Y117.771 E5.98068
G1 X80.557 Y117.441 E6.01020
G1 X80.077 Y117.241 E6.02629
G1 X79.210 Y116.842 E6.05581
G1 X78.747 Y116.606 E6.07190
G1 X77.915 Y116.140 E6.10141
G1 X77.471 Y115.868 E6.11752
G1 X76.678 Y115.338 E6.14704
G1 X76.257 Y115.032 E6.16314
G1 X75.508 Y114.442 E6.19265
G1 X75.112 Y114.104 E6.20875
G1 X74.412 Y113.456 E6.23826
G1 X74.044 Y113.088 E6.25436
G1 X73.396 Y112.388 E6.28388
G1 X73.058 Y111.992 E6.29997
G1 X72.468 Y111.243 E6.32949
G1 X72.162 Y110.822 E6.34558
G1 X71.632 Y110.029 E6.37510
G1 X71.360 Y109.585 E6.39121
G1 X70.894 Y108.753 E6.42073
G1 X70.658 Y108.290 E6.43682
G1 X70.259 Y107.423 E6.46634
G1 X70.059 Y106.943 E6.48243
G1 X69.729 Y106.048 E6.51195
G1 X69.569 Y105.553 E6.52803
G1 X69.310 Y104.635 E6.55755
G1 X69.188 Y104.129 E6.57366
G1 X69.002 Y103.193 E6.60318
G1 X68.921 Y102.679 E6.61928
G1 X68.809 Y101.732 E6.64879
G1 X68.768 Y101.214 E6.66487
G1 X68.730 Y100.260 E6.69439
G1 X68.730 Y99.740 E6.71051
G1 X68.768 Y98.786 E6.74002
G1 X68.809 Y98.268 E6.75610
G1 X68.921 Y97.321 E6.78562
G1 X69.002 Y96.807 E6.80172
G1 X69.188 Y95.871 E6.83124
G1 X69.310 Y95.365 E6.84735
G1 X69.569 Y94.447 E6.87686
G1 X69.729 Y93.952 E6.89295
G1 X70.059 Y93.057 E6.92247
G1 X70.259 Y92.577 E6.93856
G1 X70.658 Y91.710 E6.96808
G1 X70.894 Y91.247 E6.98417
G1 X71.360 Y90.415 E7.01369
G1 X71.632 Y89.971 E7.02980
G1 X72.162 Y89.178 E7.05931
G1 X72.468 Y88.757 E7.07541
G1 X73.058 Y88.008 E7.10493
G1 X73.396 Y87.612 E7.12102
G1 X74.044 Y86.912 E7.15054
G1 X74.412 Y86.544 E7.16663
G1 X75.057 Y85.947 E7.19383
G1 E5.19383 F2400.00000
G92 E0
G1 X114.098 Y103.396 F7800.000
G1 E2.00000 F2400.00000
G1 F1800.000
G1 X113.660 Y103.569 E2.01458
G1 X113.203 Y103.686 E2.02916
G1 X112.736 Y103.746 E2.04375
G1 X112.264 Y103.746 E2.05833
G1 X111.797 Y103.686 E2.07292
G1 X111.340 Y103.569 E2.08750
G1 X110.902 Y103.396 E2.10208
G1 X110.489 Y103.169 E2.11666
G1 X110.108 Y102.892 E2.13124
G1 X109.764 Y102.569 E2.14583
G1 X109.464 Y102.206 E2.16041
G1 X109.211 Y101.808 E2.17499
G1 X109.011 Y101.382 E2.18957
G1 X108.865 Y100.933 E2.20416
G1 X108.777 Y100.470 E2.21874
G1 X108.747 Y100.000 E2.23332
G1 X108.777 Y99.530 E2.24790
G1 X108.865 Y99.067 E2.26248
G1 X109.011 Y98.618 E2.27707
G1 X109.211 Y98.192 E2.29165
G1 X109.464 Y97.794 E2.30624
G1 X109.764 Y97.431 E2.32082
G1 X110.108 Y97.108 E2.33540
G1 X110.489 Y96.831 E2.34999
G1 X110.902 Y96.604 E2.36457
G1 X111.340 Y96.431 E2.37915
G1 X111.797 Y96.314 E2.39373
G1 X112.264 Y96.254 E2.40831
G1 X112.736 Y96.254 E2.42290
G1 X113.203 Y96.314 E2.43748
G1 X113.660 Y96.431 E2.45206
G1 X114.098 Y96.604 E2.46664
G1 X114.511 Y96.831 E2.48122
G1 X114.892 Y97.108 E2.49581
G1 X115.236 Y97.431 E2.51039
G1 X115.536 Y97.794 E2.52497
G1 X115.789 Y98.192 E2.53956
G1 X115.989 Y98.618 E2.55414
G1 X116.135 Y99.067 E2.56872
G1 X116.223 Y99.530 E2.58331
G1 X116.253 Y100.000 E2.59789
G1 X116.223 Y100.470 E2.61247
G1 X116.135 Y100.933 E2.62705
G1 X115.989 Y101.382 E2.64164
G1 X115.789 Y101.808 E2.65621
G1 X115.536 Y102.206 E2.67080
G1 X115.236 Y102.569 E2.68538
G1 X114.892 Y102.892 E2.69997
G1 X114.511 Y103.169 E2.71455
G1 X114.164 Y103.360 E2.72681
G1 X113.831 Y102.829 F7800.000
G1 F1800.000
G1 X113.466 Y102.974 E2.73896
G1 X113.086 Y103.071 E2.75111
G1 X112.696 Y103.121 E2.76326
G1 X112.304 Y103.121 E2.77541
G1 X111.914 Y103.071 E2.78756
G1 X111.534 Y102.974 E2.79971
G1 X111.169 Y102.829 E2.81186
G1 X110.825 Y102.640 E2.82400
G1 X110.507 Y102.409 E2.83616
G1 X110.221 Y102.140 E2.84831
G1 X109.970 Y101.838 E2.86045
G1 X109.760 Y101.506 E2.87261
G1 X109.593 Y101.151 E2.88475
G1 X109.471 Y100.778 E2.89691
G1 X109.398 Y100.392 E2.90906
G1 X109.373 Y100.000 E2.92121
G1 X109.398 Y99.608 E2.93335
G1 X109.471 Y99.222 E2.94550
G1 X109.593 Y98.849 E2.95766
G1 X109.760 Y98.494 E2.96980
G1 X109.970 Y98.162 E2.98195
G1 X110.221 Y97.860 E2.99410
G1 X110.507 Y97.591 E3.00625
G1 X110.825 Y97.360 E3.01840
G1 X111.169 Y97.171 E3.03055
G1 X111.534 Y97.026 E3.04270
G1 X111.914 Y96.929 E3.05485
G1 X112.304 Y96.879 E3.06700
G1 X112.696 Y96.879 E3.07915
G1 X113.086 Y96.929 E3.09130
G1 X113.466 Y97.026 E3.10345
G1 X113.831 Y97.171 E3.11560
G1 X114.175 Y97.360 E3.12775
G1 X114.493 Y97.591 E3.13990
G1 X114.779 Y97.860 E3.15205
G1 X115.030 Y98.162 E3.16420
G1 X115.240 Y98.494 E3.17635
G1 X115.407 Y98.849 E3.18850
G1 X115.529 Y99.222 E3.20065
G1 X115.602 Y99.608 E3.21280
G1 X115.627 Y100.000 E3.22495
G1 X115.602 Y100.392 E3.23709
G1 X115.529 Y100.778 E3.24924
G1 X115.407 Y101.151 E3.26140
G1 X115.240 Y101.506 E3.27354
G1 X115.030 Y101.838 E3.28570
G1 X114.779 Y102.140 E3.29784
G1 X114.493 Y102.409 E3.31000
G1 X114.175 Y102.640 E3.32215
G1 X113.897 Y102.793 E3.33197
G1 X113.565 Y102.263 F7800.000
G1 F1800.000
G1 X113.273 Y102.378 E3.34169
G1 X112.969 Y102.456 E3.35141
G1 X112.657 Y102.496 E3.36112
G1 X112.343 Y102.496 E3.37084
G1 X112.031 Y102.456 E3.38056
G1 X111.727 Y102.378 E3.39028
G1 X111.435 Y102.263 E3.39999
G1 X111.160 Y102.111 E3.40971
G1 X110.906 Y101.927 E3.41943
G1 X110.677 Y101.712 E3.42914
G1 X110.477 Y101.470 E3.43886
G1 X110.309 Y101.205 E3.44858
G1 X110.175 Y100.921 E3.45829
G1 X110.078 Y100.622 E3.46801
G1 X110.019 Y100.313 E3.47773
G1 X109.999 Y100.000 E3.48744
G1 X110.019 Y99.687 E3.49716
G1 X110.078 Y99.378 E3.50687
G1 X110.175 Y99.079 E3.51659
G1 X110.309 Y98.795 E3.52631
G1 X110.477 Y98.530 E3.53603
G1 X110.677 Y98.288 E3.54574
G1 X110.906 Y98.073 E3.55546
G1 X111.160 Y97.889 E3.56518
G1 X111.435 Y97.737 E3.57489
G1 X111.727 Y97.622 E3.58461
G1 X112.031 Y97.544 E3.59433
G1 X112.343 Y97.504 E3.60404
G1 X112.657 Y97.504 E3.61376
G1 X112.969 Y97.544 E3.62348
G1 X113.273 Y97.622 E3.63320
G1 X113.565 Y97.737 E3.64291
G1 X113.840 Y97.889 E3.65263
G1 X114.094 Y98.073 E3.66235
G1 X114.323 Y98.288 E3.67206
G1 X114.523 Y98.530 E3.68178
G1 X114.691 Y98.795 E3.69150
G1 X114.825 Y99.079 E3.70121
G1 X114.922 Y99.378 E3.71093
G1 X114.981 Y99.687 E3.72065
G1 X115.001 Y100.000 E3.73036
G1 X114.981 Y100.313 E3.74008
G1 X114.922 Y100.622 E3.74980
G1 X114.825 Y100.921 E3.75951
G1 X114.691 Y101.205 E3.76923
G1 X114.523 Y101.470 E3.77895
G1 X114.323 Y101.712 E3.78866
G1 X114.094 Y101.927 E3.79838
G1 X113.840 Y102.111 E3.80810
G1 X113.630 Y102.227 E3.81549
G1 X113.565 Y102.263 F7800.000
G1 E1.81549 F2400.00000
G92 E0
G1 X116.931 Y109.564 F7800.000
G1 E2.00000 F2400.00000
G1 F1800.000
G1 X116.537 Y109.746 E2.01342
G1 X115.760 Y110.033 E2.03905
G1 X114.963 Y110.258 E2.06468
G1 X114.150 Y110.419 E2.09030
G1 X113.328 Y110.516 E2.11593
G1 X112.500 Y110.549 E2.14156
G1 X111.672 Y110.516 E2.16719
G1 X110.850 Y110.419 E2.19282
G1 X110.037 Y110.258 E2.21845
G1 X109.240 Y110.033 E2.24408
G1 X108.463 Y109.746 E2.26971
G1 X107.711 Y109.399 E2.29534
G1 X106.988 Y108.994 E2.32096
G1 X106.299 Y108.534 E2.34659
G1 X105.649 Y108.022 E2.37222
G1 X105.041 Y107.459 E2.39785
G1 X104.478 Y106.851 E2.42348
G1 X103.966 Y106.201 E2.44911
G1 X103.506 Y105.512 E2.47473
G1 X103.101 Y104.789 E2.50036
G1 X102.754 Y104.037 E2.52599
G1 X102.467 Y103.260 E2.55162
G1 X102.242 Y102.463 E2.57725
G1 X102.081 Y101.650 E2.60288
G1 X101.984 Y100.828 E2.62851
G1 X101.951 Y100.000 E2.65414
G1 X101.984 Y99.172 E2.67977
G1 X102.081 Y98.350 E2.70540
G1 X102.242 Y97.537 E2.73102
G1 X102.467 Y96.740 E2.75665
G1 X102.754 Y95.963 E2.78228
G1 X103.101 Y95.211 E2.80791
G1 X103.506 Y94.488 E2.83354
G1 X103.966 Y93.799 E2.85916
G1 X104.478 Y93.149 E2.88479
G1 X105.041 Y92.541 E2.91043
G1 X105.649 Y91.978 E2.93605
G1 X106.299 Y91.466 E2.96168
G1 X106.988 Y91.005 E2.98731
G1 X107.711 Y90.601 E3.01294
G1 X108.463 Y90.254 E3.03857
G1 X109.240 Y89.967 E3.06420
G1 X110.037 Y89.742 E3.08983
G1 X110.850 Y89.581 E3.11545
G1 X111.672 Y89.484 E3.14108
G1 X112.500 Y89.451 E3.16671
G1 X113.328 Y89.484 E3.19234
G1 X114.150 Y89.581 E3.21797
G1 X114.963 Y89.742 E3.24360
G1 X115.760 Y89.967 E3.26923
G1 X116.537 Y90.254 E3.29486
G1 X117.289 Y90.601 E3.32049
G1 X118.012 Y91.005 E3.34611
G1 X118.701 Y91.466 E3.37174
G1 X119.351 Y91.978 E3.39737
G1 X119.959 Y92.541 E3.42300
G1 X120.522 Y93.149 E3.44863
G1 X121.034 Y93.799 E3.47426
G1 X121.494 Y94.488 E3.49988
G1 X121.899 Y95.211 E3.52551
G1 X122.246 Y95.963 E3.55114
G1 X122.533 Y96.740 E3.57677
G1 X122.758 Y97.537 E3.60240
G1 X122.919 Y98.350 E3.62803
G1 X123.016 Y99.172 E3.65366
G1 X123.049 Y100.000 E3.67929
G1 X123.016 Y100.828 E3.70492
G1 X122.919 Y101.650 E3.73055
G1 X122.758 Y102.463 E3.75617
G1 X122.533 Y103.260 E3.78180
G1 X122.246 Y104.037 E3.80743
G1 X121.899 Y104.789 E3.83306
G1 X121.494 Y105.512 E3.85869
G1 X121.034 Y106.201 E3.88431
G1 X120.522 Y106.851 E3.90994
G1 X119.959 Y107.459 E3.93558
G1 X119.351 Y108.022 E3.96120
G1 X118.701 Y108.534 E3.98683
G1 X118.012 Y108.994 E4.01246
G1 X117.289 Y109.399 E4.03809
G1 X116.999 Y109.533 E4.04798
G1 X117.192 Y110.132 F7800.000
G1 F1800.000
G1 X116.776 Y110.324 E4.06216
G1 X115.953 Y110.627 E4.08930
G1 X115.109 Y110.866 E4.11645
G1 X114.248 Y111.037 E4.14360
G1 X113.377 Y111.140 E4.17075
G1 X112.500 Y111.174 E4.19790
G1 X111.623 Y111.140 E4.22505
G1 X110.752 Y111.037 E4.25219
G1 X109.891 Y110.866 E4.27934
G1 X109.047 Y110.627 E4.30649
G1 X108.224 Y110.324 E4.33364
G1 X107.427 Y109.956 E4.36079
G1 X106.661 Y109.528 E4.38794
G1 X105.932 Y109.040 E4.41508
G1 X105.243 Y108.497 E4.44223
G1 X104.599 Y107.901 E4.46938
G1 X104.003 Y107.257 E4.49653
G1 X103.460 Y106.568 E4.52368
G1 X102.972 Y105.839 E4.55082
G1 X102.544 Y105.073 E4.57797
G1 X102.176 Y104.276 E4.60512
G1 X101.873 Y103.453 E4.63227
G1 X101.634 Y102.609 E4.65942
G1 X101.463 Y101.748 E4.68656
G1 X101.360 Y100.877 E4.71371
G1 X101.326 Y100.000 E4.74086
G1 X101.360 Y99.123 E4.76801
G1 X101.463 Y98.252 E4.79516
G1 X101.634 Y97.391 E4.82230
G1 X101.873 Y96.547 E4.84945
G1 X102.176 Y95.724 E4.87660
G1 X102.544 Y94.927 E4.90375
G1 X102.972 Y94.161 E4.93090
G1 X103.460 Y93.432 E4.95804
G1 X104.003 Y92.743 E4.98519
G1 X104.599 Y92.099 E5.01234
G1 X105.243 Y91.503 E5.03949
G1 X105.932 Y90.960 E5.06664
G1 X106.661 Y90.472 E5.09378
G1 X107.427 Y90.044 E5.12093
G1 X108.224 Y89.676 E5.14808
G1 X109.047 Y89.373 E5.17523
G1 X109.891 Y89.134 E5.20238
G1 X110.752 Y88.963 E5.22952
G1 X111.623 Y88.860 E5.25667
G1 X112.500 Y88.826 E5.28382
G1 X113.377 Y88.860 E5.31097
G1 X114.248 Y88.963 E5.33812
G1 X115.109 Y89.134 E5.36527
G1 X115.953 Y89.373 E5.39241
G1 X116.776 Y89.676 E5.41956
G1 X117.573 Y90.044 E5.44671
G1 X118.339 Y90.472 E5.47386
G1 X119.068 Y90.960 E5.50101
G1 X119.757 Y91.503 E5.52815
G1 X120.401 Y92.099 E5.55530
G1 X120.997 Y92.743 E5.58245
G1 X121.540 Y93.432 E5.60960
G1 X122.028 Y94.161 E5.63675
G1 X122.456 Y94.927 E5.66389
G1 X122.824 Y95.724 E5.69104
G1 X123.127 Y96.547 E5.71819
G1 X123.366 Y97.391 E5.74534
G1 X123.537 Y98.252 E5.77249
G1 X123.640 Y99.123 E5.79963
G1 X123.674 Y100.000 E5.82678
G1 X123.640 Y100.877 E5.85393
G1 X123.537 Y101.748 E5.88108
G1 X123.366 Y102.609 E5.90823
G1 X123.127 Y103.453 E5.93537
G1 X122.824 Y104.276 E5.96252
G1 X122.456 Y105.073 E5.98967
G1 X122.028 Y105.839 E6.01682
G1 X121.540 Y106.568 E6.04397
G1 X120.997 Y107.257 E6.07111
G1 X120.401 Y107.901 E6.09826
G1 X119.757 Y108.497 E6.12541
G1 X119.068 Y109.040 E6.15256
G1 X118.339 Y109.528 E6.17971
G1 X117.573 Y109.956 E6.20685
G1 X117.260 Y110.101 E6.21751
G1 X117.454 Y110.699 F7800.000
G1 F1800.000
G1 X117.016 Y110.901 E6.23244
G1 X116.146 Y111.222 E6.26111
G1 X115.255 Y111.474 E6.28978
G1 X114.346 Y111.654 E6.31844
G1 X113.426 Y111.763 E6.34711
G1 X112.500 Y111.800 E6.37578
G1 X111.574 Y111.763 E6.40445
G1 X110.654 Y111.654 E6.43312
G1 X109.745 Y111.474 E6.46178
G1 X108.854 Y111.222 E6.49045
G1 X107.984 Y110.901 E6.51912
G1 X107.143 Y110.514 E6.54779
G1 X106.335 Y110.061 E6.57645
G1 X105.564 Y109.546 E6.60512
G1 X104.837 Y108.973 E6.63379
G1 X104.156 Y108.344 E6.66245
G1 X103.527 Y107.663 E6.69112
G1 X102.954 Y106.936 E6.71979
G1 X102.439 Y106.165 E6.74846
G1 X101.986 Y105.357 E6.77712
G1 X101.599 Y104.516 E6.80579
G1 X101.278 Y103.646 E6.83446
G1 X101.026 Y102.755 E6.86313
G1 X100.846 Y101.846 E6.89179
G1 X100.737 Y100.926 E6.92046
G1 X100.700 Y100.000 E6.94913
G1 X100.737 Y99.074 E6.97780
G1 X100.846 Y98.154 E7.00646
G1 X101.026 Y97.245 E7.03513
G1 X101.278 Y96.354 E7.06380
G1 X101.599 Y95.484 E7.09247
G1 X101.986 Y94.643 E7.12113
G1 X102.439 Y93.835 E7.14980
G1 X102.954 Y93.064 E7.17847
