; Gcode updated with 'stl_info' on 2019-12-03 19:11:39.171361

; stl_min_x = 127.44999694824219
; stl_max_x = 201.93299865722656
; stl_min_y = -6.080540180206299
; stl_max_y = 6.080540180206299
; stl_min_z = -149.0

; generated by Slic3r 1.3.1-dev (Build adea0d9) on 2019-12-03 at 19:11:38

; external perimeters extrusion width = 0.55mm (1.90mm^3/s)
; perimeters extrusion width = 0.70mm (2.71mm^3/s)
; infill extrusion width = 0.62mm (2.41mm^3/s)
; solid infill extrusion width = 0.70mm (2.04mm^3/s)
; top infill extrusion width = 0.70mm (2.04mm^3/s)

M107
G92 E0
;D3D:START:START
T0
M104 S215 T0

G21
G90
M107
T0
G28
G29
M109 T0 S215 T0
G0 F3000
M107
T0
G92 E0
G0 X0 Y149 Z0.1 F3600
G1 Y49 E6.5 F1200
G0 Z1
G92 E0
; Filament gcode

G21 ; set units to millimeters
G90 ; use absolute coordinates
M82 ; use absolute distances for extrusion
G92 E0
G1 Z1.090 F7800.000
G1 E-2.00000 F2400.00000
G92 E0
G1 X39.579 Y67.731 F7800.000
G1 E2.00000 F2400.00000
G1 F1800.000
G1 X39.832 Y67.592 E2.00093
G1 X40.520 Y67.268 E2.00338
G1 X40.788 Y67.161 E2.00431
G1 X41.519 Y66.924 E2.00679
G1 X41.799 Y66.852 E2.00772
G1 X42.549 Y66.709 E2.01018
G1 X42.836 Y66.673 E2.01112
G1 X43.597 Y66.625 E2.01357
G1 X43.885 Y66.625 E2.01450
G1 X44.646 Y66.673 E2.01696
G1 X44.933 Y66.709 E2.01789
G1 X45.683 Y66.852 E2.02035
G1 X45.963 Y66.924 E2.02129
G1 X46.694 Y67.161 E2.02376
G1 X46.962 Y67.268 E2.02469
G1 X47.650 Y67.592 E2.02714
G1 X47.903 Y67.731 E2.02808
G1 X48.543 Y68.137 E2.03052
G1 X48.777 Y68.307 E2.03145
G1 X49.364 Y68.792 E2.03391
G1 X49.575 Y68.989 E2.03484
G1 X50.104 Y69.551 E2.03733
G1 X50.288 Y69.774 E2.03826
G1 X50.733 Y70.387 E2.04070
G1 X50.888 Y70.631 E2.04163
G1 X51.258 Y71.303 E2.04410
G1 X51.381 Y71.564 E2.04504
G1 X51.664 Y72.280 E2.04751
G1 X51.753 Y72.554 E2.04845
G1 X51.941 Y73.291 E2.05090
G1 X51.995 Y73.575 E2.05183
G1 X52.091 Y74.333 E2.05429
G1 X52.109 Y74.621 E2.05522
G1 X52.109 Y75.379 E2.05767
G1 X52.091 Y75.667 E2.05860
G1 X51.995 Y76.425 E2.06106
G1 X51.941 Y76.709 E2.06199
G1 X51.753 Y77.446 E2.06444
G1 X51.664 Y77.720 E2.06537
G1 X51.381 Y78.436 E2.06785
G1 X51.258 Y78.697 E2.06878
G1 X50.888 Y79.369 E2.07126
G1 X50.733 Y79.613 E2.07219
G1 X50.288 Y80.226 E2.07463
G1 X50.104 Y80.449 E2.07556
G1 X49.575 Y81.011 E2.07805
G1 X49.364 Y81.208 E2.07898
G1 X48.777 Y81.693 E2.08144
G1 X48.543 Y81.863 E2.08237
G1 X47.903 Y82.269 E2.08481
G1 X47.650 Y82.408 E2.08574
G1 X46.962 Y82.732 E2.08819
G1 X46.694 Y82.839 E2.08912
G1 X45.963 Y83.076 E2.09160
G1 X45.683 Y83.148 E2.09253
G1 X44.933 Y83.291 E2.09500
G1 X44.646 Y83.327 E2.09593
G1 X43.885 Y83.375 E2.09839
G1 X43.597 Y83.375 E2.09931
G1 X42.836 Y83.327 E2.10177
G1 X42.549 Y83.291 E2.10270
G1 X41.799 Y83.148 E2.10517
G1 X41.519 Y83.076 E2.10610
G1 X40.788 Y82.839 E2.10858
G1 X40.520 Y82.732 E2.10951
G1 X39.832 Y82.408 E2.11196
G1 X39.579 Y82.269 E2.11289
G1 X38.939 Y81.863 E2.11533
G1 X38.705 Y81.693 E2.11626
G1 X38.118 Y81.208 E2.11872
G1 X37.907 Y81.011 E2.11965
G1 X37.378 Y80.448 E2.12214
G1 X37.194 Y80.226 E2.12307
G1 X36.739 Y79.598 E2.12557
G1 X36.585 Y79.354 E2.12650
G1 X36.225 Y78.697 E2.12891
G1 X36.102 Y78.436 E2.12985
G1 X35.825 Y77.740 E2.13226
G1 X35.735 Y77.465 E2.13319
G1 X35.541 Y76.709 E2.13571
G1 X35.487 Y76.425 E2.13664
G1 X35.391 Y75.667 E2.13910
G1 X35.373 Y75.379 E2.14003
G1 X35.373 Y74.621 E2.14248
G1 X35.391 Y74.333 E2.14341
G1 X35.487 Y73.575 E2.14587
G1 X35.541 Y73.291 E2.14680
G1 X35.735 Y72.535 E2.14932
G1 X35.825 Y72.260 E2.15025
G1 X36.102 Y71.564 E2.15267
G1 X36.225 Y71.303 E2.15360
G1 X36.585 Y70.646 E2.15601
G1 X36.739 Y70.402 E2.15694
G1 X37.194 Y69.774 E2.15944
G1 X37.378 Y69.552 E2.16037
G1 X37.907 Y68.989 E2.16286
G1 X38.118 Y68.792 E2.16379
G1 X38.705 Y68.307 E2.16625
G1 X38.939 Y68.137 E2.16718
G1 X39.516 Y67.771 E2.16938
G1 E0.16938 F2400.00000
G92 E0
G1 X44.621 Y76.871 F7800.000
G1 E2.00000 F2400.00000
G1 F1800.000
G1 X44.380 Y76.966 E2.00095
G1 X44.128 Y77.031 E2.00191
G1 X43.870 Y77.063 E2.00287
G1 X43.612 Y77.063 E2.00382
G1 X43.354 Y77.031 E2.00478
G1 X43.102 Y76.966 E2.00573
G1 X42.861 Y76.871 E2.00669
G1 X42.634 Y76.746 E2.00764
G1 X42.423 Y76.593 E2.00860
G1 X42.233 Y76.415 E2.00956
G1 X42.068 Y76.215 E2.01051
G1 X41.930 Y75.996 E2.01147
G1 X41.819 Y75.761 E2.01242
G1 X41.738 Y75.514 E2.01338
G1 X41.690 Y75.259 E2.01433
G1 X41.674 Y75.000 E2.01529
G1 X41.690 Y74.741 E2.01625
G1 X41.738 Y74.486 E2.01720
G1 X41.819 Y74.239 E2.01816
G1 X41.930 Y74.004 E2.01911
G1 X42.068 Y73.785 E2.02007
G1 X42.233 Y73.585 E2.02102
G1 X42.423 Y73.407 E2.02198
G1 X42.634 Y73.254 E2.02294
G1 X42.861 Y73.129 E2.02389
G1 X43.102 Y73.034 E2.02485
G1 X43.354 Y72.969 E2.02580
G1 X43.612 Y72.937 E2.02676
G1 X43.870 Y72.937 E2.02771
G1 X44.128 Y72.969 E2.02867
G1 X44.380 Y73.034 E2.02963
G1 X44.621 Y73.129 E2.03058
G1 X44.848 Y73.254 E2.03154
G1 X45.059 Y73.407 E2.03249
G1 X45.249 Y73.585 E2.03345
G1 X45.414 Y73.785 E2.03441
G1 X45.553 Y74.004 E2.03536
G1 X45.664 Y74.239 E2.03632
G1 X45.744 Y74.486 E2.03727
G1 X45.792 Y74.741 E2.03823
G1 X45.808 Y75.000 E2.03918
G1 X45.792 Y75.259 E2.04014
G1 X45.744 Y75.514 E2.04110
G1 X45.664 Y75.761 E2.04205
G1 X45.553 Y75.996 E2.04301
G1 X45.414 Y76.215 E2.04396
G1 X45.249 Y76.415 E2.04492
G1 X45.059 Y76.593 E2.04587
G1 X44.848 Y76.746 E2.04683
G1 X44.687 Y76.835 E2.04751
G1 X44.654 Y76.953 F7800.000
G1 F1800.000
G1 X44.408 Y77.051 E2.04849
G1 X44.145 Y77.118 E2.04948
G1 X43.876 Y77.152 E2.05048
G1 X43.606 Y77.152 E2.05148
G1 X43.337 Y77.118 E2.05247
G1 X43.074 Y77.051 E2.05347
G1 X42.823 Y76.951 E2.05447
G1 X42.586 Y76.820 E2.05546
G1 X42.367 Y76.661 E2.05646
G1 X42.169 Y76.476 E2.05746
G1 X41.996 Y76.268 E2.05845
G1 X41.852 Y76.039 E2.05945
G1 X41.737 Y75.794 E2.06045
G1 X41.652 Y75.536 E2.06144
G1 X41.602 Y75.270 E2.06244
G1 X41.585 Y75.000 E2.06344
G1 X41.602 Y74.730 E2.06443
G1 X41.652 Y74.464 E2.06543
G1 X41.737 Y74.206 E2.06643
G1 X41.852 Y73.961 E2.06743
G1 X41.996 Y73.732 E2.06842
G1 X42.169 Y73.524 E2.06942
G1 X42.367 Y73.339 E2.07041
G1 X42.586 Y73.179 E2.07141
G1 X42.823 Y73.049 E2.07241
G1 X43.074 Y72.949 E2.07340
G1 X43.337 Y72.882 E2.07440
G1 X43.606 Y72.848 E2.07540
G1 X43.876 Y72.848 E2.07639
G1 X44.145 Y72.882 E2.07739
G1 X44.408 Y72.949 E2.07839
G1 X44.659 Y73.049 E2.07938
G1 X44.896 Y73.179 E2.08038
G1 X45.115 Y73.339 E2.08138
G1 X45.313 Y73.524 E2.08238
G1 X45.486 Y73.733 E2.08337
G1 X45.631 Y73.961 E2.08437
G1 X45.746 Y74.206 E2.08537
G1 X45.830 Y74.464 E2.08636
G1 X45.880 Y74.730 E2.08736
G1 X45.897 Y75.000 E2.08836
G1 X45.880 Y75.270 E2.08935
G1 X45.830 Y75.536 E2.09035
G1 X45.746 Y75.794 E2.09135
G1 X45.631 Y76.039 E2.09234
G1 X45.486 Y76.267 E2.09334
G1 X45.313 Y76.476 E2.09434
G1 X45.115 Y76.661 E2.09533
G1 X44.896 Y76.820 E2.09633
G1 X44.720 Y76.918 E2.09707
G1 X44.686 Y77.035 F7800.000
G1 F1800.000
G1 X44.435 Y77.135 E2.09807
G1 X44.162 Y77.205 E2.09911
G1 X43.882 Y77.240 E2.10015
G1 X43.600 Y77.240 E2.10118
G1 X43.320 Y77.205 E2.10222
G1 X43.047 Y77.135 E2.10326
G1 X42.785 Y77.031 E2.10429
G1 X42.539 Y76.895 E2.10533
G1 X42.310 Y76.730 E2.10637
G1 X42.104 Y76.537 E2.10741
G1 X41.925 Y76.320 E2.10845
G1 X41.774 Y76.082 E2.10948
G1 X41.654 Y75.826 E2.11052
G1 X41.566 Y75.558 E2.11156
G1 X41.514 Y75.281 E2.11260
G1 X41.496 Y75.000 E2.11364
G1 X41.514 Y74.719 E2.11467
G1 X41.566 Y74.442 E2.11571
G1 X41.654 Y74.174 E2.11675
G1 X41.774 Y73.918 E2.11779
G1 X41.925 Y73.680 E2.11882
G1 X42.104 Y73.463 E2.11986
G1 X42.310 Y73.270 E2.12090
G1 X42.539 Y73.105 E2.12194
G1 X42.785 Y72.969 E2.12298
G1 X43.047 Y72.865 E2.12401
G1 X43.320 Y72.795 E2.12505
G1 X43.600 Y72.760 E2.12609
G1 X43.882 Y72.760 E2.12712
G1 X44.162 Y72.795 E2.12816
G1 X44.435 Y72.865 E2.12920
G1 X44.697 Y72.969 E2.13024
G1 X44.943 Y73.105 E2.13128
G1 X45.172 Y73.270 E2.13231
G1 X45.378 Y73.463 E2.13335
G1 X45.557 Y73.680 E2.13439
G1 X45.709 Y73.919 E2.13543
G1 X45.829 Y74.174 E2.13647
G1 X45.916 Y74.442 E2.13750
G1 X45.968 Y74.719 E2.13854
G1 X45.986 Y75.000 E2.13958
G1 X45.968 Y75.281 E2.14062
G1 X45.916 Y75.558 E2.14165
G1 X45.829 Y75.826 E2.14269
G1 X45.709 Y76.081 E2.14373
G1 X45.557 Y76.320 E2.14477
G1 X45.378 Y76.537 E2.14581
G1 X45.172 Y76.730 E2.14684
G1 X44.943 Y76.895 E2.14788
G1 X44.753 Y77.000 E2.14869
G1 X44.464 Y76.881 F7800.000
G1 X45.147 Y76.391 F7800.000
G1 F1800.000
G1 X45.377 Y76.129 E2.14999
G1 X45.526 Y75.885 E2.15105
G1 X44.632 Y76.779 E2.15578
G1 X44.400 Y76.884 E2.15673
G1 X45.628 Y75.656 E2.16322
G1 X45.689 Y75.468 E2.16396
G1 X44.214 Y76.943 E2.17176
G1 X44.048 Y76.982 E2.17240
G1 X45.721 Y75.309 E2.18124
G1 X45.742 Y75.160 E2.18180
G1 X43.902 Y77.000 E2.19153
G1 X43.766 Y77.009 E2.19204
G1 X45.751 Y75.025 E2.20253
G1 X45.750 Y74.898 E2.20300
G1 X43.639 Y77.009 E2.21416
G1 X43.520 Y77.001 E2.21461
G1 X45.743 Y74.779 E2.22636
G1 X45.729 Y74.665 E2.22678
G1 X43.407 Y76.987 E2.23906
G1 X43.298 Y76.969 E2.23947
G1 X45.708 Y74.558 E2.25221
G1 X45.686 Y74.454 E2.25261
G1 X43.197 Y76.943 E2.26577
G1 X43.096 Y76.917 E2.26616
G1 X45.655 Y74.358 E2.27968
G1 X45.624 Y74.262 E2.28006
G1 X43.005 Y76.881 E2.29391
G1 X42.914 Y76.844 E2.29427
G1 X45.585 Y74.173 E2.30839
G1 X45.545 Y74.086 E2.30875
G1 X42.827 Y76.804 E2.32312
G1 X42.745 Y76.759 E2.32347
G1 X45.503 Y74.001 E2.33805
G1 X45.453 Y73.923 E2.33839
G1 X42.663 Y76.714 E2.35314
G1 X42.587 Y76.662 E2.35349
G1 X45.404 Y73.846 E2.36837
G1 X45.351 Y73.771 E2.36872
G1 X42.514 Y76.609 E2.38371
G1 X42.441 Y76.555 E2.38405
G1 X45.293 Y73.702 E2.39913
G1 X45.236 Y73.632 E2.39947
G1 X42.375 Y76.493 E2.41459
G1 X42.309 Y76.432 E2.41493
G1 X45.173 Y73.568 E2.43007
G1 X45.107 Y73.507 E2.43040
G1 X42.246 Y76.368 E2.44553
G1 X42.189 Y76.298 E2.44586
G1 X45.041 Y73.445 E2.46094
G1 X44.968 Y73.391 E2.46128
G1 X42.131 Y76.229 E2.47628
G1 X42.078 Y76.154 E2.47662
G1 X44.895 Y73.338 E2.49151
G1 X44.819 Y73.286 E2.49185
G1 X42.029 Y76.076 E2.50660
G1 X41.980 Y75.998 E2.50695
G1 X44.737 Y73.241 E2.52152
G1 X44.655 Y73.196 E2.52187
G1 X41.938 Y75.913 E2.53624
G1 X41.897 Y75.827 E2.53659
G1 X44.568 Y73.156 E2.55071
G1 X44.477 Y73.119 E2.55108
G1 X41.859 Y75.738 E2.56492
G1 X41.828 Y75.642 E2.56530
G1 X44.386 Y73.083 E2.57882
G1 X44.285 Y73.057 E2.57921
G1 X41.796 Y75.546 E2.59237
G1 X41.774 Y75.442 E2.59277
G1 X44.184 Y73.031 E2.60551
G1 X44.075 Y73.013 E2.60592
G1 X41.753 Y75.335 E2.61819
G1 X41.739 Y75.221 E2.61862
G1 X43.962 Y72.999 E2.63037
G1 X43.843 Y72.991 E2.63082
G1 X41.732 Y75.102 E2.64198
G1 X41.731 Y74.975 E2.64245
G1 X43.716 Y72.991 E2.65294
G1 X43.580 Y73.000 E2.65345
G1 X41.740 Y74.840 E2.66318
G1 X41.761 Y74.691 E2.66374
G1 X43.434 Y73.018 E2.67258
G1 X43.268 Y73.057 E2.67322
G1 X41.793 Y74.532 E2.68102
G1 X41.855 Y74.343 E2.68176
G1 X43.082 Y73.116 E2.68825
G1 X42.850 Y73.221 E2.68920
G1 X41.958 Y74.113 E2.69391
G1 X42.106 Y73.871 E2.69497
G1 X42.335 Y73.609 E2.69627
G1 Z1.190 F7800.000
G1 X43.602 Y75.727 F7800.000
G1 F600.000
G1 X43.345 Y75.624 E2.70409
G1 X43.143 Y75.436 E2.71186
G1 X43.024 Y75.182 E2.71978
G1 X43.001 Y75.000 E2.72496
G1 X43.024 Y74.818 E2.73015
G1 X43.143 Y74.564 E2.73807
G1 X43.345 Y74.376 E2.74584
G1 X43.602 Y74.273 E2.75365
G1 X43.880 Y74.273 E2.76149
G1 X44.137 Y74.375 E2.76930
G1 X44.340 Y74.565 E2.77714
G1 X44.458 Y74.815 E2.78492
G1 X44.475 Y75.093 E2.79279
G1 X44.390 Y75.356 E2.80057
G1 X44.214 Y75.569 E2.80839
G1 X43.969 Y75.704 E2.81625
G1 X43.787 Y75.738 E2.82148
G1 X43.676 Y75.736 E2.82461
G1 X43.433 Y76.384 F7800.000
G1 F600.000
G1 X43.137 Y76.285 E2.83342
G1 X42.835 Y76.093 E2.84350
G1 X42.593 Y75.835 E2.85349
G1 X42.498 Y75.685 E2.85851
G1 X42.365 Y75.352 E2.86861
G1 X42.332 Y75.178 E2.87361
G1 X42.321 Y75.000 E2.87865
G1 X42.365 Y74.648 E2.88866
G1 X42.421 Y74.478 E2.89369
G1 X42.593 Y74.165 E2.90378
G1 X42.705 Y74.028 E2.90877
G1 X42.980 Y73.801 E2.91883
G1 X43.302 Y73.650 E2.92886
G1 X43.475 Y73.605 E2.93389
G1 X43.652 Y73.583 E2.93893
G1 X44.007 Y73.605 E2.94897
G1 X44.180 Y73.650 E2.95399
G1 X44.502 Y73.801 E2.96403
G1 X44.777 Y74.028 E2.97409
G1 X44.890 Y74.166 E2.97911
G1 X44.986 Y74.316 E2.98415
G1 X45.116 Y74.646 E2.99416
G1 X45.150 Y74.822 E2.99919
G1 X45.150 Y75.178 E3.00925
G1 X45.061 Y75.523 E3.01929
G1 X44.986 Y75.684 E3.02430
G1 X44.777 Y75.972 E3.03434
G1 X44.646 Y76.093 E3.03937
G1 X44.502 Y76.199 E3.04442
G1 X44.180 Y76.350 E3.05446
G1 X43.830 Y76.417 E3.06451
G1 X43.507 Y76.399 E3.07363
G1 X43.283 Y76.969 F7800.000
G1 F1800.000
G1 X43.115 Y76.925 E3.07745
G1 X42.879 Y76.832 E3.08302
G1 X42.657 Y76.709 E3.08861
G1 X42.450 Y76.560 E3.09421
G1 X42.265 Y76.386 E3.09980
G1 X42.103 Y76.190 E3.10537
G1 X41.968 Y75.976 E3.11095
G1 X41.859 Y75.745 E3.11655
G1 X41.780 Y75.503 E3.12214
G1 X41.732 Y75.254 E3.12772
G1 X41.717 Y75.000 E3.13331
G1 X41.732 Y74.746 E3.13890
G1 X41.780 Y74.497 E3.14447
G1 X41.859 Y74.255 E3.15006
G1 X41.968 Y74.024 E3.15567
G1 X42.103 Y73.810 E3.16124
G1 X42.265 Y73.614 E3.16682
G1 X42.450 Y73.440 E3.17241
G1 X42.657 Y73.291 E3.17801
G1 X42.879 Y73.168 E3.18359
G1 X43.115 Y73.075 E3.18917
G1 X43.362 Y73.011 E3.19476
G1 X43.614 Y72.980 E3.20035
G1 X43.868 Y72.980 E3.20592
G1 X44.120 Y73.011 E3.21152
G1 X44.367 Y73.075 E3.21711
G1 X44.603 Y73.168 E3.22268
G1 X44.825 Y73.291 E3.22827
G1 X45.032 Y73.440 E3.23387
G1 X45.217 Y73.614 E3.23946
G1 X45.379 Y73.810 E3.24504
G1 X45.516 Y74.025 E3.25063
G1 X45.624 Y74.255 E3.25622
G1 X45.702 Y74.496 E3.26180
G1 X45.750 Y74.746 E3.26739
G1 X45.765 Y75.000 E3.27298
G1 X45.750 Y75.254 E3.27856
G1 X45.702 Y75.504 E3.28415
G1 X45.624 Y75.745 E3.28974
G1 X45.516 Y75.975 E3.29532
G1 X45.379 Y76.190 E3.30091
G1 X45.217 Y76.386 E3.30649
G1 X45.032 Y76.560 E3.31208
G1 X44.825 Y76.709 E3.31768
G1 X44.603 Y76.832 E3.32327
G1 X44.367 Y76.925 E3.32884
G1 X44.120 Y76.989 E3.33443
G1 X43.868 Y77.020 E3.34003
G1 X43.614 Y77.020 E3.34560
G1 X43.356 Y76.987 E3.35132
G1 X43.231 Y76.803 F7800.000
G1 X43.741 Y75.000 F7800.000
G1 F600.000
G1 X43.741 Y75.000 E3.35132
M106 S255
G1 Z1.290 F7800.000
G1 X43.602 Y75.727 F7800.000
G1 F600.000
G1 X43.345 Y75.624 E3.35914
G1 X43.143 Y75.436 E3.36691
G1 X43.024 Y75.182 E3.37482
G1 X43.001 Y75.000 E3.38001
G1 X43.024 Y74.818 E3.38520
G1 X43.143 Y74.564 E3.39312
G1 X43.345 Y74.375 E3.40089
G1 X43.602 Y74.273 E3.40870
G1 X43.880 Y74.273 E3.41654
G1 X44.137 Y74.375 E3.42435
G1 X44.340 Y74.565 E3.43219
G1 X44.458 Y74.815 E3.43997
G1 X44.475 Y75.093 E3.44784
G1 X44.390 Y75.356 E3.45562
G1 X44.214 Y75.569 E3.46343
G1 X43.969 Y75.704 E3.47130
G1 X43.787 Y75.738 E3.47653
G1 X43.676 Y75.736 E3.47966
G1 X43.433 Y76.384 F7800.000
G1 F600.000
G1 X43.137 Y76.285 E3.48847
G1 X42.835 Y76.093 E3.49855
G1 X42.593 Y75.835 E3.50854
G1 X42.498 Y75.685 E3.51356
G1 X42.365 Y75.352 E3.52366
G1 X42.332 Y75.178 E3.52865
G1 X42.321 Y75.000 E3.53369
G1 X42.365 Y74.648 E3.54371
G1 X42.421 Y74.478 E3.54874
G1 X42.593 Y74.165 E3.55883
G1 X42.705 Y74.028 E3.56382
G1 X42.980 Y73.801 E3.57388
G1 X43.302 Y73.650 E3.58391
G1 X43.475 Y73.605 E3.58894
G1 X43.652 Y73.583 E3.59398
G1 X44.007 Y73.605 E3.60402
G1 X44.180 Y73.650 E3.60904
G1 X44.502 Y73.801 E3.61908
G1 X44.777 Y74.028 E3.62914
G1 X44.890 Y74.166 E3.63416
G1 X44.986 Y74.316 E3.63920
G1 X45.116 Y74.646 E3.64921
G1 X45.150 Y74.822 E3.65424
G1 X45.150 Y75.178 E3.66430
G1 X45.061 Y75.523 E3.67434
G1 X44.986 Y75.684 E3.67935
G1 X44.777 Y75.972 E3.68939
G1 X44.646 Y76.093 E3.69442
G1 X44.502 Y76.199 E3.69947
G1 X44.180 Y76.350 E3.70950
G1 X43.830 Y76.417 E3.71955
G1 X43.507 Y76.399 E3.72868
G1 X43.283 Y76.969 F7800.000
G1 F1800.000
G1 X43.115 Y76.925 E3.73250
G1 X42.879 Y76.832 E3.73807
G1 X42.657 Y76.709 E3.74366
G1 X42.450 Y76.560 E3.74926
G1 X42.265 Y76.386 E3.75485
G1 X42.103 Y76.190 E3.76042
G1 X41.968 Y75.976 E3.76600
G1 X41.859 Y75.745 E3.77160
G1 X41.780 Y75.503 E3.77719
G1 X41.732 Y75.254 E3.78277
G1 X41.717 Y75.000 E3.78836
G1 X41.732 Y74.746 E3.79395
G1 X41.780 Y74.497 E3.79952
G1 X41.859 Y74.255 E3.80511
G1 X41.968 Y74.024 E3.81071
G1 X42.103 Y73.810 E3.81629
G1 X42.265 Y73.614 E3.82187
G1 X42.450 Y73.440 E3.82746
G1 X42.657 Y73.291 E3.83306
G1 X42.879 Y73.168 E3.83864
G1 X43.115 Y73.075 E3.84422
G1 X43.362 Y73.011 E3.84981
G1 X43.614 Y72.980 E3.85540
G1 X43.868 Y72.980 E3.86097
