; Gcode updated with 'stl_info' on 2019-12-05 16:53:01.520018

; stl_min_x = -11.0
; stl_max_x = 19.0
; stl_min_y = -63.77000045776367
; stl_max_y = 63.76919937133789
; stl_min_z = 490.0

; generated by Slic3r 1.3.1-dev (Build adea0d9) on 2019-12-05 at 16:53:01

; external perimeters extrusion width = 0.44mm (2.86mm^3/s)
; perimeters extrusion width = 0.56mm (4.14mm^3/s)
; infill extrusion width = 0.50mm (3.66mm^3/s)
; solid infill extrusion width = 0.56mm (3.10mm^3/s)
; top infill extrusion width = 0.56mm (3.10mm^3/s)

M107
G92 E0
;D3D:START:START
T0
M104 S215 T0

G21
G90
M107
T0
G28
G29
M109 T0 S215 T0
G0 F3000
M107
T0
G92 E0
G0 X0 Y149 Z0.1 F3600
G1 Y49 E6.5 F1200
G0 Z1
G92 E0
; Filament gcode

G21 ; set units to millimeters
G90 ; use absolute coordinates
M82 ; use absolute distances for extrusion
G92 E0
G1 Z0.300 F7800.000
G1 E-2.00000 F2400.00000
G92 E0
G1 X67.439 Y92.785 F7800.000
G1 E2.00000 F2400.00000
G1 F1800.000
G1 X69.383 Y91.817 E2.07193
G1 X71.545 Y91.617 E2.14387
G1 X73.634 Y92.211 E2.21580
G1 X75.366 Y93.520 E2.28774
G1 X76.509 Y95.366 E2.35967
G1 X76.908 Y97.500 E2.43160
G1 X76.509 Y99.634 E2.50354
G1 X75.366 Y101.480 E2.57547
G1 X73.634 Y102.789 E2.64741
G1 X71.545 Y103.383 E2.71934
G1 X69.383 Y103.183 E2.79127
G1 X67.439 Y102.215 E2.86321
G1 X65.977 Y100.610 E2.93514
G1 X65.192 Y98.586 E3.00708
G1 X65.192 Y96.414 E3.07901
G1 X65.977 Y94.390 E3.15094
G1 X67.399 Y92.829 E3.22089
G1 X67.602 Y93.001 F7800.000
G1 F1800.000
G1 X69.457 Y92.077 E3.28953
G1 X71.520 Y91.886 E3.35818
G1 X73.513 Y92.453 E3.42682
G1 X75.167 Y93.702 E3.49547
G1 X76.257 Y95.463 E3.56411
G1 X76.638 Y97.500 E3.63275
G1 X76.257 Y99.537 E3.70140
G1 X75.167 Y101.298 E3.77004
G1 X73.513 Y102.547 E3.83869
G1 X71.520 Y103.114 E3.90733
G1 X69.457 Y102.923 E3.97597
G1 X67.602 Y101.999 E4.04462
G1 X66.206 Y100.468 E4.11326
G1 X65.458 Y98.536 E4.18191
G1 X65.458 Y96.464 E4.25055
G1 X66.206 Y94.532 E4.31919
G1 X67.562 Y93.045 E4.38585
G1 X67.765 Y93.216 F7800.000
G1 F1800.000
G1 X69.531 Y92.337 E4.45120
G1 X71.495 Y92.155 E4.51656
G1 X73.393 Y92.695 E4.58191
G1 X74.967 Y93.884 E4.64727
G1 X76.005 Y95.561 E4.71262
G1 X76.368 Y97.500 E4.77797
G1 X76.005 Y99.439 E4.84333
G1 X74.967 Y101.116 E4.90868
G1 X73.393 Y102.305 E4.97404
G1 X71.495 Y102.845 E5.03939
G1 X69.531 Y102.663 E5.10475
G1 X67.765 Y101.784 E5.17010
G1 X66.436 Y100.326 E5.23546
G1 X65.724 Y98.486 E5.30081
G1 X65.724 Y96.514 E5.36616
G1 X66.436 Y94.674 E5.43151
G1 X67.725 Y93.261 E5.49488
G1 E3.49488 F2400.00000
G92 E0
G1 X71.545 Y58.383 F7800.000
G1 E2.00000 F2400.00000
G1 F1800.000
G1 X69.383 Y58.183 E2.07193
G1 X67.439 Y57.215 E2.14387
G1 X65.977 Y55.610 E2.21580
G1 X65.192 Y53.586 E2.28774
G1 X65.192 Y51.414 E2.35967
G1 X65.977 Y49.390 E2.43160
G1 X67.439 Y47.785 E2.50354
G1 X69.383 Y46.817 E2.57547
G1 X71.545 Y46.617 E2.64740
G1 X73.634 Y47.211 E2.71934
G1 X75.366 Y48.520 E2.79127
G1 X76.509 Y50.366 E2.86321
G1 X76.908 Y52.500 E2.93514
G1 X76.509 Y54.634 E3.00708
G1 X75.366 Y56.480 E3.07901
G1 X73.634 Y57.789 E3.15094
G1 X71.603 Y58.367 E3.22089
G1 X71.520 Y58.114 F7800.000
G1 F1800.000
G1 X69.457 Y57.923 E3.28953
G1 X67.602 Y56.999 E3.35818
G1 X66.206 Y55.468 E3.42682
G1 X65.458 Y53.536 E3.49547
G1 X65.458 Y51.464 E3.56411
G1 X66.206 Y49.532 E3.63275
G1 X67.602 Y48.001 E3.70140
G1 X69.457 Y47.077 E3.77004
G1 X71.520 Y46.886 E3.83868
G1 X73.513 Y47.453 E3.90733
G1 X75.167 Y48.702 E3.97597
G1 X76.257 Y50.463 E4.04462
G1 X76.638 Y52.500 E4.11326
G1 X76.257 Y54.537 E4.18191
G1 X75.167 Y56.298 E4.25055
G1 X73.513 Y57.547 E4.31919
G1 X71.578 Y58.098 E4.38585
G1 X71.495 Y57.845 F7800.000
G1 F1800.000
G1 X69.531 Y57.663 E4.45120
G1 X67.765 Y56.784 E4.51656
G1 X66.436 Y55.326 E4.58191
G1 X65.724 Y53.486 E4.64727
G1 X65.724 Y51.514 E4.71262
G1 X66.436 Y49.674 E4.77797
G1 X67.765 Y48.216 E4.84333
G1 X69.531 Y47.337 E4.90868
G1 X71.495 Y47.155 E4.97404
G1 X73.393 Y47.695 E5.03939
G1 X74.967 Y48.884 E5.10475
G1 X76.005 Y50.561 E5.17010
G1 X76.368 Y52.500 E5.23545
G1 X76.005 Y54.439 E5.30081
G1 X74.967 Y56.116 E5.36616
G1 X73.393 Y57.305 E5.43152
G1 X71.553 Y57.829 E5.49488
G1 E3.49488 F2400.00000
G92 E0
G1 X71.696 Y16.162 F7800.000
G1 E2.00000 F2400.00000
G1 F1800.000
G1 X71.696 Y11.984 E2.13839
G1 X72.980 Y12.004 E2.18092
G1 X74.957 Y12.098 E2.24652
G1 X76.931 Y12.253 E2.31211
G1 X78.899 Y12.470 E2.37771
G1 X80.860 Y12.749 E2.44330
G1 X82.810 Y13.090 E2.50890
G1 X84.749 Y13.491 E2.57449
G1 X86.674 Y13.953 E2.64008
G1 X88.584 Y14.476 E2.70568
G1 X89.304 Y14.697 E2.73063
G1 X89.304 Y135.303 E6.72623
G1 X88.584 Y135.524 E6.75118
G1 X86.674 Y136.047 E6.81678
G1 X84.749 Y136.509 E6.88237
G1 X82.810 Y136.910 E6.94797
G1 X80.860 Y137.251 E7.01356
G1 X78.899 Y137.530 E7.07916
G1 X76.931 Y137.747 E7.14475
G1 X74.957 Y137.902 E7.21035
G1 X72.980 Y137.996 E7.27594
G1 X71.696 Y138.016 E7.31847
G1 X71.696 Y133.838 E7.45686
G1 X68.704 Y133.791 E7.55601
G1 X68.704 Y137.981 E7.69481
G1 X67.043 Y137.902 E7.74990
G1 X65.069 Y137.747 E7.81550
G1 X63.101 Y137.530 E7.88109
G1 X60.696 Y137.173 E7.96162
G1 X60.696 Y12.827 E12.08116
G1 X63.101 Y12.470 E12.16168
G1 X65.069 Y12.253 E12.22728
G1 X67.041 Y12.098 E12.29281
G1 X68.704 Y12.028 E12.34796
G1 X68.704 Y16.209 E12.48646
G1 X71.636 Y16.163 E12.58362
G1 X71.431 Y15.900 F7800.000
G1 F1800.000
G1 X71.431 Y11.714 E12.72229
G1 X72.988 Y11.739 E12.77390
G1 X74.974 Y11.833 E12.83977
G1 X76.956 Y11.989 E12.90564
G1 X78.933 Y12.207 E12.97151
G1 X80.901 Y12.487 E13.03738
G1 X82.860 Y12.829 E13.10325
G1 X84.807 Y13.232 E13.16913
G1 X86.740 Y13.696 E13.23500
G1 X88.658 Y14.221 E13.30087
G1 X89.569 Y14.501 E13.33246
G1 X89.569 Y135.499 E17.34105
G1 X88.658 Y135.779 E17.37264
G1 X86.740 Y136.304 E17.43852
G1 X84.807 Y136.768 E17.50439
G1 X82.860 Y137.171 E17.57026
G1 X80.901 Y137.513 E17.63613
G1 X78.933 Y137.793 E17.70200
G1 X76.956 Y138.011 E17.76787
G1 X74.974 Y138.167 E17.83374
G1 X72.988 Y138.261 E17.89962
G1 X71.431 Y138.286 E17.95122
G1 X71.431 Y134.100 E18.08989
G1 X68.969 Y134.061 E18.17144
G1 X68.969 Y138.259 E18.31052
G1 X67.026 Y138.167 E18.37498
G1 X65.044 Y138.011 E18.44085
G1 X63.067 Y137.793 E18.50672
G1 X61.099 Y137.513 E18.57259
G1 X60.431 Y137.396 E18.59507
G1 X60.431 Y12.604 E22.72940
G1 X61.099 Y12.487 E22.75187
G1 X63.067 Y12.207 E22.81774
G1 X65.044 Y11.989 E22.88361
G1 X67.025 Y11.833 E22.94945
G1 X68.969 Y11.751 E23.01393
G1 X68.969 Y15.939 E23.15267
G1 X71.371 Y15.901 E23.23223
G1 X71.165 Y15.639 F7800.000
G1 F1800.000
G1 X71.165 Y11.445 E23.37118
G1 X72.996 Y11.473 E23.43186
G1 X74.991 Y11.567 E23.49801
G1 X76.981 Y11.724 E23.56415
G1 X78.966 Y11.943 E23.63030
G1 X80.943 Y12.224 E23.69645
G1 X82.910 Y12.568 E23.76260
G1 X84.865 Y12.973 E23.82875
G1 X86.806 Y13.439 E23.89489
G1 X88.732 Y13.966 E23.96104
G1 X89.835 Y14.305 E23.99927
G1 X89.835 Y135.695 E28.02086
G1 X88.732 Y136.034 E28.05909
G1 X86.806 Y136.561 E28.12524
G1 X84.865 Y137.027 E28.19139
G1 X82.910 Y137.432 E28.25753
G1 X80.943 Y137.775 E28.32368
G1 X78.966 Y138.057 E28.38983
G1 X76.981 Y138.276 E28.45598
G1 X74.991 Y138.433 E28.52213
G1 X72.996 Y138.527 E28.58828
G1 X71.165 Y138.555 E28.64896
G1 X71.165 Y134.361 E28.78790
G1 X69.235 Y134.331 E28.85185
G1 X69.235 Y138.530 E28.99097
G1 X67.009 Y138.433 E29.06478
G1 X65.019 Y138.276 E29.13093
G1 X63.034 Y138.057 E29.19708
G1 X61.057 Y137.775 E29.26323
G1 X60.165 Y137.620 E29.29324
G1 X60.165 Y12.380 E33.44236
G1 X61.057 Y12.224 E33.47237
G1 X63.034 Y11.943 E33.53852
G1 X65.019 Y11.724 E33.60467
G1 X67.009 Y11.568 E33.67080
G1 X69.235 Y11.474 E33.74462
G1 X69.235 Y15.669 E33.88359
G1 X71.105 Y15.640 E33.94555
G1 E31.94555 F2400.00000
G92 E0
G1 X72.191 Y12.363 F7800.000
G1 E2.00000 F2400.00000
G1 F1800.000
G1 X71.859 Y12.357 E2.01103
G1 X71.859 Y12.695 E2.02224
G1 X72.398 Y12.156 E2.04754
G1 X72.768 Y12.162 E2.05983
G1 X71.859 Y13.071 E2.10251
G1 X71.859 Y13.448 E2.11500
G1 X73.137 Y12.170 E2.17498
G1 X73.496 Y12.187 E2.18691
G1 X71.859 Y13.824 E2.26375
G1 X71.859 Y14.200 E2.27624
G1 X73.855 Y12.203 E2.36993
G1 X74.214 Y12.220 E2.38187
G1 X71.859 Y14.576 E2.49243
G1 X71.859 Y14.953 E2.50492
G1 X74.574 Y12.237 E2.63234
G1 X74.933 Y12.254 E2.64428
G1 X71.859 Y15.329 E2.78856
G1 X71.859 Y15.705 E2.80105
G1 X75.285 Y12.279 E2.96185
G1 X75.634 Y12.306 E2.97346
G1 X71.859 Y16.081 E3.15064
G1 X71.859 Y16.458 E3.16312
G1 X75.983 Y12.333 E3.35667
G1 X76.332 Y12.361 E3.36828
G1 X60.859 Y27.834 E4.09441
G1 X60.859 Y28.210 E4.10690
G1 X76.680 Y12.388 E4.84940
G1 X77.029 Y12.416 E4.86099
G1 X60.859 Y28.586 E5.61983
G1 X60.859 Y28.963 E5.63232
G1 X77.367 Y12.454 E6.40706
G1 X77.706 Y12.491 E6.41837
G1 X60.859 Y29.339 E7.20902
G1 X60.859 Y29.715 E7.22151
G1 X78.045 Y12.529 E8.02805
G1 X78.384 Y12.566 E8.03936
G1 X60.859 Y30.091 E8.86181
G1 X60.859 Y30.468 E8.87430
G1 X78.723 Y12.603 E9.71265
G1 X79.059 Y12.643 E9.72388
G1 X60.859 Y30.844 E10.57801
G1 X60.859 Y31.220 E10.59050
G1 X79.388 Y12.690 E11.46008
G1 X79.718 Y12.737 E11.47112
G1 X60.859 Y31.596 E12.35617
G1 X60.859 Y31.973 E12.36865
G1 X80.047 Y12.784 E13.26916
G1 X80.377 Y12.831 E13.28020
G1 X60.859 Y32.349 E14.19616
G1 X60.859 Y32.725 E14.20864
G1 X80.706 Y12.878 E15.14006
G1 X81.032 Y12.928 E15.15101
G1 X60.859 Y33.101 E16.09774
G1 X60.859 Y33.478 E16.11023
G1 X81.353 Y12.984 E17.07199
G1 X81.673 Y13.040 E17.08278
G1 X60.859 Y33.854 E18.05957
G1 X60.859 Y34.230 E18.07206
G1 X81.993 Y13.095 E19.06389
G1 X82.314 Y13.151 E19.07468
G1 X60.859 Y34.606 E20.08154
G1 X60.859 Y34.983 E20.09402
G1 X82.634 Y13.207 E21.11592
G1 X82.952 Y13.266 E21.12664
G1 X60.859 Y35.359 E22.16345
G1 X60.859 Y35.735 E22.17594
G1 X83.264 Y13.330 E23.22738
G1 X83.575 Y13.395 E23.23794
G1 X60.859 Y36.112 E24.30401
G1 X60.859 Y36.488 E24.31649
G1 X83.887 Y13.459 E25.39719
G1 X84.199 Y13.524 E25.40775
G1 X60.859 Y36.864 E26.50308
G1 X60.859 Y37.240 E26.51556
G1 X84.510 Y13.588 E27.62552
G1 X84.821 Y13.654 E27.63606
G1 X60.859 Y37.617 E28.76061
G1 X60.859 Y37.993 E28.77309
G1 X85.125 Y13.727 E29.91188
G1 X85.428 Y13.799 E29.92223
G1 X60.859 Y38.369 E31.07525
G1 X60.859 Y38.745 E31.08774
G1 X85.732 Y13.872 E32.25500
G1 X86.035 Y13.945 E32.26535
G1 X60.859 Y39.122 E33.44685
G1 X60.859 Y39.498 E33.45934
G1 X86.338 Y14.018 E34.65508
G1 X86.642 Y14.091 E34.66543
G1 X60.859 Y39.874 E35.87541
G1 X60.859 Y40.250 E35.88789
G1 X86.939 Y14.170 E37.11182
G1 X87.235 Y14.251 E37.12198
G1 X60.859 Y40.627 E38.35977
G1 X60.859 Y41.003 E38.37226
G1 X87.530 Y14.331 E39.62392
G1 X87.825 Y14.412 E39.63408
G1 X60.859 Y41.379 E40.89960
G1 X60.859 Y41.755 E40.91209
G1 X88.121 Y14.493 E42.19147
G1 X88.416 Y14.574 E42.20163
G1 X60.859 Y42.132 E43.49488
G1 X60.859 Y42.508 E43.50737
G1 X88.709 Y14.657 E44.81436
G1 X88.997 Y14.746 E44.82435
G1 X60.859 Y42.884 E46.14485
G1 X60.859 Y43.260 E46.15733
G1 X89.141 Y14.977 E47.48461
G1 X89.141 Y15.354 E47.49710
G1 X60.859 Y43.637 E48.82438
G1 X60.859 Y44.013 E48.83687
G1 X89.141 Y15.730 E50.16415
G1 X89.141 Y16.106 E50.17663
G1 X60.859 Y44.389 E51.50391
G1 X60.859 Y44.765 E51.51640
G1 X89.141 Y16.482 E52.84368
G1 X89.141 Y16.859 E52.85617
G1 X60.859 Y45.142 E54.18345
G1 X60.859 Y45.518 E54.19593
G1 X89.141 Y17.235 E55.52321
G1 X89.141 Y17.611 E55.53570
G1 X60.859 Y45.894 E56.86298
G1 X60.859 Y46.270 E56.87546
G1 X89.141 Y17.987 E58.20274
G1 X89.141 Y18.364 E58.21523
G1 X60.859 Y46.647 E59.54251
G1 X60.859 Y47.023 E59.55500
G1 X89.141 Y18.740 E60.88228
G1 X89.141 Y19.116 E60.89476
G1 X60.859 Y47.399 E62.22204
G1 X60.859 Y47.775 E62.23453
G1 X89.141 Y19.493 E63.56181
G1 X89.141 Y19.869 E63.57430
G1 X60.859 Y48.152 E64.90158
G1 X60.859 Y48.528 E64.91406
G1 X89.141 Y20.245 E66.24134
G1 X89.141 Y20.621 E66.25383
G1 X60.859 Y48.904 E67.58111
G1 X60.859 Y49.280 E67.59359
G1 X89.141 Y20.998 E68.92087
G1 X89.141 Y21.374 E68.93336
G1 X60.859 Y49.657 E70.26064
G1 X60.859 Y50.033 E70.27313
G1 X89.141 Y21.750 E71.60041
G1 X89.141 Y22.126 E71.61289
G1 X60.859 Y50.409 E72.94017
G1 X60.859 Y50.785 E72.95266
G1 X89.141 Y22.503 E74.27994
G1 X89.141 Y22.879 E74.29243
G1 X60.859 Y51.162 E75.61971
G1 X60.859 Y51.538 E75.63219
G1 X89.141 Y23.255 E76.95947
G1 X89.141 Y23.631 E76.97196
G1 X60.859 Y51.914 E78.29924
G1 X60.859 Y52.290 E78.31172
G1 X89.141 Y24.008 E79.63900
G1 X89.141 Y24.384 E79.65149
G1 X60.859 Y52.667 E80.97877
G1 X60.859 Y53.043 E80.99126
G1 X89.141 Y24.760 E82.31854
G1 X89.141 Y25.136 E82.33102
G1 X60.859 Y53.419 E83.65830
G1 X60.859 Y53.796 E83.67079
G1 X89.141 Y25.513 E84.99807
G1 X89.141 Y25.889 E85.01056
G1 X67.540 Y47.490 E86.02427
G1 X68.290 Y47.117 E86.05205
G1 X89.141 Y26.265 E87.03059
G1 X89.141 Y26.641 E87.04308
G1 X69.039 Y46.744 E87.98645
G1 X69.206 Y46.661 E87.99263
G1 X69.528 Y46.631 E88.00338
G1 X89.141 Y27.018 E88.92380
G1 X89.141 Y27.394 E88.93628
G1 X69.943 Y46.592 E89.83724
G1 X70.358 Y46.554 E89.85106
G1 X89.141 Y27.770 E90.73256
G1 X89.141 Y28.146 E90.74505
G1 X70.772 Y46.516 E91.60709
G1 X71.187 Y46.477 E91.62091
G1 X89.141 Y28.523 E92.46349
G1 X89.141 Y28.899 E92.47597
G1 X71.562 Y46.478 E93.30095
G1 X71.855 Y46.562 E93.31106
G1 X89.141 Y29.275 E94.12229
G1 X89.141 Y29.651 E94.13477
G1 X72.148 Y46.645 E94.93226
G1 X72.441 Y46.728 E94.94236
G1 X89.141 Y30.028 E95.72610
G1 X89.141 Y30.404 E95.73859
G1 X72.734 Y46.812 E96.50858
G1 X73.027 Y46.895 E96.51869
G1 X89.141 Y30.780 E97.27493
G1 X89.141 Y31.156 E97.28742
G1 X73.320 Y46.978 E98.02992
G1 X73.613 Y47.062 E98.04002
G1 X89.141 Y31.533 E98.76878
G1 X89.141 Y31.909 E98.78126
G1 X73.837 Y47.213 E99.49947
G1 X74.051 Y47.375 E99.50839
G1 X89.141 Y32.285 E100.21654
G1 X89.141 Y32.661 E100.22903
G1 X74.266 Y47.537 E100.92712
G1 X74.480 Y47.699 E100.93603
G1 X89.141 Y33.038 E101.62406
G1 X89.141 Y33.414 E101.63655
G1 X74.695 Y47.861 E102.31452
G1 X74.909 Y48.023 E102.32344
G1 X89.141 Y33.790 E102.99135
G1 X89.141 Y34.166 E103.00384
G1 X75.123 Y48.185 E103.66169
G1 X75.338 Y48.347 E103.67060
G1 X89.141 Y34.543 E104.31840
G1 X89.141 Y34.919 E104.33088
G1 X75.523 Y48.538 E104.96999
G1 X75.667 Y48.770 E104.97906
G1 X89.141 Y35.295 E105.61142
G1 X89.141 Y35.672 E105.62391
G1 X75.810 Y49.003 E106.24952
G1 X75.954 Y49.235 E106.25859
G1 X89.141 Y36.048 E106.87744
G1 X89.141 Y36.424 E106.88993
G1 X76.098 Y49.467 E107.50203
G1 X76.242 Y49.700 E107.51110
G1 X89.141 Y36.800 E108.11645
G1 X89.141 Y37.177 E108.12894
G1 X76.386 Y49.932 E108.72754
G1 X76.530 Y50.164 E108.73661
G1 X89.141 Y37.553 E109.32845
G1 X89.141 Y37.929 E109.34094
G1 X76.664 Y50.406 E109.92647
G1 X76.724 Y50.723 E109.93717
G1 X89.141 Y38.305 E110.51992
G1 X89.141 Y38.682 E110.53240
G1 X76.783 Y51.040 E111.11237
G1 X76.842 Y51.357 E111.12307
G1 X89.141 Y39.058 E111.70026
G1 X89.141 Y39.434 E111.71274
G1 X76.901 Y51.674 E112.28715
G1 X76.961 Y51.991 E112.29785
G1 X89.141 Y39.810 E112.86948
G1 X89.141 Y40.187 E112.88196
G1 X77.020 Y52.308 E113.45081
G1 X77.069 Y52.635 E113.46178
G1 X89.141 Y40.563 E114.02831
G1 X89.141 Y40.939 E114.04080
G1 X76.983 Y53.098 E114.61139
G1 X76.896 Y53.561 E114.62701
G1 X89.141 Y41.315 E115.20166
G1 X89.141 Y41.692 E115.21415
G1 X76.810 Y54.023 E115.79286
G1 X76.723 Y54.486 E115.80848
G1 X89.141 Y42.068 E116.39125
G1 X89.141 Y42.444 E116.40374
G1 X76.508 Y55.078 E116.99662
G1 X75.896 Y56.066 E117.03518
G1 X89.141 Y42.820 E117.65677
G1 X89.141 Y43.197 E117.66925
G1 X60.859 Y71.480 E118.99653
G1 X60.859 Y71.856 E119.00902
G1 X89.141 Y43.573 E120.33630
G1 X89.141 Y43.949 E120.34879
G1 X60.859 Y72.232 E121.67607
G1 X60.859 Y72.608 E121.68855
G1 X89.141 Y44.325 E123.01583
G1 X89.141 Y44.702 E123.02832
G1 X60.859 Y72.985 E124.35560
G1 X60.859 Y73.361 E124.36808
G1 X89.141 Y45.078 E125.69537
G1 X89.141 Y45.454 E125.70785
G1 X60.859 Y73.737 E127.03513
G1 X60.859 Y74.113 E127.04762
G1 X89.141 Y45.830 E128.37490
G1 X89.141 Y46.207 E128.38738
G1 X60.859 Y74.490 E129.71466
G1 X60.859 Y74.866 E129.72715
G1 X89.141 Y46.583 E131.05443
G1 X89.141 Y46.959 E131.06692
G1 X60.859 Y75.242 E132.39420
G1 X60.859 Y75.618 E132.40668
G1 X89.141 Y47.335 E133.73396
G1 X89.141 Y47.712 E133.74645
G1 X60.859 Y75.995 E135.07373
G1 X60.859 Y76.371 E135.08621
G1 X89.141 Y48.088 E136.41350
G1 X89.141 Y48.464 E136.42598
G1 X60.859 Y76.747 E137.75326
