; generated by Slic3r 1.3.1-dev (Build 2ef957d) on 2019-11-25 at 09:24:42

; external perimeters extrusion width = 0.55mm (4.37mm^3/s)
; perimeters extrusion width = 0.70mm (11.44mm^3/s)
; infill extrusion width = 0.62mm (13.45mm^3/s)
; solid infill extrusion width = 0.70mm (3.81mm^3/s)
; top infill extrusion width = 0.70mm (2.86mm^3/s)

M107
G92 E0
M104 S200 ; set temperature
G28 ; home all axes
G1 Z5 F5000 ; lift nozzle

; Filament gcode

M109 S200 ; set temperature and wait for it to be reached
G21 ; set units to millimeters
G90 ; use absolute coordinates
M82 ; use absolute distances for extrusion
G92 E0
G1 Z0.350 F7800.000
G1 E-2.00000 F2400.00000
G92 E0
G1 X87.597 Y80.439 F7800.000
G1 E2.00000 F2400.00000
G1 F1800.000
G1 X89.595 Y79.313 E2.07096
G1 X91.800 Y78.935 E2.14017
G1 X108.200 Y78.935 E2.64761
G1 X110.459 Y79.332 E2.71857
G1 X112.447 Y80.475 E2.78953
G1 X113.897 Y82.179 E2.85874
G1 X125.697 Y102.059 E3.57405
G1 X126.508 Y104.204 E3.64501
G1 X126.625 Y105.440 E3.68344
G1 X126.625 Y114.440 E3.96191
G1 X126.228 Y116.699 E4.03287
G1 X125.085 Y118.687 E4.10383
G1 X123.332 Y120.166 E4.17479
G1 X121.180 Y120.959 E4.24576
G1 X120.000 Y121.065 E4.28241
G1 X80.000 Y121.065 E5.52006
G1 X77.741 Y120.668 E5.59102
G1 X75.753 Y119.525 E5.66198
G1 X74.274 Y117.772 E5.73295
G1 X73.481 Y115.620 E5.80391
G1 X73.375 Y114.440 E5.84056
G1 X73.375 Y105.440 E6.11903
G1 X73.772 Y103.181 E6.18999
G1 X74.303 Y102.059 E6.22842
G1 X86.103 Y82.179 E6.94373
G1 X87.549 Y80.496 E7.01237
G1 E5.01237 F2400.00000
G92 E0
G1 X106.600 Y107.040 F7800.000
G1 E2.00000 F2400.00000
G1 F1800.000
G1 X118.400 Y107.040 E2.36511
G1 X118.400 Y112.840 E2.54458
G1 X81.600 Y112.840 E3.68324
G1 X81.600 Y107.040 E3.86271
G1 X93.400 Y107.040 E4.22782
G1 X93.400 Y101.659 E4.39431
G1 X93.694 Y101.594 E4.40364
G1 X93.940 Y102.128 E4.42181
G1 X94.201 Y102.593 E4.43833
G1 X94.498 Y103.038 E4.45486
G1 X94.828 Y103.457 E4.47138
G1 X95.191 Y103.849 E4.48790
G1 X95.583 Y104.212 E4.50443
G1 X96.002 Y104.542 E4.52095
G1 X96.447 Y104.839 E4.53748
G1 X96.912 Y105.100 E4.55399
G1 X97.397 Y105.323 E4.57052
G1 X97.898 Y105.508 E4.58705
G1 X98.412 Y105.653 E4.60356
G1 X98.936 Y105.757 E4.62009
G1 X99.466 Y105.820 E4.63661
G1 X100.000 Y105.841 E4.65313
G1 X100.534 Y105.820 E4.66966
G1 X101.064 Y105.757 E4.68618
G1 X101.588 Y105.653 E4.70271
G1 X102.102 Y105.508 E4.71922
G1 X102.603 Y105.323 E4.73575
G1 X103.088 Y105.100 E4.75228
G1 X103.553 Y104.839 E4.76879
G1 X103.998 Y104.542 E4.78532
G1 X104.417 Y104.212 E4.80184
G1 X104.809 Y103.849 E4.81837
G1 X105.172 Y103.457 E4.83489
G1 X105.502 Y103.038 E4.85141
G1 X105.799 Y102.593 E4.86794
G1 X106.060 Y102.128 E4.88446
G1 X106.306 Y101.594 E4.90263
G1 X106.600 Y101.659 E4.91196
G1 X106.600 Y106.965 E5.07613
G1 E3.07613 F2400.00000
G92 E0
G1 X106.306 Y96.486 F7800.000
G1 E2.00000 F2400.00000
G1 F1800.000
G1 X106.060 Y95.952 E2.01817
G1 X105.799 Y95.486 E2.03470
G1 X105.502 Y95.042 E2.05122
G1 X105.172 Y94.623 E2.06774
G1 X104.809 Y94.231 E2.08427
G1 X104.417 Y93.868 E2.10079
G1 X103.998 Y93.538 E2.11731
G1 X103.554 Y93.241 E2.13384
G1 X103.088 Y92.980 E2.15036
G1 X102.603 Y92.757 E2.16688
G1 X102.100 Y92.571 E2.18347
G1 X102.100 Y87.160 E2.35090
G1 X106.600 Y87.160 E2.49015
G1 X106.600 Y96.421 E2.77671
G1 X106.379 Y96.470 E2.78372
G1 E0.78372 F2400.00000
G92 E0
G1 X97.900 Y92.571 F7800.000
G1 E2.00000 F2400.00000
G1 F1800.000
G1 X97.397 Y92.757 E2.01658
G1 X96.912 Y92.980 E2.03311
G1 X96.446 Y93.241 E2.04963
G1 X96.002 Y93.538 E2.06615
G1 X95.583 Y93.868 E2.08268
G1 X95.191 Y94.231 E2.09920
G1 X94.828 Y94.623 E2.11572
G1 X94.498 Y95.042 E2.13225
G1 X94.201 Y95.486 E2.14877
G1 X93.940 Y95.952 E2.16529
G1 X93.694 Y96.486 E2.18347
G1 X93.400 Y96.421 E2.19280
G1 X93.400 Y87.160 E2.47936
G1 X97.900 Y87.160 E2.61861
G1 X97.900 Y92.496 E2.78372
G1 E0.78372 F2400.00000
G92 E0
G1 X92.775 Y106.415 F7800.000
G1 E2.00000 F2400.00000
G1 F1800.000
G1 X92.775 Y86.535 E2.61511
G1 X98.525 Y86.535 E2.79303
G1 X98.525 Y93.044 E2.99444
G1 X98.092 Y93.167 E3.00838
G1 X97.637 Y93.334 E3.02338
G1 X97.196 Y93.537 E3.03839
G1 X96.773 Y93.774 E3.05339
G1 X96.370 Y94.044 E3.06840
G1 X95.989 Y94.344 E3.08340
G1 X95.633 Y94.673 E3.09840
G1 X95.304 Y95.029 E3.11341
G1 X95.004 Y95.410 E3.12841
G1 X94.734 Y95.813 E3.14341
G1 X94.497 Y96.236 E3.15842
G1 X94.294 Y96.677 E3.17342
G1 X94.127 Y97.132 E3.18843
G1 X93.995 Y97.598 E3.20343
G1 X93.900 Y98.074 E3.21843
G1 X93.843 Y98.555 E3.23344
G1 X93.824 Y99.040 E3.24844
G1 X93.843 Y99.525 E3.26344
G1 X93.900 Y100.006 E3.27845
G1 X93.995 Y100.482 E3.29345
G1 X94.127 Y100.948 E3.30845
G1 X94.294 Y101.403 E3.32346
G1 X94.497 Y101.844 E3.33846
G1 X94.734 Y102.267 E3.35346
G1 X95.004 Y102.670 E3.36847
G1 X95.304 Y103.051 E3.38347
G1 X95.633 Y103.407 E3.39848
G1 X95.989 Y103.736 E3.41348
G1 X96.370 Y104.036 E3.42849
G1 X96.773 Y104.306 E3.44349
G1 X97.196 Y104.542 E3.45849
G1 X97.637 Y104.746 E3.47349
G1 X98.092 Y104.913 E3.48850
G1 X98.558 Y105.045 E3.50350
G1 X99.034 Y105.140 E3.51851
G1 X99.515 Y105.197 E3.53351
G1 X100.000 Y105.216 E3.54851
G1 X100.485 Y105.197 E3.56352
G1 X100.966 Y105.140 E3.57852
G1 X101.442 Y105.045 E3.59353
G1 X101.908 Y104.913 E3.60853
G1 X102.363 Y104.746 E3.62353
G1 X102.804 Y104.542 E3.63854
G1 X103.227 Y104.306 E3.65354
G1 X103.630 Y104.036 E3.66854
G1 X104.011 Y103.736 E3.68355
G1 X104.367 Y103.407 E3.69855
G1 X104.696 Y103.051 E3.71356
G1 X104.996 Y102.670 E3.72856
G1 X105.266 Y102.267 E3.74356
G1 X105.503 Y101.844 E3.75857
G1 X105.706 Y101.403 E3.77357
G1 X105.905 Y100.862 E3.79141
G1 X106.098 Y100.020 E3.81815
G1 X106.157 Y99.525 E3.83359
G1 X106.176 Y99.040 E3.84859
G1 X106.157 Y98.555 E3.86359
G1 X106.100 Y98.074 E3.87860
G1 X106.005 Y97.598 E3.89360
G1 X105.873 Y97.132 E3.90860
G1 X105.706 Y96.677 E3.92361
G1 X105.503 Y96.236 E3.93861
G1 X105.266 Y95.813 E3.95362
G1 X104.996 Y95.410 E3.96862
G1 X104.696 Y95.029 E3.98362
G1 X104.367 Y94.673 E3.99863
G1 X104.011 Y94.344 E4.01363
G1 X103.630 Y94.044 E4.02863
G1 X103.227 Y93.774 E4.04364
G1 X102.804 Y93.537 E4.05864
G1 X102.363 Y93.334 E4.07365
G1 X101.908 Y93.167 E4.08865
G1 X101.475 Y93.044 E4.10259
G1 X101.475 Y86.535 E4.30400
G1 X107.225 Y86.535 E4.48192
G1 X107.225 Y106.415 E5.09703
G1 X119.025 Y106.415 E5.46214
G1 X119.025 Y113.465 E5.68028
G1 X80.975 Y113.465 E6.85760
G1 X80.975 Y106.415 E7.07575
G1 X92.700 Y106.415 E7.43853
G1 X92.150 Y105.790 F7800.000
G1 F1800.000
G1 X92.150 Y85.910 E8.05365
G1 X99.150 Y85.910 E8.27024
G1 X99.150 Y93.554 E8.50677
G1 X98.704 Y93.643 E8.52083
G1 X98.285 Y93.761 E8.53431
G1 X97.876 Y93.912 E8.54779
G1 X97.480 Y94.095 E8.56128
G1 X97.100 Y94.308 E8.57476
G1 X96.738 Y94.550 E8.58825
G1 X96.395 Y94.820 E8.60173
G1 X96.075 Y95.115 E8.61522
G1 X95.780 Y95.435 E8.62870
G1 X95.510 Y95.778 E8.64219
G1 X95.268 Y96.140 E8.65567
G1 X95.055 Y96.520 E8.66915
G1 X94.872 Y96.916 E8.68264
G1 X94.721 Y97.325 E8.69612
G1 X94.603 Y97.744 E8.70961
G1 X94.518 Y98.172 E8.72309
G1 X94.467 Y98.605 E8.73658
G1 X94.450 Y99.040 E8.75006
G1 X94.467 Y99.475 E8.76355
G1 X94.518 Y99.908 E8.77703
G1 X94.603 Y100.336 E8.79051
G1 X94.721 Y100.755 E8.80400
G1 X94.872 Y101.164 E8.81748
G1 X95.055 Y101.560 E8.83097
G1 X95.268 Y101.940 E8.84445
G1 X95.510 Y102.302 E8.85794
G1 X95.780 Y102.645 E8.87142
G1 X96.075 Y102.965 E8.88491
G1 X96.395 Y103.260 E8.89839
G1 X96.738 Y103.530 E8.91187
G1 X97.100 Y103.772 E8.92536
G1 X97.480 Y103.985 E8.93884
G1 X97.876 Y104.168 E8.95233
G1 X98.285 Y104.319 E8.96581
G1 X98.704 Y104.437 E8.97929
G1 X99.132 Y104.522 E8.99278
G1 X99.565 Y104.573 E9.00626
G1 X100.000 Y104.590 E9.01975
G1 X100.435 Y104.573 E9.03323
G1 X100.868 Y104.522 E9.04672
G1 X101.296 Y104.437 E9.06020
G1 X101.715 Y104.319 E9.07369
G1 X102.124 Y104.168 E9.08717
G1 X102.520 Y103.985 E9.10066
G1 X102.900 Y103.772 E9.11414
G1 X103.262 Y103.530 E9.12762
G1 X103.605 Y103.260 E9.14111
G1 X103.925 Y102.965 E9.15459
G1 X104.220 Y102.645 E9.16808
G1 X104.490 Y102.302 E9.18156
G1 X104.732 Y101.940 E9.19505
G1 X104.945 Y101.560 E9.20853
G1 X105.128 Y101.164 E9.22201
G1 X105.305 Y100.684 E9.23785
G1 X105.481 Y99.913 E9.26231
G1 X105.533 Y99.475 E9.27595
G1 X105.550 Y99.040 E9.28943
G1 X105.533 Y98.605 E9.30292
G1 X105.482 Y98.172 E9.31640
G1 X105.397 Y97.744 E9.32989
G1 X105.279 Y97.325 E9.34337
G1 X105.128 Y96.916 E9.35686
G1 X104.945 Y96.520 E9.37034
G1 X104.732 Y96.140 E9.38382
G1 X104.490 Y95.778 E9.39731
G1 X104.220 Y95.435 E9.41079
G1 X103.925 Y95.115 E9.42428
G1 X103.605 Y94.820 E9.43776
G1 X103.262 Y94.550 E9.45125
G1 X102.900 Y94.308 E9.46473
G1 X102.520 Y94.095 E9.47822
G1 X102.124 Y93.912 E9.49170
G1 X101.715 Y93.761 E9.50518
G1 X101.296 Y93.643 E9.51867
G1 X100.850 Y93.554 E9.53273
G1 X100.850 Y85.910 E9.76926
G1 X107.850 Y85.910 E9.98585
G1 X107.850 Y105.790 E10.60096
G1 X119.650 Y105.790 E10.96607
G1 X119.650 Y114.090 E11.22288
G1 X80.350 Y114.090 E12.43887
G1 X80.350 Y105.790 E12.69569
G1 X92.075 Y105.790 E13.05847
G1 X92.640 Y105.689 F7800.000
G1 E11.05847 F2400.00000
G92 E0
G1 X94.095 Y103.066 F7800.000
G1 E2.00000 F2400.00000
G1 F1800.000
G1 X93.712 Y102.563 E2.00177
G1 X93.489 Y101.319 F7800.000
G1 F1800.000
G1 X93.395 Y100.638 E2.02172
G1 F1800.000
G1 X93.375 Y100.444 E2.02687
G1 F1800.000
G1 X93.342 Y100.105 E2.03477
G1 F1800.000
G1 X93.310 Y99.575 E2.04530
G1 F1800.000
G1 X93.300 Y99.032 E2.05470
G1 F1800.000
G1 X93.325 Y98.250 E2.07023
G1 F1800.000
G1 X93.359 Y97.805 E2.08054
G1 F1800.000
G1 X93.395 Y97.442 E2.09032
G1 F1800.000
G1 X93.489 Y96.761 E2.11182
G1 X93.712 Y95.517 F7800.000
G1 F1800.000
G1 X94.095 Y95.013 E2.11360
G1 E0.11360 F2400.00000
G92 E0
G1 X97.032 Y92.379 F7800.000
G1 E2.00000 F2400.00000
G1 F1800.000
G1 X97.518 Y91.892 E2.02288
G1 X97.518 Y90.942 E2.05449
G1 X93.935 Y94.526 E2.22309
G1 X93.782 Y94.405 E2.22958
G1 X93.782 Y93.729 E2.25208
G1 X97.518 Y89.992 E2.42788
G1 X97.518 Y89.042 E2.45949
G1 X93.782 Y92.779 E2.63530
G1 X93.782 Y91.829 E2.66691
G1 X97.518 Y88.092 E2.84272
G1 X97.518 Y87.542 E2.86102
G1 X97.118 Y87.542 E2.87433
G1 X93.782 Y90.878 E3.03131
G1 X93.782 Y89.928 E3.06293
G1 X96.168 Y87.542 E3.17521
G1 X95.218 Y87.542 E3.20682
G1 X93.782 Y88.978 E3.27440
G1 X93.782 Y88.028 E3.30601
G1 X94.268 Y87.542 E3.32888
G1 E1.32888 F2400.00000
G92 E0
G1 X102.968 Y87.542 F7800.000
G1 E2.00000 F2400.00000
G1 F1800.000
G1 X102.482 Y88.028 E2.02318
G1 X102.482 Y88.991 E2.05563
G1 X103.931 Y87.542 E2.12471
G1 X104.893 Y87.542 E2.15716
G1 X102.482 Y89.953 E2.27214
G1 X102.482 Y90.916 E2.30459
G1 X105.856 Y87.542 E2.46547
G1 X106.218 Y87.542 E2.47768
G1 X106.218 Y88.142 E2.49792
G1 X102.482 Y91.879 E2.67606
G1 X102.482 Y92.379 E2.69291
G1 X102.806 Y92.517 E2.70480
G1 X106.218 Y89.105 E2.86748
G1 X106.218 Y90.068 E2.89993
G1 X103.444 Y92.843 E3.03221
G1 X104.033 Y93.216 E3.05573
G1 X106.218 Y91.031 E3.15990
G1 X106.218 Y91.993 E3.19236
G1 X104.578 Y93.634 E3.27057
G1 X105.073 Y94.102 E3.29353
G1 X106.218 Y92.956 E3.34814
G1 X106.218 Y93.919 E3.38060
G1 X105.732 Y94.406 E3.40380
G1 X105.905 Y95.013 F7800.000
G1 F1800.000
G1 X106.288 Y95.517 E3.40664
G1 X106.511 Y96.761 F7800.000
G1 F1800.000
G1 X106.605 Y97.442 E3.42658
G1 F1800.000
G1 X106.641 Y97.805 E3.43564
G1 F1800.000
G1 X106.675 Y98.250 E3.44515
G1 F1800.000
G1 X106.700 Y99.032 E3.45951
G1 X106.690 Y99.575 E3.46949
G1 F1800.000
G1 X106.656 Y100.131 E3.48156
G1 F1800.000
G1 X106.589 Y100.726 E3.49736
G1 F1800.000
G1 X106.522 Y101.322 E3.51599
G1 X106.288 Y102.563 F7800.000
G1 F1800.000
G1 X105.905 Y103.066 E3.51882
G1 X105.510 Y103.984 F7800.000
G1 F1800.000
G1 X105.462 Y104.032 E3.52093
G1 X105.996 Y103.498 E3.54449
G1 X106.218 Y103.674 E3.55332
G1 X106.218 Y104.167 E3.56872
G1 X97.927 Y112.458 E3.93456
G1 X98.818 Y112.458 E3.96236
G1 X106.218 Y105.058 E4.28889
G1 X106.218 Y105.949 E4.31669
G1 X99.709 Y112.458 E4.60389
G1 X100.601 Y112.458 E4.63170
G1 X106.218 Y106.841 E4.87958
G1 X106.218 Y107.422 E4.89771
G1 X106.529 Y107.422 E4.90738
G1 X101.492 Y112.458 E5.12963
G1 X102.383 Y112.458 E5.15743
G1 X107.420 Y107.422 E5.37967
G1 X108.311 Y107.422 E5.40748
G1 X103.274 Y112.458 E5.62972
G1 X104.165 Y112.458 E5.65753
G1 X109.202 Y107.422 E5.87977
G1 X110.093 Y107.422 E5.90758
G1 X105.056 Y112.458 E6.12982
G1 X105.947 Y112.458 E6.15762
G1 X110.984 Y107.422 E6.37987
G1 X111.875 Y107.422 E6.40767
G1 X106.839 Y112.458 E6.62992
G1 X107.730 Y112.458 E6.65772
G1 X112.766 Y107.422 E6.87996
G1 X113.658 Y107.422 E6.90777
G1 X108.621 Y112.458 E7.13001
G1 X109.512 Y112.458 E7.15782
G1 X114.549 Y107.422 E7.38006
G1 X115.440 Y107.422 E7.40787
G1 X110.403 Y112.458 E7.63011
G1 X111.294 Y112.458 E7.65791
G1 X116.331 Y107.422 E7.88016
G1 X117.222 Y107.422 E7.90796
G1 X112.185 Y112.458 E8.13021
G1 X113.077 Y112.458 E8.15801
G1 X118.018 Y107.517 E8.37607
G1 X118.018 Y108.408 E8.40387
G1 X113.968 Y112.458 E8.58261
G1 X114.859 Y112.458 E8.61041
G1 X118.018 Y109.299 E8.74983
G1 X118.018 Y110.190 E8.77763
G1 X115.750 Y112.458 E8.87773
G1 X116.641 Y112.458 E8.90553
G1 X118.018 Y111.081 E8.96630
G1 X118.018 Y111.972 E8.99411
G1 X117.532 Y112.458 E9.01556
G1 E7.01556 F2400.00000
G92 E0
G1 X97.036 Y112.458 F7800.000
G1 E2.00000 F2400.00000
G1 F1800.000
G1 X104.992 Y104.502 E2.35106
G1 X104.608 Y104.805 E2.36633
G1 X104.123 Y105.129 E2.38452
G1 X103.615 Y105.414 E2.40271
G1 X103.085 Y105.658 E2.42090
G1 X102.864 Y105.740 E2.42827
G1 X96.145 Y112.458 E2.72472
G1 X95.254 Y112.458 E2.75253
G1 X101.624 Y106.088 E3.03360
G1 X101.405 Y106.132 E3.04057
G1 X100.612 Y106.209 E3.06542
G1 X94.363 Y112.458 E3.34118
G1 X93.472 Y112.458 E3.36898
G1 X99.727 Y106.203 E3.64499
G1 X98.936 Y106.103 E3.66987
G1 X92.580 Y112.458 E3.95030
G1 X91.689 Y112.458 E3.97810
G1 X98.213 Y105.935 E4.26596
G1 X97.948 Y105.860 E4.27455
G1 X97.545 Y105.711 E4.28795
G1 X90.798 Y112.458 E4.58566
G1 X89.907 Y112.458 E4.61347
G1 X96.926 Y105.439 E4.92319
G1 X96.352 Y105.122 E4.94365
G1 X93.782 Y107.693 E5.05708
G1 X93.782 Y106.801 E5.08488
G1 X95.822 Y104.761 E5.17491
G1 X95.331 Y104.361 E5.19468
G1 X93.782 Y105.910 E5.26303
G1 X93.782 Y105.019 E5.29083
G1 X94.877 Y103.924 E5.33916
G1 E3.33916 F2400.00000
G92 E0
G1 X89.016 Y112.458 F7800.000
G1 E2.00000 F2400.00000
G1 F1800.000
G1 X94.053 Y107.422 E2.22224
G1 X93.161 Y107.422 E2.25005
G1 X88.125 Y112.458 E2.47229
G1 X87.234 Y112.458 E2.50010
G1 X92.270 Y107.422 E2.72234
G1 X91.379 Y107.422 E2.75015
G1 X86.342 Y112.458 E2.97239
G1 X85.451 Y112.458 E3.00019
G1 X90.488 Y107.422 E3.22244
G1 X89.597 Y107.422 E3.25024
G1 X84.560 Y112.458 E3.47249
G1 X83.669 Y112.458 E3.50029
G1 X88.706 Y107.422 E3.72253
G1 X87.815 Y107.422 E3.75034
G1 X82.778 Y112.458 E3.97258
G1 X81.982 Y112.458 E3.99743
G1 X81.982 Y112.364 E4.00039
G1 X86.924 Y107.422 E4.21845
G1 X86.032 Y107.422 E4.24625
G1 X81.982 Y111.472 E4.42499
G1 X81.982 Y110.581 E4.45279
G1 X85.141 Y107.422 E4.59221
G1 X84.250 Y107.422 E4.62001
G1 X81.982 Y109.690 E4.72011
G1 X81.982 Y108.799 E4.74791
G1 X83.359 Y107.422 E4.80869
G1 X82.468 Y107.422 E4.83649
G1 X81.982 Y107.908 E4.85794
G1 Z0.650 F7800.000
G1 X93.271 Y106.911 F7800.000
G1 F3600.000
G1 X93.271 Y100.956 E5.01858
G1 X93.600 Y100.911 E5.02754
G1 X93.836 Y101.593 E5.04701
G1 X94.055 Y102.069 E5.06114
G1 X94.311 Y102.526 E5.07528
G1 X94.602 Y102.962 E5.08941
G1 X94.926 Y103.373 E5.10354
G1 X95.282 Y103.758 E5.11768
G1 X95.667 Y104.114 E5.13181
G1 X96.078 Y104.438 E5.14595
G1 X96.514 Y104.729 E5.16008
G1 X96.971 Y104.985 E5.17421
G1 X97.447 Y105.204 E5.18834
G1 X97.938 Y105.386 E5.20248
G1 X98.442 Y105.528 E5.21661
G1 X98.956 Y105.630 E5.23074
G1 X99.477 Y105.692 E5.24488
G1 X100.000 Y105.712 E5.25901
G1 X100.523 Y105.692 E5.27314
G1 X101.044 Y105.630 E5.28728
G1 X101.558 Y105.528 E5.30141
G1 X102.062 Y105.386 E5.31554
G1 X102.553 Y105.204 E5.32968
G1 X103.029 Y104.985 E5.34382
G1 X103.486 Y104.729 E5.35794
G1 X103.922 Y104.438 E5.37208
G1 X104.333 Y104.114 E5.38621
G1 X104.718 Y103.758 E5.40035
G1 X105.074 Y103.373 E5.41448
G1 X105.398 Y102.962 E5.42861
G1 X105.689 Y102.526 E5.44275
G1 X105.945 Y102.069 E5.45688
G1 X106.164 Y101.594 E5.47101
G1 X106.400 Y100.911 E5.49048
G1 X106.729 Y100.956 E5.49945
G1 X106.729 Y106.911 E5.66009
