; Gcode updated with 'stl_info' on 2019-12-05 16:48:45.161571

; stl_min_x = -44.471500396728516
; stl_max_x = 17.281999588012695
; stl_min_y = -14.5
; stl_max_y = 49.5
; stl_min_z = -4.830379962921143

; generated by Slic3r 1.3.1-dev (Build adea0d9) on 2019-12-05 at 16:48:44

; external perimeters extrusion width = 0.44mm (2.86mm^3/s)
; perimeters extrusion width = 0.56mm (4.14mm^3/s)
; infill extrusion width = 0.50mm (3.66mm^3/s)
; solid infill extrusion width = 0.56mm (3.10mm^3/s)
; top infill extrusion width = 0.56mm (3.10mm^3/s)

M107
G92 E0
;D3D:START:START
T0
M104 S215 T0

G21
G90
M107
T0
G28
G29
M109 T0 S215 T0
G0 F3000
M107
T0
G92 E0
G0 X0 Y149 Z0.1 F3600
G1 Y49 E6.5 F1200
G0 Z1
G92 E0
; Filament gcode

G21 ; set units to millimeters
G90 ; use absolute coordinates
M82 ; use absolute distances for extrusion
G92 E0
G1 Z0.300 F7800.000
G1 E-2.00000 F2400.00000
G92 E0
G1 X47.101 Y78.696 F7800.000
G1 E2.00000 F2400.00000
G1 F1800.000
G1 X78.813 Y78.696 E3.05061
G1 X78.813 Y83.162 E3.19857
G1 X78.013 Y83.867 E3.23389
G1 X77.341 Y84.570 E3.26611
G1 X76.727 Y85.322 E3.29826
G1 X76.176 Y86.118 E3.33034
G1 X75.692 Y86.954 E3.36235
G1 X75.276 Y87.825 E3.39431
G1 X74.933 Y88.724 E3.42621
G1 X74.663 Y89.647 E3.45807
G1 X74.470 Y90.588 E3.48990
G1 X74.353 Y91.541 E3.52170
G1 X74.314 Y92.500 E3.55349
G1 X74.353 Y93.459 E3.58529
G1 X74.470 Y94.412 E3.61709
G1 X74.663 Y95.353 E3.64892
G1 X74.933 Y96.276 E3.68078
G1 X75.276 Y97.175 E3.71268
G1 X75.692 Y98.046 E3.74463
G1 X76.176 Y98.882 E3.77665
G1 X76.727 Y99.678 E3.80873
G1 X77.341 Y100.430 E3.84088
G1 X78.013 Y101.133 E3.87309
G1 X78.813 Y101.838 E3.90842
G1 X78.813 Y106.304 E4.05638
G1 X47.101 Y106.304 E5.10699
G1 X47.101 Y99.446 E5.33417
G1 X65.190 Y99.446 E5.93347
G1 X65.738 Y99.425 E5.95161
G1 X66.294 Y99.362 E5.97018
G1 X66.845 Y99.256 E5.98875
G1 X67.385 Y99.109 E6.00730
G1 X67.912 Y98.921 E6.02582
G1 X68.422 Y98.694 E6.04432
G1 X68.912 Y98.429 E6.06280
G1 X69.380 Y98.127 E6.08124
G1 X69.822 Y97.790 E6.09965
G1 X70.236 Y97.421 E6.11802
G1 X70.618 Y97.021 E6.13636
G1 X70.968 Y96.592 E6.15467
G1 X71.282 Y96.139 E6.17294
G1 X71.558 Y95.662 E6.19118
G1 X71.794 Y95.166 E6.20939
G1 X71.990 Y94.653 E6.22758
G1 X72.144 Y94.127 E6.24575
G1 X72.254 Y93.590 E6.26390
G1 X72.321 Y93.047 E6.28204
G1 X72.343 Y92.500 E6.30018
G1 X72.321 Y91.953 E6.31831
G1 X72.254 Y91.410 E6.33645
G1 X72.144 Y90.873 E6.35460
G1 X71.990 Y90.347 E6.37277
G1 X71.794 Y89.834 E6.39096
G1 X71.558 Y89.338 E6.40917
G1 X71.282 Y88.861 E6.42741
G1 X70.968 Y88.408 E6.44569
G1 X70.618 Y87.980 E6.46399
G1 X70.236 Y87.580 E6.48233
G1 X69.822 Y87.210 E6.50070
G1 X69.380 Y86.873 E6.51912
G1 X68.912 Y86.571 E6.53756
G1 X68.422 Y86.306 E6.55603
G1 X67.912 Y86.079 E6.57453
G1 X67.385 Y85.891 E6.59306
G1 X66.845 Y85.744 E6.61161
G1 X66.294 Y85.638 E6.63017
G1 X65.737 Y85.575 E6.64875
G1 X65.190 Y85.554 E6.66689
G1 X47.101 Y85.554 E7.26618
G1 X47.101 Y78.756 E7.49138
G1 X46.835 Y78.431 F7800.000
G1 F1800.000
G1 X79.079 Y78.431 E8.55959
G1 X79.079 Y83.294 E8.72071
G1 X78.909 Y83.423 E8.72776
G1 X78.198 Y84.058 E8.75937
G1 X77.540 Y84.746 E8.79089
G1 X76.940 Y85.481 E8.82234
G1 X76.401 Y86.260 E8.85372
G1 X75.927 Y87.078 E8.88503
G1 X75.521 Y87.929 E8.91628
G1 X75.185 Y88.809 E8.94747
G1 X74.921 Y89.711 E8.97862
G1 X74.732 Y90.631 E9.00973
G1 X74.618 Y91.563 E9.04082
G1 X74.580 Y92.500 E9.07190
G1 X74.618 Y93.437 E9.10298
G1 X74.732 Y94.369 E9.13407
G1 X74.921 Y95.289 E9.16518
G1 X75.185 Y96.191 E9.19633
G1 X75.521 Y97.071 E9.22752
G1 X75.927 Y97.922 E9.25877
G1 X76.401 Y98.740 E9.29008
G1 X76.940 Y99.519 E9.32146
G1 X77.540 Y100.254 E9.35291
G1 X78.198 Y100.942 E9.38444
G1 X78.909 Y101.577 E9.41604
G1 X79.079 Y101.706 E9.42309
G1 X79.079 Y106.569 E9.58421
G1 X46.835 Y106.569 E10.65242
G1 X46.835 Y99.181 E10.89721
G1 X65.185 Y99.181 E11.50514
G1 X65.717 Y99.160 E11.52278
G1 X66.254 Y99.099 E11.54068
G1 X66.785 Y98.997 E11.55857
G1 X67.305 Y98.855 E11.57645
G1 X67.813 Y98.674 E11.59430
G1 X68.304 Y98.455 E11.61213
G1 X68.777 Y98.200 E11.62993
G1 X69.227 Y97.909 E11.64768
G1 X69.653 Y97.585 E11.66541
G1 X70.051 Y97.229 E11.68310
G1 X70.419 Y96.845 E11.70074
G1 X70.755 Y96.433 E11.71835
G1 X71.057 Y95.996 E11.73593
G1 X71.323 Y95.538 E11.75346
G1 X71.550 Y95.062 E11.77097
G1 X71.738 Y94.569 E11.78844
G1 X71.886 Y94.063 E11.80590
G1 X71.992 Y93.547 E11.82334
G1 X72.056 Y93.025 E11.84076
G1 X72.078 Y92.500 E11.85818
G1 X72.056 Y91.975 E11.87560
G1 X71.992 Y91.453 E11.89303
G1 X71.886 Y90.937 E11.91046
G1 X71.738 Y90.431 E11.92792
G1 X71.550 Y89.938 E11.94540
G1 X71.323 Y89.462 E11.96290
G1 X71.057 Y89.004 E11.98044
G1 X70.755 Y88.567 E11.99801
G1 X70.419 Y88.156 E12.01562
G1 X70.051 Y87.771 E12.03327
G1 X69.653 Y87.415 E12.05095
G1 X69.227 Y87.091 E12.06868
G1 X68.777 Y86.800 E12.08644
G1 X68.304 Y86.545 E12.10423
G1 X67.813 Y86.326 E12.12206
G1 X67.305 Y86.145 E12.13991
G1 X66.785 Y86.003 E12.15779
G1 X66.254 Y85.901 E12.17569
G1 X65.717 Y85.840 E12.19359
G1 X65.185 Y85.819 E12.21123
G1 X46.835 Y85.819 E12.81916
G1 X46.835 Y78.491 E13.06196
G1 X46.570 Y78.165 F7800.000
G1 F1800.000
G1 X79.344 Y78.165 E14.14776
G1 X79.344 Y83.426 E14.32204
G1 X79.078 Y83.628 E14.33311
G1 X78.382 Y84.250 E14.36403
G1 X77.739 Y84.922 E14.39486
G1 X77.152 Y85.641 E14.42562
G1 X76.625 Y86.403 E14.45629
G1 X76.162 Y87.202 E14.48690
G1 X75.765 Y88.034 E14.51744
G1 X75.437 Y88.894 E14.54792
G1 X75.179 Y89.776 E14.57836
G1 X74.994 Y90.674 E14.60876
G1 X74.883 Y91.584 E14.63913
G1 X74.846 Y92.500 E14.66950
G1 X74.883 Y93.416 E14.69986
G1 X74.994 Y94.326 E14.73023
G1 X75.179 Y95.224 E14.76063
G1 X75.437 Y96.106 E14.79107
G1 X75.765 Y96.966 E14.82155
G1 X76.162 Y97.798 E14.85209
G1 X76.625 Y98.597 E14.88270
G1 X77.152 Y99.359 E14.91337
G1 X77.739 Y100.078 E14.94413
G1 X78.382 Y100.750 E14.97496
G1 X79.078 Y101.372 E15.00588
G1 X79.344 Y101.574 E15.01695
G1 X79.344 Y106.835 E15.19123
G1 X46.570 Y106.835 E16.27703
G1 X46.570 Y98.915 E16.53942
G1 X65.180 Y98.915 E17.15598
G1 X65.697 Y98.895 E17.17312
G1 X66.214 Y98.836 E17.19036
G1 X66.725 Y98.738 E17.20758
G1 X67.226 Y98.602 E17.22479
G1 X67.714 Y98.427 E17.24196
G1 X68.187 Y98.217 E17.25912
G1 X68.641 Y97.971 E17.27623
G1 X69.075 Y97.692 E17.29331
G1 X69.484 Y97.380 E17.31035
G1 X69.866 Y97.038 E17.32735
G1 X70.220 Y96.668 E17.34430
G1 X70.543 Y96.273 E17.36121
G1 X70.833 Y95.854 E17.37808
G1 X71.087 Y95.414 E17.39492
G1 X71.306 Y94.957 E17.41171
G1 X71.486 Y94.484 E17.42848
G1 X71.628 Y93.999 E17.44523
G1 X71.730 Y93.504 E17.46195
G1 X71.791 Y93.004 E17.47866
G1 X71.812 Y92.500 E17.49537
G1 X71.791 Y91.996 E17.51207
G1 X71.730 Y91.496 E17.52878
G1 X71.628 Y91.001 E17.54550
G1 X71.486 Y90.516 E17.56225
G1 X71.306 Y90.043 E17.57902
G1 X71.087 Y89.586 E17.59581
G1 X70.833 Y89.146 E17.61265
G1 X70.543 Y88.727 E17.62952
G1 X70.220 Y88.332 E17.64643
G1 X69.866 Y87.962 E17.66338
G1 X69.484 Y87.620 E17.68038
G1 X69.075 Y87.308 E17.69742
G1 X68.641 Y87.029 E17.71450
G1 X68.187 Y86.783 E17.73161
G1 X67.714 Y86.572 E17.74877
G1 X67.226 Y86.398 E17.76594
G1 X66.725 Y86.262 E17.78315
G1 X66.214 Y86.164 E17.80038
G1 X65.697 Y86.105 E17.81761
G1 X65.180 Y86.085 E17.83475
G1 X46.570 Y86.085 E18.45131
G1 X46.570 Y78.225 E18.71171
G1 X47.263 Y79.065 F7800.000
G1 F1800.000
G1 X47.470 Y78.859 E18.72139
G1 X47.846 Y78.859 E18.73385
G1 X47.263 Y79.441 E18.76117
G1 X47.263 Y79.817 E18.77362
G1 X48.222 Y78.859 E18.81856
G1 X48.597 Y78.859 E18.83102
G1 X47.263 Y80.193 E18.89357
G1 X47.263 Y80.569 E18.90603
G1 X48.973 Y78.859 E18.98620
G1 X49.349 Y78.859 E18.99866
G1 X47.263 Y80.945 E19.09645
G1 X47.263 Y81.320 E19.10891
G1 X49.725 Y78.859 E19.22432
G1 X50.101 Y78.859 E19.23678
G1 X47.263 Y81.696 E19.36981
G1 X47.263 Y82.072 E19.38226
G1 X50.477 Y78.859 E19.53291
G1 X50.853 Y78.859 E19.54537
G1 X47.263 Y82.448 E19.71364
G1 X47.263 Y82.824 E19.72610
G1 X51.228 Y78.859 E19.91198
G1 X51.604 Y78.859 E19.92444
G1 X47.263 Y83.200 E20.12795
G1 X47.263 Y83.576 E20.14041
G1 X51.980 Y78.859 E20.36153
G1 X52.356 Y78.859 E20.37399
G1 X47.263 Y83.951 E20.61274
G1 X47.263 Y84.327 E20.62520
G1 X52.732 Y78.859 E20.88156
G1 X53.108 Y78.859 E20.89402
G1 X47.263 Y84.703 E21.16800
G1 X47.263 Y85.079 E21.18046
G1 X53.484 Y78.859 E21.47206
G1 X53.859 Y78.859 E21.48452
G1 X47.326 Y85.391 E21.79077
G1 X47.702 Y85.391 E21.80323
G1 X54.235 Y78.859 E22.10948
G1 X54.611 Y78.859 E22.12194
G1 X48.078 Y85.391 E22.42820
G1 X48.454 Y85.391 E22.44065
G1 X54.987 Y78.859 E22.74691
G1 X55.363 Y78.859 E22.75937
G1 X48.830 Y85.391 E23.06562
G1 X49.206 Y85.391 E23.07808
G1 X55.739 Y78.859 E23.38433
G1 X56.115 Y78.859 E23.39679
G1 X49.582 Y85.391 E23.70304
G1 X49.957 Y85.391 E23.71550
G1 X56.490 Y78.859 E24.02175
G1 X56.866 Y78.859 E24.03421
G1 X50.333 Y85.391 E24.34046
G1 X50.709 Y85.391 E24.35292
G1 X57.242 Y78.859 E24.65917
G1 X57.618 Y78.859 E24.67163
G1 X51.085 Y85.391 E24.97788
G1 X51.461 Y85.391 E24.99034
G1 X57.994 Y78.859 E25.29660
G1 X58.370 Y78.859 E25.30905
G1 X51.837 Y85.391 E25.61531
G1 X52.213 Y85.391 E25.62776
G1 X58.745 Y78.859 E25.93402
G1 X59.121 Y78.859 E25.94648
G1 X52.588 Y85.391 E26.25273
G1 X52.964 Y85.391 E26.26519
G1 X59.497 Y78.859 E26.57144
G1 X59.873 Y78.859 E26.58390
G1 X53.340 Y85.391 E26.89015
G1 X53.716 Y85.391 E26.90261
G1 X60.249 Y78.859 E27.20886
G1 X60.625 Y78.859 E27.22132
G1 X54.092 Y85.391 E27.52757
G1 X54.468 Y85.391 E27.54003
G1 X61.001 Y78.859 E27.84628
G1 X61.376 Y78.859 E27.85874
G1 X54.843 Y85.391 E28.16499
G1 X55.219 Y85.391 E28.17745
G1 X61.752 Y78.859 E28.48371
G1 X62.128 Y78.859 E28.49616
G1 X55.595 Y85.391 E28.80242
G1 X55.971 Y85.391 E28.81488
G1 X62.504 Y78.859 E29.12113
G1 X62.880 Y78.859 E29.13359
G1 X56.347 Y85.391 E29.43984
G1 X56.723 Y85.391 E29.45230
G1 X63.256 Y78.859 E29.75855
G1 X63.632 Y78.859 E29.77101
G1 X57.099 Y85.391 E30.07726
G1 X57.474 Y85.391 E30.08972
G1 X64.007 Y78.859 E30.39597
G1 X64.383 Y78.859 E30.40843
G1 X57.850 Y85.391 E30.71468
G1 X58.226 Y85.391 E30.72714
G1 X64.759 Y78.859 E31.03339
G1 X65.135 Y78.859 E31.04585
G1 X58.602 Y85.391 E31.35210
G1 X58.978 Y85.391 E31.36456
G1 X65.511 Y78.859 E31.67082
G1 X65.887 Y78.859 E31.68327
G1 X59.354 Y85.391 E31.98953
G1 X59.730 Y85.391 E32.00199
G1 X66.262 Y78.859 E32.30824
G1 X66.638 Y78.859 E32.32070
G1 X60.105 Y85.391 E32.62695
G1 X60.481 Y85.391 E32.63941
G1 X67.014 Y78.859 E32.94566
G1 X67.390 Y78.859 E32.95812
G1 X60.857 Y85.391 E33.26437
G1 X61.233 Y85.391 E33.27683
G1 X67.766 Y78.859 E33.58308
G1 X68.142 Y78.859 E33.59554
G1 X61.609 Y85.391 E33.90179
G1 X61.985 Y85.391 E33.91425
G1 X68.518 Y78.859 E34.22050
G1 X68.893 Y78.859 E34.23296
G1 X62.361 Y85.391 E34.53922
G1 X62.736 Y85.391 E34.55167
G1 X69.269 Y78.859 E34.85793
G1 X69.645 Y78.859 E34.87039
G1 X63.112 Y85.391 E35.17664
G1 X63.488 Y85.391 E35.18910
G1 X70.021 Y78.859 E35.49535
G1 X70.397 Y78.859 E35.50781
G1 X63.864 Y85.391 E35.81406
G1 X64.240 Y85.391 E35.82652
G1 X70.773 Y78.859 E36.13277
G1 X71.149 Y78.859 E36.14523
G1 X64.616 Y85.391 E36.45148
G1 X64.991 Y85.391 E36.46394
G1 X71.524 Y78.859 E36.77019
G1 X71.900 Y78.859 E36.78265
G1 X65.357 Y85.402 E37.08938
G1 X65.715 Y85.420 E37.10125
G1 X72.276 Y78.859 E37.40883
G1 X72.652 Y78.859 E37.42128
G1 X66.052 Y85.458 E37.73067
G1 X66.379 Y85.507 E37.74163
G1 X73.028 Y78.859 E38.05330
G1 X73.404 Y78.859 E38.06576
G1 X66.694 Y85.568 E38.38028
G1 X66.997 Y85.641 E38.39059
G1 X73.780 Y78.859 E38.70856
G1 X74.155 Y78.859 E38.72102
G1 X67.292 Y85.722 E39.04277
G1 X67.573 Y85.816 E39.05260
G1 X74.531 Y78.859 E39.37878
G1 X74.907 Y78.859 E39.39124
G1 X67.850 Y85.915 E39.72204
G1 X68.114 Y86.028 E39.73154
G1 X75.283 Y78.859 E40.06761
G1 X75.659 Y78.859 E40.08007
G1 X68.374 Y86.143 E40.42157
G1 X68.622 Y86.271 E40.43081
G1 X76.035 Y78.859 E40.77832
G1 X76.410 Y78.859 E40.79078
G1 X68.866 Y86.403 E41.14446
G1 X69.099 Y86.546 E41.15353
G1 X76.786 Y78.859 E41.51390
G1 X77.162 Y78.859 E41.52635
G1 X69.327 Y86.693 E41.89363
G1 X69.548 Y86.849 E41.90257
G1 X77.538 Y78.859 E42.27715
G1 X77.914 Y78.859 E42.28961
G1 X69.761 Y87.012 E42.67181
G1 X69.968 Y87.180 E42.68067
G1 X78.290 Y78.859 E43.07076
G1 X78.651 Y78.859 E43.08273
G1 X70.167 Y87.357 E43.48079
G1 X70.362 Y87.538 E43.48960
G1 X78.651 Y79.249 E43.87817
G1 X78.651 Y79.625 E43.89063
G1 X70.546 Y87.730 E44.27059
G1 X70.728 Y87.924 E44.27940
G1 X78.651 Y80.001 E44.65080
G1 X78.651 Y80.377 E44.66326
G1 X70.897 Y88.131 E45.02674
G1 X71.066 Y88.337 E45.03559
G1 X78.651 Y80.753 E45.39116
G1 X78.651 Y81.129 E45.40361
G1 X71.221 Y88.559 E45.75193
G1 X71.374 Y88.781 E45.76088
G1 X78.651 Y81.504 E46.10199
G1 X78.651 Y81.880 E46.11445
G1 X71.515 Y89.016 E46.44895
G1 X71.653 Y89.254 E46.45807
G1 X78.651 Y82.256 E46.78611
G1 X78.651 Y82.632 E46.79857
G1 X71.779 Y89.504 E47.12071
G1 X71.900 Y89.758 E47.13006
G1 X76.699 Y84.960 E47.35500
G1 X76.055 Y85.872 E47.39202
G1 X75.908 Y86.126 E47.40175
G1 X72.009 Y90.025 E47.58451
G1 X72.113 Y90.297 E47.59417
G1 X75.447 Y86.963 E47.75046
G1 X75.114 Y87.672 E47.77642
G1 X72.203 Y90.583 E47.91291
G1 X72.288 Y90.874 E47.92295
G1 X74.882 Y88.280 E48.04457
G1 X74.694 Y88.843 E48.06425
G1 X72.354 Y91.183 E48.17395
G1 X72.417 Y91.497 E48.18455
G1 X74.540 Y89.374 E48.28406
G1 X74.431 Y89.859 E48.30053
G1 X72.458 Y91.832 E48.39301
G1 X72.488 Y92.177 E48.40449
G1 X74.333 Y90.332 E48.49097
G1 X74.270 Y90.771 E48.50566
G1 X72.503 Y92.538 E48.58849
G1 X72.493 Y92.924 E48.60130
G1 X74.218 Y91.199 E48.68217
G1 X74.183 Y91.610 E48.69581
G1 X72.463 Y93.329 E48.77644
G1 X72.409 Y93.760 E48.79083
G1 X74.167 Y92.001 E48.87327
G1 X74.151 Y92.393 E48.88627
G1 X72.311 Y94.233 E48.97254
G1 X72.164 Y94.757 E48.99056
G1 X74.166 Y92.755 E49.08442
G1 X74.181 Y93.116 E49.09640
G1 X71.944 Y95.352 E49.20125
G1 X71.689 Y95.890 E49.22096
G1 X71.561 Y96.111 E49.22942
G1 X74.203 Y93.470 E49.35323
G1 X74.244 Y93.804 E49.36441
G1 X61.906 Y106.141 E49.94275
G1 X62.282 Y106.141 E49.95521
G1 X74.285 Y94.139 E50.51785
G1 X74.334 Y94.466 E50.52879
G1 X62.658 Y106.141 E51.07614
G1 X63.034 Y106.141 E51.08859
G1 X74.398 Y94.777 E51.62133
G1 X74.462 Y95.089 E51.63187
G1 X63.410 Y106.141 E52.15000
G1 X63.786 Y106.141 E52.16245
G1 X74.532 Y95.395 E52.66624
G1 X74.617 Y95.686 E52.67628
G1 X64.162 Y106.141 E53.16643
G1 X64.537 Y106.141 E53.17889
G1 X74.702 Y95.977 E53.65540
G1 X74.788 Y96.267 E53.66543
G1 X64.913 Y106.141 E54.12833
G1 X65.289 Y106.141 E54.14079
G1 X74.892 Y96.539 E54.59094
G1 X74.996 Y96.811 E54.60059
G1 X65.665 Y106.141 E55.03799
G1 X66.041 Y106.141 E55.05045
G1 X75.099 Y97.083 E55.47510
G1 X75.215 Y97.343 E55.48454
G1 X66.417 Y106.141 E55.89698
G1 X66.793 Y106.141 E55.90944
G1 X75.336 Y97.598 E56.30995
G1 X75.458 Y97.852 E56.31929
G1 X67.168 Y106.141 E56.70788
G1 X67.544 Y106.141 E56.72033
G1 X75.582 Y98.104 E57.09711
G1 X75.720 Y98.342 E57.10623
G1 X67.920 Y106.141 E57.47185
G1 X68.296 Y106.141 E57.48431
G1 X75.857 Y98.580 E57.83878
G1 X75.995 Y98.818 E57.84790
G1 X68.672 Y106.141 E58.19121
G1 X69.048 Y106.141 E58.20367
G1 X76.142 Y99.047 E58.53625
G1 X76.296 Y99.269 E58.54521
G1 X69.424 Y106.141 E58.86738
G1 X69.799 Y106.141 E58.87983
G1 X76.450 Y99.491 E59.19159
G1 X76.603 Y99.713 E59.20054
G1 X70.175 Y106.141 E59.50188
G1 X70.551 Y106.141 E59.51433
G1 X76.771 Y99.922 E59.80590
G1 X76.940 Y100.129 E59.81475
G1 X70.927 Y106.141 E60.09662
G1 X71.303 Y106.141 E60.10908
G1 X77.108 Y100.336 E60.38124
G1 X77.280 Y100.540 E60.39008
G1 X71.679 Y106.141 E60.65267
G1 X72.054 Y106.141 E60.66513
G1 X77.464 Y100.732 E60.91872
G1 X77.648 Y100.924 E60.92753
G1 X72.430 Y106.141 E61.17212
G1 X72.806 Y106.141 E61.18458
G1 X77.832 Y101.116 E61.42016
G1 X78.023 Y101.301 E61.42897
G1 X73.182 Y106.141 E61.65589
G1 X73.558 Y106.141 E61.66834
G1 X78.222 Y101.477 E61.88701
G1 X78.422 Y101.653 E61.89584
G1 X73.934 Y106.141 E62.10625
G1 X74.310 Y106.141 E62.11871
G1 X78.622 Y101.829 E62.32087
G1 X78.651 Y101.854 E62.32213
G1 X78.651 Y102.176 E62.33280
G1 X74.685 Y106.141 E62.51869
G1 X75.061 Y106.141 E62.53115
G1 X78.651 Y102.552 E62.69941
G1 X78.651 Y102.928 E62.71187
G1 X75.437 Y106.141 E62.86252
G1 X75.813 Y106.141 E62.87498
G1 X78.651 Y103.304 E63.00800
G1 X78.651 Y103.680 E63.02046
