; generated by Slic3r 1.3.1-dev (Build 2ef957d) on 2019-11-25 at 09:24:58

; external perimeters extrusion width = 0.55mm (4.37mm^3/s)
; perimeters extrusion width = 0.70mm (11.44mm^3/s)
; infill extrusion width = 0.62mm (13.45mm^3/s)
; solid infill extrusion width = 0.70mm (3.81mm^3/s)
; top infill extrusion width = 0.70mm (2.86mm^3/s)

M107
G92 E0
M104 S200 ; set temperature
G28 ; home all axes
G1 Z5 F5000 ; lift nozzle

; Filament gcode

M109 S200 ; set temperature and wait for it to be reached
G21 ; set units to millimeters
G90 ; use absolute coordinates
M82 ; use absolute distances for extrusion
G92 E0
G1 Z0.350 F7800.000
G1 E-2.00000 F2400.00000
G92 E0
G1 X47.518 Y48.536 F7800.000
G1 E2.00000 F2400.00000
G1 F1800.000
G1 X49.247 Y47.030 E2.07096
G1 X51.386 Y46.203 E2.14192
G1 X52.668 Y46.078 E2.18178
G1 X57.640 Y46.078 E2.33561
G1 X59.899 Y46.475 E2.40657
G1 X62.324 Y48.018 E2.49553
G1 X152.059 Y137.753 E6.42209
G1 X153.375 Y139.631 E6.49305
G1 X153.999 Y142.437 E6.58201
G1 X153.999 Y146.573 E6.70998
G1 X153.602 Y148.832 E6.78094
G1 X152.459 Y150.820 E6.85191
G1 X150.706 Y152.299 E6.92287
G1 X148.227 Y153.143 E7.00390
G1 X142.977 Y153.824 E7.16770
G1 X141.812 Y153.872 E7.20377
G1 X140.908 Y153.826 E7.23178
G1 X137.735 Y153.573 E7.33028
G1 X134.571 Y153.221 E7.42877
G1 X131.420 Y152.769 E7.52727
G1 X128.285 Y152.218 E7.62576
G1 X125.371 Y151.615 E7.71782
G1 X122.275 Y150.875 E7.81631
G1 X119.204 Y150.038 E7.91480
G1 X116.161 Y149.105 E8.01329
G1 X113.148 Y148.077 E8.11179
G1 X110.169 Y146.955 E8.21028
G1 X107.227 Y145.740 E8.30877
G1 X104.136 Y144.344 E8.41371
G1 X101.279 Y142.941 E8.51220
G1 X98.467 Y141.449 E8.61069
G1 X95.883 Y139.975 E8.70275
G1 X93.167 Y138.314 E8.80125
G1 X90.332 Y136.452 E8.90618
G1 X87.730 Y134.619 E9.00467
G1 X85.186 Y132.705 E9.10317
G1 X82.864 Y130.845 E9.19522
G1 X80.442 Y128.780 E9.29371
G1 X78.085 Y126.640 E9.39221
G1 X75.797 Y124.428 E9.49070
G1 X73.579 Y122.144 E9.58920
G1 X71.434 Y119.791 E9.68769
G1 X69.232 Y117.213 E9.79262
G1 X67.372 Y114.891 E9.88467
G1 X65.458 Y112.347 E9.98317
G1 X63.625 Y109.745 E10.08166
G1 X61.874 Y107.086 E10.18016
G1 X60.102 Y104.194 E10.28509
G1 X58.528 Y101.428 E10.38358
G1 X57.042 Y98.613 E10.48207
G1 X55.733 Y95.941 E10.57412
G1 X54.420 Y93.041 E10.67262
G1 X53.198 Y90.102 E10.77112
G1 X52.070 Y87.125 E10.86961
G1 X51.317 Y84.899 E10.94232
G1 X48.413 Y74.399 E11.27940
G1 X48.311 Y73.976 E11.29286
G1 X47.820 Y71.588 E11.36830
G1 X47.308 Y68.657 E11.46035
G1 X46.830 Y65.300 E11.56529
G1 X46.504 Y62.342 E11.65734
G1 X46.251 Y59.169 E11.75584
G1 X46.098 Y55.990 E11.85433
G1 X46.044 Y52.807 E11.95282
G1 X46.406 Y50.542 E12.02378
G1 X47.481 Y48.602 E12.09243
G1 E10.09243 F2400.00000
G92 E0
G1 X60.824 Y84.733 F7800.000
G1 E2.00000 F2400.00000
G1 F1800.000
G1 X59.620 Y81.216 E2.11501
G1 X58.768 Y78.445 E2.20470
G1 X58.003 Y75.650 E2.29439
G1 X57.275 Y72.583 E2.39192
G1 X58.229 Y72.583 E2.42145
G1 X58.909 Y75.417 E2.51163
G1 X59.666 Y78.184 E2.60041
G1 X60.510 Y80.927 E2.68919
G1 X61.440 Y83.641 E2.77797
G1 X62.454 Y86.325 E2.86674
G1 X63.552 Y88.976 E2.95552
G1 X64.732 Y91.591 E3.04430
G1 X65.995 Y94.168 E3.13308
G1 X67.337 Y96.704 E3.22186
G1 X68.759 Y99.196 E3.31063
G1 X70.258 Y101.642 E3.39941
G1 X71.833 Y104.040 E3.48819
G1 X73.483 Y106.388 E3.57697
G1 X75.206 Y108.682 E3.66574
G1 X77.000 Y110.922 E3.75452
G1 X78.863 Y113.103 E3.84330
G1 X80.794 Y115.225 E3.93208
G1 X82.791 Y117.286 E4.02086
G1 X84.852 Y119.283 E4.10963
G1 X86.974 Y121.214 E4.19841
G1 X89.155 Y123.077 E4.28719
G1 X91.395 Y124.871 E4.37597
G1 X93.689 Y126.594 E4.46474
G1 X96.037 Y128.244 E4.55352
G1 X98.435 Y129.819 E4.64230
G1 X100.881 Y131.318 E4.73108
G1 X103.373 Y132.740 E4.81985
G1 X105.909 Y134.082 E4.90863
G1 X108.486 Y135.345 E4.99741
G1 X111.101 Y136.525 E5.08619
G1 X113.752 Y137.623 E5.17497
G1 X116.436 Y138.637 E5.26375
G1 X119.150 Y139.567 E5.35252
G1 X121.893 Y140.411 E5.44130
G1 X124.660 Y141.168 E5.53008
G1 X127.450 Y141.837 E5.61886
G1 X130.260 Y142.419 E5.70763
G1 X133.086 Y142.913 E5.79641
G1 X135.927 Y143.317 E5.88519
G1 X138.779 Y143.632 E5.97397
G1 X141.639 Y143.857 E6.06275
G1 X144.505 Y143.992 E6.15152
G1 X145.774 Y144.012 E6.19080
G1 X145.774 Y144.948 E6.21976
G1 X144.476 Y144.928 E6.25994
G1 X140.524 Y144.741 E6.38234
G1 X140.524 Y145.546 E6.40724
G1 X138.612 Y145.395 E6.46659
G1 X135.705 Y145.074 E6.55709
G1 X132.809 Y144.662 E6.64759
G1 X129.928 Y144.159 E6.73809
G1 X127.064 Y143.566 E6.82859
G1 X124.220 Y142.883 E6.91908
G1 X121.399 Y142.112 E7.00958
G1 X118.603 Y141.252 E7.10008
G1 X115.836 Y140.304 E7.19058
G1 X113.100 Y139.270 E7.28109
G1 X110.397 Y138.151 E7.37158
G1 X107.732 Y136.947 E7.46208
G1 X105.105 Y135.661 E7.55258
G1 X102.520 Y134.292 E7.64308
G1 X99.979 Y132.843 E7.73358
G1 X97.486 Y131.315 E7.82408
G1 X95.041 Y129.709 E7.91458
G1 X92.648 Y128.027 E8.00508
G1 X90.309 Y126.271 E8.09558
G1 X88.026 Y124.442 E8.18608
G1 X85.802 Y122.542 E8.27658
G1 X83.639 Y120.574 E8.36708
G1 X81.538 Y118.539 E8.45758
G1 X79.503 Y116.438 E8.54808
G1 X77.535 Y114.275 E8.63858
G1 X75.635 Y112.051 E8.72908
G1 X73.806 Y109.768 E8.81958
G1 X72.050 Y107.429 E8.91008
G1 X70.368 Y105.036 E9.00058
G1 X68.762 Y102.591 E9.09108
G1 X67.234 Y100.098 E9.18158
G1 X65.785 Y97.557 E9.27208
G1 X64.416 Y94.972 E9.36258
G1 X63.130 Y92.345 E9.45308
G1 X61.926 Y89.680 E9.54358
G1 X60.807 Y86.977 E9.63407
G1 X59.958 Y84.733 E9.70832
G1 X60.749 Y84.733 E9.73278
G1 X59.949 Y84.108 F7800.000
G1 F1800.000
G1 X59.025 Y81.409 E9.82104
G1 X58.167 Y78.620 E9.91133
G1 X57.397 Y75.805 E10.00163
G1 X56.716 Y72.967 E10.09192
G1 X56.507 Y71.958 E10.12382
G1 X58.739 Y71.958 E10.19289
G1 X58.849 Y72.490 E10.20972
G1 X59.515 Y75.261 E10.29789
G1 X60.267 Y78.010 E10.38606
G1 X61.105 Y80.734 E10.47423
G1 X62.028 Y83.429 E10.56240
G1 X63.035 Y86.095 E10.65058
G1 X64.125 Y88.728 E10.73875
G1 X65.298 Y91.325 E10.82692
G1 X66.552 Y93.884 E10.91509
G1 X67.885 Y96.402 E11.00326
G1 X69.297 Y98.878 E11.09143
G1 X70.786 Y101.307 E11.17960
G1 X72.350 Y103.689 E11.26777
G1 X73.989 Y106.020 E11.35594
G1 X75.700 Y108.299 E11.44411
G1 X77.481 Y110.523 E11.53228
G1 X79.332 Y112.690 E11.62045
G1 X81.250 Y114.798 E11.70862
G1 X83.233 Y116.844 E11.79679
G1 X85.279 Y118.827 E11.88496
G1 X87.387 Y120.745 E11.97313
G1 X89.554 Y122.596 E12.06130
G1 X91.778 Y124.377 E12.14947
G1 X94.057 Y126.088 E12.23764
G1 X96.388 Y127.727 E12.32581
G1 X98.770 Y129.291 E12.41398
G1 X101.199 Y130.780 E12.50215
G1 X103.675 Y132.192 E12.59032
G1 X106.193 Y133.525 E12.67849
G1 X108.752 Y134.779 E12.76666
G1 X111.349 Y135.952 E12.85483
G1 X113.982 Y137.042 E12.94300
G1 X116.647 Y138.049 E13.03117
G1 X119.343 Y138.972 E13.11934
G1 X122.067 Y139.810 E13.20751
G1 X124.816 Y140.562 E13.29568
G1 X127.587 Y141.228 E13.38385
G1 X130.377 Y141.805 E13.47203
G1 X133.184 Y142.295 E13.56020
G1 X136.005 Y142.697 E13.64836
G1 X138.838 Y143.010 E13.73654
G1 X141.678 Y143.233 E13.82471
G1 X144.525 Y143.367 E13.91288
G1 X146.399 Y143.397 E13.97088
G1 X146.399 Y145.583 E14.03852
G1 X144.456 Y145.552 E14.09865
G1 X141.149 Y145.396 E14.20108
G1 X141.149 Y146.222 E14.22662
G1 X138.553 Y146.018 E14.30719
G1 X135.627 Y145.694 E14.39830
G1 X132.711 Y145.280 E14.48941
G1 X129.811 Y144.773 E14.58052
G1 X126.927 Y144.176 E14.67162
G1 X124.064 Y143.489 E14.76273
G1 X121.224 Y142.712 E14.85384
G1 X118.410 Y141.846 E14.94494
G1 X115.624 Y140.892 E15.03605
G1 X112.870 Y139.851 E15.12716
G1 X110.149 Y138.725 E15.21827
G1 X107.466 Y137.513 E15.30937
G1 X104.821 Y136.217 E15.40048
G1 X102.219 Y134.840 E15.49159
G1 X99.661 Y133.381 E15.58269
G1 X97.151 Y131.842 E15.67380
G1 X94.690 Y130.226 E15.76491
G1 X92.281 Y128.533 E15.85601
G1 X89.926 Y126.765 E15.94712
G1 X87.628 Y124.924 E16.03823
G1 X85.389 Y123.011 E16.12934
G1 X83.211 Y121.030 E16.22045
G1 X81.097 Y118.980 E16.31155
G1 X79.047 Y116.866 E16.40266
G1 X77.066 Y114.688 E16.49376
G1 X75.153 Y112.449 E16.58487
G1 X73.312 Y110.151 E16.67598
G1 X71.544 Y107.796 E16.76709
G1 X69.851 Y105.387 E16.85820
G1 X68.235 Y102.926 E16.94930
G1 X66.696 Y100.416 E17.04041
G1 X65.237 Y97.858 E17.13152
G1 X63.860 Y95.256 E17.22262
G1 X62.564 Y92.611 E17.31373
G1 X61.352 Y89.928 E17.40484
G1 X60.226 Y87.207 E17.49594
G1 X59.067 Y84.108 E17.59834
G1 X59.874 Y84.108 E17.62333
G1 X59.075 Y83.483 F7800.000
G1 F1800.000
G1 X58.431 Y81.602 E17.68484
G1 X57.567 Y78.794 E17.77574
G1 X56.792 Y75.960 E17.86664
G1 X56.106 Y73.104 E17.95754
G1 X55.936 Y72.283 E17.98348
G1 X55.083 Y72.283 E18.00987
G1 X54.886 Y71.333 E18.03989
G1 X59.248 Y71.333 E18.17484
G1 X59.459 Y72.354 E18.20711
G1 X60.120 Y75.106 E18.29467
G1 X60.867 Y77.836 E18.38223
G1 X61.699 Y80.540 E18.46980
G1 X62.616 Y83.218 E18.55736
G1 X63.616 Y85.865 E18.64492
G1 X64.699 Y88.480 E18.73249
G1 X65.863 Y91.059 E18.82005
G1 X67.108 Y93.600 E18.90761
G1 X68.433 Y96.101 E18.99517
G1 X69.835 Y98.559 E19.08274
G1 X71.313 Y100.972 E19.17030
G1 X72.867 Y103.338 E19.25786
G1 X74.494 Y105.653 E19.34543
G1 X76.194 Y107.916 E19.43299
G1 X77.963 Y110.125 E19.52055
G1 X79.801 Y112.277 E19.60811
G1 X81.706 Y114.370 E19.69568
G1 X83.675 Y116.402 E19.78324
G1 X85.707 Y118.371 E19.87080
G1 X87.800 Y120.276 E19.95837
G1 X89.952 Y122.114 E20.04593
G1 X92.161 Y123.883 E20.13349
G1 X94.424 Y125.583 E20.22105
G1 X96.739 Y127.210 E20.30862
G1 X99.105 Y128.764 E20.39618
G1 X101.518 Y130.242 E20.48374
G1 X103.976 Y131.644 E20.57130
G1 X106.477 Y132.969 E20.65887
G1 X109.018 Y134.214 E20.74643
G1 X111.597 Y135.378 E20.83399
G1 X114.212 Y136.461 E20.92156
G1 X116.859 Y137.461 E21.00912
G1 X119.537 Y138.378 E21.09668
G1 X122.241 Y139.210 E21.18424
G1 X124.971 Y139.957 E21.27181
G1 X127.723 Y140.618 E21.35937
G1 X130.494 Y141.192 E21.44693
G1 X133.282 Y141.678 E21.53450
G1 X136.084 Y142.077 E21.62206
G1 X138.896 Y142.387 E21.70962
G1 X141.718 Y142.609 E21.79719
G1 X144.545 Y142.743 E21.88475
G1 X147.024 Y142.782 E21.96148
G1 X147.024 Y146.218 E22.06779
G1 X144.437 Y146.177 E22.14787
G1 X141.774 Y146.051 E22.23034
G1 X141.774 Y146.888 E22.25621
G1 X138.494 Y146.640 E22.35798
G1 X135.548 Y146.314 E22.44969
G1 X132.614 Y145.897 E22.54141
G1 X129.694 Y145.387 E22.63312
G1 X126.791 Y144.786 E22.72483
G1 X123.909 Y144.094 E22.81655
G1 X121.050 Y143.312 E22.90826
G1 X118.217 Y142.440 E22.99998
G1 X115.412 Y141.480 E23.09169
G1 X112.639 Y140.432 E23.18341
G1 X109.901 Y139.298 E23.27512
G1 X107.199 Y138.078 E23.36684
G1 X104.538 Y136.774 E23.45855
G1 X101.918 Y135.387 E23.55027
G1 X99.343 Y133.919 E23.64198
G1 X96.816 Y132.370 E23.73370
G1 X94.338 Y130.743 E23.82541
G1 X91.913 Y129.038 E23.91712
G1 X89.543 Y127.258 E24.00884
G1 X87.230 Y125.405 E24.10055
G1 X84.976 Y123.480 E24.19227
G1 X82.783 Y121.485 E24.28398
G1 X80.655 Y119.422 E24.37570
G1 X78.592 Y117.294 E24.46741
G1 X76.597 Y115.101 E24.55913
G1 X74.672 Y112.847 E24.65084
G1 X72.819 Y110.534 E24.74256
G1 X71.039 Y108.164 E24.83427
G1 X69.334 Y105.739 E24.92599
G1 X67.707 Y103.261 E25.01770
G1 X66.158 Y100.734 E25.10941
G1 X64.690 Y98.159 E25.20113
G1 X63.303 Y95.539 E25.29284
G1 X61.999 Y92.878 E25.38456
G1 X60.779 Y90.176 E25.47627
G1 X59.645 Y87.438 E25.56799
G1 X58.597 Y84.665 E25.65970
G1 X58.192 Y83.483 E25.69835
G1 X59.000 Y83.483 E25.72335
G1 X59.483 Y83.194 F7800.000
G1 E23.72335 F2400.00000
G92 E0
G1 X54.956 Y71.333 F7800.000
G1 E2.00000 F2400.00000
G1 F1800.000
G1 X54.756 Y70.371 E2.03903
G1 X54.247 Y67.453 E2.15669
G1 X53.830 Y64.520 E2.27434
G1 X53.505 Y61.576 E2.39200
G1 X53.272 Y58.617 E2.50991
G1 X53.133 Y55.665 E2.62731
G1 X53.099 Y53.509 E2.71292
G1 X53.118 Y53.401 E2.71730
G1 F1800.000
G1 X53.157 Y53.184 E2.72699
G1 X53.247 Y53.163 E2.73103
G1 F1800.000
G1 X53.426 Y53.123 E2.73838
G1 F1800.000
G1 X53.516 Y53.103 E2.74169
G1 X57.646 Y53.103 E2.88992
G1 E0.88992 F2400.00000
G92 E0
G1 X56.157 Y71.808 F7800.000
G1 E2.00000 F2400.00000
G1 F1800.000
G1 X55.304 Y71.808 E2.01056
G1 E0.01056 F2400.00000
G92 E0
G1 X57.823 Y72.895 F7800.000
G1 E2.00000 F2400.00000
G1 F1800.000
G1 X58.456 Y75.533 E2.03650
G1 X59.217 Y78.315 E2.07531
G1 X60.065 Y81.071 E2.11411
G1 X60.998 Y83.797 E2.15288
G1 X61.447 Y85.045 E2.17072
G1 X60.807 Y86.095 F7800.000
G1 F1800.000
G1 X61.293 Y85.609 E2.19207
G1 X61.783 Y85.433 E2.20825
G1 X61.941 Y85.849 E2.22206
G1 X61.050 Y86.739 E2.26118
G1 X61.303 Y87.373 E2.28237
G1 X62.188 Y86.488 E2.32125
G1 X62.448 Y87.115 E2.34234
G1 X61.563 Y88.000 E2.38121
G1 X61.823 Y88.627 E2.40230
G1 X62.708 Y87.742 E2.44118
G1 X62.968 Y88.370 E2.46226
G1 X62.083 Y89.255 E2.50114
G1 X62.348 Y89.877 E2.52213
G1 X63.228 Y88.996 E2.56080
G1 X63.504 Y89.607 E2.58162
G1 X62.624 Y90.488 E2.62028
G1 X62.900 Y91.099 E2.64110
G1 X63.780 Y90.219 E2.67977
G1 X64.056 Y90.830 E2.70059
G1 X63.176 Y91.710 E2.73925
G1 X63.451 Y92.321 E2.76007
G1 X64.332 Y91.441 E2.79874
G1 X64.619 Y92.041 E2.81939
G1 X63.743 Y92.916 E2.85786
G1 X64.035 Y93.512 E2.87844
G1 X64.911 Y92.636 E2.91691
G1 X65.202 Y93.231 E2.93750
G1 X64.326 Y94.107 E2.97596
G1 X64.618 Y94.702 E2.99655
G1 X65.494 Y93.827 E3.03502
G1 X65.791 Y94.416 E3.05553
G1 X64.919 Y95.288 E3.09382
G1 X65.226 Y95.868 E3.11420
G1 X66.098 Y94.996 E3.15249
G1 X66.405 Y95.576 E3.17287
G1 X65.533 Y96.448 E3.21116
G1 X65.840 Y97.028 E3.23154
G1 X66.712 Y96.156 E3.26983
G1 X67.019 Y96.736 E3.29021
G1 X66.150 Y97.605 E3.32837
G1 X66.473 Y98.170 E3.34857
G1 X67.341 Y97.302 E3.38670
G1 X67.663 Y97.867 E3.40690
G1 X66.795 Y98.735 E3.44504
G1 X67.117 Y99.300 E3.46523
G1 X67.985 Y98.431 E3.50337
G1 X68.307 Y98.996 E3.52356
G1 X67.439 Y99.865 E3.56170
G1 X67.772 Y100.419 E3.58178
G1 X68.637 Y99.553 E3.61978
G1 X68.974 Y100.103 E3.63981
G1 X68.109 Y100.969 E3.67782
G1 X68.446 Y101.519 E3.69785
G1 X69.311 Y100.653 E3.73586
G1 X69.648 Y101.203 E3.75589
G1 X68.783 Y102.069 E3.79389
G1 X69.123 Y102.615 E3.81389
G1 X69.986 Y101.753 E3.85178
G1 X70.338 Y102.288 E3.87167
G1 X69.475 Y103.151 E3.90956
G1 X69.827 Y103.686 E3.92945
G1 X70.689 Y102.824 E3.96734
G1 X71.041 Y103.359 E3.98724
G1 X70.178 Y104.222 E4.02512
G1 X70.530 Y104.757 E4.04502
G1 X71.392 Y103.894 E4.08290
G1 X71.752 Y104.422 E4.10273
G1 X70.891 Y105.282 E4.14052
G1 X71.257 Y105.803 E4.16029
G1 X72.118 Y104.943 E4.19808
G1 X72.484 Y105.464 E4.21785
G1 X71.624 Y106.324 E4.25564
G1 X71.990 Y106.845 E4.27542
G1 X72.850 Y105.985 E4.31321
G1 X73.216 Y106.506 E4.33298
G1 X72.357 Y107.364 E4.37069
G1 X72.738 Y107.871 E4.39037
G1 X73.596 Y107.012 E4.42808
G1 X73.977 Y107.519 E4.44775
G1 X73.118 Y108.378 E4.48546
G1 X73.499 Y108.884 E4.50513
G1 X74.357 Y108.026 E4.54284
G1 X74.738 Y108.532 E4.56252
G1 X73.879 Y109.391 E4.60022
G1 X74.267 Y109.890 E4.61985
G1 X75.124 Y109.033 E4.65750
G1 X75.519 Y109.525 E4.67709
G1 X74.661 Y110.382 E4.71473
G1 X75.056 Y110.875 E4.73433
G1 X75.913 Y110.018 E4.77197
G1 X76.308 Y110.510 E4.79157
G1 X75.451 Y111.367 E4.82921
G1 X75.845 Y111.860 E4.84881
G1 X76.702 Y111.003 E4.88645
G1 X77.109 Y111.483 E4.90600
G1 X76.253 Y112.339 E4.94359
G1 X76.661 Y112.818 E4.96313
G1 X77.517 Y111.962 E5.00072
G1 X77.926 Y112.440 E5.02026
G1 X77.070 Y113.296 E5.05785
G1 X77.478 Y113.775 E5.07739
G1 X78.334 Y112.919 E5.11499
G1 X78.747 Y113.393 E5.13451
G1 X77.891 Y114.249 E5.17207
G1 X78.314 Y114.713 E5.19157
G1 X79.169 Y113.858 E5.22914
G1 X79.592 Y114.322 E5.24864
G1 X78.737 Y115.177 E5.28620
G1 X79.159 Y115.642 E5.30570
G1 X80.014 Y114.787 E5.34326
G1 X80.437 Y115.251 E5.36276
G1 X79.582 Y116.106 E5.40032
G1 X80.014 Y116.561 E5.41981
G1 X80.869 Y115.706 E5.45735
G1 X81.305 Y116.157 E5.47684
G1 X80.450 Y117.012 E5.51438
G1 X80.887 Y117.462 E5.53386
G1 X81.742 Y116.607 E5.57141
G1 X82.178 Y117.058 E5.59089
G1 X81.324 Y117.913 E5.62844
G1 X81.737 Y118.340 E5.64691
G1 X81.761 Y118.362 E5.64792
G1 X82.616 Y117.508 E5.68547
G1 X83.066 Y117.944 E5.70495
G1 X82.211 Y118.799 E5.74250
G1 X82.662 Y119.235 E5.76198
G1 X83.517 Y118.381 E5.79953
G1 X83.967 Y118.817 E5.81901
G1 X83.112 Y119.672 E5.85656
G1 X83.563 Y120.109 E5.87604
G1 X84.418 Y119.254 E5.91358
G1 X84.874 Y119.684 E5.93307
G1 X84.019 Y120.539 E5.97063
G1 X84.483 Y120.962 E5.99013
G1 X85.339 Y120.107 E6.02770
G1 X85.803 Y120.529 E6.04720
G1 X84.948 Y121.384 E6.08476
G1 X85.412 Y121.807 E6.10426
