; Gcode updated with 'stl_info' on 2019-12-05 16:53:40.014905

; stl_min_x = -115.0
; stl_max_x = 0.0
; stl_min_y = -96.01319885253906
; stl_max_y = 30.0
; stl_min_z = -630.0

; generated by Slic3r 1.3.1-dev (Build adea0d9) on 2019-12-05 at 16:53:39

; external perimeters extrusion width = 0.44mm (2.86mm^3/s)
; perimeters extrusion width = 0.56mm (4.14mm^3/s)
; infill extrusion width = 0.50mm (3.66mm^3/s)
; solid infill extrusion width = 0.56mm (3.10mm^3/s)
; top infill extrusion width = 0.56mm (3.10mm^3/s)

M107
G92 E0
;D3D:START:START
T0
M104 S215 T0

G21
G90
M107
T0
G28
G29
M109 T0 S215 T0
G0 F3000
M107
T0
G92 E0
G0 X0 Y149 Z0.1 F3600
G1 Y49 E6.5 F1200
G0 Z1
G92 E0
; Filament gcode

G21 ; set units to millimeters
G90 ; use absolute coordinates
M82 ; use absolute distances for extrusion
G92 E0
G1 Z0.300 F7800.000
G1 E-2.00000 F2400.00000
G92 E0
G1 X67.599 Y36.988 F7800.000
G1 E2.00000 F2400.00000
G1 F1800.000
G1 X71.386 Y34.668 E2.14711
G1 X74.662 Y32.799 E2.27206
G1 X77.476 Y31.309 E2.37755
G1 X77.064 Y30.597 E2.40480
G1 X77.622 Y30.302 E2.42569
G1 X81.032 Y28.631 E2.55150
G1 X84.493 Y27.068 E2.67730
G1 X88.001 Y25.615 E2.80311
G1 X91.553 Y24.273 E2.92892
G1 X95.146 Y23.043 E3.05472
G1 X98.776 Y21.926 E3.18053
G1 X102.438 Y20.924 E3.30634
G1 X106.131 Y20.038 E3.43214
G1 X109.849 Y19.268 E3.55795
G1 X113.590 Y18.615 E3.68376
G1 X117.350 Y18.080 E3.80956
G1 X121.124 Y17.663 E3.93537
G1 X124.910 Y17.365 E4.06117
G1 X126.804 Y17.276 E4.12399
G1 X126.804 Y18.099 E4.15125
G1 X128.729 Y18.008 E4.21510
G1 X131.804 Y17.959 E4.31698
G1 X131.804 Y20.728 E4.40869
G1 X128.816 Y20.775 E4.50769
G1 X125.135 Y20.948 E4.62976
G1 X121.462 Y21.237 E4.75183
G1 X117.800 Y21.642 E4.87390
G1 X114.152 Y22.161 E4.99597
G1 X110.522 Y22.794 E5.11804
G1 X106.914 Y23.542 E5.24011
G1 X103.331 Y24.402 E5.36218
G1 X99.777 Y25.374 E5.48425
G1 X96.255 Y26.457 E5.60632
G1 X92.770 Y27.651 E5.72839
G1 X89.323 Y28.953 E5.85046
G1 X85.919 Y30.363 E5.97253
G1 X82.560 Y31.880 E6.09460
G1 X79.252 Y33.501 E6.21667
G1 X75.995 Y35.225 E6.33874
G1 X72.795 Y37.050 E6.46081
G1 X69.653 Y38.976 E6.58287
G1 X66.573 Y40.998 E6.70495
G1 X63.559 Y43.117 E6.82701
G1 X60.612 Y45.329 E6.94908
G1 X57.737 Y47.633 E7.07115
G1 X54.935 Y50.026 E7.19322
G1 X52.210 Y52.506 E7.31529
G1 X49.564 Y55.070 E7.43736
G1 X46.999 Y57.716 E7.55943
G1 X44.520 Y60.441 E7.68150
G1 X42.127 Y63.243 E7.80357
G1 X39.823 Y66.119 E7.92564
G1 X37.611 Y69.065 E8.04771
G1 X35.492 Y72.080 E8.16978
G1 X33.469 Y75.160 E8.29185
G1 X31.704 Y78.039 E8.40373
G1 X29.718 Y81.501 E8.53596
G1 X27.994 Y84.758 E8.65805
G1 X26.373 Y88.067 E8.78012
G1 X24.856 Y91.425 E8.90220
G1 X23.447 Y94.829 E9.02426
G1 X22.145 Y98.276 E9.14632
G1 X21.804 Y99.271 E9.18116
G1 X21.804 Y121.570 E9.91994
G1 X18.196 Y121.570 E10.03945
G1 X18.196 Y98.724 E10.79633
G1 X18.766 Y97.060 E10.85461
G1 X20.108 Y93.508 E10.98042
G1 X21.561 Y89.999 E11.10622
G1 X23.124 Y86.538 E11.23204
G1 X24.795 Y83.128 E11.35784
G1 X25.090 Y82.571 E11.37873
G1 X25.802 Y82.982 E11.40598
G1 X27.292 Y80.168 E11.51147
G1 X29.161 Y76.892 E11.63643
G1 X31.481 Y73.106 E11.78353
G1 X30.788 Y72.706 E11.81003
G1 X32.523 Y70.062 E11.91479
G1 X34.706 Y66.955 E12.04059
G1 X36.986 Y63.918 E12.16639
G1 X39.360 Y60.955 E12.29220
G1 X41.826 Y58.067 E12.41801
G1 X44.382 Y55.258 E12.54382
G1 X47.025 Y52.531 E12.66962
G1 X49.752 Y49.889 E12.79542
G1 X52.560 Y47.333 E12.92123
G1 X55.448 Y44.867 E13.04704
G1 X58.412 Y42.492 E13.17284
G1 X61.448 Y40.212 E13.29865
G1 X64.555 Y38.029 E13.42445
G1 X67.199 Y36.295 E13.52921
G1 X67.569 Y36.936 E13.55373
G1 X67.693 Y36.619 F7800.000
G1 F1800.000
G1 X71.250 Y34.439 E13.69194
G1 X74.534 Y32.566 E13.81717
G1 X77.108 Y31.203 E13.91367
G1 X76.696 Y30.491 E13.94092
G1 X77.501 Y30.065 E13.97108
G1 X80.919 Y28.390 E14.09716
G1 X84.387 Y26.824 E14.22324
G1 X87.903 Y25.368 E14.34933
G1 X91.463 Y24.023 E14.47541
G1 X95.064 Y22.790 E14.60149
G1 X98.701 Y21.671 E14.72758
G1 X102.372 Y20.667 E14.85366
G1 X106.073 Y19.778 E14.97974
G1 X109.800 Y19.007 E15.10582
G1 X113.549 Y18.352 E15.23191
G1 X117.316 Y17.816 E15.35799
G1 X121.099 Y17.398 E15.48407
G1 X124.893 Y17.100 E15.61015
G1 X127.069 Y16.997 E15.68233
G1 X127.069 Y17.820 E15.70959
G1 X128.721 Y17.742 E15.76436
G1 X132.069 Y17.690 E15.87531
G1 X132.069 Y20.989 E15.98463
G1 X128.824 Y21.040 E16.09215
G1 X125.152 Y21.213 E16.21395
G1 X121.487 Y21.502 E16.33574
G1 X117.833 Y21.905 E16.45753
G1 X114.193 Y22.423 E16.57932
G1 X110.572 Y23.055 E16.70112
G1 X106.972 Y23.801 E16.82291
G1 X103.397 Y24.659 E16.94470
G1 X99.851 Y25.629 E17.06650
G1 X96.338 Y26.710 E17.18829
G1 X92.859 Y27.901 E17.31008
G1 X89.421 Y29.200 E17.43188
G1 X86.024 Y30.607 E17.55367
G1 X82.674 Y32.120 E17.67546
G1 X79.372 Y33.737 E17.79726
G1 X76.123 Y35.458 E17.91905
G1 X72.930 Y37.279 E18.04084
G1 X69.795 Y39.200 E18.16263
G1 X66.723 Y41.218 E18.28443
G1 X63.715 Y43.332 E18.40622
G1 X60.775 Y45.539 E18.52801
G1 X57.906 Y47.838 E18.64981
G1 X55.111 Y50.226 E18.77160
G1 X52.391 Y52.700 E18.89340
G1 X49.751 Y55.258 E19.01519
G1 X47.193 Y57.898 E19.13698
G1 X44.719 Y60.617 E19.25877
G1 X42.331 Y63.413 E19.38057
G1 X40.033 Y66.282 E19.50236
G1 X37.826 Y69.222 E19.62415
G1 X35.712 Y72.229 E19.74595
G1 X33.693 Y75.302 E19.86774
G1 X31.933 Y78.175 E19.97936
G1 X29.951 Y81.629 E20.11131
G1 X28.231 Y84.879 E20.23311
G1 X26.614 Y88.180 E20.35490
G1 X25.100 Y91.531 E20.47670
G1 X23.694 Y94.927 E20.59849
G1 X22.395 Y98.366 E20.72028
G1 X22.069 Y99.315 E20.75351
G1 X22.069 Y121.836 E21.49962
G1 X17.931 Y121.836 E21.63674
G1 X17.931 Y98.680 E22.40388
G1 X18.516 Y96.970 E22.46377
G1 X19.861 Y93.410 E22.58985
G1 X21.317 Y89.894 E22.71593
G1 X22.884 Y86.425 E22.84202
G1 X24.558 Y83.008 E22.96810
G1 X24.984 Y82.203 E22.99826
G1 X25.696 Y82.614 E23.02550
G1 X27.059 Y80.040 E23.12200
G1 X28.933 Y76.757 E23.24724
G1 X31.112 Y73.200 E23.38545
G1 X30.412 Y72.795 E23.41223
G1 X32.303 Y69.912 E23.52645
G1 X34.491 Y66.799 E23.65252
G1 X36.776 Y63.755 E23.77861
G1 X39.156 Y60.785 E23.90469
G1 X41.627 Y57.891 E24.03077
G1 X44.189 Y55.076 E24.15686
G1 X46.837 Y52.344 E24.28294
G1 X49.570 Y49.695 E24.40902
G1 X52.385 Y47.134 E24.53510
G1 X55.279 Y44.662 E24.66118
G1 X58.249 Y42.283 E24.78727
G1 X61.292 Y39.997 E24.91335
G1 X64.406 Y37.809 E25.03943
G1 X67.289 Y35.919 E25.15365
G1 X67.663 Y36.567 E25.17844
G1 X67.787 Y36.250 F7800.000
G1 F1800.000
G1 X71.115 Y34.210 E25.30777
G1 X74.406 Y32.333 E25.43327
G1 X76.740 Y31.097 E25.52078
G1 X76.329 Y30.385 E25.54803
G1 X77.380 Y29.828 E25.58745
G1 X80.805 Y28.150 E25.71381
G1 X84.282 Y26.581 E25.84017
G1 X87.805 Y25.121 E25.96653
G1 X91.373 Y23.773 E26.09289
G1 X94.982 Y22.537 E26.21925
G1 X98.627 Y21.416 E26.34561
G1 X102.306 Y20.409 E26.47197
G1 X106.015 Y19.519 E26.59833
G1 X109.750 Y18.746 E26.72469
G1 X113.507 Y18.090 E26.85105
G1 X117.283 Y17.552 E26.97741
G1 X121.074 Y17.134 E27.10377
G1 X124.877 Y16.835 E27.23012
G1 X127.335 Y16.719 E27.31166
G1 X127.335 Y17.542 E27.33893
G1 X128.712 Y17.477 E27.38460
G1 X132.335 Y17.420 E27.50464
G1 X132.335 Y21.251 E27.63155
G1 X128.833 Y21.306 E27.74760
G1 X125.169 Y21.479 E27.86912
G1 X121.512 Y21.766 E27.99064
G1 X117.866 Y22.169 E28.11215
G1 X114.235 Y22.686 E28.23367
G1 X110.622 Y23.316 E28.35519
G1 X107.030 Y24.060 E28.47670
G1 X103.463 Y24.916 E28.59822
G1 X99.925 Y25.884 E28.71974
G1 X96.420 Y26.963 E28.84125
G1 X92.949 Y28.151 E28.96277
G1 X89.518 Y29.447 E29.08429
G1 X86.130 Y30.851 E29.20580
G1 X82.787 Y32.360 E29.32732
G1 X79.493 Y33.974 E29.44884
G1 X76.251 Y35.690 E29.57035
G1 X73.065 Y37.508 E29.69187
G1 X69.938 Y39.424 E29.81339
G1 X66.872 Y41.438 E29.93490
G1 X63.871 Y43.547 E30.05642
G1 X60.938 Y45.749 E30.17793
G1 X58.075 Y48.043 E30.29945
G1 X55.286 Y50.425 E30.42097
G1 X52.573 Y52.893 E30.54249
G1 X49.939 Y55.446 E30.66400
G1 X47.387 Y58.080 E30.78552
G1 X44.918 Y60.793 E30.90703
G1 X42.536 Y63.582 E31.02855
G1 X40.243 Y66.445 E31.15007
G1 X38.040 Y69.378 E31.27158
G1 X35.931 Y72.379 E31.39310
G1 X33.918 Y75.444 E31.51462
G1 X32.161 Y78.310 E31.62597
G1 X30.184 Y81.758 E31.75765
G1 X28.468 Y84.999 E31.87916
G1 X26.854 Y88.293 E32.00067
G1 X25.344 Y91.636 E32.12220
G1 X23.941 Y95.025 E32.24371
G1 X22.645 Y98.456 E32.36523
G1 X22.335 Y99.359 E32.39685
G1 X22.335 Y122.102 E33.15030
G1 X18.135 Y122.102 E33.28944
G1 X18.135 Y137.372 E33.79533
G1 X22.335 Y137.372 E33.93448
G1 X22.335 Y137.842 E33.95005
G1 X17.665 Y137.842 E34.10476
G1 X17.665 Y98.636 E35.40363
G1 X18.266 Y96.880 E35.46512
G1 X19.614 Y93.312 E35.59148
G1 X21.074 Y89.788 E35.71783
G1 X22.644 Y86.312 E35.84420
G1 X24.322 Y82.887 E35.97056
G1 X24.879 Y81.835 E36.00998
G1 X25.591 Y82.247 E36.03723
G1 X26.827 Y79.912 E36.12473
G1 X28.704 Y76.622 E36.25024
G1 X30.743 Y73.293 E36.37956
G1 X30.036 Y72.885 E36.40662
G1 X32.083 Y69.763 E36.53030
G1 X34.276 Y66.643 E36.65665
G1 X36.566 Y63.593 E36.78301
G1 X38.951 Y60.616 E36.90937
G1 X41.428 Y57.716 E37.03573
G1 X43.995 Y54.895 E37.16209
G1 X46.649 Y52.156 E37.28845
G1 X49.388 Y49.501 E37.41481
G1 X52.209 Y46.934 E37.54117
G1 X55.109 Y44.457 E37.66753
G1 X58.086 Y42.073 E37.79389
G1 X61.136 Y39.783 E37.92025
G1 X64.257 Y37.589 E38.04660
G1 X67.378 Y35.542 E38.17028
G1 X67.757 Y36.198 E38.19536
G1 E36.19536 F2400.00000
G92 E0
G1 X77.641 Y31.347 F7800.000
G1 E2.00000 F2400.00000
G1 F1800.000
G1 X79.233 Y29.755 E2.07491
G1 X78.493 Y30.118 E2.10233
G1 X77.503 Y31.108 E2.14893
G1 X77.365 Y30.868 E2.15812
G1 X77.746 Y30.488 E2.17604
G1 E0.17604 F2400.00000
G92 E0
G1 X47.324 Y52.608 F7800.000
G1 E2.00000 F2400.00000
G1 F1800.000
G1 X44.472 Y55.543 E2.13619
G1 X41.682 Y58.627 E2.27458
G1 X53.121 Y47.189 E2.81290
G1 X55.707 Y44.980 E2.92608
G1 X39.474 Y61.213 E3.69005
G1 X37.950 Y63.115 E3.77115
G1 X57.608 Y43.456 E4.69634
G1 X58.678 Y42.599 E4.74196
G1 X59.338 Y42.103 E4.76945
G1 X36.596 Y64.845 E5.83977
G1 X35.459 Y66.359 E5.90279
G1 X60.853 Y40.966 E7.09790
G1 X61.708 Y40.324 E7.13347
G1 X62.261 Y39.935 E7.15596
G1 X34.429 Y67.767 E8.46581
G1 X33.537 Y69.036 E8.51744
G1 X63.530 Y39.043 E9.92902
G1 X64.800 Y38.151 E9.98066
G1 X32.645 Y70.306 E11.49398
G1 X31.925 Y71.403 E11.53767
G1 X65.897 Y37.431 E13.13653
G1 X66.994 Y36.712 E13.18016
G1 X31.206 Y72.500 E14.86446
G1 X31.061 Y72.720 E14.87321
G1 X31.252 Y72.830 E14.88056
G1 X67.324 Y36.759 E16.57819
G1 X67.462 Y36.998 E16.58738
G1 X53.256 Y51.204 E17.25595
G1 X54.656 Y49.930 E17.31893
G1 X56.378 Y48.460 E17.39429
G1 X67.600 Y37.238 E17.92244
G1 X67.609 Y37.253 E17.92304
G1 X68.519 Y36.695 E17.95857
G1 X58.565 Y46.650 E18.42708
G1 X60.439 Y45.153 E18.50689
G1 X69.494 Y36.098 E18.93306
G1 X70.468 Y35.501 E18.97109
G1 X61.953 Y44.017 E19.37186
G1 X63.440 Y42.907 E19.43361
G1 X71.443 Y34.904 E19.81024
G1 X72.339 Y34.385 E19.84471
G1 X64.710 Y42.014 E20.20376
G1 X65.980 Y41.122 E20.25541
G1 X73.217 Y33.884 E20.59604
G1 X74.096 Y33.383 E20.62969
G1 X67.125 Y40.354 E20.95776
G1 X68.225 Y39.631 E21.00154
G1 X74.967 Y32.889 E21.31886
G1 X75.769 Y32.465 E21.34905
G1 X69.324 Y38.909 E21.65236
G1 X70.308 Y38.303 E21.69083
G1 X76.571 Y32.040 E21.98557
G1 X77.373 Y31.615 E22.01577
G1 X71.283 Y37.705 E22.30238
G1 X72.257 Y37.108 E22.34042
G1 X79.973 Y29.393 E22.70353
G1 X80.712 Y29.030 E22.73094
G1 X73.165 Y36.578 E23.08615
G1 X74.043 Y36.077 E23.11980
G1 X81.438 Y28.682 E23.46780
G1 X82.126 Y28.372 E23.49292
G1 X74.922 Y35.576 E23.83197
G1 X75.797 Y35.078 E23.86548
G1 X82.814 Y28.061 E24.19571
G1 X83.502 Y27.750 E24.22083
G1 X76.599 Y34.653 E24.54570
G1 X77.401 Y34.229 E24.57590
G1 X84.190 Y27.440 E24.89540
G1 X84.866 Y27.140 E24.92003
G1 X78.203 Y33.804 E25.23364
G1 X79.005 Y33.379 E25.26383
G1 X85.511 Y26.874 E25.57002
G1 X86.155 Y26.607 E25.59322
G1 X79.746 Y33.015 E25.89482
G1 X80.486 Y32.653 E25.92223
G1 X86.799 Y26.340 E26.21933
G1 X87.443 Y26.073 E26.24254
G1 X81.226 Y32.290 E26.53515
G1 X81.965 Y31.928 E26.56256
G1 X88.087 Y25.806 E26.85067
G1 X88.700 Y25.570 E26.87254
G1 X82.680 Y31.591 E27.15588
G1 X83.368 Y31.280 E27.18100
G1 X89.307 Y25.341 E27.46052
G1 X89.913 Y25.112 E27.48210
G1 X84.056 Y30.970 E27.75778
G1 X84.744 Y30.659 E27.78290
G1 X90.520 Y24.883 E28.05476
G1 X91.127 Y24.654 E28.07633
G1 X85.432 Y30.348 E28.34435
G1 X86.094 Y30.064 E28.36833
G1 X91.733 Y24.424 E28.63374
G1 X92.308 Y24.227 E28.65396
G1 X86.738 Y29.797 E28.91609
G1 X87.382 Y29.530 E28.93930
G1 X92.881 Y24.031 E29.19812
G1 X93.455 Y23.834 E29.21830
G1 X88.026 Y29.263 E29.47382
G1 X88.670 Y28.997 E29.49702
G1 X94.029 Y23.638 E29.74922
G1 X94.603 Y23.441 E29.76940
G1 X89.303 Y28.741 E30.01882
G1 X89.910 Y28.512 E30.04040
G1 X95.176 Y23.245 E30.28827
G1 X95.729 Y23.070 E30.30757
G1 X90.516 Y28.283 E30.55292
G1 X91.123 Y28.054 E30.57450
G1 X96.274 Y22.902 E30.81695
G1 X96.819 Y22.734 E30.83592
G1 X91.729 Y27.824 E31.07548
G1 X92.336 Y27.595 E31.09705
G1 X97.364 Y22.567 E31.33371
G1 X97.909 Y22.399 E31.35269
G1 X92.922 Y27.386 E31.58738
G1 X93.496 Y27.189 E31.60757
G1 X98.454 Y22.231 E31.84091
G1 X98.953 Y22.078 E31.85827
G1 X98.997 Y22.066 E31.85979
G1 X94.070 Y26.993 E32.09167
G1 X94.644 Y26.796 E32.11186
G1 X99.516 Y21.924 E32.34118
G1 X100.036 Y21.782 E32.35910
G1 X95.218 Y26.600 E32.58587
G1 X95.791 Y26.403 E32.60605
G1 X100.555 Y21.639 E32.83026
G1 X101.075 Y21.497 E32.84818
G1 X96.350 Y26.222 E33.07053
G1 X96.895 Y26.054 E33.08950
G1 X101.594 Y21.355 E33.31065
G1 X102.114 Y21.213 E33.32857
G1 X97.440 Y25.886 E33.54851
G1 X97.985 Y25.719 E33.56749
G1 X102.632 Y21.072 E33.78617
G1 X103.129 Y20.953 E33.80317
G1 X98.530 Y25.551 E34.01958
G1 X99.075 Y25.383 E34.03855
G1 X103.625 Y20.834 E34.25268
G1 X104.122 Y20.715 E34.26967
G1 X99.619 Y25.217 E34.48156
G1 X100.139 Y25.075 E34.49948
G1 X104.618 Y20.595 E34.71030
G1 X105.115 Y20.476 E34.72729
G1 X100.658 Y24.933 E34.93702
G1 X101.178 Y24.790 E34.95495
G1 X105.611 Y20.357 E35.16360
G1 X106.108 Y20.238 E35.18060
G1 X101.697 Y24.648 E35.38818
G1 X102.217 Y24.506 E35.40610
G1 X106.591 Y20.132 E35.61199
G1 X107.067 Y20.033 E35.62816
G1 X102.736 Y24.364 E35.83200
G1 X103.251 Y24.226 E35.84975
G1 X107.543 Y19.934 E36.05174
G1 X108.019 Y19.836 E36.06791
G1 X103.748 Y24.107 E36.26892
G1 X104.244 Y23.988 E36.28592
G1 X108.495 Y19.737 E36.48595
G1 X108.971 Y19.639 E36.50213
G1 X104.741 Y23.869 E36.70119
G1 X105.238 Y23.749 E36.71819
G1 X109.447 Y19.540 E36.91628
G1 X109.922 Y19.442 E36.93246
G1 X105.734 Y23.630 E37.12958
G1 X106.231 Y23.511 E37.14657
G1 X110.383 Y19.359 E37.34199
G1 X110.840 Y19.279 E37.35743
G1 X106.727 Y23.392 E37.55099
G1 X107.204 Y23.292 E37.56721
G1 X111.297 Y19.199 E37.75983
G1 X111.754 Y19.119 E37.77527
G1 X107.680 Y23.194 E37.96702
G1 X108.156 Y23.095 E37.98319
G1 X112.211 Y19.040 E38.17405
G1 X112.668 Y18.960 E38.18949
G1 X108.632 Y22.996 E38.37947
G1 X109.108 Y22.898 E38.39564
G1 X113.125 Y18.880 E38.58474
G1 X113.583 Y18.800 E38.60018
G1 X109.584 Y22.799 E38.78839
G1 X110.059 Y22.701 E38.80456
G1 X114.028 Y18.732 E38.99135
G1 X114.468 Y18.669 E39.00614
G1 X110.529 Y22.609 E39.19154
G1 X110.986 Y22.529 E39.20698
G1 X114.908 Y18.607 E39.39158
G1 X115.348 Y18.544 E39.40637
G1 X111.443 Y22.449 E39.59016
G1 X111.900 Y22.369 E39.60560
G1 X115.788 Y18.481 E39.78859
G1 X116.228 Y18.419 E39.80338
G1 X112.357 Y22.290 E39.98555
G1 X112.814 Y22.210 E40.00099
G1 X116.668 Y18.356 E40.18236
G1 X117.108 Y18.294 E40.19715
G1 X113.271 Y22.130 E40.37771
G1 X113.729 Y22.050 E40.39315
G1 X117.546 Y18.233 E40.57280
G1 X117.970 Y18.186 E40.58700
G1 X114.179 Y21.977 E40.76542
G1 X114.619 Y21.915 E40.78021
G1 X118.394 Y18.140 E40.95788
G1 X118.818 Y18.093 E40.97208
G1 X115.059 Y21.852 E41.14900
G1 X115.499 Y21.789 E41.16379
G1 X119.242 Y18.046 E41.33998
G1 X119.666 Y17.999 E41.35418
G1 X115.939 Y21.727 E41.52962
G1 X116.379 Y21.664 E41.54441
G1 X120.091 Y17.952 E41.71911
G1 X120.515 Y17.905 E41.73331
G1 X116.819 Y21.602 E41.90726
G1 X117.259 Y21.539 E41.92205
G1 X120.939 Y17.859 E42.09526
G1 X121.252 Y17.824 E42.10576
G1 X121.359 Y17.816 E42.10933
G1 X117.697 Y21.478 E42.28168
G1 X118.121 Y21.431 E42.29588
G1 X121.769 Y17.783 E42.46754
G1 X122.178 Y17.751 E42.48121
G1 X118.546 Y21.384 E42.65219
G1 X118.970 Y21.337 E42.66639
G1 X122.588 Y17.719 E42.83668
