; generated by Slic3r 1.3.1-dev (Build 2ef957d) on 2019-11-25 at 09:24:52

; external perimeters extrusion width = 0.55mm (4.37mm^3/s)
; perimeters extrusion width = 0.70mm (11.44mm^3/s)
; infill extrusion width = 0.62mm (13.45mm^3/s)
; solid infill extrusion width = 0.70mm (3.81mm^3/s)
; top infill extrusion width = 0.70mm (2.86mm^3/s)

M107
G92 E0
M104 S200 ; set temperature
G28 ; home all axes
G1 Z5 F5000 ; lift nozzle

; Filament gcode

M109 S200 ; set temperature and wait for it to be reached
G21 ; set units to millimeters
G90 ; use absolute coordinates
M82 ; use absolute distances for extrusion
G92 E0
G1 Z0.350 F7800.000
G1 E-2.00000 F2400.00000
G92 E0
G1 X89.943 Y89.985 F7800.000
G1 E2.00000 F2400.00000
G1 F1800.000
G1 X90.636 Y89.334 E2.02943
G1 X91.278 Y88.804 E2.05518
G1 X92.047 Y88.245 E2.08461
G1 X92.750 Y87.799 E2.11035
G1 X93.583 Y87.341 E2.13979
G1 X94.336 Y86.986 E2.16553
G1 X95.220 Y86.636 E2.19496
G1 X96.012 Y86.379 E2.22070
G1 X96.933 Y86.142 E2.25014
G1 X97.750 Y85.987 E2.27588
G1 X98.694 Y85.867 E2.30531
G1 X99.524 Y85.815 E2.33106
G1 X100.476 Y85.815 E2.36049
G1 X101.306 Y85.867 E2.38623
G1 X102.250 Y85.987 E2.41566
G1 X103.067 Y86.142 E2.44141
G1 X103.988 Y86.379 E2.47084
G1 X104.780 Y86.636 E2.49658
G1 X105.664 Y86.986 E2.52602
G1 X106.417 Y87.341 E2.55176
G1 X107.250 Y87.799 E2.58119
G1 X107.953 Y88.245 E2.60693
G1 X108.722 Y88.804 E2.63637
G1 X109.364 Y89.334 E2.66211
G1 X110.057 Y89.985 E2.69154
G1 X110.627 Y90.592 E2.71729
G1 X111.233 Y91.325 E2.74672
G1 X111.722 Y91.998 E2.77246
G1 X112.232 Y92.801 E2.80189
G1 X112.632 Y93.530 E2.82763
G1 X113.037 Y94.391 E2.85707
G1 X113.344 Y95.164 E2.88281
G1 X113.638 Y96.069 E2.91225
G1 X113.845 Y96.875 E2.93799
G1 X114.023 Y97.809 E2.96742
G1 X114.127 Y98.635 E2.99316
G1 X114.187 Y99.584 E3.02260
G1 X114.187 Y100.416 E3.04834
G1 X114.127 Y101.365 E3.07777
G1 X114.023 Y102.191 E3.10351
G1 X113.845 Y103.125 E3.13295
G1 X113.638 Y103.931 E3.15869
G1 X113.344 Y104.836 E3.18812
G1 X113.037 Y105.609 E3.21387
G1 X112.632 Y106.470 E3.24330
G1 X112.232 Y107.199 E3.26904
G1 X111.722 Y108.002 E3.29848
G1 X111.233 Y108.675 E3.32422
G1 X110.627 Y109.408 E3.35365
G1 X110.057 Y110.015 E3.37939
G1 X109.364 Y110.666 E3.40883
G1 X108.722 Y111.196 E3.43457
G1 X107.953 Y111.755 E3.46400
G1 X107.250 Y112.201 E3.48974
G1 X106.417 Y112.659 E3.51918
G1 X105.664 Y113.014 E3.54492
G1 X104.780 Y113.364 E3.57435
G1 X103.988 Y113.621 E3.60009
G1 X103.067 Y113.858 E3.62953
G1 X102.250 Y114.013 E3.65527
G1 X101.306 Y114.133 E3.68471
G1 X100.476 Y114.185 E3.71045
G1 X99.524 Y114.185 E3.73988
G1 X98.694 Y114.133 E3.76562
G1 X97.750 Y114.013 E3.79506
G1 X96.933 Y113.858 E3.82080
G1 X96.012 Y113.621 E3.85023
G1 X95.220 Y113.364 E3.87597
G1 X94.336 Y113.014 E3.90541
G1 X93.583 Y112.659 E3.93115
G1 X92.750 Y112.201 E3.96058
G1 X92.047 Y111.755 E3.98632
G1 X91.278 Y111.196 E4.01576
G1 X90.636 Y110.666 E4.04150
G1 X89.943 Y110.015 E4.07094
G1 X89.373 Y109.408 E4.09668
G1 X88.767 Y108.675 E4.12611
G1 X88.278 Y108.002 E4.15185
G1 X87.768 Y107.199 E4.18129
G1 X87.368 Y106.470 E4.20703
G1 X86.963 Y105.609 E4.23646
G1 X86.656 Y104.836 E4.26220
G1 X86.362 Y103.931 E4.29164
G1 X86.155 Y103.125 E4.31738
G1 X85.977 Y102.191 E4.34681
G1 X85.873 Y101.365 E4.37256
G1 X85.813 Y100.416 E4.40199
G1 X85.813 Y99.584 E4.42773
G1 X85.873 Y98.635 E4.45716
G1 X85.977 Y97.809 E4.48291
G1 X86.155 Y96.875 E4.51234
G1 X86.362 Y96.069 E4.53808
G1 X86.656 Y95.164 E4.56752
G1 X86.963 Y94.391 E4.59326
G1 X87.368 Y93.530 E4.62269
G1 X87.768 Y92.801 E4.64843
G1 X88.278 Y91.998 E4.67787
G1 X88.767 Y91.325 E4.70361
G1 X89.373 Y90.592 E4.73304
G1 X89.892 Y90.040 E4.75646
G1 E2.75646 F2400.00000
G92 E0
G1 X103.538 Y103.322 F7800.000
G1 E2.00000 F2400.00000
G1 F1800.000
G1 X103.093 Y103.739 E2.01886
G1 X102.600 Y104.097 E2.03771
G1 X102.066 Y104.391 E2.05657
G1 X101.500 Y104.615 E2.07543
G1 X100.909 Y104.767 E2.09428
G1 X100.305 Y104.843 E2.11314
G1 X99.695 Y104.843 E2.13200
G1 X99.091 Y104.767 E2.15086
G1 X98.500 Y104.615 E2.16971
G1 X97.934 Y104.391 E2.18857
G1 X97.400 Y104.097 E2.20743
G1 X96.907 Y103.739 E2.22628
G1 X96.462 Y103.322 E2.24514
G1 X96.074 Y102.852 E2.26400
G1 X95.747 Y102.338 E2.28285
G1 X95.488 Y101.786 E2.30171
G1 X95.300 Y101.207 E2.32057
G1 X95.185 Y100.608 E2.33942
G1 X95.147 Y100.000 E2.35828
G1 X95.185 Y99.392 E2.37714
G1 X95.300 Y98.793 E2.39599
G1 X95.488 Y98.214 E2.41485
G1 X95.747 Y97.662 E2.43371
G1 X96.074 Y97.148 E2.45256
G1 X96.462 Y96.678 E2.47142
G1 X96.907 Y96.261 E2.49028
G1 X97.400 Y95.903 E2.50913
G1 X97.934 Y95.609 E2.52799
G1 X98.500 Y95.385 E2.54685
G1 X99.091 Y95.233 E2.56570
G1 X99.695 Y95.157 E2.58456
G1 X100.305 Y95.157 E2.60342
G1 X100.909 Y95.233 E2.62227
G1 X101.500 Y95.385 E2.64113
G1 X102.066 Y95.609 E2.65999
G1 X102.600 Y95.903 E2.67884
G1 X103.093 Y96.261 E2.69770
G1 X103.538 Y96.678 E2.71656
G1 X103.926 Y97.148 E2.73542
G1 X104.253 Y97.662 E2.75427
G1 X104.512 Y98.214 E2.77313
G1 X104.700 Y98.793 E2.79199
G1 X104.815 Y99.392 E2.81084
G1 X104.853 Y100.000 E2.82970
G1 X104.815 Y100.608 E2.84856
G1 X104.702 Y101.199 E2.86716
G1 X104.529 Y101.751 E2.88506
G1 X104.253 Y102.338 E2.90513
G1 X103.926 Y102.852 E2.92399
G1 X103.585 Y103.264 E2.94053
G1 X103.081 Y102.893 F7800.000
G1 F1800.000
G1 X102.694 Y103.257 E2.95695
G1 X102.265 Y103.569 E2.97338
G1 X101.800 Y103.825 E2.98980
G1 X101.306 Y104.020 E3.00622
G1 X100.792 Y104.152 E3.02265
G1 X100.265 Y104.218 E3.03907
G1 X99.735 Y104.218 E3.05550
G1 X99.208 Y104.152 E3.07192
G1 X98.694 Y104.020 E3.08834
G1 X98.200 Y103.825 E3.10477
G1 X97.735 Y103.569 E3.12119
G1 X97.306 Y103.257 E3.13761
G1 X96.919 Y102.893 E3.15404
G1 X96.580 Y102.484 E3.17046
G1 X96.296 Y102.036 E3.18689
G1 X96.070 Y101.556 E3.20331
G1 X95.906 Y101.051 E3.21973
G1 X95.807 Y100.530 E3.23616
G1 X95.773 Y100.000 E3.25258
G1 X95.807 Y99.470 E3.26901
G1 X95.906 Y98.949 E3.28543
G1 X96.070 Y98.444 E3.30185
G1 X96.296 Y97.964 E3.31828
G1 X96.580 Y97.516 E3.33470
G1 X96.919 Y97.107 E3.35112
G1 X97.306 Y96.743 E3.36755
G1 X97.735 Y96.431 E3.38397
G1 X98.200 Y96.175 E3.40040
G1 X98.694 Y95.980 E3.41682
G1 X99.208 Y95.848 E3.43324
G1 X99.735 Y95.782 E3.44967
G1 X100.265 Y95.782 E3.46609
G1 X100.792 Y95.848 E3.48252
G1 X101.306 Y95.980 E3.49894
G1 X101.800 Y96.175 E3.51536
G1 X102.265 Y96.431 E3.53179
G1 X102.694 Y96.743 E3.54821
G1 X103.081 Y97.107 E3.56464
G1 X103.420 Y97.516 E3.58106
G1 X103.704 Y97.964 E3.59748
G1 X103.930 Y98.444 E3.61391
G1 X104.094 Y98.949 E3.63033
G1 X104.193 Y99.470 E3.64675
G1 X104.227 Y100.000 E3.66318
G1 X104.193 Y100.530 E3.67960
G1 X104.095 Y101.046 E3.69587
G1 X103.945 Y101.523 E3.71134
G1 X103.704 Y102.036 E3.72888
G1 X103.420 Y102.484 E3.74531
G1 X103.129 Y102.836 E3.75941
G1 X102.625 Y102.465 F7800.000
G1 F1800.000
G1 X102.295 Y102.774 E3.77340
G1 X101.929 Y103.040 E3.78739
G1 X101.533 Y103.258 E3.80138
G1 X101.113 Y103.424 E3.81537
G1 X100.675 Y103.537 E3.82936
G1 X100.226 Y103.594 E3.84336
G1 X99.774 Y103.594 E3.85735
G1 X99.325 Y103.537 E3.87134
G1 X98.887 Y103.424 E3.88533
G1 X98.467 Y103.258 E3.89932
G1 X98.071 Y103.040 E3.91331
G1 X97.705 Y102.774 E3.92730
G1 X97.375 Y102.465 E3.94129
G1 X97.087 Y102.116 E3.95528
G1 X96.845 Y101.735 E3.96927
G1 X96.652 Y101.325 E3.98327
G1 X96.512 Y100.895 E3.99726
G1 X96.428 Y100.451 E4.01125
G1 X96.399 Y100.000 E4.02524
G1 X96.428 Y99.549 E4.03923
G1 X96.512 Y99.105 E4.05322
G1 X96.652 Y98.675 E4.06721
G1 X96.845 Y98.265 E4.08120
G1 X97.087 Y97.884 E4.09519
G1 X97.375 Y97.535 E4.10918
G1 X97.705 Y97.226 E4.12318
G1 X98.071 Y96.960 E4.13717
G1 X98.467 Y96.742 E4.15116
G1 X98.887 Y96.576 E4.16515
G1 X99.325 Y96.463 E4.17914
G1 X99.774 Y96.406 E4.19313
G1 X100.226 Y96.406 E4.20712
G1 X100.675 Y96.463 E4.22111
G1 X101.113 Y96.576 E4.23510
G1 X101.533 Y96.742 E4.24909
G1 X101.929 Y96.960 E4.26309
G1 X102.295 Y97.226 E4.27708
G1 X102.625 Y97.535 E4.29107
G1 X102.913 Y97.884 E4.30506
G1 X103.155 Y98.265 E4.31905
G1 X103.348 Y98.675 E4.33304
G1 X103.488 Y99.105 E4.34703
G1 X103.572 Y99.549 E4.36102
G1 X103.601 Y100.000 E4.37501
G1 X103.572 Y100.451 E4.38900
G1 X103.488 Y100.894 E4.40294
G1 X103.362 Y101.296 E4.41598
G1 X103.155 Y101.735 E4.43099
G1 X102.913 Y102.116 E4.44498
G1 X102.673 Y102.407 E4.45665
G1 X102.625 Y102.465 F7800.000
G1 E2.45665 F2400.00000
G92 E0
G1 X104.448 Y103.973 F7800.000
G1 E2.00000 F2400.00000
G1 F1800.000
G1 X104.353 Y104.088 E2.00461
G1 X103.807 Y104.602 E2.02781
G1 X103.200 Y105.042 E2.05102
G1 X102.543 Y105.404 E2.07422
G1 X101.845 Y105.680 E2.09743
G1 X101.119 Y105.866 E2.12063
G1 X100.375 Y105.960 E2.14384
G1 X99.625 Y105.960 E2.16704
G1 X98.881 Y105.866 E2.19025
G1 X98.155 Y105.680 E2.21345
G1 X97.457 Y105.404 E2.23666
G1 X96.800 Y105.042 E2.25987
G1 X96.193 Y104.602 E2.28307
G1 X95.647 Y104.088 E2.30628
G1 X95.169 Y103.510 E2.32948
G1 X94.767 Y102.877 E2.35269
G1 X94.447 Y102.198 E2.37589
G1 X94.216 Y101.485 E2.39910
G1 X94.075 Y100.748 E2.42230
G1 X94.028 Y100.000 E2.44551
G1 X94.075 Y99.251 E2.46871
G1 X94.216 Y98.515 E2.49192
G1 X94.447 Y97.802 E2.51512
G1 X94.767 Y97.123 E2.53833
G1 X95.169 Y96.490 E2.56153
G1 X95.647 Y95.912 E2.58474
G1 X96.193 Y95.398 E2.60795
G1 X96.800 Y94.958 E2.63115
G1 X97.457 Y94.596 E2.65436
G1 X98.155 Y94.320 E2.67756
G1 X98.881 Y94.134 E2.70077
G1 X99.625 Y94.040 E2.72397
G1 X100.375 Y94.040 E2.74718
G1 X101.119 Y94.134 E2.77038
G1 X101.845 Y94.320 E2.79359
G1 X102.543 Y94.596 E2.81679
G1 X103.200 Y94.958 E2.84000
G1 X103.807 Y95.398 E2.86320
G1 X104.353 Y95.912 E2.88641
G1 X104.831 Y96.490 E2.90961
G1 X105.233 Y97.123 E2.93282
G1 X105.553 Y97.802 E2.95602
G1 X105.784 Y98.515 E2.97923
G1 X105.925 Y99.251 E3.00243
G1 X105.972 Y100.000 E3.02564
G1 X105.925 Y100.748 E3.04885
G1 X105.784 Y101.485 E3.07205
G1 X105.553 Y102.198 E3.09526
G1 X105.233 Y102.877 E3.11846
G1 X104.831 Y103.510 E3.14167
G1 X104.496 Y103.916 E3.15794
G1 X104.930 Y104.372 F7800.000
G1 F1800.000
G1 X104.810 Y104.517 E3.16377
G1 X104.206 Y105.084 E3.18941
G1 X103.535 Y105.571 E3.21504
G1 X102.809 Y105.970 E3.24068
G1 X102.039 Y106.275 E3.26632
G1 X101.236 Y106.481 E3.29196
G1 X100.414 Y106.585 E3.31760
G1 X99.586 Y106.585 E3.34324
G1 X98.764 Y106.481 E3.36887
G1 X97.961 Y106.275 E3.39451
G1 X97.191 Y105.970 E3.42015
G1 X96.465 Y105.571 E3.44579
G1 X95.794 Y105.084 E3.47143
G1 X95.190 Y104.517 E3.49706
G1 X94.662 Y103.878 E3.52270
G1 X94.218 Y103.179 E3.54834
G1 X93.865 Y102.429 E3.57398
G1 X93.609 Y101.641 E3.59962
G1 X93.454 Y100.827 E3.62526
G1 X93.402 Y100.000 E3.65089
G1 X93.454 Y99.173 E3.67653
G1 X93.609 Y98.359 E3.70217
G1 X93.865 Y97.571 E3.72781
G1 X94.218 Y96.821 E3.75345
G1 X94.662 Y96.122 E3.77908
G1 X95.190 Y95.483 E3.80472
G1 X95.794 Y94.916 E3.83036
G1 X96.465 Y94.429 E3.85600
G1 X97.191 Y94.030 E3.88164
G1 X97.961 Y93.725 E3.90728
G1 X98.764 Y93.519 E3.93291
G1 X99.586 Y93.415 E3.95855
G1 X100.414 Y93.415 E3.98419
G1 X101.236 Y93.519 E4.00983
G1 X102.039 Y93.725 E4.03547
G1 X102.809 Y94.030 E4.06110
G1 X103.535 Y94.429 E4.08674
G1 X104.206 Y94.916 E4.11238
G1 X104.810 Y95.483 E4.13802
G1 X105.338 Y96.122 E4.16366
G1 X105.782 Y96.821 E4.18930
G1 X106.135 Y97.571 E4.21493
G1 X106.391 Y98.359 E4.24057
G1 X106.546 Y99.173 E4.26621
G1 X106.598 Y100.000 E4.29185
G1 X106.546 Y100.827 E4.31749
G1 X106.391 Y101.641 E4.34312
G1 X106.135 Y102.429 E4.36876
G1 X105.782 Y103.179 E4.39440
G1 X105.338 Y103.878 E4.42004
G1 X104.978 Y104.314 E4.43753
G1 X105.411 Y104.770 F7800.000
G1 F1800.000
G1 X105.266 Y104.945 E4.44457
G1 X104.605 Y105.566 E4.47264
G1 X103.871 Y106.100 E4.50072
G1 X103.076 Y106.537 E4.52879
G1 X102.232 Y106.871 E4.55686
G1 X101.354 Y107.096 E4.58493
G1 X100.454 Y107.210 E4.61300
G1 X99.546 Y107.210 E4.64107
G1 X98.646 Y107.096 E4.66914
G1 X97.768 Y106.871 E4.69721
G1 X96.924 Y106.537 E4.72528
G1 X96.129 Y106.100 E4.75336
G1 X95.395 Y105.566 E4.78143
G1 X94.734 Y104.945 E4.80950
G1 X94.155 Y104.246 E4.83757
G1 X93.669 Y103.480 E4.86564
G1 X93.283 Y102.659 E4.89371
G1 X93.003 Y101.797 E4.92178
G1 X92.833 Y100.905 E4.94985
G1 X92.776 Y100.000 E4.97792
G1 X92.833 Y99.095 E5.00599
G1 X93.003 Y98.203 E5.03407
G1 X93.283 Y97.341 E5.06214
G1 X93.669 Y96.520 E5.09021
G1 X94.155 Y95.754 E5.11828
G1 X94.734 Y95.055 E5.14635
G1 X95.395 Y94.434 E5.17442
G1 X96.129 Y93.900 E5.20249
G1 X96.924 Y93.463 E5.23056
G1 X97.768 Y93.129 E5.25863
G1 X98.646 Y92.904 E5.28671
G1 X99.546 Y92.790 E5.31478
G1 X100.454 Y92.790 E5.34285
G1 X101.354 Y92.904 E5.37092
G1 X102.232 Y93.129 E5.39899
G1 X103.076 Y93.463 E5.42706
G1 X103.871 Y93.900 E5.45513
G1 X104.605 Y94.434 E5.48320
G1 X105.266 Y95.055 E5.51127
G1 X105.845 Y95.754 E5.53935
G1 X106.331 Y96.520 E5.56742
G1 X106.717 Y97.341 E5.59549
G1 X106.997 Y98.203 E5.62356
G1 X107.167 Y99.095 E5.65163
G1 X107.224 Y100.000 E5.67970
G1 X107.167 Y100.905 E5.70777
G1 X106.997 Y101.797 E5.73584
G1 X106.717 Y102.659 E5.76391
G1 X106.331 Y103.480 E5.79198
G1 X105.845 Y104.246 E5.82006
G1 X105.459 Y104.712 E5.83877
G1 X105.186 Y104.737 F7800.000
G1 X104.018 Y103.617 F7800.000
G1 F1800.000
G1 X103.438 Y104.179 E5.85547
G1 X102.900 Y104.570 E5.86919
G1 X102.304 Y104.897 E5.88324
G1 X101.672 Y105.147 E5.89729
G1 X101.029 Y105.313 E5.91101
G1 X100.340 Y105.402 E5.92538
G1 X99.645 Y105.400 E5.93975
G1 X98.986 Y105.316 E5.95347
G1 X98.328 Y105.147 E5.96752
G1 X97.696 Y104.897 E5.98157
G1 X97.113 Y104.577 E5.99529
G1 X96.539 Y104.160 E6.00998
G1 X96.055 Y103.705 E6.02370
G1 X95.631 Y103.193 E6.03743
G1 X95.250 Y102.593 E6.05211
G1 X94.968 Y101.992 E6.06584
G1 X94.758 Y101.346 E6.07989
G1 X94.630 Y100.678 E6.09394
G1 X94.588 Y100.015 E6.10766
G1 X94.633 Y99.306 E6.12235
G1 X94.758 Y98.654 E6.13607
G1 X94.968 Y98.008 E6.15012
G1 X95.265 Y97.379 E6.16449
G1 X95.621 Y96.819 E6.17821
G1 X96.055 Y96.295 E6.19226
G1 X96.550 Y95.830 E6.20631
G1 X97.087 Y95.439 E6.22004
G1 X97.696 Y95.103 E6.23440
G1 X98.328 Y94.853 E6.24845
G1 X98.971 Y94.687 E6.26217
G1 X99.660 Y94.598 E6.27654
G1 X100.355 Y94.600 E6.29090
G1 X101.014 Y94.684 E6.30463
G1 X101.672 Y94.853 E6.31868
G1 X102.304 Y95.103 E6.33273
G1 X102.887 Y95.423 E6.34645
G1 X103.450 Y95.830 E6.36082
G1 X103.955 Y96.307 E6.37518
G1 X104.379 Y96.819 E6.38891
G1 X104.743 Y97.393 E6.40296
G1 X105.032 Y98.008 E6.41701
G1 X105.238 Y98.639 E6.43073
G1 X105.370 Y99.322 E6.44510
G1 X105.412 Y100.000 E6.45914
G1 X105.371 Y100.663 E6.47287
G1 X105.242 Y101.346 E6.48724
G1 X105.042 Y101.969 E6.50076
G1 X104.743 Y102.607 E6.51533
G1 X104.379 Y103.181 E6.52938
G1 X104.066 Y103.560 E6.53952
G1 Z0.650 F7800.000
G1 X103.489 Y103.180 F7800.000
G1 F900.000
G1 X103.011 Y103.640 E6.55742
G1 X102.531 Y103.989 E6.57342
G1 X102.011 Y104.275 E6.58943
G1 X101.460 Y104.493 E6.60543
G1 X100.885 Y104.640 E6.62143
G1 X100.297 Y104.715 E6.63744
G1 X99.703 Y104.715 E6.65344
G1 X99.115 Y104.640 E6.66945
G1 X98.540 Y104.493 E6.68545
G1 X97.989 Y104.275 E6.70145
G1 X97.469 Y103.989 E6.71746
G1 X96.989 Y103.640 E6.73346
G1 X96.556 Y103.234 E6.74947
G1 X96.178 Y102.777 E6.76547
G1 X95.860 Y102.276 E6.78148
G1 X95.608 Y101.739 E6.79748
G1 X95.424 Y101.175 E6.81348
G1 X95.313 Y100.592 E6.82949
G1 X95.276 Y100.000 E6.84549
G1 X95.313 Y99.408 E6.86150
G1 X95.424 Y98.825 E6.87750
G1 X95.608 Y98.261 E6.89351
G1 X95.860 Y97.724 E6.90951
G1 X96.178 Y97.223 E6.92551
G1 X96.556 Y96.766 E6.94152
G1 X96.989 Y96.360 E6.95752
G1 X97.469 Y96.011 E6.97353
G1 X97.989 Y95.725 E6.98953
G1 X98.540 Y95.507 E7.00554
G1 X99.115 Y95.360 E7.02154
G1 X99.703 Y95.285 E7.03754
G1 X100.297 Y95.285 E7.05355
G1 X100.885 Y95.360 E7.06955
G1 X101.460 Y95.507 E7.08556
G1 X102.011 Y95.725 E7.10156
G1 X102.531 Y96.011 E7.11756
G1 X103.011 Y96.360 E7.13357
G1 X103.444 Y96.766 E7.14957
G1 X103.822 Y97.223 E7.16558
G1 X104.140 Y97.724 E7.18158
G1 X104.392 Y98.261 E7.19759
G1 X104.576 Y98.825 E7.21359
G1 X104.687 Y99.408 E7.22959
G1 X104.724 Y100.000 E7.24560
G1 X104.687 Y100.592 E7.26160
G1 X104.576 Y101.175 E7.27761
G1 X104.392 Y101.739 E7.29361
G1 X104.140 Y102.276 E7.30961
G1 X103.822 Y102.777 E7.32562
G1 X103.537 Y103.122 E7.33770
G1 X102.999 Y102.774 F7800.000
G1 F900.000
G1 X102.605 Y103.149 E7.35236
G1 X102.190 Y103.451 E7.36621
