; generated by Slic3r 1.3.1-dev (Build 2ef957d) on 2019-11-25 at 09:24:56

; external perimeters extrusion width = 0.55mm (4.37mm^3/s)
; perimeters extrusion width = 0.70mm (11.44mm^3/s)
; infill extrusion width = 0.62mm (13.45mm^3/s)
; solid infill extrusion width = 0.70mm (3.81mm^3/s)
; top infill extrusion width = 0.70mm (2.86mm^3/s)

M107
G92 E0
M104 S200 ; set temperature
G28 ; home all axes
G1 Z5 F5000 ; lift nozzle

; Filament gcode

M109 S200 ; set temperature and wait for it to be reached
G21 ; set units to millimeters
G90 ; use absolute coordinates
M82 ; use absolute distances for extrusion
G92 E0
G1 Z0.350 F7800.000
G1 E-2.00000 F2400.00000
G92 E0
G1 X51.346 Y61.565 F7800.000
G1 E2.00000 F2400.00000
G1 F1800.000
G1 X53.173 Y60.163 E2.07126
G1 X54.791 Y59.062 E2.13180
G1 X56.163 Y58.221 E2.18161
G1 X58.188 Y57.122 E2.25288
G1 X59.641 Y56.429 E2.30269
G1 X61.445 Y55.672 E2.36323
G1 X63.616 Y54.903 E2.43451
G1 X65.160 Y54.446 E2.48432
G1 X67.060 Y53.980 E2.54486
G1 X69.325 Y53.560 E2.61613
G1 X70.921 Y53.350 E2.66594
G1 X72.871 Y53.188 E2.72646
G1 X75.000 Y53.125 E2.79238
G1 X138.000 Y53.125 E4.74168
G1 X140.259 Y53.522 E4.81265
G1 X142.247 Y54.665 E4.88361
G1 X144.139 Y57.260 E4.98297
G1 X159.847 Y95.990 E6.27614
G1 X160.490 Y97.786 E6.33516
G1 X161.054 Y99.660 E6.39571
G1 X161.592 Y101.899 E6.46697
G1 X161.940 Y103.825 E6.52752
G1 X162.186 Y105.766 E6.58804
G1 X162.312 Y107.370 E6.63785
G1 X162.373 Y109.327 E6.69841
G1 X162.331 Y111.283 E6.75894
G1 X162.186 Y113.234 E6.81950
G1 X161.940 Y115.175 E6.88002
G1 X161.592 Y117.101 E6.94057
G1 X161.144 Y119.005 E7.00111
G1 X160.597 Y120.884 E7.06165
G1 X159.952 Y122.731 E7.12219
G1 X159.212 Y124.542 E7.18273
G1 X158.378 Y126.312 E7.24328
G1 X157.453 Y128.036 E7.30380
G1 X156.249 Y130.000 E7.37508
G1 X155.133 Y131.608 E7.43563
G1 X153.935 Y133.154 E7.49616
G1 X152.657 Y134.636 E7.55671
G1 X151.304 Y136.049 E7.61723
G1 X149.878 Y137.389 E7.67779
G1 X148.385 Y138.653 E7.73831
G1 X146.827 Y139.837 E7.79887
G1 X145.209 Y140.938 E7.85940
G1 X143.536 Y141.952 E7.91995
G1 X141.812 Y142.878 E7.98048
G1 X140.042 Y143.712 E8.04102
G1 X138.231 Y144.452 E8.10156
G1 X136.384 Y145.097 E8.16211
G1 X134.505 Y145.644 E8.22265
G1 X132.601 Y146.092 E8.28318
G1 X130.675 Y146.440 E8.34373
G1 X129.079 Y146.650 E8.39354
G1 X127.130 Y146.812 E8.45407
G1 X125.000 Y146.875 E8.51999
G1 X62.000 Y146.875 E10.46929
G1 X59.741 Y146.478 E10.54025
G1 X57.753 Y145.335 E10.61121
G1 X55.861 Y142.740 E10.71058
G1 X40.153 Y104.010 E12.00375
G1 X39.403 Y101.884 E12.07350
G1 X38.856 Y100.005 E12.13404
G1 X38.480 Y98.440 E12.18385
G1 X38.060 Y96.175 E12.25511
G1 X37.850 Y94.579 E12.30492
G1 X37.688 Y92.629 E12.36547
G1 X37.627 Y90.327 E12.43673
G1 X37.688 Y88.371 E12.49728
G1 X37.850 Y86.421 E12.55782
G1 X38.115 Y84.482 E12.61836
G1 X38.408 Y82.899 E12.66818
G1 X38.856 Y80.995 E12.72871
G1 X39.403 Y79.116 E12.78925
G1 X40.048 Y77.269 E12.84980
G1 X40.788 Y75.458 E12.91034
G1 X41.622 Y73.688 E12.97087
G1 X42.548 Y71.964 E13.03142
G1 X43.751 Y70.000 E13.10268
G1 X44.867 Y68.392 E13.16323
G1 X46.065 Y66.846 E13.22376
G1 X47.343 Y65.364 E13.28431
G1 X48.696 Y63.951 E13.34484
G1 X49.864 Y62.843 E13.39465
G1 X51.289 Y61.614 E13.45288
G1 E11.45288 F2400.00000
G92 E0
G1 X63.600 Y131.850 F7800.000
G1 E2.00000 F2400.00000
G1 F1800.000
G1 X125.025 Y131.850 E3.90058
G1 X126.403 Y131.807 E3.94325
G1 X127.801 Y131.674 E3.98669
G1 X129.188 Y131.455 E4.03014
G1 X130.558 Y131.148 E4.07358
G1 X131.907 Y130.757 E4.11703
G1 X133.228 Y130.281 E4.16047
G1 X134.516 Y129.723 E4.20392
G1 X135.767 Y129.086 E4.24736
G1 X136.976 Y128.371 E4.29081
G1 X138.137 Y127.582 E4.33425
G1 X139.247 Y126.721 E4.37769
G1 X140.300 Y125.793 E4.42114
G1 X141.293 Y124.800 E4.46458
G1 X142.221 Y123.747 E4.50803
G1 X143.082 Y122.637 E4.55147
G1 X143.871 Y121.476 E4.59492
G1 X144.586 Y120.267 E4.63836
G1 X145.223 Y119.016 E4.68181
G1 X145.781 Y117.728 E4.72525
G1 X146.257 Y116.407 E4.76870
G1 X146.648 Y115.058 E4.81214
G1 X146.955 Y113.688 E4.85558
G1 X147.174 Y112.301 E4.89903
G1 X147.307 Y110.903 E4.94247
G1 X147.351 Y109.500 E4.98592
G1 X147.307 Y108.097 E5.02936
G1 X147.174 Y106.699 E5.07281
G1 X146.955 Y105.312 E5.11625
G1 X146.648 Y103.942 E5.15970
G1 X146.257 Y102.593 E5.20314
G1 X145.781 Y101.272 E5.24658
G1 X145.223 Y99.984 E5.29003
G1 X144.586 Y98.733 E5.33348
G1 X143.871 Y97.524 E5.37692
G1 X143.082 Y96.363 E5.42037
G1 X142.221 Y95.253 E5.46381
G1 X141.293 Y94.200 E5.50725
G1 X140.300 Y93.207 E5.55070
G1 X139.247 Y92.279 E5.59414
G1 X138.137 Y91.418 E5.63759
G1 X136.976 Y90.629 E5.68103
G1 X135.767 Y89.914 E5.72448
G1 X134.516 Y89.277 E5.76792
G1 X133.228 Y88.719 E5.81137
G1 X131.907 Y88.243 E5.85481
G1 X130.558 Y87.852 E5.89825
G1 X129.188 Y87.545 E5.94170
G1 X127.801 Y87.326 E5.98514
G1 X126.403 Y87.193 E6.02859
G1 X125.025 Y87.150 E6.07126
G1 X63.600 Y87.150 E7.97184
G1 X63.600 Y80.350 E8.18225
G1 X124.979 Y80.350 E10.08141
G1 X126.526 Y80.390 E10.12927
G1 X128.047 Y80.510 E10.17649
G1 X129.560 Y80.709 E10.22371
G1 X131.061 Y80.987 E10.27093
G1 X132.545 Y81.344 E10.31815
G1 X134.008 Y81.777 E10.36537
G1 X135.446 Y82.286 E10.41259
G1 X136.856 Y82.870 E10.45981
G1 X138.234 Y83.528 E10.50703
G1 X139.575 Y84.256 E10.55425
G1 X140.876 Y85.053 E10.60147
G1 X142.134 Y85.917 E10.64869
G1 X143.344 Y86.846 E10.69591
G1 X144.505 Y87.838 E10.74313
G1 X145.612 Y88.888 E10.79035
G1 X146.662 Y89.995 E10.83757
G1 X147.654 Y91.156 E10.88479
G1 X148.583 Y92.366 E10.93201
G1 X149.447 Y93.624 E10.97923
G1 X150.244 Y94.925 E11.02645
G1 X150.972 Y96.266 E11.07366
G1 X151.630 Y97.644 E11.12088
G1 X152.214 Y99.054 E11.16810
G1 X152.723 Y100.492 E11.21532
G1 X153.156 Y101.955 E11.26254
G1 X153.513 Y103.439 E11.30976
G1 X153.791 Y104.940 E11.35698
G1 X153.990 Y106.453 E11.40420
G1 X154.110 Y107.974 E11.45142
G1 X154.150 Y109.500 E11.49864
G1 X154.110 Y111.026 E11.54586
G1 X153.990 Y112.547 E11.59308
G1 X153.791 Y114.060 E11.64030
G1 X153.513 Y115.561 E11.68752
G1 X153.156 Y117.045 E11.73474
G1 X152.723 Y118.508 E11.78196
G1 X152.214 Y119.946 E11.82918
G1 X151.630 Y121.356 E11.87640
G1 X150.972 Y122.734 E11.92362
G1 X150.244 Y124.075 E11.97084
G1 X149.447 Y125.376 E12.01806
G1 X148.583 Y126.634 E12.06527
G1 X147.654 Y127.844 E12.11249
G1 X146.662 Y129.005 E12.15971
G1 X145.612 Y130.112 E12.20693
G1 X144.505 Y131.162 E12.25415
G1 X143.344 Y132.154 E12.30137
G1 X142.134 Y133.083 E12.34859
G1 X140.876 Y133.947 E12.39581
G1 X139.575 Y134.744 E12.44303
G1 X138.234 Y135.472 E12.49025
G1 X136.856 Y136.130 E12.53747
G1 X135.446 Y136.714 E12.58469
G1 X134.008 Y137.223 E12.63191
G1 X132.545 Y137.656 E12.67913
G1 X131.061 Y138.013 E12.72635
G1 X129.560 Y138.291 E12.77357
G1 X128.047 Y138.490 E12.82079
G1 X126.526 Y138.610 E12.86801
G1 X124.979 Y138.650 E12.91587
G1 X63.600 Y138.650 E14.81503
G1 X63.600 Y131.925 E15.02312
G1 X62.975 Y131.225 F7800.000
G1 F1800.000
G1 X125.015 Y131.225 E16.94274
G1 X126.364 Y131.183 E16.98449
G1 X127.723 Y131.054 E17.02672
G1 X129.071 Y130.841 E17.06895
G1 X130.403 Y130.543 E17.11118
G1 X131.713 Y130.162 E17.15341
G1 X132.998 Y129.700 E17.19564
G1 X134.250 Y129.158 E17.23787
G1 X135.466 Y128.538 E17.28010
G1 X136.641 Y127.843 E17.32233
G1 X137.770 Y127.076 E17.36456
G1 X138.848 Y126.240 E17.40679
G1 X139.872 Y125.337 E17.44901
G1 X140.837 Y124.372 E17.49124
G1 X141.740 Y123.348 E17.53347
G1 X142.576 Y122.270 E17.57570
G1 X143.343 Y121.141 E17.61793
G1 X144.038 Y119.966 E17.66016
G1 X144.658 Y118.750 E17.70239
G1 X145.200 Y117.498 E17.74462
G1 X145.662 Y116.213 E17.78685
G1 X146.043 Y114.903 E17.82908
G1 X146.341 Y113.571 E17.87131
G1 X146.554 Y112.223 E17.91354
G1 X146.683 Y110.864 E17.95577
G1 X146.725 Y109.500 E17.99800
G1 X146.683 Y108.136 E18.04022
G1 X146.554 Y106.777 E18.08245
G1 X146.341 Y105.429 E18.12468
G1 X146.043 Y104.097 E18.16691
G1 X145.662 Y102.787 E18.20914
G1 X145.200 Y101.502 E18.25137
G1 X144.658 Y100.250 E18.29360
G1 X144.038 Y99.034 E18.33583
G1 X143.343 Y97.859 E18.37806
G1 X142.576 Y96.730 E18.42029
G1 X141.740 Y95.652 E18.46252
G1 X140.837 Y94.628 E18.50475
G1 X139.872 Y93.663 E18.54698
G1 X138.848 Y92.760 E18.58921
G1 X137.770 Y91.924 E18.63144
G1 X136.641 Y91.157 E18.67367
G1 X135.466 Y90.462 E18.71589
G1 X134.250 Y89.842 E18.75812
G1 X132.998 Y89.300 E18.80035
G1 X131.713 Y88.838 E18.84258
G1 X130.403 Y88.457 E18.88481
G1 X129.071 Y88.159 E18.92704
G1 X127.723 Y87.946 E18.96927
G1 X126.364 Y87.817 E19.01150
G1 X125.015 Y87.775 E19.05326
G1 X62.975 Y87.775 E20.97287
G1 X62.975 Y79.725 E21.22195
G1 X124.987 Y79.725 E23.14070
G1 X126.558 Y79.766 E23.18932
G1 X128.112 Y79.888 E23.23755
G1 X129.658 Y80.092 E23.28579
G1 X131.191 Y80.376 E23.33402
G1 X132.706 Y80.740 E23.38225
G1 X134.201 Y81.182 E23.43048
G1 X135.670 Y81.703 E23.47872
G1 X137.110 Y82.299 E23.52695
G1 X138.517 Y82.971 E23.57518
G1 X139.887 Y83.714 E23.62341
G1 X141.217 Y84.529 E23.67165
G1 X142.501 Y85.412 E23.71988
G1 X143.738 Y86.361 E23.76811
G1 X144.923 Y87.373 E23.81634
G1 X146.054 Y88.446 E23.86457
G1 X147.127 Y89.577 E23.91280
G1 X148.139 Y90.762 E23.96104
G1 X149.088 Y91.999 E24.00927
G1 X149.971 Y93.283 E24.05750
G1 X150.786 Y94.613 E24.10573
G1 X151.529 Y95.983 E24.15396
G1 X152.201 Y97.390 E24.20220
G1 X152.797 Y98.830 E24.25043
G1 X153.318 Y100.299 E24.29866
G1 X153.760 Y101.794 E24.34689
G1 X154.124 Y103.309 E24.39513
G1 X154.408 Y104.842 E24.44336
G1 X154.612 Y106.388 E24.49159
G1 X154.734 Y107.942 E24.53982
G1 X154.775 Y109.500 E24.58805
G1 X154.734 Y111.058 E24.63628
G1 X154.612 Y112.612 E24.68452
G1 X154.408 Y114.158 E24.73275
G1 X154.124 Y115.691 E24.78098
G1 X153.760 Y117.206 E24.82922
G1 X153.318 Y118.701 E24.87745
G1 X152.797 Y120.170 E24.92568
G1 X152.201 Y121.611 E24.97391
G1 X151.529 Y123.017 E25.02214
G1 X150.786 Y124.387 E25.07038
G1 X149.971 Y125.717 E25.11861
G1 X149.088 Y127.001 E25.16684
G1 X148.139 Y128.238 E25.21507
G1 X147.127 Y129.423 E25.26330
G1 X146.054 Y130.554 E25.31154
G1 X144.923 Y131.627 E25.35977
G1 X143.738 Y132.639 E25.40800
G1 X142.501 Y133.588 E25.45623
G1 X141.217 Y134.471 E25.50446
G1 X139.887 Y135.286 E25.55270
G1 X138.517 Y136.029 E25.60093
G1 X137.110 Y136.701 E25.64916
G1 X135.670 Y137.297 E25.69739
G1 X134.201 Y137.817 E25.74562
G1 X132.706 Y138.260 E25.79386
G1 X131.191 Y138.624 E25.84209
G1 X129.658 Y138.908 E25.89032
G1 X128.112 Y139.112 E25.93855
G1 X126.558 Y139.234 E25.98679
G1 X124.987 Y139.275 E26.03541
G1 X62.975 Y139.275 E27.95416
G1 X62.975 Y131.300 E28.20092
G1 X62.350 Y130.600 F7800.000
G1 F1800.000
G1 X125.005 Y130.600 E30.13956
G1 X126.325 Y130.559 E30.18041
G1 X127.645 Y130.434 E30.22142
G1 X128.954 Y130.226 E30.26244
G1 X130.247 Y129.937 E30.30345
G1 X131.520 Y129.567 E30.34446
G1 X132.767 Y129.118 E30.38548
G1 X133.984 Y128.592 E30.42649
G1 X135.165 Y127.990 E30.46751
G1 X136.306 Y127.315 E30.50852
G1 X137.402 Y126.570 E30.54953
G1 X138.450 Y125.758 E30.59055
G1 X139.444 Y124.881 E30.63156
G1 X140.381 Y123.944 E30.67258
G1 X141.258 Y122.950 E30.71359
G1 X142.070 Y121.902 E30.75461
G1 X142.815 Y120.806 E30.79562
G1 X143.490 Y119.665 E30.83663
G1 X144.092 Y118.484 E30.87765
G1 X144.618 Y117.267 E30.91866
G1 X145.067 Y116.020 E30.95968
G1 X145.437 Y114.747 E31.00069
G1 X145.726 Y113.454 E31.04170
G1 X145.934 Y112.145 E31.08272
G1 X146.059 Y110.825 E31.12373
G1 X146.100 Y109.500 E31.16475
G1 X146.059 Y108.175 E31.20576
G1 X145.934 Y106.855 E31.24677
G1 X145.726 Y105.546 E31.28779
G1 X145.437 Y104.253 E31.32880
G1 X145.067 Y102.980 E31.36982
G1 X144.618 Y101.733 E31.41083
G1 X144.092 Y100.516 E31.45184
G1 X143.490 Y99.335 E31.49286
G1 X142.815 Y98.194 E31.53387
G1 X142.070 Y97.098 E31.57489
G1 X141.258 Y96.050 E31.61590
G1 X140.381 Y95.056 E31.65692
G1 X139.444 Y94.119 E31.69793
G1 X138.450 Y93.242 E31.73894
G1 X137.402 Y92.430 E31.77996
G1 X136.306 Y91.685 E31.82097
G1 X135.165 Y91.010 E31.86199
G1 X133.984 Y90.408 E31.90300
G1 X132.767 Y89.882 E31.94401
G1 X131.520 Y89.433 E31.98503
G1 X130.247 Y89.063 E32.02604
G1 X128.954 Y88.774 E32.06706
G1 X127.645 Y88.566 E32.10807
G1 X126.325 Y88.441 E32.14908
G1 X125.005 Y88.400 E32.18993
G1 X62.350 Y88.400 E34.12857
G1 X62.350 Y79.100 E34.41633
G1 X124.995 Y79.100 E36.35466
G1 X126.591 Y79.142 E36.40404
G1 X128.178 Y79.267 E36.45329
G1 X129.756 Y79.474 E36.50253
G1 X131.320 Y79.764 E36.55178
G1 X132.868 Y80.136 E36.60102
G1 X134.394 Y80.588 E36.65027
G1 X135.894 Y81.119 E36.69951
G1 X137.365 Y81.728 E36.74876
G1 X138.801 Y82.414 E36.79800
G1 X140.200 Y83.173 E36.84725
G1 X141.557 Y84.005 E36.89649
G1 X142.869 Y84.906 E36.94574
G1 X144.131 Y85.875 E36.99498
G1 X145.342 Y86.908 E37.04423
G1 X146.496 Y88.004 E37.09347
G1 X147.592 Y89.158 E37.14271
G1 X148.625 Y90.369 E37.19196
G1 X149.594 Y91.631 E37.24121
G1 X150.495 Y92.943 E37.29045
G1 X151.327 Y94.300 E37.33969
G1 X152.086 Y95.699 E37.38894
G1 X152.772 Y97.135 E37.43818
G1 X153.381 Y98.606 E37.48743
G1 X153.912 Y100.106 E37.53667
G1 X154.364 Y101.632 E37.58592
G1 X154.736 Y103.180 E37.63516
G1 X155.026 Y104.744 E37.68441
G1 X155.233 Y106.322 E37.73365
G1 X155.358 Y107.909 E37.78290
G1 X155.400 Y109.500 E37.83214
G1 X155.358 Y111.091 E37.88138
G1 X155.233 Y112.678 E37.93063
G1 X155.026 Y114.256 E37.97988
G1 X154.736 Y115.821 E38.02912
G1 X154.364 Y117.368 E38.07837
G1 X153.912 Y118.894 E38.12761
G1 X153.381 Y120.394 E38.17685
G1 X152.772 Y121.865 E38.22610
G1 X152.086 Y123.301 E38.27534
G1 X151.327 Y124.700 E38.32459
G1 X150.495 Y126.057 E38.37383
G1 X149.594 Y127.369 E38.42308
G1 X148.625 Y128.631 E38.47232
G1 X147.592 Y129.842 E38.52157
G1 X146.496 Y130.996 E38.57081
G1 X145.342 Y132.092 E38.62006
G1 X144.131 Y133.125 E38.66930
G1 X142.869 Y134.094 E38.71855
G1 X141.557 Y134.995 E38.76779
G1 X140.200 Y135.827 E38.81704
G1 X138.801 Y136.586 E38.86628
G1 X137.365 Y137.272 E38.91552
G1 X135.894 Y137.881 E38.96477
G1 X134.394 Y138.412 E39.01401
G1 X132.868 Y138.864 E39.06326
G1 X131.320 Y139.236 E39.11250
G1 X129.756 Y139.526 E39.16175
G1 X128.178 Y139.733 E39.21099
G1 X126.591 Y139.858 E39.26024
G1 X124.995 Y139.900 E39.30962
G1 X62.350 Y139.900 E41.24796
G1 X62.350 Y130.675 E41.53339
G1 X62.849 Y130.625 F7800.000
G1 E39.53339 F2400.00000
G92 E0
G1 X63.983 Y132.718 F7800.000
G1 E2.00000 F2400.00000
G1 F1800.000
G1 X64.469 Y132.232 E2.02137
G1 X65.357 Y132.232 E2.04898
G1 X63.982 Y133.607 E2.10943
G1 X63.982 Y134.495 E2.13704
G1 X66.245 Y132.232 E2.23653
G1 X67.133 Y132.232 E2.26414
G1 X63.982 Y135.383 E2.40267
G1 X63.982 Y136.271 E2.43028
G1 X68.021 Y132.232 E2.60785
G1 X68.908 Y132.232 E2.63546
G1 X63.982 Y137.158 E2.85208
G1 X63.982 Y138.046 E2.87968
G1 X69.796 Y132.232 E3.13534
G1 X70.684 Y132.232 E3.16294
G1 X64.648 Y138.268 E3.42836
G1 X65.536 Y138.268 E3.45596
G1 X71.572 Y132.232 E3.72138
G1 X72.460 Y132.232 E3.74898
G1 X66.423 Y138.268 E4.01440
G1 X67.311 Y138.268 E4.04201
G1 X73.348 Y132.232 E4.30742
G1 X74.236 Y132.232 E4.33503
G1 X68.199 Y138.268 E4.60044
G1 X69.087 Y138.268 E4.62805
G1 X75.124 Y132.232 E4.89346
G1 X76.012 Y132.232 E4.92107
G1 X69.975 Y138.268 E5.18648
G1 X70.863 Y138.268 E5.21409
G1 X76.900 Y132.232 E5.47950
G1 X77.788 Y132.232 E5.50711
G1 X71.751 Y138.268 E5.77253
G1 X72.639 Y138.268 E5.80013
G1 X78.676 Y132.232 E6.06555
G1 X79.564 Y132.232 E6.09315
G1 X73.527 Y138.268 E6.35857
G1 X74.415 Y138.268 E6.38617
G1 X80.452 Y132.232 E6.65159
G1 X81.340 Y132.232 E6.67919
G1 X75.303 Y138.268 E6.94461
G1 X76.191 Y138.268 E6.97221
G1 X82.228 Y132.232 E7.23763
G1 X83.116 Y132.232 E7.26524
G1 X77.079 Y138.268 E7.53065
G1 X77.967 Y138.268 E7.55826
G1 X84.004 Y132.232 E7.82367
G1 X84.891 Y132.232 E7.85128
G1 X78.855 Y138.268 E8.11669
G1 X79.743 Y138.268 E8.14430
G1 X85.779 Y132.232 E8.40971
G1 X86.667 Y132.232 E8.43732
G1 X80.631 Y138.268 E8.70274
G1 X81.519 Y138.268 E8.73034
G1 X87.555 Y132.232 E8.99576
G1 X88.443 Y132.232 E9.02336
G1 X82.407 Y138.268 E9.28878
G1 X83.294 Y138.268 E9.31638
G1 X89.331 Y132.232 E9.58180
G1 X90.219 Y132.232 E9.60940
G1 X84.182 Y138.268 E9.87482
G1 X85.070 Y138.268 E9.90242
G1 X91.107 Y132.232 E10.16784
G1 X91.995 Y132.232 E10.19545
G1 X85.958 Y138.268 E10.46086
G1 X86.846 Y138.268 E10.48847
G1 X92.883 Y132.232 E10.75388
