; generated by Slic3r 1.3.1-dev (Build 2ef957d) on 2019-11-25 at 09:24:39

; external perimeters extrusion width = 0.55mm (4.37mm^3/s)
; perimeters extrusion width = 0.70mm (11.44mm^3/s)
; infill extrusion width = 0.62mm (13.45mm^3/s)
; solid infill extrusion width = 0.70mm (3.81mm^3/s)
; top infill extrusion width = 0.70mm (2.86mm^3/s)

M107
G92 E0
M104 S200 ; set temperature
G28 ; home all axes
G1 Z5 F5000 ; lift nozzle

; Filament gcode

M109 S200 ; set temperature and wait for it to be reached
G21 ; set units to millimeters
G90 ; use absolute coordinates
M82 ; use absolute distances for extrusion
G92 E0
G1 Z0.350 F7800.000
G1 E-2.00000 F2400.00000
G92 E0
G1 X69.168 Y81.774 F7800.000
G1 E2.00000 F2400.00000
G1 F1800.000
G1 X71.320 Y80.981 E2.07096
G1 X72.500 Y80.875 E2.10761
G1 X127.500 Y80.875 E3.80939
G1 X129.759 Y81.272 E3.88035
G1 X131.747 Y82.415 E3.95131
G1 X133.226 Y84.168 E4.02227
G1 X134.019 Y86.320 E4.09323
G1 X134.125 Y87.500 E4.12989
G1 X134.125 Y112.500 E4.90342
G1 X133.728 Y114.759 E4.97438
G1 X132.585 Y116.747 E5.04534
G1 X130.832 Y118.226 E5.11631
G1 X128.680 Y119.019 E5.18727
G1 X127.500 Y119.125 E5.22392
G1 X72.500 Y119.125 E6.92569
G1 X70.241 Y118.728 E6.99665
G1 X68.253 Y117.585 E7.06762
G1 X66.774 Y115.832 E7.13858
G1 X65.981 Y113.680 E7.20954
G1 X65.875 Y112.500 E7.24619
G1 X65.875 Y87.500 E8.01972
G1 X66.272 Y85.241 E8.09069
G1 X67.415 Y83.253 E8.16165
G1 X69.111 Y81.822 E8.23029
G1 E6.23029 F2400.00000
G92 E0
G1 X125.900 Y110.900 F7800.000
G1 E2.00000 F2400.00000
G1 F1800.000
G1 X104.100 Y110.900 E2.67453
G1 X104.100 Y89.100 E3.34907
G1 X125.900 Y89.100 E4.02360
G1 X125.900 Y110.825 E4.69582
G1 X126.525 Y111.525 F7800.000
G1 F1800.000
G1 X103.475 Y111.525 E5.40902
G1 X103.475 Y88.475 E6.12223
G1 X126.525 Y88.475 E6.83543
G1 X126.525 Y111.450 E7.54631
G1 X127.150 Y112.150 F7800.000
G1 F1800.000
G1 X102.850 Y112.150 E8.29819
G1 X102.850 Y87.850 E9.05006
G1 X127.150 Y87.850 E9.80194
G1 X127.150 Y112.075 E10.55149
G1 X126.667 Y112.021 F7800.000
G1 E8.55149 F2400.00000
G92 E0
G1 X125.032 Y110.518 F7800.000
G1 E2.00000 F2400.00000
G1 F1800.000
G1 X125.518 Y110.032 E2.02151
G1 X125.518 Y109.139 E2.04946
G1 X124.139 Y110.518 E2.11050
G1 X123.245 Y110.518 E2.13845
G1 X125.518 Y108.245 E2.23902
G1 X125.518 Y107.352 E2.26698
G1 X122.352 Y110.518 E2.40708
G1 X121.458 Y110.518 E2.43503
G1 X125.518 Y106.458 E2.61466
G1 X125.518 Y105.565 E2.64261
G1 X120.565 Y110.518 E2.86177
G1 X119.671 Y110.518 E2.88972
G1 X125.518 Y104.671 E3.14841
G1 X125.518 Y103.778 E3.17636
G1 X118.778 Y110.518 E3.47458
G1 X117.884 Y110.518 E3.50254
G1 X125.518 Y102.884 E3.84029
G1 X125.518 Y101.991 E3.86824
G1 X116.991 Y110.518 E4.24552
G1 X116.097 Y110.518 E4.27347
G1 X125.518 Y101.097 E4.69028
G1 X125.518 Y100.204 E4.71823
G1 X115.204 Y110.518 E5.17457
G1 X114.310 Y110.518 E5.20253
G1 X125.518 Y99.310 E5.69840
G1 X125.518 Y98.417 E5.72635
G1 X113.417 Y110.518 E6.26175
G1 X112.523 Y110.518 E6.28970
G1 X125.518 Y97.523 E6.86463
G1 X125.518 Y96.630 E6.89259
G1 X111.630 Y110.518 E7.50705
G1 X110.736 Y110.518 E7.53500
G1 X125.518 Y95.736 E8.18899
G1 X125.518 Y94.843 E8.21694
G1 X109.843 Y110.518 E8.91046
G1 X108.949 Y110.518 E8.93841
G1 X125.518 Y93.949 E9.67147
G1 X125.518 Y93.056 E9.69942
G1 X108.056 Y110.518 E10.47200
G1 X107.162 Y110.518 E10.49995
G1 X125.518 Y92.162 E11.31206
G1 X125.518 Y91.269 E11.34001
G1 X106.269 Y110.518 E12.19166
G1 X105.375 Y110.518 E12.21961
G1 X125.518 Y90.375 E13.11078
G1 X125.518 Y89.482 E13.13873
G1 X104.482 Y110.518 E14.06943
G1 X104.482 Y109.625 E14.09738
G1 X124.625 Y89.482 E14.98856
G1 X123.731 Y89.482 E15.01651
G1 X104.482 Y108.731 E15.86815
G1 X104.482 Y107.838 E15.89610
G1 X122.838 Y89.482 E16.70821
G1 X121.944 Y89.482 E16.73616
G1 X104.482 Y106.944 E17.50875
G1 X104.482 Y106.051 E17.53670
G1 X121.051 Y89.482 E18.26975
G1 X120.157 Y89.482 E18.29770
G1 X104.482 Y105.157 E18.99122
G1 X104.482 Y104.264 E19.01917
G1 X119.264 Y89.482 E19.67317
G1 X118.370 Y89.482 E19.70112
G1 X104.482 Y103.370 E20.31558
G1 X104.482 Y102.477 E20.34353
G1 X117.477 Y89.482 E20.91846
G1 X116.583 Y89.482 E20.94641
G1 X104.482 Y101.583 E21.48181
G1 X104.482 Y100.690 E21.50977
G1 X115.690 Y89.482 E22.00564
G1 X114.796 Y89.482 E22.03359
G1 X104.482 Y99.796 E22.48993
G1 X104.482 Y98.903 E22.51788
G1 X113.903 Y89.482 E22.93469
G1 X113.009 Y89.482 E22.96265
G1 X104.482 Y98.009 E23.33993
G1 X104.482 Y97.116 E23.36788
G1 X112.116 Y89.482 E23.70563
G1 X111.222 Y89.482 E23.73358
G1 X104.482 Y96.222 E24.03180
G1 X104.482 Y95.329 E24.05975
G1 X110.329 Y89.482 E24.31844
G1 X109.435 Y89.482 E24.34640
G1 X104.482 Y94.435 E24.56556
G1 X104.482 Y93.542 E24.59351
G1 X108.542 Y89.482 E24.77314
G1 X107.648 Y89.482 E24.80109
G1 X104.482 Y92.648 E24.94119
G1 X104.482 Y91.755 E24.96914
G1 X106.755 Y89.482 E25.06971
G1 X105.861 Y89.482 E25.09766
G1 X104.482 Y90.861 E25.15870
G1 X104.482 Y89.968 E25.18666
G1 X104.968 Y89.482 E25.20817
G1 E23.20817 F2400.00000
G92 E0
G1 X95.900 Y110.900 F7800.000
G1 E2.00000 F2400.00000
G1 F1800.000
G1 X74.100 Y110.900 E2.67453
G1 X74.100 Y89.100 E3.34907
G1 X95.900 Y89.100 E4.02360
G1 X95.900 Y110.825 E4.69582
G1 X96.525 Y111.525 F7800.000
G1 F1800.000
G1 X73.475 Y111.525 E5.40902
G1 X73.475 Y88.475 E6.12223
G1 X96.525 Y88.475 E6.83543
G1 X96.525 Y111.450 E7.54631
G1 X97.150 Y112.150 F7800.000
G1 F1800.000
G1 X72.850 Y112.150 E8.29819
G1 X72.850 Y87.850 E9.05006
G1 X97.150 Y87.850 E9.80194
G1 X97.150 Y112.075 E10.55149
G1 X96.667 Y112.021 F7800.000
G1 E8.55149 F2400.00000
G92 E0
G1 X95.032 Y110.518 F7800.000
G1 E2.00000 F2400.00000
G1 F1800.000
G1 X95.518 Y110.032 E2.02151
G1 X95.518 Y109.139 E2.04946
G1 X94.139 Y110.518 E2.11050
G1 X93.245 Y110.518 E2.13845
G1 X95.518 Y108.245 E2.23902
G1 X95.518 Y107.352 E2.26698
G1 X92.352 Y110.518 E2.40708
G1 X91.458 Y110.518 E2.43503
G1 X95.518 Y106.458 E2.61466
G1 X95.518 Y105.565 E2.64261
G1 X90.565 Y110.518 E2.86177
G1 X89.671 Y110.518 E2.88972
G1 X95.518 Y104.671 E3.14841
G1 X95.518 Y103.778 E3.17636
G1 X88.778 Y110.518 E3.47458
G1 X87.884 Y110.518 E3.50254
G1 X95.518 Y102.884 E3.84029
G1 X95.518 Y101.991 E3.86824
G1 X86.991 Y110.518 E4.24552
G1 X86.097 Y110.518 E4.27347
G1 X95.518 Y101.097 E4.69028
G1 X95.518 Y100.204 E4.71823
G1 X85.204 Y110.518 E5.17458
G1 X84.310 Y110.518 E5.20253
G1 X95.518 Y99.310 E5.69840
G1 X95.518 Y98.417 E5.72635
G1 X83.417 Y110.518 E6.26175
G1 X82.523 Y110.518 E6.28970
G1 X95.518 Y97.523 E6.86463
G1 X95.518 Y96.630 E6.89259
G1 X81.630 Y110.518 E7.50705
G1 X80.736 Y110.518 E7.53500
G1 X95.518 Y95.736 E8.18899
G1 X95.518 Y94.843 E8.21694
G1 X79.843 Y110.518 E8.91046
G1 X78.949 Y110.518 E8.93841
G1 X95.518 Y93.949 E9.67147
G1 X95.518 Y93.056 E9.69942
G1 X78.056 Y110.518 E10.47200
G1 X77.162 Y110.518 E10.49995
G1 X95.518 Y92.162 E11.31206
G1 X95.518 Y91.269 E11.34001
G1 X76.269 Y110.518 E12.19166
G1 X75.375 Y110.518 E12.21961
G1 X95.518 Y90.375 E13.11078
G1 X95.518 Y89.482 E13.13873
G1 X74.482 Y110.518 E14.06943
G1 X74.482 Y109.625 E14.09738
G1 X94.625 Y89.482 E14.98856
G1 X93.731 Y89.482 E15.01651
G1 X74.482 Y108.731 E15.86815
G1 X74.482 Y107.838 E15.89610
G1 X92.838 Y89.482 E16.70821
G1 X91.944 Y89.482 E16.73616
G1 X74.482 Y106.944 E17.50875
G1 X74.482 Y106.051 E17.53670
G1 X91.051 Y89.482 E18.26975
G1 X90.157 Y89.482 E18.29770
G1 X74.482 Y105.157 E18.99122
G1 X74.482 Y104.264 E19.01917
G1 X89.264 Y89.482 E19.67317
G1 X88.370 Y89.482 E19.70112
G1 X74.482 Y103.370 E20.31558
G1 X74.482 Y102.477 E20.34353
G1 X87.477 Y89.482 E20.91846
G1 X86.583 Y89.482 E20.94641
G1 X74.482 Y101.583 E21.48181
G1 X74.482 Y100.690 E21.50977
G1 X85.690 Y89.482 E22.00564
G1 X84.796 Y89.482 E22.03359
G1 X74.482 Y99.796 E22.48993
G1 X74.482 Y98.903 E22.51788
G1 X83.903 Y89.482 E22.93469
G1 X83.009 Y89.482 E22.96264
G1 X74.482 Y98.009 E23.33993
G1 X74.482 Y97.116 E23.36788
G1 X82.116 Y89.482 E23.70563
G1 X81.222 Y89.482 E23.73358
G1 X74.482 Y96.222 E24.03180
G1 X74.482 Y95.329 E24.05975
G1 X80.329 Y89.482 E24.31844
G1 X79.435 Y89.482 E24.34639
G1 X74.482 Y94.435 E24.56555
G1 X74.482 Y93.542 E24.59351
G1 X78.542 Y89.482 E24.77314
G1 X77.648 Y89.482 E24.80109
G1 X74.482 Y92.648 E24.94119
G1 X74.482 Y91.755 E24.96914
G1 X76.755 Y89.482 E25.06971
G1 X75.861 Y89.482 E25.09766
G1 X74.482 Y90.861 E25.15870
G1 X74.482 Y89.968 E25.18666
G1 X74.968 Y89.482 E25.20817
G1 Z0.650 F7800.000
G1 E23.20817 F2400.00000
G92 E0
G1 X103.971 Y111.029 F7800.000
G1 E2.00000 F2400.00000
G1 F3600.000
G1 X103.971 Y88.971 E2.59504
G1 X126.029 Y88.971 E3.19007
G1 X126.029 Y111.029 E3.78511
G1 X104.046 Y111.029 E4.37812
G1 X103.336 Y111.664 F7800.000
G1 F3600.000
G1 X103.336 Y88.336 E5.00745
G1 X126.664 Y88.336 E5.63678
G1 X126.664 Y111.664 E6.26611
G1 X103.411 Y111.664 E6.89341
G1 X102.775 Y112.225 F7800.000
G1 F1800.000
G1 X102.775 Y87.775 E7.39733
G1 X127.225 Y87.775 E7.90126
G1 X127.225 Y112.225 E8.40518
G1 X102.850 Y112.225 E8.90756
G1 X102.904 Y111.742 F7800.000
G1 X104.360 Y110.146 F7800.000
G1 F1200.000
G1 X104.854 Y110.640 E8.92653
G1 X105.758 Y110.640 E8.95104
G1 X104.360 Y109.242 E9.00467
G1 X104.360 Y108.338 E9.02918
G1 X106.662 Y110.640 E9.11748
G1 X107.565 Y110.640 E9.14199
G1 X104.360 Y107.435 E9.26496
G1 X104.360 Y106.531 E9.28947
G1 X108.469 Y110.640 E9.44710
G1 X109.373 Y110.640 E9.47161
G1 X104.360 Y105.627 E9.66390
G1 X104.360 Y104.723 E9.68841
G1 X110.277 Y110.640 E9.91537
G1 X111.180 Y110.640 E9.93988
G1 X104.360 Y103.820 E10.20150
G1 X104.360 Y102.916 E10.22601
G1 X112.084 Y110.640 E10.52229
G1 X112.988 Y110.640 E10.54681
G1 X104.360 Y102.012 E10.87775
G1 X104.360 Y101.108 E10.90227
G1 X113.892 Y110.640 E11.26788
G1 X114.795 Y110.640 E11.29239
G1 X104.360 Y100.205 E11.69267
G1 X104.360 Y99.301 E11.71718
G1 X115.699 Y110.640 E12.15212
G1 X116.603 Y110.640 E12.17663
G1 X104.360 Y98.397 E12.64624
G1 X104.360 Y97.493 E12.67075
G1 X117.507 Y110.640 E13.17502
G1 X118.410 Y110.640 E13.19953
G1 X104.360 Y96.590 E13.73846
G1 X104.360 Y95.686 E13.76297
G1 X119.314 Y110.640 E14.33657
G1 X120.218 Y110.640 E14.36108
G1 X104.360 Y94.782 E14.96935
G1 X104.360 Y93.878 E14.99386
G1 X121.122 Y110.640 E15.63679
G1 X122.025 Y110.640 E15.66130
G1 X104.360 Y92.975 E16.33889
G1 X104.360 Y92.071 E16.36340
G1 X122.929 Y110.640 E17.07565
G1 X123.833 Y110.640 E17.10017
G1 X104.360 Y91.167 E17.84709
G1 X104.360 Y90.263 E17.87160
G1 X124.737 Y110.640 E18.65318
G1 X125.640 Y110.640 E18.67769
G1 X104.360 Y89.360 E19.49394
G1 X105.263 Y89.360 E19.51845
G1 X125.640 Y109.737 E20.30003
G1 X125.640 Y108.833 E20.32454
G1 X106.167 Y89.360 E21.07146
G1 X107.071 Y89.360 E21.09597
G1 X125.640 Y107.929 E21.80823
G1 X125.640 Y107.025 E21.83274
G1 X107.975 Y89.360 E22.51033
G1 X108.878 Y89.360 E22.53484
G1 X125.640 Y106.122 E23.17776
G1 X125.640 Y105.218 E23.20227
G1 X109.782 Y89.360 E23.81053
G1 X110.686 Y89.360 E23.83505
G1 X125.640 Y104.314 E24.40864
G1 X125.640 Y103.410 E24.43315
G1 X111.590 Y89.360 E24.97209
G1 X112.493 Y89.360 E24.99660
G1 X125.640 Y102.507 E25.50087
G1 X125.640 Y101.603 E25.52538
G1 X113.397 Y89.360 E25.99498
G1 X114.301 Y89.360 E26.01949
G1 X125.640 Y100.699 E26.45443
G1 X125.640 Y99.795 E26.47894
G1 X115.205 Y89.360 E26.87922
G1 X116.108 Y89.360 E26.90373
G1 X125.640 Y98.892 E27.26934
G1 X125.640 Y97.988 E27.29385
G1 X117.012 Y89.360 E27.62480
G1 X117.916 Y89.360 E27.64931
G1 X125.640 Y97.084 E27.94559
G1 X125.640 Y96.180 E27.97010
G1 X118.820 Y89.360 E28.23172
G1 X119.723 Y89.360 E28.25623
G1 X125.640 Y95.277 E28.48319
G1 X125.640 Y94.373 E28.50770
G1 X120.627 Y89.360 E28.69999
G1 X121.531 Y89.360 E28.72450
G1 X125.640 Y93.469 E28.88212
G1 X125.640 Y92.565 E28.90664
G1 X122.435 Y89.360 E29.02960
G1 X123.338 Y89.360 E29.05411
G1 X125.640 Y91.662 E29.14241
G1 X125.640 Y90.758 E29.16692
G1 X124.242 Y89.360 E29.22055
G1 X125.146 Y89.360 E29.24506
G1 X125.640 Y89.854 E29.26403
G1 E27.26403 F2400.00000
G92 E0
G1 X96.029 Y111.029 F7800.000
G1 E2.00000 F2400.00000
G1 F3600.000
G1 X73.971 Y111.029 E2.59504
G1 X73.971 Y88.971 E3.19007
G1 X96.029 Y88.971 E3.78511
G1 X96.029 Y110.954 E4.37812
G1 X96.664 Y111.664 F7800.000
G1 F3600.000
G1 X73.336 Y111.664 E5.00745
G1 X73.336 Y88.336 E5.63678
G1 X96.664 Y88.336 E6.26611
G1 X96.664 Y111.589 E6.89341
G1 X97.225 Y112.225 F7800.000
G1 F1800.000
G1 X72.775 Y112.225 E7.39733
G1 X72.775 Y87.775 E7.90126
G1 X97.225 Y87.775 E8.40518
G1 X97.225 Y112.150 E8.90756
G1 X96.742 Y112.096 F7800.000
G1 X95.640 Y89.854 F7800.000
G1 F1200.000
G1 X95.146 Y89.360 E8.92652
G1 X94.242 Y89.360 E8.95104
G1 X95.640 Y90.758 E9.00467
G1 X95.640 Y91.662 E9.02918
G1 X93.338 Y89.360 E9.11748
G1 X92.435 Y89.360 E9.14199
G1 X95.640 Y92.565 E9.26495
G1 X95.640 Y93.469 E9.28946
G1 X91.531 Y89.360 E9.44709
G1 X90.627 Y89.360 E9.47160
G1 X95.640 Y94.373 E9.66389
G1 X95.640 Y95.277 E9.68840
G1 X89.723 Y89.360 E9.91535
G1 X88.820 Y89.360 E9.93986
G1 X95.640 Y96.180 E10.20148
G1 X95.640 Y97.084 E10.22599
G1 X87.916 Y89.360 E10.52228
G1 X87.012 Y89.360 E10.54679
G1 X95.640 Y97.988 E10.87773
G1 X95.640 Y98.892 E10.90225
G1 X86.108 Y89.360 E11.26786
G1 X85.205 Y89.360 E11.29237
G1 X95.640 Y99.795 E11.69264
G1 X95.640 Y100.699 E11.71715
G1 X84.301 Y89.360 E12.15209
G1 X83.397 Y89.360 E12.17660
G1 X95.640 Y101.603 E12.64621
G1 X95.640 Y102.507 E12.67072
G1 X82.493 Y89.360 E13.17499
G1 X81.590 Y89.360 E13.19950
G1 X95.640 Y103.410 E13.73843
G1 X95.640 Y104.314 E13.76294
G1 X80.686 Y89.360 E14.33654
G1 X79.782 Y89.360 E14.36105
G1 X95.640 Y105.218 E14.96931
G1 X95.640 Y106.122 E14.99382
G1 X78.878 Y89.360 E15.63675
G1 X77.975 Y89.360 E15.66126
G1 X95.640 Y107.025 E16.33885
G1 X95.640 Y107.929 E16.36336
G1 X77.071 Y89.360 E17.07561
G1 X76.167 Y89.360 E17.10012
G1 X95.640 Y108.833 E17.84704
G1 X95.640 Y109.737 E17.87155
G1 X75.263 Y89.360 E18.65313
G1 X74.360 Y89.360 E18.67765
G1 X95.640 Y110.640 E19.49389
G1 X94.737 Y110.640 E19.51840
G1 X74.360 Y90.263 E20.29999
G1 X74.360 Y91.167 E20.32450
G1 X93.833 Y110.640 E21.07142
G1 X92.929 Y110.640 E21.09593
G1 X74.360 Y92.071 E21.80819
G1 X74.360 Y92.975 E21.83270
G1 X92.025 Y110.640 E22.51029
G1 X91.122 Y110.640 E22.53480
G1 X74.360 Y93.878 E23.17773
G1 X74.360 Y94.782 E23.20224
G1 X90.218 Y110.640 E23.81050
G1 X89.314 Y110.640 E23.83501
G1 X74.360 Y95.686 E24.40861
G1 X74.360 Y96.590 E24.43312
G1 X88.410 Y110.640 E24.97206
G1 X87.507 Y110.640 E24.99657
G1 X74.360 Y97.493 E25.50084
G1 X74.360 Y98.397 E25.52535
G1 X86.603 Y110.640 E25.99495
G1 X85.699 Y110.640 E26.01947
G1 X74.360 Y99.301 E26.45441
G1 X74.360 Y100.205 E26.47892
G1 X84.795 Y110.640 E26.87920
G1 X83.892 Y110.640 E26.90371
G1 X74.360 Y101.108 E27.26932
G1 X74.360 Y102.012 E27.29383
G1 X82.988 Y110.640 E27.62478
G1 X82.084 Y110.640 E27.64929
G1 X74.360 Y102.916 E27.94558
G1 X74.360 Y103.820 E27.97009
G1 X81.180 Y110.640 E28.23171
G1 X80.277 Y110.640 E28.25622
G1 X74.360 Y104.723 E28.48317
G1 X74.360 Y105.627 E28.50769
G1 X79.373 Y110.640 E28.69998
G1 X78.469 Y110.640 E28.72449
G1 X74.360 Y106.531 E28.88212
G1 X74.360 Y107.435 E28.90663
G1 X77.565 Y110.640 E29.02959
G1 X76.662 Y110.640 E29.05410
G1 X74.360 Y108.338 E29.14240
G1 X74.360 Y109.242 E29.16691
G1 X75.758 Y110.640 E29.22055
G1 X74.854 Y110.640 E29.24506
G1 X74.360 Y110.146 E29.26403
G1 Z0.950 F7800.000
G1 E27.26403 F2400.00000
G92 E0
G1 X103.971 Y111.029 F7800.000
G1 E2.00000 F2400.00000
G1 F3600.000
G1 X103.971 Y88.971 E2.59504
G1 X126.029 Y88.971 E3.19007
G1 X126.029 Y111.029 E3.78511
G1 X104.046 Y111.029 E4.37812
G1 X103.336 Y111.664 F7800.000
G1 F3600.000
G1 X103.336 Y88.336 E5.00745
G1 X126.664 Y88.336 E5.63678
G1 X126.664 Y111.664 E6.26611
G1 X103.411 Y111.664 E6.89341
G1 X102.775 Y112.225 F7800.000
G1 F1800.000
G1 X102.775 Y87.775 E7.39733
G1 X127.225 Y87.775 E7.90126
G1 X127.225 Y112.225 E8.40518
G1 X102.850 Y112.225 E8.90756
G1 X102.904 Y111.742 F7800.000
G1 X125.146 Y110.640 F7800.000
G1 F1200.000
G1 X125.640 Y110.146 E8.92652
G1 X125.640 Y109.242 E8.95104
G1 X124.242 Y110.640 E9.00467
G1 X123.338 Y110.640 E9.02918
G1 X125.640 Y108.338 E9.11748
G1 X125.640 Y107.435 E9.14199
G1 X122.435 Y110.640 E9.26495
G1 X121.531 Y110.640 E9.28946
G1 X125.640 Y106.531 E9.44709
G1 X125.640 Y105.627 E9.47160
