; generated by Slic3r 1.3.1-dev (Build 2ef957d) on 2019-11-25 at 09:11:44

; external perimeters extrusion width = 0.55mm (4.37mm^3/s)
; perimeters extrusion width = 0.70mm (11.44mm^3/s)
; infill extrusion width = 0.62mm (13.45mm^3/s)
; solid infill extrusion width = 0.70mm (3.81mm^3/s)
; top infill extrusion width = 0.70mm (2.86mm^3/s)

M107
G92 E0
M104 S200 ; set temperature
G28 ; home all axes
G1 Z5 F5000 ; lift nozzle

; Filament gcode

M109 S200 ; set temperature and wait for it to be reached
G21 ; set units to millimeters
G90 ; use absolute coordinates
M82 ; use absolute distances for extrusion
G92 E0
G1 Z0.350 F7800.000
G1 E-2.00000 F2400.00000
G92 E0
G1 X37.415 Y20.753 F7800.000
G1 E2.00000 F2400.00000
G1 F1800.000
G1 X39.168 Y19.274 E2.07096
G1 X41.320 Y18.481 E2.14192
G1 X42.500 Y18.375 E2.17858
G1 X47.500 Y18.375 E2.33328
G1 X49.759 Y18.772 E2.40424
G1 X51.747 Y19.915 E2.47521
G1 X53.235 Y21.684 E2.54672
G1 X114.436 Y127.525 E6.32964
G1 X115.223 Y129.679 E6.40060
G1 X115.326 Y130.841 E6.43670
G1 X115.326 Y175.000 E7.80305
G1 X114.929 Y177.259 E7.87401
G1 X113.785 Y179.247 E7.94497
G1 X112.033 Y180.726 E8.01593
G1 X109.881 Y181.519 E8.08689
G1 X108.701 Y181.625 E8.12355
G1 X107.894 Y181.625 E8.14850
G1 X105.636 Y181.228 E8.21946
G1 X103.648 Y180.085 E8.29042
G1 X102.276 Y178.510 E8.35505
G1 X49.231 Y93.588 E11.45312
G1 X47.129 Y90.152 E11.57774
G1 X45.137 Y86.653 E11.70231
G1 X43.256 Y83.093 E11.82690
G1 X41.487 Y79.476 E11.95149
G1 X39.916 Y75.995 E12.06967
G1 X38.688 Y73.040 E12.16866
G1 X38.296 Y72.085 E12.20061
G1 X36.947 Y68.513 E12.31875
G1 X36.232 Y66.437 E12.38669
G1 X35.875 Y64.291 E12.45399
G1 X35.875 Y25.000 E13.66971
G1 X36.272 Y22.741 E13.74067
G1 X37.378 Y20.818 E13.80931
G1 E11.80931 F2400.00000
G92 E0
G1 X76.402 Y103.525 F7800.000
G1 E2.00000 F2400.00000
G1 F1800.000
G1 X77.312 Y103.839 E2.02981
G1 X78.089 Y104.411 E2.05965
G1 X78.661 Y105.188 E2.08948
G1 X78.975 Y106.098 E2.11929
G1 X79.005 Y107.060 E2.14906
G1 X78.752 Y107.987 E2.17879
G1 X78.240 Y108.798 E2.20848
G1 X77.513 Y109.424 E2.23817
G1 X76.634 Y109.812 E2.26787
G1 X75.680 Y109.925 E2.29761
G1 X74.733 Y109.751 E2.32740
G1 X73.879 Y109.303 E2.35723
G1 X73.197 Y108.621 E2.38707
G1 X72.749 Y107.767 E2.41690
G1 X72.575 Y106.820 E2.44669
G1 X72.688 Y105.866 E2.47643
G1 X73.076 Y104.987 E2.50614
G1 X73.702 Y104.260 E2.53583
G1 X74.513 Y103.748 E2.56552
G1 X75.440 Y103.495 E2.59525
G1 X76.327 Y103.523 E2.62270
G1 X76.287 Y104.147 F7800.000
G1 F1800.000
G1 X77.019 Y104.399 E2.64664
G1 X77.642 Y104.858 E2.67058
G1 X78.101 Y105.481 E2.69453
G1 X78.353 Y106.213 E2.71847
G1 X78.378 Y106.986 E2.74241
G1 X78.174 Y107.732 E2.76634
G1 X77.761 Y108.385 E2.79026
G1 X77.176 Y108.890 E2.81418
G1 X76.468 Y109.202 E2.83810
G1 X75.700 Y109.293 E2.86203
G1 X74.939 Y109.153 E2.88597
G1 X74.254 Y108.794 E2.90992
G1 X73.706 Y108.246 E2.93387
G1 X73.347 Y107.561 E2.95781
G1 X73.207 Y106.800 E2.98175
G1 X73.298 Y106.032 E3.00568
G1 X73.610 Y105.324 E3.02961
G1 X74.115 Y104.739 E3.05353
G1 X74.768 Y104.326 E3.07745
G1 X75.514 Y104.122 E3.10138
G1 X76.212 Y104.144 E3.12299
G1 X76.173 Y104.768 F7800.000
G1 F1800.000
G1 X76.725 Y104.959 E3.14106
G1 X77.195 Y105.305 E3.15912
G1 X77.541 Y105.775 E3.17718
G1 X77.732 Y106.327 E3.19526
G1 X77.750 Y106.912 E3.21336
G1 X77.596 Y107.477 E3.23149
G1 X77.283 Y107.973 E3.24964
G1 X76.838 Y108.356 E3.26779
G1 X76.302 Y108.593 E3.28594
G1 X75.720 Y108.661 E3.30405
G1 X75.145 Y108.556 E3.32214
G1 X74.628 Y108.285 E3.34020
G1 X74.215 Y107.872 E3.35826
G1 X73.944 Y107.355 E3.37633
G1 X73.839 Y106.780 E3.39441
G1 X73.907 Y106.198 E3.41253
G1 X74.144 Y105.662 E3.43067
G1 X74.527 Y105.217 E3.44883
G1 X75.023 Y104.904 E3.46698
G1 X75.588 Y104.750 E3.48511
G1 X76.098 Y104.766 E3.50089
G1 X76.173 Y104.768 F7800.000
G1 E1.50089 F2400.00000
G92 E0
G1 X62.324 Y95.045 F7800.000
G1 E2.00000 F2400.00000
G1 F1800.000
G1 X65.237 Y93.687 E2.09946
G1 X68.334 Y92.857 E2.19867
G1 X71.528 Y92.577 E2.29788
G1 X74.723 Y92.857 E2.39709
G1 X77.820 Y93.687 E2.49629
G1 X80.726 Y95.042 E2.59550
G1 X83.352 Y96.881 E2.69471
G1 X85.619 Y99.148 E2.79391
G1 X87.458 Y101.774 E2.89312
G1 X88.813 Y104.680 E2.99233
G1 X89.643 Y107.777 E3.09154
G1 X89.923 Y110.972 E3.19074
G1 X89.643 Y114.166 E3.28995
G1 X88.813 Y117.263 E3.38916
G1 X87.455 Y120.176 E3.48862
G1 X91.085 Y122.727 E3.62590
G1 X94.187 Y124.765 E3.74075
G1 X97.352 Y126.705 E3.85561
G1 X100.576 Y128.544 E3.97046
G1 X103.837 Y130.270 E4.08461
G1 X107.101 Y131.870 E4.19709
G1 X107.101 Y133.829 E4.25772
G1 X106.431 Y133.527 E4.28046
G1 X103.047 Y131.870 E4.39704
G1 X99.718 Y130.106 E4.51363
G1 X96.445 Y128.240 E4.63021
G1 X93.232 Y126.270 E4.74681
G1 X90.083 Y124.202 E4.86338
G1 X87.000 Y122.035 E4.97997
G1 X83.987 Y119.773 E5.09656
G1 X81.046 Y117.417 E5.21314
G1 X78.181 Y114.970 E5.32973
G1 X75.394 Y112.434 E5.44631
G1 X72.688 Y109.812 E5.56290
G1 X70.066 Y107.106 E5.67948
G1 X67.530 Y104.319 E5.79607
G1 X65.083 Y101.454 E5.91265
G1 X62.727 Y98.513 E6.02924
G1 X60.465 Y95.500 E6.14582
G1 X58.298 Y92.417 E6.26241
G1 X56.230 Y89.268 E6.37899
G1 X54.260 Y86.055 E6.49559
G1 X52.394 Y82.782 E6.61217
G1 X50.630 Y79.453 E6.72875
G1 X48.973 Y76.069 E6.84533
G1 X47.423 Y72.635 E6.96191
G1 X45.981 Y69.154 E7.07850
G1 X44.649 Y65.629 E7.19509
G1 X44.100 Y64.025 E7.24755
G1 X44.100 Y44.880 E7.83992
G1 X45.900 Y44.880 E7.89563
G1 X45.900 Y63.781 E8.48045
G1 X46.326 Y65.025 E8.52114
G1 X47.639 Y68.497 E8.63599
G1 X49.059 Y71.927 E8.75084
G1 X50.586 Y75.310 E8.86570
G1 X52.230 Y78.663 E8.98125
G1 X53.956 Y81.924 E9.09540
G1 X55.795 Y85.148 E9.21024
G1 X57.735 Y88.313 E9.32511
G1 X59.773 Y91.415 E9.43996
G1 X62.281 Y94.984 E9.57492
G1 X62.534 Y94.258 F7800.000
G1 F1800.000
G1 X65.023 Y93.097 E9.65988
G1 X68.225 Y92.239 E9.76246
G1 X71.528 Y91.950 E9.86506
G1 X74.832 Y92.239 E9.96765
G1 X78.034 Y93.097 E10.07024
G1 X81.039 Y94.499 E10.17283
G1 X83.755 Y96.400 E10.27542
G1 X86.100 Y98.745 E10.37801
G1 X88.001 Y101.461 E10.48060
G1 X89.403 Y104.466 E10.58319
G1 X90.261 Y107.668 E10.68578
G1 X90.550 Y110.972 E10.78837
G1 X90.261 Y114.275 E10.89096
G1 X89.403 Y117.477 E10.99355
G1 X88.242 Y119.966 E11.07851
G1 X91.436 Y122.210 E11.19929
G1 X94.522 Y124.238 E11.31354
G1 X97.670 Y126.167 E11.42779
G1 X100.877 Y127.996 E11.54203
G1 X104.120 Y129.714 E11.65557
G1 X107.726 Y131.470 E11.77967
G1 X107.726 Y134.797 E11.88261
G1 X106.165 Y134.093 E11.93559
G1 X102.764 Y132.426 E12.05278
G1 X99.416 Y130.654 E12.16998
G1 X96.127 Y128.777 E12.28716
G1 X92.897 Y126.798 E12.40437
G1 X89.731 Y124.719 E12.52155
G1 X86.633 Y122.541 E12.63875
G1 X83.604 Y120.267 E12.75594
G1 X80.648 Y117.898 E12.87314
G1 X77.768 Y115.439 E12.99033
G1 X74.966 Y112.889 E13.10752
G1 X72.246 Y110.254 E13.22471
G1 X69.611 Y107.534 E13.34190
G1 X67.061 Y104.732 E13.45910
G1 X64.602 Y101.852 E13.57629
G1 X62.233 Y98.896 E13.69348
G1 X59.959 Y95.867 E13.81067
G1 X57.781 Y92.769 E13.92787
G1 X55.702 Y89.603 E14.04505
G1 X53.723 Y86.373 E14.16226
G1 X51.846 Y83.084 E14.27945
G1 X50.074 Y79.736 E14.39664
G1 X48.407 Y76.335 E14.51383
G1 X46.849 Y72.883 E14.63102
G1 X45.400 Y69.384 E14.74821
G1 X44.061 Y65.841 E14.86540
G1 X43.475 Y64.129 E14.92139
G1 X43.475 Y44.255 E15.53631
G1 X46.525 Y44.255 E15.63069
G1 X46.525 Y63.677 E16.23164
G1 X46.914 Y64.813 E16.26880
G1 X48.220 Y68.267 E16.38305
G1 X49.632 Y71.678 E16.49729
G1 X51.152 Y75.044 E16.61153
G1 X52.786 Y78.380 E16.72647
G1 X54.504 Y81.623 E16.84002
G1 X56.333 Y84.830 E16.95426
G1 X58.262 Y87.978 E17.06851
G1 X60.290 Y91.064 E17.18276
G1 X62.491 Y94.196 E17.30122
G1 X62.744 Y93.470 F7800.000
G1 F1800.000
G1 X64.808 Y92.508 E17.37167
G1 X68.116 Y91.621 E17.47764
G1 X71.528 Y91.323 E17.58362
G1 X74.940 Y91.621 E17.68959
G1 X78.249 Y92.508 E17.79557
G1 X81.353 Y93.955 E17.90154
G1 X84.158 Y95.920 E18.00752
G1 X86.580 Y98.342 E18.11349
G1 X88.545 Y101.147 E18.21946
G1 X89.992 Y104.251 E18.32544
G1 X90.879 Y107.560 E18.43141
G1 X91.177 Y110.972 E18.53738
G1 X90.879 Y114.384 E18.64336
G1 X89.992 Y117.692 E18.74933
G1 X89.030 Y119.756 E18.81979
G1 X91.787 Y121.693 E18.92407
G1 X94.857 Y123.710 E19.03771
G1 X97.988 Y125.629 E19.15135
G1 X101.178 Y127.448 E19.26498
G1 X104.404 Y129.157 E19.37792
G1 X107.722 Y130.783 E19.49225
G1 X108.351 Y131.067 E19.51359
G1 X108.351 Y135.764 E19.65895
G1 X105.899 Y134.658 E19.74218
G1 X102.480 Y132.983 E19.85998
G1 X99.115 Y131.202 E19.97778
G1 X95.808 Y129.315 E20.09558
G1 X92.562 Y127.325 E20.21339
G1 X89.380 Y125.236 E20.33118
G1 X86.265 Y123.046 E20.44898
G1 X83.221 Y120.760 E20.56678
G1 X80.249 Y118.380 E20.68458
G1 X77.354 Y115.907 E20.80238
G1 X74.538 Y113.345 E20.92018
G1 X71.804 Y110.696 E21.03798
G1 X69.155 Y107.962 E21.15578
G1 X66.593 Y105.146 E21.27358
G1 X64.120 Y102.251 E21.39138
G1 X61.740 Y99.279 E21.50918
G1 X59.454 Y96.235 E21.62698
G1 X57.264 Y93.120 E21.74479
G1 X55.175 Y89.938 E21.86257
G1 X53.185 Y86.692 E21.98039
G1 X51.298 Y83.385 E22.09818
G1 X49.517 Y80.020 E22.21599
G1 X47.842 Y76.601 E22.33378
G1 X46.276 Y73.131 E22.45158
G1 X44.819 Y69.614 E22.56937
G1 X43.473 Y66.052 E22.68718
G1 X42.850 Y64.233 E22.74668
G1 X42.850 Y43.630 E23.38416
G1 X47.150 Y43.630 E23.51721
G1 X47.150 Y63.573 E24.13427
G1 X47.502 Y64.602 E24.16791
G1 X48.801 Y68.037 E24.28155
G1 X50.206 Y71.430 E24.39519
G1 X51.717 Y74.778 E24.50882
G1 X53.343 Y78.096 E24.62316
G1 X55.052 Y81.322 E24.73610
G1 X56.871 Y84.512 E24.84973
G1 X58.790 Y87.643 E24.96337
G1 X60.807 Y90.713 E25.07701
G1 X62.701 Y93.409 E25.17897
G1 X62.980 Y93.911 F7800.000
G1 E23.17897 F2400.00000
G92 E0
G1 X42.900 Y43.630 F7800.000
G1 E2.00000 F2400.00000
G1 F1800.000
G1 X42.900 Y25.800 E2.63997
G1 F1800.000
G1 X42.969 Y25.469 E2.65365
G1 X43.190 Y25.423 E2.66277
G1 F1800.000
G1 X43.300 Y25.400 E2.66682
G1 X47.500 Y25.400 E2.81757
G1 E0.81757 F2400.00000
G92 E0
G1 X108.298 Y135.740 F7800.000
G1 E2.00000 F2400.00000
G1 F1800.000
G1 X108.298 Y175.000 E3.42161
G1 E1.42161 F2400.00000
G92 E0
G1 X106.233 Y133.096 F7800.000
G1 E2.00000 F2400.00000
G1 F1800.000
G1 X106.719 Y132.610 E2.02136
G1 X106.719 Y132.017 E2.03981
G1 X106.522 Y131.920 E2.04663
G1 X105.637 Y132.805 E2.08550
G1 X105.042 Y132.513 E2.10611
G1 X105.926 Y131.628 E2.14499
G1 X105.331 Y131.336 E2.16560
G1 X104.446 Y132.221 E2.20447
G1 X103.850 Y131.929 E2.22509
G1 X104.735 Y131.044 E2.26397
G1 X104.140 Y130.752 E2.28458
G1 X103.255 Y131.637 E2.32346
G1 X102.670 Y131.334 E2.34392
G1 X103.550 Y130.454 E2.38260
G1 X102.970 Y130.147 E2.40300
G1 X102.090 Y131.027 E2.44169
G1 X101.510 Y130.720 E2.46209
G1 X102.390 Y129.840 E2.50077
G1 X101.810 Y129.532 E2.52118
G1 X100.929 Y130.413 E2.55986
G1 X100.349 Y130.105 E2.58026
G1 X101.229 Y129.225 E2.61895
G1 X100.649 Y128.918 E2.63935
G1 X99.769 Y129.798 E2.67803
G1 X99.204 Y129.476 E2.69825
G1 X100.081 Y128.599 E2.73678
G1 X99.515 Y128.277 E2.75700
G1 X98.639 Y129.153 E2.79552
G1 X98.074 Y128.831 E2.81574
G1 X98.950 Y127.954 E2.85427
G1 X98.385 Y127.632 E2.87448
G1 X97.508 Y128.509 E2.91301
G1 X96.943 Y128.186 E2.93323
G1 X97.820 Y127.310 E2.97175
G1 X97.255 Y126.987 E2.99196
G1 X96.382 Y127.860 E3.03034
G1 X95.832 Y127.523 E3.05039
G1 X96.705 Y126.649 E3.08877
G1 X96.155 Y126.312 E3.10883
G1 X95.281 Y127.186 E3.14721
G1 X94.731 Y126.848 E3.16726
G1 X95.605 Y125.975 E3.20564
G1 X95.054 Y125.638 E3.22569
G1 X94.181 Y126.511 E3.26407
G1 X93.631 Y126.174 E3.28412
G1 X94.504 Y125.300 E3.32250
G1 X93.958 Y124.959 E3.34251
G1 X93.087 Y125.830 E3.38077
G1 X92.551 Y125.478 E3.40068
G1 X93.422 Y124.608 E3.43894
G1 X92.886 Y124.256 E3.45886
G1 X92.016 Y125.126 E3.49712
G1 X91.480 Y124.775 E3.51703
G1 X92.351 Y123.904 E3.55530
G1 X91.815 Y123.552 E3.57521
G1 X90.944 Y124.423 E3.61348
G1 X90.409 Y124.071 E3.63339
G1 X91.279 Y123.200 E3.67166
G1 X90.750 Y122.842 E3.69152
G1 X89.881 Y123.711 E3.72969
G1 X89.360 Y123.344 E3.74948
G1 X90.229 Y122.476 E3.78765
G1 X89.708 Y122.109 E3.80744
G1 X88.839 Y122.978 E3.84561
G1 X88.318 Y122.612 E3.86540
G1 X89.186 Y121.743 E3.90357
G1 X88.665 Y121.377 E3.92336
G1 X87.797 Y122.245 E3.96153
G1 X87.276 Y121.879 E3.98132
G1 X88.144 Y121.010 E4.01948
G1 X87.623 Y120.644 E4.03928
G1 X86.765 Y121.502 E4.07700
G1 X86.258 Y121.122 E4.09669
G1 X87.102 Y120.278 E4.13378
G1 X86.910 Y120.143 E4.14105
G1 X87.401 Y119.091 E4.17713
G1 X85.751 Y120.741 E4.24964
G1 X85.244 Y120.361 E4.26934
G1 X88.176 Y117.428 E4.39821
G1 X88.467 Y116.805 E4.41957
G1 X88.670 Y116.047 E4.44396
G1 X84.737 Y119.980 E4.61680
G1 X84.230 Y119.599 E4.63649
G1 X88.995 Y114.835 E4.84588
G1 X89.268 Y113.814 E4.87872
G1 X89.282 Y113.660 E4.88351
G1 X83.734 Y119.208 E5.12729
G1 X83.242 Y118.813 E5.14691
G1 X89.367 Y112.688 E5.41609
G1 X89.452 Y111.715 E5.44642
G1 X82.749 Y118.418 E5.74099
G1 X82.256 Y118.023 E5.76061
G1 X89.537 Y110.742 E6.08056
G1 X89.468 Y109.924 E6.10608
G1 X81.763 Y117.629 E6.44465
G1 X81.271 Y117.234 E6.46427
G1 X89.397 Y109.108 E6.82135
G1 X89.325 Y108.292 E6.84681
G1 X80.790 Y116.827 E7.22188
G1 X80.311 Y116.418 E7.24144
G1 X89.230 Y107.500 E7.63336
G1 X89.042 Y106.800 E7.65588
G1 X79.833 Y116.009 E8.06059
G1 X79.354 Y115.600 E8.08015
G1 X88.855 Y106.100 E8.49766
G1 X88.667 Y105.400 E8.52018
G1 X78.875 Y115.192 E8.95047
G1 X78.397 Y114.783 E8.97004
G1 X88.480 Y104.700 E9.41313
G1 X88.204 Y104.088 E9.43398
G1 X77.931 Y114.361 E9.88543
G1 X77.466 Y113.938 E9.90495
G1 X87.922 Y103.483 E10.36442
G1 X87.639 Y102.878 E10.38517
G1 X77.001 Y113.516 E10.85266
G1 X76.537 Y113.093 E10.87218
G1 X87.357 Y102.272 E11.34768
G1 X87.158 Y101.845 E11.36233
G1 X87.051 Y101.692 E11.36816
G1 X76.072 Y112.670 E11.85060
G1 X75.607 Y112.247 E11.87012
G1 X78.424 Y109.430 E11.99392
G1 X78.093 Y109.716 E12.00750
G1 X77.044 Y110.178 E12.04314
G1 X76.755 Y110.212 E12.05219
G1 X75.156 Y111.811 E12.12245
G1 X74.705 Y111.374 E12.14195
G1 X75.787 Y110.292 E12.18952
G1 E10.18952 F2400.00000
G92 E0
G1 X78.602 Y109.252 F7800.000
G1 E2.00000 F2400.00000
G1 F1800.000
G1 X86.685 Y101.170 E2.35520
G1 X86.320 Y100.648 E2.37500
G1 X79.315 Y107.652 E2.68282
G1 X79.390 Y107.377 E2.69169
G1 X79.369 Y106.711 E2.71240
G1 X85.954 Y100.126 E3.00179
G1 X85.589 Y99.604 E3.02159
G1 X79.254 Y105.938 E3.29997
G1 X79.026 Y105.278 E3.32166
G1 X85.189 Y99.115 E3.59249
G1 X84.745 Y98.672 E3.61199
G1 X78.682 Y104.735 E3.87844
G1 X78.306 Y104.224 E3.89817
G1 X84.302 Y98.228 E4.16165
G1 X83.858 Y97.784 E4.18115
G1 X77.799 Y103.843 E4.44741
G1 X77.363 Y103.523 E4.46422
G1 X77.266 Y103.489 E4.46742
G1 X83.414 Y97.340 E4.73762
G1 X83.192 Y97.118 E4.74738
G1 X82.931 Y96.936 E4.75727
G1 X76.606 Y103.261 E5.03524
G1 X76.273 Y103.147 E5.04617
G1 X75.846 Y103.133 E5.05944
G1 X82.409 Y96.570 E5.34784
G1 X81.887 Y96.205 E5.36764
G1 X74.929 Y103.163 E5.67342
G1 X74.016 Y103.413 E5.70284
G1 X73.408 Y103.797 E5.72517
G1 X81.365 Y95.839 E6.07485
G1 X80.843 Y95.474 E6.09465
G1 X69.858 Y106.459 E6.57738
G1 X69.435 Y105.994 E6.59690
G1 X80.268 Y95.162 E7.07294
G1 X79.663 Y94.879 E7.09369
G1 X69.012 Y105.530 E7.56171
G1 X68.590 Y105.065 E7.58123
G1 X79.057 Y94.597 E8.04124
G1 X78.452 Y94.315 E8.06199
G1 X68.167 Y104.600 E8.51397
G1 X67.744 Y104.135 E8.53350
G1 X77.847 Y94.033 E8.97744
G1 X77.147 Y93.845 E8.99996
G1 X67.336 Y103.656 E9.43111
G1 X66.927 Y103.178 E9.45067
G1 X76.447 Y93.658 E9.86903
G1 X75.747 Y93.470 E9.89154
G1 X66.518 Y102.699 E10.29711
G1 X66.109 Y102.220 E10.31667
G1 X75.047 Y93.283 E10.70944
G1 X74.857 Y93.232 E10.71556
G1 X74.262 Y93.180 E10.73410
G1 X65.700 Y101.742 E11.11036
G1 X65.292 Y101.262 E11.12992
G1 X73.446 Y93.108 E11.48824
G1 X72.630 Y93.037 E11.51369
G1 X64.898 Y100.769 E11.85350
G1 X64.503 Y100.277 E11.87311
G1 X71.814 Y92.965 E12.19440
G1 X70.850 Y93.042 E12.22446
G1 X64.108 Y99.784 E12.52072
G1 X63.713 Y99.291 E12.54034
G1 X69.877 Y93.127 E12.81120
G1 X68.905 Y93.212 E12.84153
G1 X63.319 Y98.798 E13.08700
G1 X62.926 Y98.304 E13.10663
G1 X67.746 Y93.483 E13.31845
G1 X66.534 Y93.808 E13.35746
G1 X62.545 Y97.797 E13.53273
G1 X62.165 Y97.290 E13.55242
G1 X65.183 Y94.272 E13.68504
G1 X63.519 Y95.048 E13.74206
G1 X61.784 Y96.783 E13.81832
G1 X61.403 Y96.276 E13.83802
G1 X62.246 Y95.433 E13.87507
G1 X61.880 Y94.912 E13.89486
