; generated by Slic3r 1.3.1-dev (Build 2ef957d) on 2019-11-25 at 09:24:42

; external perimeters extrusion width = 0.55mm (4.37mm^3/s)
; perimeters extrusion width = 0.70mm (11.44mm^3/s)
; infill extrusion width = 0.62mm (13.45mm^3/s)
; solid infill extrusion width = 0.70mm (3.81mm^3/s)
; top infill extrusion width = 0.70mm (2.86mm^3/s)

M107
G92 E0
M104 S200 ; set temperature
G28 ; home all axes
G1 Z5 F5000 ; lift nozzle

; Filament gcode

M109 S200 ; set temperature and wait for it to be reached
G21 ; set units to millimeters
G90 ; use absolute coordinates
M82 ; use absolute distances for extrusion
G92 E0
G1 Z0.350 F7800.000
G1 E-2.00000 F2400.00000
G92 E0
G1 X146.764 Y21.685 F7800.000
G1 E2.00000 F2400.00000
G1 F1800.000
G1 X148.238 Y19.928 E2.07096
G1 X150.223 Y18.779 E2.14192
G1 X152.500 Y18.375 E2.21349
G1 X157.500 Y18.375 E2.36820
G1 X159.759 Y18.772 E2.43916
G1 X161.747 Y19.915 E2.51012
G1 X163.226 Y21.668 E2.58109
G1 X164.019 Y23.820 E2.65205
G1 X164.125 Y25.000 E2.68870
G1 X164.125 Y64.406 E3.90799
G1 X163.768 Y66.552 E3.97528
G1 X163.089 Y68.526 E4.03986
G1 X161.739 Y72.098 E4.15804
G1 X160.201 Y75.820 E4.28262
G1 X158.458 Y79.680 E4.41368
G1 X156.684 Y83.293 E4.53823
G1 X154.895 Y86.672 E4.65652
G1 X152.797 Y90.350 E4.78753
G1 X150.771 Y93.656 E4.90751
G1 X97.747 Y178.511 E8.00348
G1 X96.213 Y180.216 E8.07444
G1 X94.190 Y181.296 E8.14541
G1 X92.128 Y181.625 E8.20999
G1 X91.322 Y181.625 E8.23494
G1 X89.063 Y181.228 E8.30591
G1 X87.075 Y180.085 E8.37687
G1 X85.596 Y178.332 E8.44783
G1 X84.803 Y176.180 E8.51879
G1 X84.697 Y175.000 E8.55544
G1 X84.697 Y130.870 E9.92087
G1 X85.094 Y128.611 E9.99184
G1 X85.586 Y127.556 E10.02788
G1 X146.726 Y21.750 E13.80892
G1 E11.80892 F2400.00000
G92 E0
G1 X126.261 Y104.223 F7800.000
G1 E2.00000 F2400.00000
G1 F1800.000
G1 X126.887 Y104.951 E2.02971
G1 X127.275 Y105.828 E2.05937
G1 X127.388 Y106.783 E2.08913
G1 X127.214 Y107.730 E2.11893
G1 X126.766 Y108.584 E2.14877
G1 X126.084 Y109.266 E2.17860
G1 X125.230 Y109.714 E2.20844
G1 X124.283 Y109.887 E2.23823
G1 X123.330 Y109.775 E2.26793
G1 X122.451 Y109.388 E2.29765
G1 X121.723 Y108.761 E2.32736
G1 X121.211 Y107.949 E2.35707
G1 X120.958 Y107.023 E2.38678
G1 X120.988 Y106.061 E2.41654
G1 X121.303 Y105.150 E2.44637
G1 X121.874 Y104.374 E2.47618
G1 X122.650 Y103.803 E2.50601
G1 X123.561 Y103.488 E2.53584
G1 X124.524 Y103.458 E2.56563
G1 X125.450 Y103.711 E2.59533
G1 X126.198 Y104.183 E2.62270
G1 X125.849 Y104.702 F7800.000
G1 F1800.000
G1 X126.353 Y105.288 E2.64664
G1 X126.665 Y105.994 E2.67053
G1 X126.756 Y106.763 E2.69447
G1 X126.616 Y107.524 E2.71842
G1 X126.257 Y108.210 E2.74238
G1 X125.710 Y108.757 E2.76631
G1 X125.024 Y109.117 E2.79027
G1 X124.263 Y109.256 E2.81421
G1 X123.496 Y109.165 E2.83811
G1 X122.788 Y108.854 E2.86204
G1 X122.202 Y108.349 E2.88598
G1 X121.789 Y107.695 E2.90991
G1 X121.585 Y106.949 E2.93383
G1 X121.610 Y106.176 E2.95776
G1 X121.862 Y105.444 E2.98171
G1 X122.321 Y104.821 E3.00564
G1 X122.944 Y104.362 E3.02959
G1 X123.676 Y104.110 E3.05355
G1 X124.449 Y104.085 E3.07750
G1 X125.195 Y104.289 E3.10141
G1 X125.785 Y104.662 E3.12300
G1 X125.436 Y105.180 F7800.000
G1 F1800.000
G1 X125.819 Y105.625 E3.14117
G1 X126.056 Y106.161 E3.15929
G1 X126.124 Y106.743 E3.17741
G1 X126.019 Y107.318 E3.19551
G1 X125.748 Y107.835 E3.21358
G1 X125.335 Y108.247 E3.23163
G1 X124.818 Y108.519 E3.24970
G1 X124.243 Y108.624 E3.26779
G1 X123.662 Y108.556 E3.28589
G1 X123.125 Y108.320 E3.30403
G1 X122.680 Y107.936 E3.32220
G1 X122.367 Y107.440 E3.34036
G1 X122.213 Y106.875 E3.35848
G1 X122.231 Y106.290 E3.37658
G1 X122.422 Y105.738 E3.39466
G1 X122.768 Y105.268 E3.41271
G1 X123.238 Y104.922 E3.43077
G1 X123.790 Y104.731 E3.44885
G1 X124.375 Y104.713 E3.46696
G1 X124.940 Y104.867 E3.48509
G1 X125.373 Y105.140 E3.50091
G1 X125.436 Y105.180 F7800.000
G1 E1.50091 F2400.00000
G92 E0
G1 X137.710 Y95.061 F7800.000
G1 E2.00000 F2400.00000
G1 F1800.000
G1 X140.258 Y91.436 E2.13710
G1 X142.296 Y88.333 E2.25199
G1 X144.236 Y85.167 E2.36687
G1 X146.076 Y81.941 E2.48176
G1 X147.608 Y79.049 E2.58304
G1 X149.446 Y75.328 E2.71144
G1 X150.975 Y71.941 E2.82642
G1 X152.396 Y68.511 E2.94131
G1 X153.708 Y65.038 E3.05618
G1 X154.100 Y63.895 E3.09357
G1 X154.100 Y44.880 E3.68192
G1 X155.900 Y44.880 E3.73762
G1 X155.900 Y64.140 E4.33357
G1 X155.386 Y65.642 E4.38267
G1 X154.054 Y69.167 E4.49929
G1 X152.612 Y72.649 E4.61590
G1 X151.060 Y76.085 E4.73253
G1 X149.402 Y79.470 E4.84916
G1 X147.639 Y82.800 E4.96577
G1 X145.771 Y86.074 E5.08240
G1 X143.802 Y89.288 E5.19901
G1 X141.732 Y92.438 E5.31564
G1 X139.565 Y95.522 E5.43225
G1 X137.302 Y98.536 E5.54887
G1 X134.946 Y101.477 E5.66549
G1 X132.498 Y104.344 E5.78212
G1 X129.961 Y107.132 E5.89875
G1 X127.338 Y109.838 E6.01536
G1 X124.631 Y112.462 E6.13199
G1 X121.844 Y114.998 E6.24861
G1 X118.978 Y117.446 E6.36522
G1 X116.036 Y119.802 E6.48183
G1 X113.022 Y122.065 E6.59846
G1 X109.938 Y124.232 E6.71509
G1 X106.788 Y126.302 E6.83171
G1 X103.574 Y128.271 E6.94833
G1 X100.300 Y130.139 E7.06495
G1 X96.969 Y131.902 E7.18157
G1 X93.585 Y133.560 E7.29819
G1 X92.922 Y133.860 E7.32070
G1 X92.922 Y131.900 E7.38135
G1 X96.160 Y130.313 E7.49292
G1 X99.441 Y128.576 E7.60780
G1 X102.667 Y126.736 E7.72270
G1 X105.833 Y124.797 E7.83758
G1 X108.936 Y122.758 E7.95247
G1 X112.561 Y120.210 E8.08957
G1 X111.187 Y117.263 E8.19018
G1 X110.357 Y114.166 E8.28937
G1 X110.078 Y110.972 E8.38858
G1 X110.357 Y107.778 E8.48779
G1 X111.187 Y104.680 E8.58701
G1 X112.542 Y101.775 E8.68620
G1 X114.381 Y99.148 E8.78542
G1 X116.648 Y96.881 E8.88462
G1 X119.275 Y95.042 E8.98383
G1 X122.181 Y93.687 E9.08304
G1 X125.278 Y92.857 E9.18225
G1 X128.472 Y92.578 E9.28146
G1 X131.666 Y92.857 E9.38066
G1 X134.763 Y93.687 E9.47987
G1 X137.642 Y95.029 E9.57816
G1 X137.500 Y94.274 F7800.000
G1 F1800.000
G1 X139.741 Y91.085 E9.69876
G1 X141.769 Y87.998 E9.81304
G1 X143.698 Y84.849 E9.92732
G1 X145.529 Y81.640 E10.04160
G1 X147.052 Y78.764 E10.14230
G1 X148.881 Y75.061 E10.27010
G1 X150.402 Y71.693 E10.38444
G1 X151.815 Y68.281 E10.49872
G1 X153.120 Y64.826 E10.61299
G1 X153.475 Y63.791 E10.64685
G1 X153.475 Y44.255 E11.25131
G1 X156.525 Y44.255 E11.34569
G1 X156.525 Y64.244 E11.96419
G1 X155.974 Y65.853 E12.01681
G1 X154.635 Y69.397 E12.13404
G1 X153.186 Y72.898 E12.25126
G1 X151.626 Y76.351 E12.36850
G1 X149.959 Y79.753 E12.48573
G1 X148.186 Y83.101 E12.60295
G1 X146.309 Y86.393 E12.72018
G1 X144.330 Y89.623 E12.83741
G1 X142.249 Y92.790 E12.95464
G1 X140.071 Y95.889 E13.07186
G1 X137.796 Y98.919 E13.18909
G1 X135.427 Y101.876 E13.30631
G1 X132.967 Y104.757 E13.42355
G1 X130.417 Y107.560 E13.54079
G1 X127.780 Y110.280 E13.65801
G1 X125.059 Y112.917 E13.77524
G1 X122.257 Y115.467 E13.89247
G1 X119.376 Y117.927 E14.00970
G1 X116.419 Y120.296 E14.12691
G1 X113.389 Y122.571 E14.24415
G1 X110.290 Y124.749 E14.36138
G1 X107.123 Y126.830 E14.47861
G1 X103.893 Y128.809 E14.59584
G1 X100.602 Y130.686 E14.71307
G1 X97.253 Y132.459 E14.83029
G1 X93.851 Y134.126 E14.94752
G1 X92.297 Y134.828 E15.00028
G1 X92.297 Y131.500 E15.10325
G1 X95.876 Y129.756 E15.22644
G1 X99.140 Y128.029 E15.34071
G1 X102.349 Y126.198 E15.45500
G1 X105.498 Y124.269 E15.56927
G1 X108.585 Y122.241 E15.68356
G1 X111.774 Y119.999 E15.80416
G1 X110.597 Y117.477 E15.89026
G1 X109.739 Y114.275 E15.99284
G1 X109.450 Y110.972 E16.09543
G1 X109.739 Y107.669 E16.19802
G1 X110.597 Y104.466 E16.30063
G1 X111.999 Y101.461 E16.40320
G1 X113.900 Y98.745 E16.50580
G1 X116.245 Y96.401 E16.60839
G1 X118.961 Y94.499 E16.71098
G1 X121.966 Y93.097 E16.81357
G1 X125.169 Y92.239 E16.91616
G1 X128.472 Y91.950 E17.01875
G1 X131.775 Y92.239 E17.12135
G1 X134.977 Y93.097 E17.22393
G1 X137.432 Y94.242 E17.30772
G1 X137.289 Y93.486 F7800.000
G1 F1800.000
G1 X139.224 Y90.734 E17.41182
G1 X141.241 Y87.663 E17.52549
G1 X143.160 Y84.530 E17.63917
G1 X144.981 Y81.339 E17.75284
G1 X146.495 Y78.479 E17.85297
G1 X148.316 Y74.794 E17.98016
G1 X149.828 Y71.445 E18.09386
G1 X151.234 Y68.051 E18.20753
G1 X152.532 Y64.614 E18.32119
G1 X152.850 Y63.687 E18.35153
G1 X152.850 Y43.630 E18.97211
G1 X157.150 Y43.630 E19.10516
G1 X157.150 Y64.348 E19.74621
G1 X156.562 Y66.065 E19.80235
G1 X155.216 Y69.627 E19.92019
G1 X153.759 Y73.146 E20.03802
G1 X152.191 Y76.617 E20.15586
G1 X150.516 Y80.037 E20.27370
G1 X148.734 Y83.403 E20.39153
G1 X146.847 Y86.711 E20.50937
G1 X144.857 Y89.958 E20.62720
G1 X142.766 Y93.141 E20.74504
G1 X140.577 Y96.256 E20.86287
G1 X138.290 Y99.302 E20.98071
G1 X135.909 Y102.274 E21.09854
G1 X133.435 Y105.170 E21.21638
G1 X130.872 Y107.987 E21.33423
G1 X128.222 Y110.722 E21.45205
G1 X125.487 Y113.373 E21.56990
G1 X122.670 Y115.936 E21.68773
G1 X119.774 Y118.409 E21.80557
G1 X116.802 Y120.789 E21.92339
G1 X113.757 Y123.076 E22.04123
G1 X110.641 Y125.266 E22.15907
G1 X107.458 Y127.357 E22.27691
G1 X104.211 Y129.347 E22.39474
G1 X100.903 Y131.234 E22.51258
G1 X97.537 Y133.016 E22.63042
G1 X94.117 Y134.691 E22.74825
G1 X91.672 Y135.796 E22.83126
G1 X91.672 Y131.096 E22.97666
G1 X92.293 Y130.816 E22.99775
G1 X95.592 Y129.200 E23.11143
G1 X98.839 Y127.481 E23.22509
G1 X102.030 Y125.660 E23.33877
G1 X105.163 Y123.741 E23.45243
G1 X108.234 Y121.724 E23.56611
G1 X110.986 Y119.789 E23.67022
G1 X110.008 Y117.692 E23.74182
G1 X109.122 Y114.384 E23.84778
G1 X108.823 Y110.972 E23.95375
G1 X109.122 Y107.560 E24.05973
G1 X110.008 Y104.251 E24.16572
G1 X111.455 Y101.148 E24.27168
G1 X113.420 Y98.342 E24.37766
G1 X115.842 Y95.920 E24.48363
G1 X118.647 Y93.955 E24.58960
G1 X121.751 Y92.508 E24.69558
G1 X125.060 Y91.622 E24.80155
G1 X128.472 Y91.323 E24.90753
G1 X131.884 Y91.622 E25.01350
G1 X135.192 Y92.508 E25.11947
G1 X137.221 Y93.454 E25.18876
G1 X137.723 Y93.734 F7800.000
G1 E23.18876 F2400.00000
G92 E0
G1 X157.100 Y43.630 F7800.000
G1 E2.00000 F2400.00000
G1 F1800.000
G1 X157.100 Y25.800 E2.63997
G1 X157.077 Y25.690 E2.64402
G1 F1800.000
G1 X157.031 Y25.469 E2.65314
G1 X156.700 Y25.400 E2.66682
G1 F1800.000
G1 X152.500 Y25.400 E2.81757
G1 E0.81757 F2400.00000
G92 E0
G1 X91.725 Y135.772 F7800.000
G1 E2.00000 F2400.00000
G1 F1800.000
G1 X91.725 Y175.000 E3.42045
G1 E1.42045 F2400.00000
G92 E0
G1 X94.786 Y131.558 F7800.000
G1 E2.00000 F2400.00000
G1 F1800.000
G1 X93.304 Y133.041 E2.06611
G1 X93.304 Y133.126 E2.06881
G1 X94.901 Y132.344 E2.12490
G1 X96.552 Y130.693 E2.19850
G1 X98.454 Y129.692 E2.26627
G1 X96.685 Y131.460 E2.34511
G1 X98.599 Y130.447 E2.41339
G1 X100.403 Y128.642 E2.49384
G1 X102.500 Y127.447 E2.56993
G1 X100.585 Y129.361 E2.65530
G1 X102.681 Y128.166 E2.73138
G1 X104.745 Y126.101 E2.82342
G1 X106.410 Y125.081 E2.88498
G1 X107.156 Y124.592 E2.91310
G1 X104.970 Y126.777 E3.01055
G1 X106.210 Y126.017 E3.05640
G1 X107.435 Y125.213 E3.10261
G1 X109.819 Y122.829 E3.20892
G1 X112.851 Y120.697 E3.32575
G1 X110.172 Y123.377 E3.44522
G1 E1.44522 F2400.00000
G92 E0
G1 X110.692 Y113.851 F7800.000
G1 E2.00000 F2400.00000
G1 F1800.000
G1 X131.351 Y93.192 E2.92114
G1 X130.523 Y93.120 E2.94735
G1 X110.620 Y113.023 E3.83479
G1 X110.548 Y112.195 E3.86100
G1 X129.695 Y93.048 E4.71475
G1 X128.867 Y92.975 E4.74096
G1 X110.475 Y111.367 E5.56101
G1 X110.462 Y111.215 E5.56581
G1 X110.532 Y110.409 E5.59133
G1 X127.909 Y93.032 E6.36613
G1 X126.922 Y93.119 E6.39736
G1 X110.619 Y109.422 E7.12431
G1 X110.705 Y108.435 E7.15555
G1 X125.935 Y93.205 E7.83465
G1 X125.630 Y93.232 E7.84432
G1 X124.781 Y93.459 E7.87204
G1 X110.959 Y107.280 E8.48831
G1 X111.289 Y106.050 E8.52846
G1 X123.550 Y93.789 E9.07519
G1 X122.638 Y94.033 E9.10497
G1 X122.202 Y94.237 E9.12014
G1 X111.736 Y104.702 E9.58679
G1 X112.524 Y103.015 E9.64551
G1 X120.515 Y95.023 E10.00182
G1 X119.831 Y95.342 E10.02560
G1 X118.044 Y96.594 E10.09440
G1 X114.094 Y100.544 E10.27053
G1 X114.618 Y99.794 E10.29937
G1 X116.808 Y97.605 E10.39701
G1 X117.558 Y97.080 E10.42586
G1 E8.42586 F2400.00000
G92 E0
G1 X121.420 Y104.024 F7800.000
G1 E2.00000 F2400.00000
G1 F1800.000
G1 X110.819 Y114.625 E2.47268
G1 X111.009 Y115.335 E2.49586
G1 X120.609 Y105.736 E2.92390
G1 X120.579 Y106.666 E2.95324
G1 X111.199 Y116.045 E3.37147
G1 X111.390 Y116.756 E3.39466
G1 X120.727 Y107.418 E3.81101
G1 X120.876 Y107.961 E3.82875
G1 X120.957 Y108.089 E3.83354
G1 X111.604 Y117.442 E4.25058
G1 X111.890 Y118.056 E4.27194
G1 X121.305 Y108.641 E4.69174
G1 X121.488 Y108.930 E4.70252
G1 X121.718 Y109.129 E4.71211
G1 X112.176 Y118.670 E5.13756
G1 X112.463 Y119.285 E5.15892
G1 X122.202 Y109.546 E5.59316
G1 X122.356 Y109.679 E5.59960
G1 X122.781 Y109.866 E5.61425
G1 X112.749 Y119.899 E6.06157
G1 X113.036 Y120.513 E6.08293
G1 X123.407 Y110.142 E6.54537
G1 X124.213 Y110.236 E6.57095
G1 X113.354 Y121.095 E7.05510
G1 X115.410 Y119.551 E7.13615
G1 X117.361 Y117.988 E7.21496
G1 X125.192 Y110.158 E7.56412
G1 X125.488 Y110.103 E7.57363
G1 X125.765 Y110.485 E7.58849
G1 X125.274 Y110.976 E7.61036
G1 E5.61036 F2400.00000
G92 E0
G1 X127.985 Y108.265 F7800.000
G1 E2.00000 F2400.00000
G1 F1800.000
G1 X129.749 Y106.461 E2.07955
G1 X132.272 Y103.687 E2.19778
G1 X134.707 Y100.836 E2.31600
G1 X135.487 Y99.863 E2.35533
G1 X127.658 Y107.692 E2.70442
G1 X127.776 Y107.046 E2.72511
G1 X127.737 Y106.712 E2.73572
G1 X138.595 Y95.854 E3.21988
G1 X139.303 Y94.911 E3.25704
G1 X140.877 Y92.672 E3.34336
G1 X138.198 Y95.350 E3.46279
G1 X140.328 Y92.320 E3.57958
G1 X142.712 Y89.935 E3.68589
G1 X143.517 Y88.710 E3.73211
G1 X144.277 Y87.470 E3.77796
G1 X142.091 Y89.657 E3.87545
G1 X142.581 Y88.910 E3.90360
G1 X143.601 Y87.246 E3.96515
G1 X145.666 Y85.181 E4.05721
G1 X146.861 Y83.085 E4.13329
G1 X144.947 Y85.000 E4.21866
G1 X146.142 Y82.903 E4.29476
G1 X147.947 Y81.099 E4.37522
G1 X148.960 Y79.185 E4.44349
G1 X147.192 Y80.953 E4.52232
G1 X148.168 Y79.077 E4.58900
G1 X149.844 Y77.401 E4.66371
G1 X150.708 Y75.636 E4.72569
G1 X149.047 Y77.298 E4.79979
G1 X149.901 Y75.543 E4.86132
G1 X151.454 Y73.989 E4.93058
G1 X152.196 Y72.347 E4.98740
G1 X150.643 Y73.900 E5.05666
G1 X151.374 Y72.269 E5.11301
G1 X152.845 Y70.798 E5.17861
G1 X153.481 Y69.261 E5.23106
G1 X152.010 Y70.732 E5.29666
G1 X152.646 Y69.195 E5.34910
G1 X154.061 Y67.781 E5.41219
G1 X154.608 Y66.333 E5.46098
G1 X153.205 Y67.736 E5.52354
G1 X153.752 Y66.289 E5.57231
G1 X155.139 Y64.902 E5.63415
G1 X155.518 Y63.793 E5.67109
G1 X155.518 Y63.622 E5.67649
G1 X154.264 Y64.876 E5.73241
G1 X154.482 Y64.242 E5.75355
G1 X154.482 Y63.758 E5.76880
G1 X155.518 Y62.721 E5.81503
G1 X155.518 Y61.821 E5.84342
G1 X154.482 Y62.858 E5.88965
G1 X154.482 Y61.957 E5.91804
G1 X155.518 Y60.920 E5.96427
G1 X155.518 Y60.020 E5.99266
G1 X154.482 Y61.057 E6.03889
G1 X154.482 Y60.156 E6.06728
G1 X155.518 Y59.119 E6.11351
G1 X155.518 Y58.219 E6.14190
G1 X154.482 Y59.256 E6.18813
G1 X154.482 Y58.355 E6.21652
G1 X155.518 Y57.318 E6.26275
G1 X155.518 Y56.418 E6.29114
G1 X154.482 Y57.455 E6.33737
G1 X154.482 Y56.554 E6.36576
G1 X155.518 Y55.517 E6.41199
G1 X155.518 Y54.617 E6.44038
G1 X154.482 Y55.654 E6.48661
G1 X154.482 Y54.753 E6.51500
G1 X155.518 Y53.716 E6.56123
G1 X155.518 Y52.816 E6.58962
G1 X154.482 Y53.852 E6.63585
G1 X154.482 Y52.952 E6.66424
G1 X155.518 Y51.915 E6.71047
G1 X155.518 Y51.015 E6.73886
G1 X154.482 Y52.051 E6.78509
G1 X154.482 Y51.151 E6.81348
G1 X155.518 Y50.114 E6.85971
G1 X155.518 Y49.214 E6.88810
G1 X154.482 Y50.250 E6.93433
G1 X154.482 Y49.350 E6.96272
G1 X155.518 Y48.313 E7.00895
G1 X155.518 Y47.413 E7.03734
G1 X154.482 Y48.449 E7.08357
G1 X154.482 Y47.549 E7.11196
G1 X155.518 Y46.512 E7.15819
G1 X155.518 Y45.612 E7.18658
G1 X154.482 Y46.648 E7.23281
G1 X154.482 Y45.748 E7.26120
G1 X154.968 Y45.262 E7.28288
G1 E5.28288 F2400.00000
G92 E0
G1 X127.642 Y105.907 F7800.000
G1 E2.00000 F2400.00000
G1 F1800.000
G1 X138.013 Y95.536 E2.46244
G1 X137.399 Y95.249 E2.48381
G1 X127.366 Y105.282 E2.93114
G1 X127.179 Y104.856 E2.94580
G1 X127.046 Y104.702 E2.95223
G1 X136.785 Y94.963 E3.38648
G1 X136.171 Y94.676 E3.40785
G1 X126.629 Y104.218 E3.83329
G1 X126.431 Y103.988 E3.84288
G1 X126.141 Y103.805 E3.85366
G1 X135.556 Y94.390 E4.27347
G1 X134.942 Y94.104 E4.29483
G1 X125.589 Y103.457 E4.71187
G1 X125.461 Y103.376 E4.71665
G1 X124.918 Y103.227 E4.73440
G1 X134.256 Y93.890 E5.15075
G1 X133.545 Y93.699 E5.17394
