; Gcode updated with 'stl_info' on 2019-12-03 19:08:39.820657

; stl_min_x = 0.0
; stl_max_x = 72.6322021484375
; stl_min_y = -85.53359985351562
; stl_max_y = -41.5
; stl_min_z = -40.0

; generated by Slic3r 1.3.1-dev (Build adea0d9) on 2019-12-03 at 19:08:39

; external perimeters extrusion width = 0.55mm (1.90mm^3/s)
; perimeters extrusion width = 0.70mm (2.71mm^3/s)
; infill extrusion width = 0.62mm (2.41mm^3/s)
; solid infill extrusion width = 0.70mm (2.04mm^3/s)
; top infill extrusion width = 0.70mm (2.04mm^3/s)

M107
G92 E0
;D3D:START:START
T0
M104 S215 T0

G21
G90
M107
T0
G28
G29
M109 T0 S215 T0
G0 F3000
M107
T0
G92 E0
G0 X0 Y149 Z0.1 F3600
G1 Y49 E6.5 F1200
G0 Z1
G92 E0
; Filament gcode

G21 ; set units to millimeters
G90 ; use absolute coordinates
M82 ; use absolute distances for extrusion
G92 E0
G1 Z0.090 F7800.000
G1 E-2.00000 F2400.00000
G92 E0
G1 X34.794 Y47.626 F7800.000
G1 E2.00000 F2400.00000
G1 F1800.000
G1 X37.702 Y46.937 E2.00891
G1 X40.579 Y46.985 E2.01749
G1 X43.453 Y47.123 E2.02607
G1 X46.321 Y47.352 E2.03465
G1 X49.180 Y47.671 E2.04323
G1 X51.839 Y48.049 E2.05123
G1 X54.861 Y48.577 E2.06038
G1 X57.491 Y49.121 E2.06839
G1 X58.957 Y49.470 E2.07288
G1 X69.831 Y52.816 E2.10681
G1 X71.409 Y53.403 E2.11182
G1 X73.890 Y54.431 E2.11983
G1 X76.686 Y55.693 E2.12898
G1 X79.269 Y56.962 E2.13756
G1 X81.642 Y58.219 E2.14557
G1 X84.143 Y59.641 E2.15415
G1 X86.759 Y61.244 E2.16329
G1 X89.004 Y62.719 E2.17130
G1 X91.359 Y64.371 E2.17988
G1 X93.812 Y66.213 E2.18903
G1 X96.056 Y68.014 E2.19761
G1 X98.099 Y69.758 E2.20561
G1 X100.228 Y71.692 E2.21419
G1 X102.296 Y73.692 E2.22277
G1 X104.431 Y75.895 E2.23192
G1 X106.239 Y77.882 E2.23993
G1 X108.110 Y80.068 E2.24850
G1 X109.911 Y82.311 E2.25708
G1 X111.641 Y84.610 E2.26566
G1 X113.405 Y87.120 E2.27481
G1 X114.982 Y89.526 E2.28339
G1 X116.385 Y91.817 E2.29140
G1 X117.637 Y94.004 E2.29891
G1 X118.362 Y96.077 E2.30546
G1 X118.304 Y98.273 E2.31201
G1 X117.470 Y100.305 E2.31856
G1 X115.968 Y101.907 E2.32510
G1 X113.995 Y102.871 E2.33165
G1 X112.356 Y103.096 E2.33659
G1 X37.607 Y103.096 E2.55946
G1 X35.447 Y102.700 E2.56601
G1 X33.569 Y101.561 E2.57256
G1 X32.217 Y99.830 E2.57911
G1 X31.527 Y97.017 E2.58774
G1 X31.527 Y53.016 E2.71894
G1 X31.924 Y50.855 E2.72549
G1 X33.062 Y48.977 E2.73204
G1 X34.735 Y47.672 E2.73836
G1 E0.73836 F2400.00000
G92 E0
G1 X104.709 Y96.505 F7800.000
G1 E2.00000 F2400.00000
G1 F1800.000
G1 X103.078 Y94.022 E2.00886
G1 X101.649 Y91.988 E2.01627
G1 X100.155 Y89.999 E2.02369
G1 X98.601 Y88.059 E2.03110
G1 X96.985 Y86.168 E2.03852
G1 X95.312 Y84.328 E2.04593
G1 X93.581 Y82.542 E2.05335
G1 X91.795 Y80.812 E2.06076
G1 X89.956 Y79.138 E2.06817
G1 X88.065 Y77.523 E2.07559
G1 X86.124 Y75.968 E2.08300
G1 X84.136 Y74.475 E2.09042
G1 X82.101 Y73.045 E2.09783
G1 X80.023 Y71.680 E2.10525
G1 X77.902 Y70.381 E2.11266
G1 X75.742 Y69.149 E2.12008
G1 X73.545 Y67.985 E2.12749
G1 X71.312 Y66.891 E2.13491
G1 X69.045 Y65.868 E2.14232
G1 X66.748 Y64.916 E2.14974
G1 X64.421 Y64.037 E2.15715
G1 X62.069 Y63.232 E2.16457
G1 X59.692 Y62.500 E2.17198
G1 X57.293 Y61.844 E2.17940
G1 X56.176 Y61.576 E2.18282
G1 X56.176 Y55.767 E2.20014
G1 X53.498 Y55.212 E2.20829
G1 X50.874 Y54.755 E2.21624
G1 X48.236 Y54.379 E2.22418
G1 X45.588 Y54.087 E2.23213
G1 X42.932 Y53.878 E2.24007
G1 X40.271 Y53.752 E2.24801
G1 X38.118 Y53.718 E2.25443
G1 X38.118 Y59.365 E2.27127
G1 X37.896 Y59.362 E2.27193
G1 X37.896 Y53.309 E2.28998
G1 X40.284 Y53.346 E2.29710
G1 X42.958 Y53.472 E2.30508
G1 X45.626 Y53.682 E2.31307
G1 X48.287 Y53.976 E2.32105
G1 X50.937 Y54.353 E2.32903
G1 X53.574 Y54.814 E2.33701
G1 X56.196 Y55.356 E2.34499
G1 X57.248 Y55.609 E2.34822
G1 X57.248 Y56.620 E2.35124
G1 X58.554 Y56.934 E2.35524
G1 X61.106 Y57.632 E2.36313
G1 X63.635 Y58.410 E2.37102
G1 X66.139 Y59.267 E2.37891
G1 X68.326 Y60.093 E2.38588
G1 X68.326 Y59.042 E2.38901
G1 X68.976 Y59.288 E2.39109
G1 X71.449 Y60.313 E2.39907
G1 X73.889 Y61.414 E2.40705
G1 X76.293 Y62.592 E2.41503
G1 X78.658 Y63.844 E2.42301
G1 X80.984 Y65.171 E2.43099
G1 X83.266 Y66.569 E2.43898
G1 X85.504 Y68.039 E2.44696
G1 X87.694 Y69.578 E2.45494
G1 X89.834 Y71.186 E2.46292
G1 X91.924 Y72.859 E2.47090
G1 X93.959 Y74.598 E2.47888
G1 X95.939 Y76.399 E2.48687
G1 X97.861 Y78.262 E2.49485
G1 X99.724 Y80.185 E2.50283
G1 X101.526 Y82.165 E2.51081
G1 X103.265 Y84.200 E2.51879
G1 X104.938 Y86.289 E2.52677
G1 X106.545 Y88.430 E2.53476
G1 X108.085 Y90.620 E2.54274
G1 X109.554 Y92.858 E2.55072
G1 X110.953 Y95.140 E2.55870
G1 X111.859 Y96.728 E2.56415
G1 X37.896 Y96.728 E2.78469
G1 X37.896 Y96.505 E2.78535
G1 X104.634 Y96.505 E2.98434
G1 X104.562 Y96.426 F7800.000
G1 F1800.000
G1 X103.012 Y94.067 E2.99276
G1 X101.584 Y92.035 E3.00016
G1 X100.092 Y90.048 E3.00757
G1 X98.539 Y88.109 E3.01498
G1 X96.926 Y86.220 E3.02238
G1 X95.254 Y84.383 E3.02979
G1 X93.525 Y82.599 E3.03720
G1 X91.741 Y80.870 E3.04461
G1 X89.903 Y79.198 E3.05201
G1 X88.014 Y77.585 E3.05942
G1 X86.076 Y76.031 E3.06683
G1 X84.089 Y74.540 E3.07424
G1 X82.057 Y73.111 E3.08164
G1 X79.980 Y71.747 E3.08905
G1 X77.862 Y70.449 E3.09646
G1 X75.704 Y69.219 E3.10386
G1 X73.509 Y68.056 E3.11127
G1 X71.278 Y66.963 E3.11868
G1 X69.013 Y65.941 E3.12609
G1 X66.718 Y64.990 E3.13349
G1 X64.394 Y64.112 E3.14090
G1 X62.044 Y63.307 E3.14831
G1 X59.670 Y62.577 E3.15571
G1 X57.273 Y61.921 E3.16312
G1 X56.096 Y61.639 E3.16673
G1 X56.096 Y55.832 E3.18405
G1 X53.483 Y55.291 E3.19200
G1 X50.861 Y54.833 E3.19994
G1 X48.226 Y54.458 E3.20787
G1 X45.580 Y54.166 E3.21581
G1 X42.927 Y53.957 E3.22375
G1 X40.268 Y53.832 E3.23168
G1 X38.198 Y53.799 E3.23786
G1 X38.198 Y59.446 E3.25469
G1 X37.816 Y59.440 E3.25583
G1 X37.816 Y53.228 E3.27436
G1 X40.286 Y53.267 E3.28172
G1 X42.963 Y53.393 E3.28971
G1 X45.634 Y53.603 E3.29770
G1 X48.297 Y53.897 E3.30569
G1 X50.950 Y54.275 E3.31368
G1 X53.589 Y54.735 E3.32167
G1 X56.213 Y55.279 E3.32966
G1 X57.328 Y55.546 E3.33308
G1 X57.328 Y56.558 E3.33609
G1 X58.574 Y56.857 E3.33991
G1 X61.128 Y57.555 E3.34781
G1 X63.660 Y58.334 E3.35571
G1 X66.166 Y59.192 E3.36360
G1 X68.246 Y59.978 E3.37023
G1 X68.246 Y58.927 E3.37337
G1 X69.005 Y59.214 E3.37579
G1 X71.481 Y60.239 E3.38378
G1 X73.923 Y61.342 E3.39177
G1 X76.329 Y62.521 E3.39975
G1 X78.697 Y63.775 E3.40774
G1 X81.024 Y65.102 E3.41573
G1 X83.309 Y66.502 E3.42372
G1 X85.548 Y67.973 E3.43171
G1 X87.741 Y69.514 E3.43970
G1 X89.883 Y71.123 E3.44769
G1 X91.974 Y72.798 E3.45568
G1 X94.012 Y74.538 E3.46367
G1 X95.994 Y76.341 E3.47166
G1 X97.918 Y78.206 E3.47965
G1 X99.782 Y80.130 E3.48763
G1 X101.586 Y82.112 E3.49562
G1 X103.326 Y84.149 E3.50361
G1 X105.001 Y86.241 E3.51160
G1 X106.610 Y88.383 E3.51959
G1 X108.151 Y90.575 E3.52758
G1 X109.622 Y92.815 E3.53557
G1 X111.022 Y95.099 E3.54356
G1 X111.996 Y96.808 E3.54942
G1 X37.816 Y96.808 E3.77060
G1 X37.816 Y96.426 E3.77174
G1 X104.487 Y96.426 E3.97053
G1 X104.414 Y96.346 F7800.000
G1 F1800.000
G1 X102.947 Y94.112 E3.97850
G1 X101.520 Y92.082 E3.98590
G1 X100.029 Y90.097 E3.99330
G1 X98.478 Y88.160 E4.00070
G1 X96.866 Y86.273 E4.00810
G1 X95.196 Y84.437 E4.01550
G1 X93.469 Y82.655 E4.02290
G1 X91.686 Y80.928 E4.03030
G1 X89.851 Y79.258 E4.03770
G1 X87.964 Y77.646 E4.04510
G1 X86.027 Y76.094 E4.05250
G1 X84.042 Y74.604 E4.05990
G1 X82.012 Y73.177 E4.06730
G1 X79.937 Y71.815 E4.07470
G1 X77.821 Y70.518 E4.08210
G1 X75.666 Y69.288 E4.08950
G1 X73.472 Y68.127 E4.09690
G1 X71.244 Y67.035 E4.10430
G1 X68.982 Y66.014 E4.11170
G1 X66.689 Y65.064 E4.11910
G1 X64.367 Y64.187 E4.12650
G1 X62.019 Y63.383 E4.13390
G1 X59.647 Y62.653 E4.14130
G1 X57.254 Y61.998 E4.14870
G1 X56.016 Y61.701 E4.15249
G1 X56.016 Y55.897 E4.16980
G1 X53.468 Y55.369 E4.17756
G1 X50.849 Y54.912 E4.18549
G1 X48.216 Y54.537 E4.19341
G1 X45.573 Y54.245 E4.20134
G1 X42.922 Y54.037 E4.20927
G1 X40.266 Y53.911 E4.21720
G1 X38.278 Y53.880 E4.22313
G1 X38.278 Y59.527 E4.23997
G1 X37.736 Y59.519 E4.24158
G1 X37.736 Y53.147 E4.26058
G1 X40.289 Y53.187 E4.26819
G1 X42.968 Y53.313 E4.27619
G1 X45.641 Y53.524 E4.28418
G1 X48.307 Y53.818 E4.29218
G1 X50.962 Y54.196 E4.30018
G1 X53.604 Y54.657 E4.30817
G1 X56.230 Y55.201 E4.31617
G1 X57.408 Y55.483 E4.31978
G1 X57.408 Y56.495 E4.32280
G1 X58.594 Y56.779 E4.32643
G1 X61.151 Y57.479 E4.33434
G1 X63.685 Y58.258 E4.34224
G1 X66.193 Y59.117 E4.35014
G1 X68.166 Y59.863 E4.35644
G1 X68.166 Y58.812 E4.35957
G1 X69.035 Y59.140 E4.36234
G1 X71.512 Y60.166 E4.37033
G1 X73.957 Y61.270 E4.37833
G1 X76.365 Y62.450 E4.38633
G1 X78.735 Y63.705 E4.39432
G1 X81.065 Y65.034 E4.40232
G1 X83.352 Y66.435 E4.41032
G1 X85.593 Y67.907 E4.41831
G1 X87.787 Y69.449 E4.42631
G1 X89.932 Y71.060 E4.43431
G1 X92.025 Y72.736 E4.44230
G1 X94.065 Y74.478 E4.45030
G1 X96.048 Y76.283 E4.45830
G1 X97.974 Y78.150 E4.46629
G1 X99.841 Y80.076 E4.47429
G1 X101.646 Y82.059 E4.48229
G1 X103.387 Y84.099 E4.49028
G1 X105.064 Y86.192 E4.49828
G1 X106.674 Y88.336 E4.50628
G1 X108.217 Y90.531 E4.51427
G1 X109.689 Y92.772 E4.52227
G1 X111.090 Y95.059 E4.53027
G1 X112.133 Y96.888 E4.53654
G1 X37.736 Y96.888 E4.75837
G1 X37.736 Y96.346 E4.75999
G1 X104.339 Y96.346 E4.95857
G1 X104.266 Y96.266 F7800.000
G1 F1800.000
G1 X102.881 Y94.157 E4.96610
G1 X101.455 Y92.129 E4.97349
G1 X99.966 Y90.146 E4.98088
G1 X98.416 Y88.211 E4.98827
G1 X96.806 Y86.326 E4.99567
G1 X95.138 Y84.492 E5.00306
G1 X93.412 Y82.712 E5.01045
G1 X91.632 Y80.986 E5.01784
G1 X89.798 Y79.318 E5.02524
G1 X87.913 Y77.707 E5.03263
G1 X85.978 Y76.157 E5.04002
G1 X83.995 Y74.669 E5.04741
G1 X81.967 Y73.243 E5.05480
G1 X79.895 Y71.882 E5.06220
G1 X77.781 Y70.587 E5.06959
G1 X75.627 Y69.358 E5.07698
G1 X73.436 Y68.198 E5.08437
G1 X71.210 Y67.107 E5.09177
G1 X68.950 Y66.087 E5.09916
G1 X66.660 Y65.138 E5.10655
G1 X64.340 Y64.262 E5.11394
G1 X61.995 Y63.459 E5.12134
G1 X59.625 Y62.730 E5.12873
G1 X57.234 Y62.076 E5.13612
G1 X55.936 Y61.764 E5.14010
G1 X55.936 Y55.962 E5.15740
G1 X53.453 Y55.447 E5.16496
G1 X50.836 Y54.991 E5.17288
G1 X48.206 Y54.616 E5.18080
G1 X45.565 Y54.325 E5.18872
G1 X42.917 Y54.116 E5.19665
G1 X40.263 Y53.991 E5.20457
G1 X38.357 Y53.961 E5.21025
G1 X38.357 Y59.608 E5.22709
G1 X37.656 Y59.597 E5.22918
G1 X37.656 Y53.066 E5.24865
G1 X40.291 Y53.107 E5.25651
G1 X42.973 Y53.234 E5.26451
G1 X45.649 Y53.444 E5.27251
G1 X48.317 Y53.739 E5.28052
G1 X50.975 Y54.117 E5.28852
G1 X53.619 Y54.579 E5.29653
G1 X56.248 Y55.123 E5.30453
G1 X57.487 Y55.421 E5.30833
G1 X57.487 Y56.432 E5.31135
G1 X58.613 Y56.702 E5.31480
G1 X61.173 Y57.402 E5.32271
G1 X63.709 Y58.183 E5.33062
G1 X66.220 Y59.042 E5.33854
G1 X68.086 Y59.748 E5.34449
G1 X68.086 Y58.696 E5.34762
G1 X69.064 Y59.066 E5.35074
G1 X71.544 Y60.093 E5.35874
G1 X73.991 Y61.198 E5.36674
G1 X76.401 Y62.379 E5.37475
G1 X78.774 Y63.635 E5.38275
G1 X81.105 Y64.965 E5.39076
G1 X83.394 Y66.367 E5.39876
G1 X85.638 Y67.841 E5.40676
G1 X87.834 Y69.385 E5.41477
G1 X89.981 Y70.997 E5.42277
G1 X92.076 Y72.675 E5.43078
G1 X94.117 Y74.418 E5.43878
G1 X96.103 Y76.225 E5.44679
G1 X98.031 Y78.093 E5.45479
G1 X99.899 Y80.021 E5.46279
G1 X101.705 Y82.007 E5.47080
G1 X103.449 Y84.048 E5.47880
G1 X105.127 Y86.143 E5.48681
G1 X106.739 Y88.290 E5.49481
G1 X108.283 Y90.486 E5.50281
G1 X109.756 Y92.729 E5.51082
G1 X111.159 Y95.018 E5.51882
G1 X112.271 Y96.967 E5.52551
G1 X37.656 Y96.967 E5.74799
G1 X37.656 Y96.266 E5.75008
G1 X104.191 Y96.266 E5.94846
G1 X104.729 Y96.076 F7800.000
G1 X104.802 Y96.580 F7800.000
G1 F1800.000
G1 X109.119 Y92.262 E5.96667
G1 X109.075 Y92.194 E5.96691
G1 X104.757 Y96.512 E5.98512
G1 X104.713 Y96.443 E5.98536
G1 X109.030 Y92.126 E6.00357
G1 X108.985 Y92.058 E6.00382
G1 X104.668 Y96.375 E6.02203
G1 X104.623 Y96.307 E6.02227
G1 X108.941 Y91.990 E6.04048
G1 X108.896 Y91.922 E6.04072
G1 X104.579 Y96.239 E6.05893
G1 X104.534 Y96.171 E6.05917
G1 X108.851 Y91.854 E6.07738
G1 X108.807 Y91.786 E6.07763
G1 X104.489 Y96.103 E6.09584
G1 X104.444 Y96.035 E6.09608
G1 X108.762 Y91.718 E6.11429
G1 X108.717 Y91.650 E6.11453
G1 X104.400 Y95.967 E6.13274
G1 X104.355 Y95.899 E6.13298
G1 X108.672 Y91.582 E6.15119
G1 X108.628 Y91.514 E6.15144
G1 X104.310 Y95.831 E6.16965
G1 X104.266 Y95.763 E6.16989
G1 X108.583 Y91.446 E6.18810
G1 X108.538 Y91.378 E6.18834
G1 X104.221 Y95.695 E6.20655
G1 X104.176 Y95.627 E6.20679
G1 X108.494 Y91.310 E6.22500
G1 X108.449 Y91.242 E6.22525
G1 X104.132 Y95.559 E6.24346
G1 X104.087 Y95.491 E6.24370
G1 X108.404 Y91.174 E6.26191
G1 X108.360 Y91.106 E6.26215
G1 X104.042 Y95.423 E6.28036
G1 X103.998 Y95.355 E6.28060
G1 X108.315 Y91.038 E6.29881
G1 X108.270 Y90.970 E6.29906
G1 X103.953 Y95.287 E6.31726
G1 X103.908 Y95.219 E6.31751
G1 X108.226 Y90.902 E6.33572
G1 X108.181 Y90.833 E6.33596
G1 X103.864 Y95.151 E6.35417
G1 X103.819 Y95.083 E6.35441
G1 X108.136 Y90.765 E6.37262
G1 X108.092 Y90.697 E6.37286
G1 X103.774 Y95.015 E6.39107
G1 X103.729 Y94.947 E6.39132
G1 X108.047 Y90.630 E6.40953
G1 X108.000 Y90.563 E6.40977
G1 X103.685 Y94.879 E6.42797
G1 X103.640 Y94.811 E6.42821
G1 X107.954 Y90.497 E6.44641
G1 X107.907 Y90.431 E6.44665
G1 X103.595 Y94.743 E6.46483
G1 X103.551 Y94.675 E6.46508
G1 X107.861 Y90.365 E6.48325
G1 X107.814 Y90.299 E6.48350
G1 X103.506 Y94.607 E6.50167
G1 X103.461 Y94.539 E6.50191
G1 X107.768 Y90.232 E6.52007
G1 X107.721 Y90.166 E6.52031
G1 X103.417 Y94.471 E6.53847
G1 X103.372 Y94.403 E6.53871
G1 X107.675 Y90.100 E6.55686
G1 X107.628 Y90.034 E6.55710
G1 X103.327 Y94.334 E6.57524
G1 X103.283 Y94.266 E6.57548
G1 X107.581 Y89.968 E6.59361
G1 X107.535 Y89.901 E6.59385
G1 X103.238 Y94.198 E6.61198
G1 X103.193 Y94.130 E6.61222
G1 X107.488 Y89.835 E6.63034
G1 X107.442 Y89.769 E6.63058
G1 X103.149 Y94.062 E6.64869
G1 X103.103 Y93.995 E6.64893
G1 X107.395 Y89.703 E6.66703
G1 X107.349 Y89.637 E6.66727
G1 X103.057 Y93.929 E6.68538
G1 X103.010 Y93.862 E6.68562
G1 X107.302 Y89.570 E6.70372
G1 X107.256 Y89.504 E6.70396
G1 X102.964 Y93.796 E6.72206
G1 X102.917 Y93.730 E6.72230
G1 X107.209 Y89.438 E6.74041
G1 X107.163 Y89.372 E6.74065
G1 X102.871 Y93.664 E6.75875
G1 X102.824 Y93.598 E6.75899
G1 X107.116 Y89.306 E6.77709
G1 X107.070 Y89.239 E6.77733
G1 X102.778 Y93.531 E6.79544
G1 X102.731 Y93.465 E6.79568
G1 X107.023 Y89.173 E6.81378
G1 X106.977 Y89.107 E6.81402
G1 X102.685 Y93.399 E6.83212
G1 X102.638 Y93.333 E6.83237
G1 X106.930 Y89.041 E6.85047
G1 X106.884 Y88.975 E6.85071
G1 X102.592 Y93.267 E6.86881
G1 X102.545 Y93.200 E6.86905
G1 X106.837 Y88.908 E6.88716
G1 X106.791 Y88.842 E6.88740
G1 X102.499 Y93.134 E6.90550
G1 X102.452 Y93.068 E6.90574
G1 X106.744 Y88.776 E6.92384
G1 X106.697 Y88.710 E6.92408
G1 X102.406 Y93.002 E6.94219
G1 X102.359 Y92.936 E6.94243
G1 X106.651 Y88.644 E6.96053
G1 X106.604 Y88.577 E6.96077
G1 X102.313 Y92.869 E6.97887
G1 X102.266 Y92.803 E6.97911
G1 X106.558 Y88.511 E6.99722
G1 X106.512 Y88.446 E6.99746
G1 X102.219 Y92.737 E7.01556
G1 X102.173 Y92.671 E7.01580
G1 X106.463 Y88.381 E7.03389
G1 X106.415 Y88.316 E7.03413
G1 X102.126 Y92.605 E7.05222
G1 X102.080 Y92.538 E7.05246
G1 X106.366 Y88.252 E7.07054
G1 X106.318 Y88.188 E7.07078
G1 X102.033 Y92.472 E7.08885
G1 X101.987 Y92.406 E7.08909
G1 X106.270 Y88.123 E7.10716
G1 X106.221 Y88.059 E7.10740
G1 X101.940 Y92.340 E7.12545
G1 X101.894 Y92.274 E7.12569
G1 X106.173 Y87.994 E7.14374
G1 X106.125 Y87.930 E7.14398
G1 X101.847 Y92.207 E7.16202
G1 X101.801 Y92.141 E7.16227
G1 X106.076 Y87.866 E7.18030
G1 X106.028 Y87.801 E7.18054
G1 X101.754 Y92.075 E7.19856
G1 X101.708 Y92.009 E7.19881
G1 X105.980 Y87.737 E7.21682
G1 X105.931 Y87.672 E7.21706
G1 X101.660 Y91.943 E7.23508
G1 X101.612 Y91.879 E7.23532
G1 X105.883 Y87.608 E7.25333
G1 X105.835 Y87.544 E7.25357
G1 X101.564 Y91.815 E7.27159
G1 X101.515 Y91.750 E7.27183
G1 X105.786 Y87.479 E7.28984
G1 X105.738 Y87.415 E7.29008
G1 X101.467 Y91.686 E7.30809
G1 X101.419 Y91.621 E7.30833
G1 X105.690 Y87.351 E7.32635
G1 X105.641 Y87.286 E7.32659
G1 X101.370 Y91.557 E7.34460
G1 X101.322 Y91.493 E7.34484
G1 X105.593 Y87.222 E7.36285
G1 X105.545 Y87.157 E7.36309
G1 X101.274 Y91.428 E7.38111
G1 X101.225 Y91.364 E7.38135
G1 X105.496 Y87.093 E7.39936
G1 X105.448 Y87.029 E7.39960
G1 X101.177 Y91.300 E7.41762
G1 X101.129 Y91.235 E7.41786
G1 X105.400 Y86.964 E7.43587
G1 X105.351 Y86.900 E7.43611
