; Gcode updated with 'stl_info' on 2019-12-03 19:08:41.136366

; stl_min_x = -20.0
; stl_max_x = 20.0
; stl_min_y = -2.0799999237060547
; stl_max_y = 26.799999237060547
; stl_min_z = -8.199999809265137

; generated by Slic3r 1.3.1-dev (Build adea0d9) on 2019-12-03 at 19:08:40

; external perimeters extrusion width = 0.55mm (1.90mm^3/s)
; perimeters extrusion width = 0.70mm (2.71mm^3/s)
; infill extrusion width = 0.62mm (2.41mm^3/s)
; solid infill extrusion width = 0.70mm (2.04mm^3/s)
; top infill extrusion width = 0.70mm (2.04mm^3/s)

M107
G92 E0
;D3D:START:START
T0
M104 S215 T0

G21
G90
M107
T0
G28
G29
M109 T0 S215 T0
G0 F3000
M107
T0
G92 E0
G0 X0 Y149 Z0.1 F3600
G1 Y49 E6.5 F1200
G0 Z1
G92 E0
; Filament gcode

G21 ; set units to millimeters
G90 ; use absolute coordinates
M82 ; use absolute distances for extrusion
G92 E0
G1 Z0.090 F7800.000
G1 E-2.00000 F2400.00000
G92 E0
G1 X63.016 Y55.802 F7800.000
G1 E2.00000 F2400.00000
G1 F1800.000
G1 X64.953 Y54.768 E2.00655
G1 X66.800 Y54.480 E2.01212
G1 X83.200 Y54.480 E2.06102
G1 X85.360 Y54.877 E2.06757
G1 X87.238 Y56.015 E2.07412
G1 X88.428 Y57.457 E2.07969
G1 X100.228 Y77.337 E2.14862
G1 X101.080 Y80.440 E2.15822
G1 X101.080 Y89.440 E2.18505
G1 X100.683 Y91.600 E2.19160
G1 X99.545 Y93.478 E2.19815
G1 X97.813 Y94.830 E2.20470
G1 X95.000 Y95.520 E2.21333
G1 X55.000 Y95.520 E2.33260
G1 X52.840 Y95.123 E2.33915
G1 X50.962 Y93.985 E2.34570
G1 X49.610 Y92.253 E2.35225
G1 X48.920 Y89.440 E2.36088
G1 X48.920 Y80.440 E2.38772
G1 X49.772 Y77.337 E2.39731
G1 X61.572 Y57.457 E2.46624
G1 X62.966 Y55.858 E2.47257
G1 E0.47257 F2400.00000
G92 E0
G1 X82.911 Y80.729 F7800.000
G1 E2.00000 F2400.00000
G1 F1800.000
G1 X94.711 Y80.729 E2.03518
G1 X94.711 Y89.151 E2.06030
G1 X55.289 Y89.151 E2.17784
G1 X55.289 Y80.729 E2.20296
G1 X67.089 Y80.729 E2.23814
G1 X67.089 Y60.849 E2.29742
G1 X74.211 Y60.849 E2.31865
G1 X74.211 Y68.611 E2.34180
G1 X73.719 Y68.703 E2.34329
G1 X73.304 Y68.820 E2.34458
G1 X72.900 Y68.969 E2.34586
G1 X72.508 Y69.149 E2.34715
G1 X72.132 Y69.360 E2.34843
G1 X71.774 Y69.599 E2.34972
G1 X71.435 Y69.866 E2.35100
G1 X71.119 Y70.159 E2.35229
G1 X70.826 Y70.475 E2.35357
G1 X70.559 Y70.814 E2.35486
G1 X70.320 Y71.172 E2.35614
G1 X70.109 Y71.548 E2.35743
G1 X69.929 Y71.940 E2.35871
G1 X69.780 Y72.344 E2.36000
G1 X69.663 Y72.759 E2.36128
G1 X69.579 Y73.181 E2.36257
G1 X69.528 Y73.609 E2.36385
G1 X69.511 Y74.040 E2.36514
G1 X69.528 Y74.471 E2.36642
G1 X69.579 Y74.899 E2.36771
G1 X69.663 Y75.321 E2.36899
G1 X69.780 Y75.736 E2.37028
G1 X69.929 Y76.141 E2.37156
G1 X70.109 Y76.532 E2.37285
G1 X70.320 Y76.908 E2.37413
G1 X70.559 Y77.266 E2.37542
G1 X70.826 Y77.605 E2.37670
G1 X71.119 Y77.921 E2.37799
G1 X71.435 Y78.214 E2.37927
G1 X71.774 Y78.481 E2.38056
G1 X72.132 Y78.720 E2.38184
G1 X72.508 Y78.930 E2.38313
G1 X72.900 Y79.111 E2.38441
G1 X73.304 Y79.260 E2.38570
G1 X73.719 Y79.377 E2.38698
G1 X74.141 Y79.461 E2.38827
G1 X74.569 Y79.512 E2.38955
G1 X75.000 Y79.529 E2.39084
G1 X75.431 Y79.512 E2.39212
G1 X75.859 Y79.461 E2.39341
G1 X76.281 Y79.377 E2.39469
G1 X76.696 Y79.260 E2.39598
G1 X77.100 Y79.111 E2.39726
G1 X77.492 Y78.930 E2.39855
G1 X77.868 Y78.720 E2.39983
G1 X78.226 Y78.481 E2.40112
G1 X78.565 Y78.214 E2.40240
G1 X78.881 Y77.921 E2.40369
G1 X79.174 Y77.605 E2.40497
G1 X79.441 Y77.266 E2.40626
G1 X79.680 Y76.908 E2.40754
G1 X79.891 Y76.532 E2.40883
G1 X80.071 Y76.141 E2.41011
G1 X80.220 Y75.736 E2.41140
G1 X80.337 Y75.321 E2.41268
G1 X80.421 Y74.899 E2.41397
G1 X80.472 Y74.471 E2.41525
G1 X80.489 Y74.040 E2.41654
G1 X80.472 Y73.609 E2.41782
G1 X80.421 Y73.181 E2.41911
G1 X80.337 Y72.759 E2.42039
G1 X80.220 Y72.344 E2.42168
G1 X80.071 Y71.940 E2.42296
G1 X79.891 Y71.548 E2.42425
G1 X79.680 Y71.172 E2.42553
G1 X79.441 Y70.814 E2.42682
G1 X79.174 Y70.475 E2.42810
G1 X78.881 Y70.159 E2.42939
G1 X78.565 Y69.866 E2.43067
G1 X78.226 Y69.599 E2.43196
G1 X77.868 Y69.360 E2.43324
G1 X77.492 Y69.149 E2.43453
G1 X77.100 Y68.969 E2.43581
G1 X76.696 Y68.820 E2.43710
G1 X76.281 Y68.703 E2.43838
G1 X75.789 Y68.611 E2.43988
G1 X75.789 Y60.849 E2.46302
G1 X82.911 Y60.849 E2.48426
G1 X82.911 Y80.654 E2.54331
G1 X82.991 Y80.649 F7800.000
G1 F1800.000
G1 X94.791 Y80.649 E2.57850
G1 X94.791 Y89.231 E2.60409
G1 X55.209 Y89.231 E2.72211
G1 X55.209 Y80.649 E2.74770
G1 X67.009 Y80.649 E2.78288
G1 X67.009 Y60.769 E2.84215
G1 X74.291 Y60.769 E2.86387
G1 X74.291 Y68.681 E2.88746
G1 X73.737 Y68.780 E2.88914
G1 X73.329 Y68.896 E2.89040
G1 X72.930 Y69.043 E2.89167
G1 X72.544 Y69.221 E2.89294
G1 X72.174 Y69.428 E2.89420
G1 X71.821 Y69.664 E2.89547
G1 X71.487 Y69.927 E2.89674
G1 X71.175 Y70.215 E2.89800
G1 X70.887 Y70.527 E2.89927
G1 X70.624 Y70.861 E2.90053
G1 X70.388 Y71.214 E2.90180
G1 X70.181 Y71.584 E2.90307
G1 X70.003 Y71.970 E2.90433
G1 X69.856 Y72.369 E2.90560
G1 X69.740 Y72.777 E2.90687
G1 X69.658 Y73.194 E2.90813
G1 X69.608 Y73.616 E2.90940
G1 X69.591 Y74.040 E2.91067
G1 X69.608 Y74.464 E2.91193
G1 X69.658 Y74.886 E2.91320
G1 X69.740 Y75.303 E2.91446
G1 X69.856 Y75.711 E2.91573
G1 X70.003 Y76.110 E2.91700
G1 X70.181 Y76.496 E2.91826
G1 X70.388 Y76.866 E2.91953
G1 X70.624 Y77.219 E2.92080
G1 X70.887 Y77.553 E2.92206
G1 X71.175 Y77.865 E2.92333
G1 X71.487 Y78.153 E2.92460
G1 X71.821 Y78.416 E2.92586
G1 X72.174 Y78.652 E2.92713
G1 X72.544 Y78.859 E2.92839
G1 X72.930 Y79.037 E2.92966
G1 X73.329 Y79.184 E2.93093
G1 X73.737 Y79.300 E2.93219
G1 X74.154 Y79.382 E2.93346
G1 X74.576 Y79.432 E2.93473
G1 X75.000 Y79.449 E2.93599
G1 X75.424 Y79.432 E2.93726
G1 X75.846 Y79.382 E2.93853
G1 X76.263 Y79.300 E2.93979
G1 X76.671 Y79.184 E2.94106
G1 X77.070 Y79.037 E2.94232
G1 X77.456 Y78.859 E2.94359
G1 X77.826 Y78.652 E2.94486
G1 X78.179 Y78.416 E2.94612
G1 X78.513 Y78.153 E2.94739
G1 X78.825 Y77.865 E2.94866
G1 X79.113 Y77.553 E2.94992
G1 X79.376 Y77.219 E2.95119
G1 X79.612 Y76.866 E2.95246
G1 X79.819 Y76.496 E2.95372
G1 X79.997 Y76.110 E2.95499
G1 X80.144 Y75.711 E2.95625
G1 X80.260 Y75.303 E2.95752
G1 X80.342 Y74.886 E2.95879
G1 X80.392 Y74.464 E2.96005
G1 X80.409 Y74.040 E2.96132
G1 X80.392 Y73.616 E2.96259
G1 X80.342 Y73.194 E2.96385
G1 X80.260 Y72.777 E2.96512
G1 X80.144 Y72.369 E2.96639
G1 X79.997 Y71.970 E2.96765
G1 X79.819 Y71.584 E2.96892
G1 X79.612 Y71.214 E2.97018
G1 X79.376 Y70.861 E2.97145
G1 X79.113 Y70.527 E2.97272
G1 X78.825 Y70.215 E2.97398
G1 X78.513 Y69.927 E2.97525
G1 X78.179 Y69.664 E2.97652
G1 X77.826 Y69.428 E2.97778
G1 X77.456 Y69.221 E2.97905
G1 X77.070 Y69.043 E2.98032
G1 X76.671 Y68.896 E2.98158
G1 X76.263 Y68.780 E2.98285
G1 X75.709 Y68.681 E2.98453
G1 X75.709 Y60.769 E3.00812
G1 X82.991 Y60.769 E3.02983
G1 X82.991 Y80.574 E3.08888
G1 X83.071 Y80.569 F7800.000
G1 F1800.000
G1 X94.871 Y80.569 E3.12407
G1 X94.871 Y89.311 E3.15013
G1 X55.129 Y89.311 E3.26863
G1 X55.129 Y80.569 E3.29469
G1 X66.929 Y80.569 E3.32987
G1 X66.929 Y60.689 E3.38915
G1 X74.371 Y60.689 E3.41134
G1 X74.371 Y68.752 E3.43538
G1 X73.756 Y68.858 E3.43724
G1 X73.353 Y68.972 E3.43849
G1 X72.961 Y69.116 E3.43974
G1 X72.581 Y69.292 E3.44098
G1 X72.215 Y69.496 E3.44223
G1 X71.868 Y69.729 E3.44348
G1 X71.539 Y69.988 E3.44473
G1 X71.232 Y70.272 E3.44597
G1 X70.948 Y70.579 E3.44722
G1 X70.689 Y70.908 E3.44847
G1 X70.456 Y71.255 E3.44972
G1 X70.252 Y71.621 E3.45096
G1 X70.076 Y72.001 E3.45221
G1 X69.932 Y72.393 E3.45346
G1 X69.818 Y72.796 E3.45471
G1 X69.736 Y73.206 E3.45595
G1 X69.687 Y73.622 E3.45720
G1 X69.671 Y74.040 E3.45845
G1 X69.687 Y74.458 E3.45970
G1 X69.736 Y74.874 E3.46095
G1 X69.818 Y75.284 E3.46219
G1 X69.932 Y75.687 E3.46344
G1 X70.076 Y76.079 E3.46469
G1 X70.252 Y76.459 E3.46594
G1 X70.456 Y76.825 E3.46718
G1 X70.689 Y77.172 E3.46843
G1 X70.948 Y77.501 E3.46968
G1 X71.232 Y77.808 E3.47093
G1 X71.539 Y78.092 E3.47217
G1 X71.868 Y78.351 E3.47342
G1 X72.215 Y78.584 E3.47467
G1 X72.581 Y78.788 E3.47592
G1 X72.961 Y78.964 E3.47717
G1 X73.353 Y79.108 E3.47841
G1 X73.756 Y79.222 E3.47966
G1 X74.166 Y79.304 E3.48091
G1 X74.582 Y79.353 E3.48216
G1 X75.000 Y79.369 E3.48340
G1 X75.418 Y79.353 E3.48465
G1 X75.834 Y79.304 E3.48590
G1 X76.244 Y79.222 E3.48715
G1 X76.647 Y79.108 E3.48839
G1 X77.039 Y78.964 E3.48964
G1 X77.419 Y78.788 E3.49089
G1 X77.785 Y78.584 E3.49214
G1 X78.132 Y78.351 E3.49339
G1 X78.461 Y78.092 E3.49463
G1 X78.768 Y77.808 E3.49588
G1 X79.052 Y77.501 E3.49713
G1 X79.311 Y77.172 E3.49838
G1 X79.544 Y76.825 E3.49962
G1 X79.748 Y76.459 E3.50087
G1 X79.924 Y76.079 E3.50212
G1 X80.068 Y75.687 E3.50337
G1 X80.182 Y75.284 E3.50461
G1 X80.264 Y74.874 E3.50586
G1 X80.313 Y74.458 E3.50711
G1 X80.329 Y74.040 E3.50836
G1 X80.313 Y73.622 E3.50961
G1 X80.264 Y73.206 E3.51085
G1 X80.182 Y72.796 E3.51210
G1 X80.068 Y72.393 E3.51335
G1 X79.924 Y72.001 E3.51460
G1 X79.748 Y71.621 E3.51584
G1 X79.544 Y71.255 E3.51709
G1 X79.311 Y70.908 E3.51834
G1 X79.052 Y70.579 E3.51959
G1 X78.768 Y70.272 E3.52083
G1 X78.461 Y69.988 E3.52208
G1 X78.132 Y69.729 E3.52333
G1 X77.785 Y69.496 E3.52458
G1 X77.419 Y69.292 E3.52583
G1 X77.039 Y69.116 E3.52707
G1 X76.647 Y68.972 E3.52832
G1 X76.244 Y68.858 E3.52957
G1 X75.629 Y68.752 E3.53143
G1 X75.629 Y60.689 E3.55547
G1 X83.071 Y60.689 E3.57766
G1 X83.071 Y80.494 E3.63671
G1 X83.150 Y80.490 F7800.000
G1 F1800.000
G1 X94.951 Y80.490 E3.67189
G1 X94.951 Y89.391 E3.69843
G1 X55.050 Y89.391 E3.81740
G1 X55.050 Y80.490 E3.84394
G1 X66.850 Y80.490 E3.87913
G1 X66.850 Y60.610 E3.93840
G1 X74.451 Y60.610 E3.96107
G1 X74.451 Y68.823 E3.98556
G1 X74.179 Y68.855 E3.98637
G1 X73.775 Y68.936 E3.98760
G1 X73.378 Y69.047 E3.98883
G1 X72.991 Y69.190 E3.99006
G1 X72.617 Y69.363 E3.99129
G1 X72.257 Y69.564 E3.99252
G1 X71.914 Y69.793 E3.99375
G1 X71.591 Y70.048 E3.99498
G1 X71.288 Y70.328 E3.99620
G1 X71.008 Y70.631 E3.99743
G1 X70.753 Y70.954 E3.99866
G1 X70.524 Y71.297 E3.99989
G1 X70.323 Y71.657 E4.00112
G1 X70.150 Y72.031 E4.00235
G1 X70.007 Y72.418 E4.00358
G1 X69.896 Y72.815 E4.00481
G1 X69.815 Y73.219 E4.00604
G1 X69.767 Y73.628 E4.00727
G1 X69.750 Y74.040 E4.00849
G1 X69.767 Y74.452 E4.00972
G1 X69.815 Y74.861 E4.01095
G1 X69.896 Y75.265 E4.01218
G1 X70.007 Y75.662 E4.01341
G1 X70.150 Y76.049 E4.01464
G1 X70.323 Y76.423 E4.01587
G1 X70.524 Y76.783 E4.01710
G1 X70.753 Y77.126 E4.01833
G1 X71.008 Y77.449 E4.01956
G1 X71.288 Y77.752 E4.02078
G1 X71.591 Y78.032 E4.02201
G1 X71.914 Y78.287 E4.02324
G1 X72.257 Y78.516 E4.02447
G1 X72.617 Y78.717 E4.02570
G1 X72.991 Y78.890 E4.02693
G1 X73.378 Y79.033 E4.02816
G1 X73.775 Y79.144 E4.02939
G1 X74.179 Y79.225 E4.03062
G1 X74.588 Y79.273 E4.03185
G1 X75.000 Y79.290 E4.03307
G1 X75.412 Y79.273 E4.03430
G1 X75.821 Y79.225 E4.03553
G1 X76.225 Y79.144 E4.03676
G1 X76.622 Y79.033 E4.03799
G1 X77.009 Y78.890 E4.03922
G1 X77.383 Y78.717 E4.04045
G1 X77.743 Y78.516 E4.04168
G1 X78.086 Y78.287 E4.04291
G1 X78.409 Y78.032 E4.04414
G1 X78.712 Y77.752 E4.04536
G1 X78.992 Y77.449 E4.04659
G1 X79.247 Y77.126 E4.04782
G1 X79.476 Y76.783 E4.04905
G1 X79.677 Y76.423 E4.05028
G1 X79.850 Y76.049 E4.05151
G1 X79.993 Y75.662 E4.05274
G1 X80.104 Y75.265 E4.05397
G1 X80.185 Y74.861 E4.05520
G1 X80.233 Y74.452 E4.05643
G1 X80.250 Y74.040 E4.05765
G1 X80.233 Y73.628 E4.05888
G1 X80.185 Y73.219 E4.06011
G1 X80.104 Y72.815 E4.06134
G1 X79.993 Y72.418 E4.06257
G1 X79.850 Y72.031 E4.06380
G1 X79.677 Y71.657 E4.06503
G1 X79.476 Y71.297 E4.06626
G1 X79.247 Y70.954 E4.06749
G1 X78.992 Y70.631 E4.06872
G1 X78.712 Y70.328 E4.06994
G1 X78.409 Y70.048 E4.07117
G1 X78.086 Y69.793 E4.07240
G1 X77.743 Y69.564 E4.07363
G1 X77.383 Y69.363 E4.07486
G1 X77.009 Y69.190 E4.07609
G1 X76.622 Y69.047 E4.07732
G1 X76.225 Y68.936 E4.07855
G1 X75.821 Y68.855 E4.07978
G1 X75.549 Y68.823 E4.08059
G1 X75.549 Y60.610 E4.10508
G1 X83.150 Y60.610 E4.12775
G1 X83.150 Y80.415 E4.18680
G1 X83.211 Y80.986 F7800.000
G1 E2.18680 F2400.00000
G92 E0
G1 X79.322 Y77.537 F7800.000
G1 E2.00000 F2400.00000
G1 F1800.000
G1 X82.863 Y73.996 E2.01494
G1 X82.863 Y73.883 E2.01528
G1 X79.619 Y77.127 E2.02897
G1 X79.799 Y76.835 E2.02999
G1 X82.863 Y73.771 E2.04293
G1 X82.863 Y73.658 E2.04326
G1 X79.938 Y76.582 E2.05561
G1 X80.035 Y76.373 E2.05629
G1 X82.863 Y73.545 E2.06823
G1 X82.863 Y73.432 E2.06857
G1 X80.126 Y76.169 E2.08012
G1 X80.192 Y75.991 E2.08069
G1 X82.863 Y73.319 E2.09196
G1 X82.863 Y73.207 E2.09230
G1 X80.258 Y75.812 E2.10329
G1 X80.304 Y75.652 E2.10379
G1 X82.863 Y73.094 E2.11458
G1 X82.863 Y72.981 E2.11492
G1 X80.349 Y75.495 E2.12553
G1 X80.389 Y75.342 E2.12601
G1 X82.863 Y72.868 E2.13644
G1 X82.863 Y72.755 E2.13678
G1 X80.418 Y75.201 E2.14710
G1 X80.446 Y75.060 E2.14753
G1 X82.863 Y72.643 E2.15773
G1 X82.863 Y72.530 E2.15807
G1 X80.471 Y74.921 E2.16816
G1 X80.487 Y74.793 E2.16855
G1 X82.863 Y72.417 E2.17857
G1 X82.863 Y72.304 E2.17891
G1 X80.502 Y74.665 E2.18887
G1 X80.517 Y74.537 E2.18926
G1 X82.863 Y72.191 E2.19916
G1 X82.863 Y72.079 E2.19950
G1 X80.524 Y74.418 E2.20937
G1 X80.529 Y74.300 E2.20972
G1 X82.863 Y71.966 E2.21957
G1 X82.863 Y71.853 E2.21991
G1 X80.533 Y74.183 E2.22974
G1 X80.537 Y74.066 E2.23009
G1 X82.863 Y71.740 E2.23990
G1 X82.863 Y71.628 E2.24024
G1 X80.533 Y73.957 E2.25007
G1 X80.529 Y73.849 E2.25040
G1 X82.863 Y71.515 E2.26025
G1 X82.863 Y71.402 E2.26058
G1 X80.525 Y73.740 E2.27045
G1 X80.520 Y73.632 E2.27077
G1 X82.863 Y71.289 E2.28066
G1 X82.863 Y71.176 E2.28100
G1 X80.508 Y73.531 E2.29094
G1 X80.496 Y73.430 E2.29124
G1 X82.863 Y71.064 E2.30123
G1 X82.863 Y70.951 E2.30156
G1 X80.484 Y73.329 E2.31160
G1 X80.472 Y73.228 E2.31190
G1 X82.863 Y70.838 E2.32199
G1 X82.863 Y70.725 E2.32233
G1 X80.456 Y73.132 E2.33249
G1 X80.437 Y73.038 E2.33278
G1 X82.863 Y70.612 E2.34301
G1 X82.863 Y70.500 E2.34335
G1 X80.418 Y72.944 E2.35367
G1 X80.399 Y72.850 E2.35395
G1 X82.863 Y70.387 E2.36435
G1 X82.863 Y70.274 E2.36469
G1 X80.380 Y72.757 E2.37517
G1 X80.355 Y72.669 E2.37544
G1 X82.863 Y70.161 E2.38602
G1 X82.863 Y70.048 E2.38636
G1 X80.330 Y72.581 E2.39705
G1 X80.305 Y72.493 E2.39732
G1 X82.863 Y69.936 E2.40812
G1 X82.863 Y69.823 E2.40845
G1 X80.280 Y72.405 E2.41935
G1 X80.254 Y72.319 E2.41962
G1 X82.863 Y69.710 E2.43063
G1 X82.863 Y69.597 E2.43097
G1 X80.223 Y72.237 E2.44211
G1 X80.193 Y72.154 E2.44237
G1 X82.863 Y69.484 E2.45364
G1 X82.863 Y69.372 E2.45398
G1 X80.162 Y72.072 E2.46537
G1 X80.132 Y71.990 E2.46564
G1 X82.863 Y69.259 E2.47716
G1 X82.863 Y69.146 E2.47750
G1 X80.099 Y71.909 E2.48916
G1 X80.064 Y71.832 E2.48941
G1 X82.863 Y69.033 E2.50123
G1 X82.863 Y68.921 E2.50156
G1 X80.028 Y71.755 E2.51352
G1 X79.993 Y71.678 E2.51378
G1 X82.863 Y68.808 E2.52589
G1 X82.863 Y68.695 E2.52623
G1 X79.957 Y71.601 E2.53849
G1 X79.920 Y71.525 E2.53874
G1 X82.863 Y68.582 E2.55116
G1 X82.863 Y68.469 E2.55150
G1 X79.880 Y71.452 E2.56409
G1 X79.839 Y71.380 E2.56433
G1 X82.863 Y68.357 E2.57709
G1 X82.863 Y68.244 E2.57743
G1 X79.799 Y71.308 E2.59036
G1 X79.758 Y71.235 E2.59061
G1 X82.863 Y68.131 E2.60371
G1 X82.863 Y68.018 E2.60405
G1 X79.718 Y71.163 E2.61732
G1 X79.673 Y71.095 E2.61756
G1 X82.863 Y67.905 E2.63103
G1 X82.863 Y67.793 E2.63136
G1 X79.628 Y71.028 E2.64502
G1 X79.582 Y70.960 E2.64526
G1 X82.863 Y67.680 E2.65910
G1 X82.863 Y67.567 E2.65944
G1 X79.537 Y70.893 E2.67348
G1 X79.492 Y70.825 E2.67372
G1 X82.863 Y67.454 E2.68794
G1 X82.863 Y67.341 E2.68828
G1 X79.444 Y70.760 E2.70271
G1 X79.394 Y70.697 E2.70295
G1 X82.863 Y67.229 E2.71759
G1 X82.863 Y67.116 E2.71792
G1 X79.345 Y70.634 E2.73277
G1 X79.295 Y70.571 E2.73301
G1 X82.863 Y67.003 E2.74807
G1 X82.863 Y66.890 E2.74840
G1 X79.245 Y70.508 E2.76367
G1 X79.195 Y70.445 E2.76391
G1 X82.863 Y66.777 E2.77939
G1 X82.863 Y66.665 E2.77973
G1 X79.141 Y70.387 E2.79544
G1 X79.087 Y70.328 E2.79567
G1 X82.863 Y66.552 E2.81161
G1 X82.863 Y66.439 E2.81195
G1 X79.032 Y70.270 E2.82811
G1 X78.978 Y70.211 E2.82835
G1 X82.863 Y66.326 E2.84475
G1 X82.863 Y66.214 E2.84508
G1 X78.924 Y70.152 E2.86171
G1 X78.867 Y70.097 E2.86194
G1 X82.863 Y66.101 E2.87881
G1 X82.863 Y65.988 E2.87915
G1 X78.808 Y70.043 E2.89626
G1 X78.750 Y69.988 E2.89650
G1 X82.863 Y65.875 E2.91386
G1 X82.863 Y65.762 E2.91419
G1 X78.691 Y69.934 E2.93180
G1 X78.632 Y69.880 E2.93204
G1 X82.863 Y65.650 E2.94989
G1 X82.863 Y65.537 E2.95023
G1 X78.573 Y69.827 E2.96833
G1 X78.510 Y69.777 E2.96857
