; Gcode updated with 'stl_info' on 2019-12-03 19:06:58.417440

; stl_min_x = 0.0
; stl_max_x = 100.0
; stl_min_y = 0.0
; stl_max_y = 75.0
; stl_min_z = 0.0

; generated by Slic3r 1.3.1-dev (Build adea0d9) on 2019-12-03 at 19:06:58

; external perimeters extrusion width = 0.55mm (1.90mm^3/s)
; perimeters extrusion width = 0.70mm (2.71mm^3/s)
; infill extrusion width = 0.62mm (2.41mm^3/s)
; solid infill extrusion width = 0.70mm (2.04mm^3/s)
; top infill extrusion width = 0.70mm (2.04mm^3/s)

M107
G92 E0
;D3D:START:START
T0
M104 S215 T0

G21
G90
M107
T0
G28
G29
M109 T0 S215 T0
G0 F3000
M107
T0
G92 E0
G0 X0 Y149 Z0.1 F3600
G1 Y49 E6.5 F1200
G0 Z1
G92 E0
; Filament gcode

G21 ; set units to millimeters
G90 ; use absolute coordinates
M82 ; use absolute distances for extrusion
G92 E0
G1 Z0.090 F7800.000
G1 E-2.00000 F2400.00000
G92 E0
G1 X22.187 Y32.110 F7800.000
G1 E2.00000 F2400.00000
G1 F1800.000
G1 X25.000 Y31.420 E2.00864
G1 X125.000 Y31.420 E2.30680
G1 X127.160 Y31.817 E2.31335
G1 X129.038 Y32.955 E2.31990
G1 X130.390 Y34.687 E2.32645
G1 X131.080 Y37.500 E2.33508
G1 X131.080 Y112.500 E2.55871
G1 X130.683 Y114.660 E2.56526
G1 X129.545 Y116.538 E2.57181
G1 X127.813 Y117.890 E2.57835
G1 X125.000 Y118.580 E2.58699
G1 X25.000 Y118.580 E2.88516
G1 X22.840 Y118.183 E2.89171
G1 X20.962 Y117.045 E2.89825
G1 X19.610 Y115.313 E2.90480
G1 X18.920 Y112.500 E2.91344
G1 X18.920 Y37.500 E3.13706
G1 X19.317 Y35.340 E3.14361
G1 X20.455 Y33.462 E3.15016
G1 X22.128 Y32.156 E3.15649
G1 E1.15649 F2400.00000
G92 E0
G1 X53.350 Y100.500 F7800.000
G1 E2.00000 F2400.00000
G1 F1800.000
G1 X54.650 Y100.500 E2.00388
G1 X55.702 Y101.264 E2.00775
G1 X56.103 Y102.500 E2.01163
G1 X55.702 Y103.736 E2.01550
G1 X54.650 Y104.500 E2.01938
G1 X53.350 Y104.500 E2.02326
G1 X52.298 Y103.736 E2.02713
G1 X51.897 Y102.500 E2.03101
G1 X52.298 Y101.264 E2.03488
G1 X53.289 Y100.544 E2.03854
G1 X53.376 Y100.579 F7800.000
G1 F1800.000
G1 X54.624 Y100.579 E2.04226
G1 X55.634 Y101.313 E2.04598
G1 X56.020 Y102.500 E2.04970
G1 X55.634 Y103.687 E2.05342
G1 X54.624 Y104.421 E2.05715
G1 X53.376 Y104.421 E2.06087
G1 X52.366 Y103.687 E2.06459
G1 X51.980 Y102.500 E2.06831
G1 X52.366 Y101.313 E2.07203
G1 X53.315 Y100.623 E2.07553
G1 X53.402 Y100.659 F7800.000
G1 F1800.000
G1 X54.598 Y100.659 E2.07910
G1 X55.566 Y101.362 E2.08266
G1 X55.936 Y102.500 E2.08623
G1 X55.566 Y103.638 E2.08980
G1 X54.598 Y104.341 E2.09337
G1 X53.402 Y104.341 E2.09693
G1 X52.434 Y103.638 E2.10050
G1 X52.064 Y102.500 E2.10407
G1 X52.434 Y101.362 E2.10763
G1 X53.341 Y100.703 E2.11098
G1 X53.428 Y100.739 F7800.000
G1 F1800.000
G1 X54.572 Y100.739 E2.11439
G1 X55.498 Y101.411 E2.11780
G1 X55.852 Y102.500 E2.12122
G1 X55.498 Y103.589 E2.12463
G1 X54.572 Y104.261 E2.12804
G1 X53.428 Y104.261 E2.13146
G1 X52.502 Y103.589 E2.13487
G1 X52.148 Y102.500 E2.13828
G1 X52.502 Y101.411 E2.14169
G1 X53.367 Y100.783 E2.14488
G1 X53.532 Y100.250 F7800.000
G1 E0.14488 F2400.00000
G92 E0
G1 X55.738 Y90.206 F7800.000
G1 E2.00000 F2400.00000
G1 F1800.000
G1 X55.532 Y90.130 E2.00066
G1 X55.352 Y89.998 E2.00132
G1 X55.216 Y89.821 E2.00198
G1 X55.137 Y89.615 E2.00265
G1 X55.112 Y89.391 E2.00332
G1 X55.137 Y89.168 E2.00399
G1 X55.217 Y88.962 E2.00465
G1 X55.354 Y88.786 E2.00531
G1 X55.534 Y88.658 E2.00597
G1 X55.739 Y88.584 E2.00662
G1 X55.960 Y88.561 E2.00728
G1 X56.187 Y88.583 E2.00796
G1 X56.398 Y88.657 E2.00863
G1 X56.580 Y88.786 E2.00929
G1 X56.717 Y88.961 E2.00995
G1 X56.798 Y89.167 E2.01062
G1 X56.823 Y89.391 E2.01129
G1 X56.798 Y89.615 E2.01196
G1 X56.718 Y89.822 E2.01262
G1 X56.582 Y89.999 E2.01329
G1 X56.400 Y90.131 E2.01396
G1 X56.189 Y90.206 E2.01462
G1 X55.960 Y90.229 E2.01531
G1 X55.813 Y90.213 E2.01575
G1 X56.171 Y90.128 F7800.000
G1 F1800.000
G1 X55.960 Y90.149 E2.01638
G1 X55.756 Y90.127 E2.01699
G1 X55.569 Y90.059 E2.01759
G1 X55.408 Y89.941 E2.01818
G1 X55.286 Y89.782 E2.01878
G1 X55.215 Y89.596 E2.01938
G1 X55.192 Y89.391 E2.01999
G1 X55.215 Y89.187 E2.02060
G1 X55.287 Y89.001 E2.02120
G1 X55.410 Y88.845 E2.02179
G1 X55.571 Y88.729 E2.02238
G1 X55.757 Y88.662 E2.02297
G1 X55.960 Y88.641 E2.02358
G1 X56.170 Y88.662 E2.02421
G1 X56.361 Y88.728 E2.02481
G1 X56.524 Y88.844 E2.02541
G1 X56.647 Y89.001 E2.02600
G1 X56.720 Y89.187 E2.02660
G1 X56.743 Y89.391 E2.02721
G1 X56.720 Y89.596 E2.02782
G1 X56.648 Y89.782 E2.02842
G1 X56.526 Y89.941 E2.02902
G1 X56.362 Y90.060 E2.02962
G1 X56.242 Y90.103 E2.03000
G1 X56.325 Y89.988 F7800.000
G1 F1800.000
G1 X56.153 Y90.049 E2.03054
G1 X55.960 Y90.069 E2.03112
G1 X55.774 Y90.049 E2.03168
G1 X55.607 Y89.988 E2.03221
G1 X55.464 Y89.883 E2.03274
G1 X55.357 Y89.743 E2.03327
G1 X55.293 Y89.577 E2.03380
G1 X55.273 Y89.391 E2.03435
G1 X55.293 Y89.206 E2.03491
G1 X55.357 Y89.041 E2.03544
G1 X55.465 Y88.903 E2.03596
G1 X55.608 Y88.800 E2.03648
G1 X55.775 Y88.740 E2.03701
G1 X55.960 Y88.721 E2.03757
G1 X56.153 Y88.740 E2.03815
G1 X56.324 Y88.800 E2.03869
G1 X56.469 Y88.902 E2.03921
G1 X56.577 Y89.041 E2.03974
G1 X56.642 Y89.206 E2.04027
G1 X56.663 Y89.391 E2.04082
G1 X56.642 Y89.577 E2.04138
G1 X56.578 Y89.743 E2.04191
G1 X56.469 Y89.884 E2.04244
G1 X56.386 Y89.944 E2.04275
G1 X56.287 Y89.917 F7800.000
G1 F1800.000
G1 X56.136 Y89.971 E2.04323
G1 X55.960 Y89.989 E2.04375
G1 X55.793 Y89.971 E2.04426
G1 X55.645 Y89.917 E2.04473
G1 X55.521 Y89.826 E2.04519
G1 X55.427 Y89.703 E2.04565
G1 X55.371 Y89.558 E2.04611
G1 X55.353 Y89.391 E2.04661
G1 X55.371 Y89.225 E2.04711
G1 X55.427 Y89.081 E2.04757
G1 X55.521 Y88.961 E2.04802
G1 X55.646 Y88.872 E2.04848
G1 X55.793 Y88.819 E2.04895
G1 X55.960 Y88.801 E2.04945
G1 X56.136 Y88.819 E2.04997
G1 X56.287 Y88.871 E2.05045
G1 X56.413 Y88.961 E2.05091
G1 X56.508 Y89.081 E2.05137
G1 X56.564 Y89.225 E2.05183
G1 X56.582 Y89.391 E2.05233
G1 X56.564 Y89.558 E2.05283
G1 X56.508 Y89.704 E2.05330
G1 X56.413 Y89.826 E2.05376
G1 X56.348 Y89.873 E2.05400
G1 X56.281 Y90.078 F7800.000
G1 E0.05400 F2400.00000
G92 E0
G1 X56.067 Y87.722 F7800.000
G1 E2.00000 F2400.00000
G1 F1800.000
G1 X55.960 Y87.733 E2.00032
G1 X55.738 Y87.710 E2.00099
G1 X55.531 Y87.634 E2.00164
G1 X55.352 Y87.502 E2.00231
G1 X55.216 Y87.325 E2.00297
G1 X55.137 Y87.119 E2.00363
G1 X55.112 Y86.895 E2.00430
G1 X55.137 Y86.672 E2.00497
G1 X55.217 Y86.466 E2.00563
G1 X55.354 Y86.290 E2.00629
G1 X55.534 Y86.162 E2.00695
G1 X55.739 Y86.088 E2.00760
G1 X55.960 Y86.065 E2.00827
G1 X56.187 Y86.087 E2.00895
G1 X56.398 Y86.161 E2.00961
G1 X56.580 Y86.290 E2.01028
G1 X56.717 Y86.465 E2.01094
G1 X56.798 Y86.671 E2.01160
G1 X56.823 Y86.895 E2.01227
G1 X56.798 Y87.119 E2.01294
G1 X56.718 Y87.326 E2.01361
G1 X56.582 Y87.503 E2.01427
G1 X56.400 Y87.635 E2.01494
G1 X56.141 Y87.715 E2.01575
G1 X56.171 Y87.632 F7800.000
G1 F1800.000
G1 X55.960 Y87.653 E2.01638
G1 X55.756 Y87.631 E2.01699
G1 X55.569 Y87.563 E2.01759
G1 X55.408 Y87.445 E2.01818
G1 X55.286 Y87.286 E2.01878
G1 X55.215 Y87.100 E2.01937
G1 X55.192 Y86.895 E2.01999
G1 X55.215 Y86.691 E2.02060
G1 X55.287 Y86.505 E2.02119
G1 X55.410 Y86.349 E2.02179
G1 X55.571 Y86.233 E2.02238
G1 X55.757 Y86.166 E2.02297
G1 X55.960 Y86.145 E2.02358
G1 X56.170 Y86.166 E2.02420
G1 X56.361 Y86.232 E2.02481
G1 X56.524 Y86.348 E2.02540
G1 X56.647 Y86.505 E2.02600
G1 X56.720 Y86.691 E2.02659
G1 X56.743 Y86.895 E2.02721
G1 X56.720 Y87.100 E2.02782
G1 X56.648 Y87.286 E2.02842
G1 X56.526 Y87.445 E2.02902
G1 X56.362 Y87.564 E2.02962
G1 X56.242 Y87.607 E2.03000
G1 X56.325 Y87.492 F7800.000
G1 F1800.000
G1 X56.153 Y87.553 E2.03054
G1 X55.960 Y87.573 E2.03112
G1 X55.774 Y87.553 E2.03168
G1 X55.607 Y87.492 E2.03221
G1 X55.464 Y87.387 E2.03274
G1 X55.357 Y87.247 E2.03326
G1 X55.293 Y87.081 E2.03379
G1 X55.273 Y86.895 E2.03435
G1 X55.293 Y86.710 E2.03491
G1 X55.357 Y86.545 E2.03543
G1 X55.465 Y86.407 E2.03596
G1 X55.608 Y86.304 E2.03648
G1 X55.775 Y86.244 E2.03701
G1 X55.960 Y86.225 E2.03757
G1 X56.153 Y86.244 E2.03814
G1 X56.324 Y86.304 E2.03868
G1 X56.469 Y86.406 E2.03921
G1 X56.577 Y86.545 E2.03974
G1 X56.642 Y86.710 E2.04026
G1 X56.663 Y86.895 E2.04082
G1 X56.642 Y87.081 E2.04138
G1 X56.578 Y87.247 E2.04191
G1 X56.469 Y87.388 E2.04244
G1 X56.386 Y87.448 E2.04275
G1 X56.287 Y87.421 F7800.000
G1 F1800.000
G1 X56.136 Y87.475 E2.04323
G1 X55.960 Y87.493 E2.04375
G1 X55.793 Y87.475 E2.04425
G1 X55.645 Y87.421 E2.04472
G1 X55.521 Y87.330 E2.04518
G1 X55.427 Y87.207 E2.04564
G1 X55.371 Y87.062 E2.04611
G1 X55.353 Y86.895 E2.04661
G1 X55.371 Y86.729 E2.04711
G1 X55.427 Y86.585 E2.04757
G1 X55.521 Y86.465 E2.04802
G1 X55.646 Y86.376 E2.04848
G1 X55.793 Y86.323 E2.04895
G1 X55.960 Y86.305 E2.04945
G1 X56.136 Y86.323 E2.04997
G1 X56.287 Y86.375 E2.05045
G1 X56.413 Y86.465 E2.05091
G1 X56.508 Y86.585 E2.05137
G1 X56.564 Y86.729 E2.05183
G1 X56.582 Y86.895 E2.05233
G1 X56.564 Y87.062 E2.05283
G1 X56.508 Y87.208 E2.05329
G1 X56.413 Y87.330 E2.05375
G1 X56.348 Y87.377 E2.05399
G1 X56.281 Y87.582 F7800.000
G1 E0.05399 F2400.00000
G92 E0
G1 X58.307 Y86.104 F7800.000
G1 E2.00000 F2400.00000
G1 F1800.000
G1 X60.194 Y84.594 E2.00721
G1 X61.093 Y84.594 E2.00989
G1 X61.093 Y88.818 E2.02248
G1 X62.042 Y88.818 E2.02531
G1 X62.042 Y90.164 E2.02932
G1 X58.682 Y90.164 E2.03934
G1 X58.682 Y88.818 E2.04335
G1 X59.651 Y88.818 E2.04624
G1 X59.651 Y86.642 E2.05273
G1 X59.022 Y87.069 E2.05500
G1 X58.352 Y86.165 E2.05836
G1 X58.417 Y86.119 F7800.000
G1 F1800.000
G1 X60.222 Y84.674 E2.06525
G1 X61.013 Y84.674 E2.06761
G1 X61.013 Y88.898 E2.08020
G1 X61.962 Y88.898 E2.08303
G1 X61.962 Y90.084 E2.08657
G1 X58.762 Y90.084 E2.09611
G1 X58.762 Y88.898 E2.09965
G1 X59.731 Y88.898 E2.10254
G1 X59.731 Y86.491 E2.10971
G1 X59.040 Y86.961 E2.11220
G1 X58.462 Y86.179 E2.11510
G1 X58.527 Y86.133 F7800.000
G1 F1800.000
G1 X60.250 Y84.754 E2.12168
G1 X60.934 Y84.754 E2.12372
G1 X60.934 Y88.978 E2.13632
G1 X61.883 Y88.978 E2.13914
G1 X61.883 Y90.004 E2.14221
G1 X58.841 Y90.004 E2.15127
G1 X58.841 Y88.978 E2.15433
G1 X59.810 Y88.978 E2.15722
G1 X59.810 Y86.341 E2.16509
G1 X59.059 Y86.852 E2.16780
G1 X58.571 Y86.193 E2.17024
G1 X58.636 Y86.147 F7800.000
G1 F1800.000
G1 X60.278 Y84.834 E2.17651
G1 X60.854 Y84.834 E2.17823
G1 X60.854 Y89.058 E2.19082
G1 X61.803 Y89.058 E2.19365
G1 X61.803 Y89.924 E2.19623
G1 X58.921 Y89.924 E2.20483
G1 X58.921 Y89.058 E2.20741
G1 X59.890 Y89.058 E2.21030
G1 X59.890 Y86.319 E2.21847
G1 X59.935 Y86.114 E2.21909
G1 X59.901 Y86.098 E2.21920
G1 X59.743 Y86.290 E2.21994
G1 X59.077 Y86.743 E2.22235
G1 X58.681 Y86.207 E2.22433
G1 X58.235 Y85.848 F7800.000
G1 E0.22433 F2400.00000
G92 E0
G1 X64.320 Y84.722 F7800.000
G1 E2.00000 F2400.00000
G1 F1800.000
G1 X67.297 Y84.722 E2.00888
G1 X67.297 Y86.132 E2.01308
G1 X65.678 Y86.132 E2.01791
G1 X65.678 Y86.512 E2.01904
G1 X66.168 Y86.583 E2.02052
G1 X66.400 Y86.660 E2.02125
G1 X66.609 Y86.760 E2.02194
G1 X66.800 Y86.885 E2.02262
G1 X66.969 Y87.034 E2.02329
G1 X67.117 Y87.207 E2.02397
G1 X67.239 Y87.402 E2.02465
G1 X67.334 Y87.615 E2.02535
G1 X67.403 Y87.845 E2.02607
G1 X67.444 Y88.089 E2.02680
G1 X67.457 Y88.345 E2.02757
G1 X67.440 Y88.643 E2.02846
G1 X67.385 Y88.923 E2.02931
G1 X67.293 Y89.183 E2.03013
G1 X67.168 Y89.417 E2.03092
G1 X67.013 Y89.626 E2.03170
G1 X66.829 Y89.808 E2.03247
G1 X66.621 Y89.959 E2.03324
G1 X66.393 Y90.081 E2.03401
G1 X66.146 Y90.175 E2.03479
G1 X65.885 Y90.240 E2.03560
G1 X65.607 Y90.280 E2.03643
G1 X65.105 Y90.286 E2.03793
G1 X64.675 Y90.232 E2.03922
G1 X64.300 Y90.132 E2.04038
G1 X63.897 Y89.965 E2.04168
G1 X64.308 Y88.665 E2.04574
G1 X64.909 Y88.849 E2.04762
G1 X65.151 Y88.878 E2.04834
G1 X65.546 Y88.860 E2.04952
G1 X65.708 Y88.811 E2.05003
G1 X65.824 Y88.736 E2.05044
G1 X65.903 Y88.641 E2.05081
G1 X65.952 Y88.520 E2.05120
G1 X65.971 Y88.359 E2.05168
G1 X65.949 Y88.193 E2.05218
G1 X65.897 Y88.084 E2.05254
G1 X65.809 Y88.001 E2.05290
G1 X65.661 Y87.929 E2.05339
G1 X65.443 Y87.879 E2.05406
G1 X65.155 Y87.860 E2.05491
G1 X64.320 Y87.892 E2.05741
G1 X64.320 Y84.797 E2.06663
G1 X64.399 Y84.802 F7800.000
G1 F1800.000
G1 X67.217 Y84.802 E2.07504
G1 X67.217 Y86.052 E2.07876
G1 X65.598 Y86.052 E2.08359
G1 X65.598 Y86.601 E2.08523
G1 X65.680 Y86.593 E2.08547
G1 X66.150 Y86.661 E2.08689
G1 X66.371 Y86.734 E2.08758
G1 X66.570 Y86.829 E2.08824
G1 X66.751 Y86.948 E2.08889
G1 X66.912 Y87.090 E2.08953
G1 X67.053 Y87.254 E2.09017
G1 X67.169 Y87.439 E2.09082
G1 X67.260 Y87.643 E2.09149
G1 X67.325 Y87.863 E2.09217
G1 X67.365 Y88.097 E2.09288
G1 X67.377 Y88.345 E2.09362
G1 X67.360 Y88.633 E2.09448
G1 X67.308 Y88.902 E2.09530
G1 X67.220 Y89.151 E2.09608
G1 X67.100 Y89.375 E2.09684
G1 X66.953 Y89.574 E2.09758
G1 X66.777 Y89.747 E2.09831
G1 X66.578 Y89.891 E2.09905
G1 X66.360 Y90.009 E2.09979
G1 X66.122 Y90.099 E2.10054
G1 X65.869 Y90.162 E2.10132
G1 X65.601 Y90.200 E2.10213
G1 X65.110 Y90.206 E2.10359
G1 X64.690 Y90.153 E2.10485
G1 X64.325 Y90.056 E2.10598
G1 X63.995 Y89.920 E2.10705
G1 X64.361 Y88.765 E2.11066
G1 X64.892 Y88.928 E2.11232
G1 X65.148 Y88.957 E2.11308
G1 X65.560 Y88.939 E2.11431
G1 X65.742 Y88.883 E2.11488
G1 X65.877 Y88.796 E2.11536
G1 X65.972 Y88.682 E2.11580
G1 X66.030 Y88.540 E2.11626
G1 X66.051 Y88.358 E2.11680
G1 X66.027 Y88.170 E2.11737
G1 X65.963 Y88.037 E2.11781
G1 X65.855 Y87.935 E2.11825
G1 X65.687 Y87.854 E2.11881
G1 X65.455 Y87.799 E2.11952
G1 X65.157 Y87.780 E2.12041
G1 X64.399 Y87.809 E2.12267
G1 X64.399 Y84.877 E2.13141
G1 X64.479 Y84.882 F7800.000
G1 F1800.000
G1 X67.137 Y84.882 E2.13934
G1 X67.137 Y85.972 E2.14259
G1 X65.518 Y85.972 E2.14742
G1 X65.518 Y86.689 E2.14955
G1 X65.678 Y86.673 E2.15003
G1 X66.131 Y86.739 E2.15140
G1 X66.341 Y86.808 E2.15205
G1 X66.531 Y86.899 E2.15268
G1 X66.703 Y87.012 E2.15330
G1 X66.856 Y87.146 E2.15390
G1 X66.988 Y87.302 E2.15451
G1 X67.098 Y87.477 E2.15513
G1 X67.185 Y87.671 E2.15576
G1 X67.248 Y87.881 E2.15642
G1 X67.285 Y88.106 E2.15710
G1 X67.298 Y88.344 E2.15781
G1 X67.281 Y88.623 E2.15864
G1 X67.231 Y88.881 E2.15943
G1 X67.147 Y89.118 E2.16018
G1 X67.033 Y89.332 E2.16090
G1 X66.892 Y89.521 E2.16160
G1 X66.725 Y89.686 E2.16230
G1 X66.536 Y89.824 E2.16300
G1 X66.327 Y89.936 E2.16371
G1 X66.098 Y90.022 E2.16443
G1 X65.854 Y90.084 E2.16518
G1 X65.595 Y90.120 E2.16596
G1 X65.114 Y90.126 E2.16740
G1 X64.706 Y90.075 E2.16863
G1 X64.351 Y89.981 E2.16972
G1 X64.093 Y89.874 E2.17055
G1 X64.413 Y88.864 E2.17371
G1 X64.876 Y89.006 E2.17515
G1 X65.146 Y89.037 E2.17596
G1 X65.574 Y89.019 E2.17724
G1 X65.775 Y88.956 E2.17787
G1 X65.931 Y88.856 E2.17842
G1 X66.041 Y88.724 E2.17894
G1 X66.108 Y88.560 E2.17946
G1 X66.131 Y88.358 E2.18007
G1 X66.104 Y88.147 E2.18070
G1 X66.028 Y87.989 E2.18123
G1 X65.901 Y87.869 E2.18175
G1 X65.714 Y87.778 E2.18237
G1 X65.467 Y87.720 E2.18313
G1 X65.158 Y87.700 E2.18405
G1 X64.479 Y87.726 E2.18607
G1 X64.479 Y84.957 E2.19433
G1 X64.559 Y84.962 F7800.000
G1 F1800.000
G1 X67.058 Y84.962 E2.20178
G1 X67.058 Y85.892 E2.20456
G1 X65.439 Y85.892 E2.20939
G1 X65.439 Y86.776 E2.21202
G1 X65.676 Y86.753 E2.21273
G1 X66.113 Y86.816 E2.21405
G1 X66.311 Y86.882 E2.21467
G1 X66.492 Y86.968 E2.21527
G1 X66.654 Y87.075 E2.21585
G1 X66.799 Y87.202 E2.21642
G1 X66.924 Y87.349 E2.21700
G1 X67.028 Y87.515 E2.21758
G1 X67.110 Y87.699 E2.21818
G1 X67.170 Y87.899 E2.21880
G1 X67.206 Y88.115 E2.21945
G1 X67.218 Y88.344 E2.22014
G1 X67.202 Y88.613 E2.22094
G1 X67.154 Y88.860 E2.22169
G1 X67.074 Y89.086 E2.22241
G1 X66.965 Y89.289 E2.22309
G1 X66.832 Y89.469 E2.22376
G1 X66.673 Y89.625 E2.22443
G1 X66.493 Y89.756 E2.22509
G1 X66.293 Y89.863 E2.22577
G1 X66.074 Y89.946 E2.22647
G1 X65.839 Y90.005 E2.22719
G1 X65.589 Y90.041 E2.22794
G1 X65.119 Y90.046 E2.22934
G1 X64.721 Y89.997 E2.23054
G1 X64.377 Y89.905 E2.23160
G1 X64.191 Y89.828 E2.23220
G1 X64.465 Y88.963 E2.23490
G1 X64.859 Y89.084 E2.23613
G1 X65.143 Y89.117 E2.23698
G1 X65.587 Y89.098 E2.23831
G1 X65.809 Y89.029 E2.23900
G1 X65.984 Y88.917 E2.23962
G1 X66.110 Y88.765 E2.24021
G1 X66.186 Y88.580 E2.24081
G1 X66.211 Y88.357 E2.24148
G1 X66.181 Y88.125 E2.24218
G1 X66.094 Y87.941 E2.24278
G1 X65.947 Y87.802 E2.24339
G1 X65.741 Y87.702 E2.24407
G1 X65.478 Y87.641 E2.24487
G1 X65.159 Y87.621 E2.24583
G1 X64.559 Y87.643 E2.24762
G1 X64.559 Y85.036 E2.25539
G1 X64.522 Y84.463 F7800.000
G1 E0.25539 F2400.00000
G92 E0
