; generated by Slic3r 1.3.1-dev (Build 2ef957d) on 2019-11-25 at 09:24:51

; external perimeters extrusion width = 0.55mm (4.37mm^3/s)
; perimeters extrusion width = 0.70mm (11.44mm^3/s)
; infill extrusion width = 0.62mm (13.45mm^3/s)
; solid infill extrusion width = 0.70mm (3.81mm^3/s)
; top infill extrusion width = 0.70mm (2.86mm^3/s)

M107
G92 E0
M104 S200 ; set temperature
G28 ; home all axes
G1 Z5 F5000 ; lift nozzle

; Filament gcode

M109 S200 ; set temperature and wait for it to be reached
G21 ; set units to millimeters
G90 ; use absolute coordinates
M82 ; use absolute distances for extrusion
G92 E0
G1 Z0.350 F7800.000
G1 E-2.00000 F2400.00000
G92 E0
G1 X76.485 Y71.854 F7800.000
G1 E2.00000 F2400.00000
G1 F1800.000
G1 X76.854 Y71.485 E2.01612
G1 X77.559 Y70.833 E2.04584
G1 X77.954 Y70.496 E2.06191
G1 X78.708 Y69.901 E2.09163
G1 X79.130 Y69.595 E2.10776
G1 X79.928 Y69.061 E2.13747
G1 X80.371 Y68.790 E2.15355
G1 X81.209 Y68.321 E2.18326
G1 X81.673 Y68.084 E2.19936
G1 X82.545 Y67.682 E2.22908
G1 X83.026 Y67.483 E2.24518
G1 X83.927 Y67.151 E2.27490
G1 X84.422 Y66.990 E2.29099
G1 X85.724 Y66.635 E2.33277
G1 X87.374 Y66.310 E2.38480
G1 X89.588 Y66.054 E2.45376
G1 X96.144 Y65.439 E2.65751
G1 X107.721 Y64.400 E3.01714
G1 X108.300 Y64.375 E3.03508
G1 X111.700 Y64.375 E3.14026
G1 X113.958 Y64.772 E3.21122
G1 X115.947 Y65.915 E3.28219
G1 X117.426 Y67.668 E3.35315
G1 X118.130 Y69.407 E3.41119
G1 X128.325 Y110.551 E4.72275
G1 X128.579 Y111.794 E4.76199
G1 X128.661 Y112.308 E4.77811
G1 X128.774 Y113.262 E4.80783
G1 X128.815 Y113.780 E4.82390
G1 X128.852 Y114.740 E4.85362
G1 X128.852 Y115.260 E4.86973
G1 X128.815 Y116.220 E4.89945
G1 X128.774 Y116.738 E4.91553
G1 X128.661 Y117.692 E4.94525
G1 X128.579 Y118.207 E4.96138
G1 X128.392 Y119.150 E4.99112
G1 X128.270 Y119.655 E5.00719
G1 X128.010 Y120.578 E5.03689
G1 X127.849 Y121.073 E5.05298
G1 X127.517 Y121.974 E5.08270
G1 X127.318 Y122.455 E5.09880
G1 X126.916 Y123.327 E5.12851
G1 X126.679 Y123.791 E5.14461
G1 X126.210 Y124.629 E5.17433
G1 X125.939 Y125.072 E5.19040
G1 X125.405 Y125.870 E5.22012
G1 X125.099 Y126.292 E5.23625
G1 X124.504 Y127.046 E5.26596
G1 X124.167 Y127.441 E5.28204
G1 X123.515 Y128.146 E5.31176
G1 X123.146 Y128.515 E5.32788
G1 X122.441 Y129.167 E5.35760
G1 X122.046 Y129.504 E5.37367
G1 X121.292 Y130.099 E5.40339
G1 X120.870 Y130.405 E5.41951
G1 X120.072 Y130.939 E5.44923
G1 X119.629 Y131.210 E5.46530
G1 X118.791 Y131.679 E5.49502
G1 X118.327 Y131.916 E5.51112
G1 X117.455 Y132.318 E5.54084
G1 X116.974 Y132.517 E5.55694
G1 X116.073 Y132.849 E5.58665
G1 X115.578 Y133.010 E5.60275
G1 X114.276 Y133.365 E5.64453
G1 X112.991 Y133.627 E5.68508
G1 X112.458 Y133.713 E5.70180
G1 X111.250 Y133.857 E5.73945
G1 X109.015 Y134.083 E5.80893
G1 X92.279 Y135.600 E6.32890
G1 X91.700 Y135.625 E6.34684
G1 X88.300 Y135.625 E6.45202
G1 X86.042 Y135.228 E6.52298
G1 X84.053 Y134.085 E6.59395
G1 X82.574 Y132.332 E6.66491
G1 X81.870 Y130.593 E6.72295
G1 X71.675 Y89.449 E8.03451
G1 X71.421 Y88.206 E8.07375
G1 X71.339 Y87.692 E8.08987
G1 X71.226 Y86.738 E8.11959
G1 X71.185 Y86.220 E8.13566
G1 X71.148 Y85.260 E8.16538
G1 X71.148 Y84.740 E8.18149
G1 X71.185 Y83.780 E8.21121
G1 X71.226 Y83.262 E8.22729
G1 X71.339 Y82.308 E8.25701
G1 X71.421 Y81.793 E8.27314
G1 X71.608 Y80.850 E8.30288
G1 X71.730 Y80.345 E8.31895
G1 X71.990 Y79.422 E8.34865
G1 X72.151 Y78.927 E8.36474
G1 X72.483 Y78.026 E8.39446
G1 X72.682 Y77.545 E8.41056
G1 X73.084 Y76.673 E8.44028
G1 X73.321 Y76.209 E8.45637
G1 X73.790 Y75.371 E8.48609
G1 X74.061 Y74.928 E8.50216
G1 X74.595 Y74.130 E8.53188
G1 X74.901 Y73.708 E8.54801
G1 X75.496 Y72.954 E8.57773
G1 X75.833 Y72.559 E8.59380
G1 X76.434 Y71.909 E8.62120
G1 E6.62120 F2400.00000
G92 E0
G1 X90.933 Y122.850 F7800.000
G1 E2.00000 F2400.00000
G1 F1800.000
G1 X89.900 Y119.671 E2.10341
G1 X89.900 Y110.329 E2.39248
G1 X90.933 Y107.150 E2.49589
G1 X89.900 Y107.150 E2.52784
G1 X89.900 Y102.600 E2.66864
G1 X91.630 Y102.600 E2.72215
G1 X106.644 Y103.955 E3.18860
G1 X109.879 Y104.267 E3.28917
G1 X111.446 Y104.452 E3.33797
G1 X112.479 Y104.661 E3.37060
G1 X113.285 Y104.889 E3.39652
G1 X114.069 Y105.178 E3.42235
G1 X114.827 Y105.527 E3.44818
G1 X115.555 Y105.935 E3.47401
G1 X116.249 Y106.399 E3.49984
G1 X116.905 Y106.916 E3.52566
G1 X117.518 Y107.482 E3.55150
G1 X118.084 Y108.095 E3.57732
G1 X118.601 Y108.751 E3.60315
G1 X119.065 Y109.445 E3.62898
G1 X119.473 Y110.173 E3.65481
G1 X119.822 Y110.931 E3.68064
G1 X120.111 Y111.715 E3.70647
G1 X120.338 Y112.518 E3.73230
G1 X120.501 Y113.337 E3.75813
G1 X120.599 Y114.166 E3.78396
G1 X120.631 Y115.000 E3.80979
G1 X120.599 Y115.834 E3.83561
G1 X120.501 Y116.663 E3.86144
G1 X120.337 Y117.483 E3.88730
G1 X120.111 Y118.285 E3.91310
G1 X119.822 Y119.069 E3.93893
G1 X119.473 Y119.827 E3.96476
G1 X119.065 Y120.555 E3.99059
G1 X118.601 Y121.249 E4.01642
G1 X118.084 Y121.905 E4.04225
G1 X117.518 Y122.518 E4.06808
G1 X116.905 Y123.084 E4.09391
G1 X116.249 Y123.601 E4.11973
G1 X115.555 Y124.065 E4.14556
G1 X114.827 Y124.473 E4.17139
G1 X114.069 Y124.822 E4.19722
G1 X113.285 Y125.111 E4.22305
G1 X112.479 Y125.339 E4.24897
G1 X111.446 Y125.548 E4.28160
G1 X109.879 Y125.733 E4.33040
G1 X106.644 Y126.045 E4.43096
G1 X91.628 Y127.400 E4.89748
G1 X89.900 Y127.400 E4.95093
G1 X89.900 Y122.850 E5.09173
G1 X90.858 Y122.850 E5.12136
G1 X90.073 Y122.225 F7800.000
G1 F1800.000
G1 X89.275 Y119.770 E5.20122
G1 X89.275 Y110.230 E5.49642
G1 X90.073 Y107.775 E5.57628
G1 X89.275 Y107.775 E5.60095
G1 X89.275 Y101.975 E5.78042
G1 X91.657 Y101.975 E5.85411
G1 X106.702 Y103.333 E6.32152
G1 X109.946 Y103.646 E6.42235
G1 X111.545 Y103.834 E6.47216
G1 X112.626 Y104.054 E6.50631
G1 X113.479 Y104.294 E6.53371
G1 X114.308 Y104.600 E6.56106
G1 X115.111 Y104.970 E6.58841
G1 X115.882 Y105.402 E6.61576
G1 X116.617 Y105.893 E6.64311
G1 X117.311 Y106.440 E6.67045
G1 X117.960 Y107.040 E6.69780
G1 X118.560 Y107.689 E6.72515
G1 X119.107 Y108.383 E6.75250
G1 X119.598 Y109.118 E6.77985
G1 X120.030 Y109.890 E6.80720
G1 X120.400 Y110.692 E6.83454
G1 X120.706 Y111.521 E6.86189
G1 X120.946 Y112.372 E6.88924
G1 X121.118 Y113.239 E6.91659
G1 X121.222 Y114.117 E6.94394
G1 X121.257 Y115.000 E6.97129
G1 X121.222 Y115.883 E6.99864
G1 X121.118 Y116.761 E7.02598
G1 X120.946 Y117.629 E7.05336
G1 X120.706 Y118.479 E7.08068
G1 X120.400 Y119.308 E7.10803
G1 X120.030 Y120.111 E7.13538
G1 X119.598 Y120.882 E7.16273
G1 X119.107 Y121.617 E7.19008
G1 X118.560 Y122.311 E7.21742
G1 X117.960 Y122.960 E7.24477
G1 X117.311 Y123.560 E7.27212
G1 X116.617 Y124.107 E7.29947
G1 X115.882 Y124.598 E7.32682
G1 X115.111 Y125.030 E7.35417
G1 X114.308 Y125.400 E7.38151
G1 X113.479 Y125.706 E7.40886
G1 X112.626 Y125.946 E7.43627
G1 X111.545 Y126.166 E7.47042
G1 X109.946 Y126.354 E7.52022
G1 X106.702 Y126.667 E7.62105
G1 X91.656 Y128.025 E8.08850
G1 X89.275 Y128.025 E8.16216
G1 X89.275 Y122.225 E8.34162
G1 X89.998 Y122.225 E8.36398
G1 X89.213 Y121.600 F7800.000
G1 F1800.000
G1 X88.650 Y119.869 E8.42029
G1 X88.650 Y110.131 E8.72161
G1 X89.213 Y108.400 E8.77792
G1 X88.650 Y108.400 E8.79532
G1 X88.650 Y101.350 E9.01345
G1 X91.684 Y101.350 E9.10733
G1 X106.760 Y102.711 E9.57570
G1 X110.013 Y103.025 E9.67679
G1 X111.643 Y103.217 E9.72760
G1 X112.773 Y103.446 E9.76327
G1 X113.672 Y103.699 E9.79216
G1 X114.547 Y104.022 E9.82103
G1 X115.394 Y104.413 E9.84989
G1 X116.208 Y104.869 E9.87876
G1 X116.984 Y105.387 E9.90763
G1 X117.717 Y105.965 E9.93650
G1 X118.402 Y106.598 E9.96537
G1 X119.035 Y107.283 E9.99423
G1 X119.613 Y108.016 E10.02310
G1 X120.131 Y108.792 E10.05197
G1 X120.587 Y109.606 E10.08084
G1 X120.978 Y110.453 E10.10970
G1 X121.301 Y111.328 E10.13857
G1 X121.554 Y112.226 E10.16744
G1 X121.736 Y113.141 E10.19631
G1 X121.846 Y114.068 E10.22518
G1 X121.882 Y115.000 E10.25404
G1 X121.846 Y115.932 E10.28291
G1 X121.736 Y116.859 E10.31178
G1 X121.554 Y117.775 E10.34068
G1 X121.301 Y118.672 E10.36952
G1 X120.978 Y119.547 E10.39838
G1 X120.587 Y120.394 E10.42725
G1 X120.131 Y121.208 E10.45612
G1 X119.613 Y121.984 E10.48499
G1 X119.035 Y122.717 E10.51385
G1 X118.402 Y123.402 E10.54272
G1 X117.717 Y124.035 E10.57159
G1 X116.984 Y124.613 E10.60046
G1 X116.208 Y125.131 E10.62933
G1 X115.394 Y125.587 E10.65819
G1 X114.547 Y125.978 E10.68706
G1 X113.672 Y126.301 E10.71593
G1 X112.773 Y126.554 E10.74482
G1 X111.643 Y126.783 E10.78049
G1 X110.013 Y126.975 E10.83130
G1 X106.760 Y127.289 E10.93239
G1 X91.684 Y128.650 E11.40077
G1 X88.650 Y128.650 E11.49463
G1 X88.650 Y121.600 E11.71277
G1 X89.138 Y121.600 E11.72785
G1 X89.593 Y121.275 F7800.000
G1 E9.72785 F2400.00000
G92 E0
G1 X90.507 Y123.718 F7800.000
G1 E2.00000 F2400.00000
G1 F1800.000
G1 X90.282 Y123.718 E2.00702
G1 X90.282 Y123.943 E2.01403
G1 X90.993 Y123.232 E2.04538
G1 X91.883 Y123.232 E2.07312
G1 X90.282 Y124.833 E2.14371
G1 E0.14371 F2400.00000
G92 E0
G1 X90.282 Y103.468 F7800.000
G1 E2.00000 F2400.00000
G1 F1800.000
G1 X90.768 Y102.982 E2.02142
G1 X91.658 Y102.982 E2.04917
G1 X90.282 Y104.358 E2.10984
G1 X90.282 Y105.248 E2.13759
G1 X92.492 Y103.038 E2.23500
G1 X93.309 Y103.111 E2.26058
G1 X90.282 Y106.138 E2.39402
G1 X90.282 Y106.768 E2.41365
G1 X90.542 Y106.768 E2.42177
G1 X94.126 Y103.185 E2.57972
G1 X94.942 Y103.259 E2.60526
G1 X91.433 Y106.768 E2.75996
G1 X91.550 Y106.768 E2.76362
G1 X91.178 Y107.913 E2.80114
G1 X95.758 Y103.333 E3.00304
G1 X96.575 Y103.407 E3.02859
G1 X90.750 Y109.232 E3.28536
G1 X90.321 Y110.551 E3.32858
G1 X97.391 Y103.480 E3.64022
G1 X98.208 Y103.554 E3.66577
G1 X90.282 Y111.480 E4.01512
G1 X90.282 Y112.370 E4.04286
G1 X99.024 Y103.628 E4.42820
G1 X99.840 Y103.702 E4.45375
G1 X90.282 Y113.260 E4.87507
G1 X90.282 Y114.150 E4.90281
G1 X100.657 Y103.776 E5.36012
G1 X101.473 Y103.850 E5.38566
G1 X90.282 Y115.041 E5.87895
G1 X90.282 Y115.931 E5.90670
G1 X102.289 Y103.923 E6.43597
G1 X103.106 Y103.997 E6.46152
G1 X90.282 Y116.821 E7.02678
G1 X90.282 Y117.711 E7.05453
G1 X103.922 Y104.071 E7.65577
G1 X104.739 Y104.145 E7.68132
G1 X90.282 Y118.601 E8.31855
G1 X90.282 Y119.492 E8.34629
G1 X105.555 Y104.219 E9.01950
G1 X106.371 Y104.293 E9.04505
G1 X90.421 Y120.243 E9.74813
G1 X90.639 Y120.915 E9.77014
G1 X107.186 Y104.368 E10.49949
G1 X107.997 Y104.447 E10.52491
G1 X90.858 Y121.587 E11.28042
G1 X91.076 Y122.259 E11.30244
G1 X108.809 Y104.525 E12.08411
G1 X109.621 Y104.604 E12.10953
G1 X91.294 Y122.931 E12.91736
G1 X91.512 Y123.602 E12.93938
G1 X110.426 Y104.689 E13.77305
G1 X111.222 Y104.783 E13.79805
G1 X90.282 Y125.723 E14.72106
G1 X90.282 Y126.613 E14.74881
G1 X111.988 Y104.907 E15.70559
G1 X112.719 Y105.067 E15.72890
G1 X90.767 Y127.018 E16.69650
G1 X91.356 Y127.018 E16.71487
G1 X91.687 Y126.989 E16.72522
G1 X113.408 Y105.268 E17.68265
G1 X114.059 Y105.507 E17.70426
G1 X92.666 Y126.900 E18.64723
G1 X93.644 Y126.812 E18.67785
G1 X114.669 Y105.788 E19.60458
G1 X115.247 Y106.100 E19.62506
G1 X94.623 Y126.724 E20.53413
G1 X95.601 Y126.635 E20.56476
G1 X115.795 Y106.442 E21.45487
G1 X116.315 Y106.812 E21.47476
G1 X96.580 Y126.547 E22.34466
G1 X97.558 Y126.459 E22.37528
G1 X116.808 Y107.209 E23.22377
G1 X117.270 Y107.637 E23.24340
G1 X98.537 Y126.370 E24.06914
G1 X99.515 Y126.282 E24.09977
G1 X117.702 Y108.096 E24.90139
G1 X118.106 Y108.581 E24.92109
G1 X100.494 Y126.194 E25.69742
G1 X101.472 Y126.105 E25.72804
G1 X118.484 Y109.094 E26.47789
G1 X118.834 Y109.634 E26.49796
G1 X102.451 Y126.017 E27.22009
G1 X103.430 Y125.929 E27.25071
G1 X119.153 Y110.205 E27.94380
G1 X119.435 Y110.814 E27.96470
G1 X104.408 Y125.841 E28.62707
G1 X105.387 Y125.752 E28.65769
G1 X119.682 Y111.456 E29.28784
G1 X119.892 Y112.137 E29.31003
G1 X106.365 Y125.664 E29.90629
G1 X107.351 Y125.569 E29.93714
G1 X120.060 Y112.859 E30.49735
G1 X120.126 Y113.192 E30.50791
G1 X120.178 Y113.631 E30.52171
G1 X108.336 Y125.473 E31.04370
G1 X109.321 Y125.378 E31.07455
G1 X120.238 Y114.462 E31.55573
G1 X120.249 Y114.757 E31.56493
G1 X120.225 Y115.365 E31.58388
G1 X110.324 Y125.265 E32.02029
G1 X111.104 Y125.174 E32.04475
G1 X111.358 Y125.122 E32.05284
G1 X120.118 Y116.362 E32.43897
G1 X119.972 Y117.094 E32.46222
G1 X119.853 Y117.517 E32.47594
G1 X112.517 Y124.853 E32.79928
G1 X112.849 Y124.759 E32.81002
G1 X113.586 Y124.487 E32.83451
G1 X113.933 Y124.328 E32.84641
G1 X119.328 Y118.933 E33.08420
G1 X119.159 Y119.300 E33.09679
G1 X118.775 Y119.985 E33.12128
G1 X118.338 Y120.638 E33.14577
G1 X117.852 Y121.255 E33.17025
G1 X117.320 Y121.831 E33.19466
G1 X116.831 Y122.320 E33.21625
G1 E31.21625 F2400.00000
G92 E0
G1 X109.067 Y92.850 F7800.000
G1 E2.00000 F2400.00000
G1 F1800.000
G1 X110.100 Y92.850 E2.03196
G1 X110.100 Y97.400 E2.17275
G1 X108.372 Y97.400 E2.22620
G1 X93.356 Y96.045 E2.69272
G1 X90.120 Y95.733 E2.79332
G1 X88.610 Y95.557 E2.84034
G1 X87.519 Y95.338 E2.87476
G1 X86.715 Y95.111 E2.90063
G1 X85.931 Y94.822 E2.92646
G1 X85.173 Y94.473 E2.95229
G1 X84.445 Y94.065 E2.97812
G1 X83.751 Y93.601 E3.00395
G1 X83.095 Y93.084 E3.02978
G1 X82.482 Y92.518 E3.05561
G1 X81.916 Y91.905 E3.08144
G1 X81.399 Y91.249 E3.10726
G1 X80.935 Y90.555 E3.13309
G1 X80.527 Y89.827 E3.15892
G1 X80.178 Y89.069 E3.18475
G1 X79.889 Y88.285 E3.21058
G1 X79.662 Y87.482 E3.23641
G1 X79.499 Y86.663 E3.26224
G1 X79.401 Y85.834 E3.28807
G1 X79.369 Y85.000 E3.31390
G1 X79.401 Y84.166 E3.33973
G1 X79.499 Y83.337 E3.36555
G1 X79.663 Y82.517 E3.39141
G1 X79.889 Y81.715 E3.41722
G1 X80.178 Y80.931 E3.44305
G1 X80.527 Y80.173 E3.46887
G1 X80.935 Y79.445 E3.49471
G1 X81.399 Y78.751 E3.52053
G1 X81.916 Y78.095 E3.54636
G1 X82.482 Y77.482 E3.57219
G1 X83.095 Y76.916 E3.59802
G1 X83.751 Y76.399 E3.62385
G1 X84.445 Y75.935 E3.64968
G1 X85.173 Y75.527 E3.67551
G1 X85.931 Y75.178 E3.70134
G1 X86.715 Y74.889 E3.72716
G1 X87.519 Y74.662 E3.75304
G1 X88.610 Y74.443 E3.78746
G1 X90.120 Y74.267 E3.83447
G1 X93.356 Y73.955 E3.93508
G1 X108.372 Y72.600 E4.40160
G1 X110.100 Y72.600 E4.45505
G1 X110.100 Y77.150 E4.59584
G1 X109.067 Y77.150 E4.62780
G1 X110.100 Y80.329 E4.73121
G1 X110.100 Y89.671 E5.02028
G1 X109.090 Y92.778 E5.12136
G1 X109.927 Y92.225 F7800.000
G1 F1800.000
G1 X110.725 Y92.225 E5.14604
G1 X110.725 Y98.025 E5.32551
G1 X108.344 Y98.025 E5.39916
G1 X93.298 Y96.667 E5.86662
G1 X90.053 Y96.354 E5.96747
G1 X88.512 Y96.175 E6.01547
G1 X87.373 Y95.946 E6.05143
G1 X86.521 Y95.706 E6.07880
G1 X85.692 Y95.400 E6.10615
G1 X84.889 Y95.030 E6.13350
G1 X84.118 Y94.598 E6.16085
G1 X83.383 Y94.107 E6.18820
G1 X82.689 Y93.560 E6.21554
G1 X82.040 Y92.960 E6.24289
G1 X81.440 Y92.311 E6.27024
G1 X80.893 Y91.617 E6.29759
G1 X80.402 Y90.882 E6.32494
G1 X79.970 Y90.110 E6.35229
G1 X79.600 Y89.308 E6.37963
G1 X79.294 Y88.479 E6.40698
G1 X79.054 Y87.628 E6.43433
G1 X78.882 Y86.761 E6.46168
G1 X78.778 Y85.883 E6.48903
G1 X78.743 Y85.000 E6.51638
G1 X78.778 Y84.117 E6.54373
G1 X78.882 Y83.239 E6.57107
G1 X79.054 Y82.371 E6.59845
G1 X79.294 Y81.521 E6.62577
G1 X79.600 Y80.692 E6.65312
G1 X79.970 Y79.889 E6.68047
G1 X80.402 Y79.118 E6.70782
G1 X80.893 Y78.383 E6.73517
G1 X81.440 Y77.689 E6.76251
G1 X82.040 Y77.040 E6.78986
G1 X82.689 Y76.440 E6.81721
G1 X83.383 Y75.893 E6.84456
G1 X84.118 Y75.402 E6.87191
G1 X84.889 Y74.970 E6.89926
G1 X85.692 Y74.600 E6.92660
G1 X86.521 Y74.294 E6.95395
G1 X87.373 Y74.054 E6.98133
G1 X88.512 Y73.825 E7.01729
G1 X90.053 Y73.646 E7.06529
G1 X93.298 Y73.333 E7.16614
G1 X108.344 Y71.975 E7.63359
G1 X110.725 Y71.975 E7.70725
G1 X110.725 Y77.775 E7.88671
G1 X109.927 Y77.775 E7.91139
G1 X110.725 Y80.230 E7.99125
G1 X110.725 Y89.770 E8.28644
G1 X109.950 Y92.154 E8.36398
G1 X110.787 Y91.600 F7800.000
G1 F1800.000
G1 X111.350 Y91.600 E8.38138
G1 X111.350 Y98.650 E8.59952
G1 X108.316 Y98.650 E8.69338
G1 X93.240 Y97.289 E9.16176
G1 X89.987 Y96.975 E9.26286
G1 X88.415 Y96.792 E9.31185
G1 X87.226 Y96.554 E9.34935
G1 X86.328 Y96.301 E9.37822
G1 X85.453 Y95.978 E9.40709
G1 X84.606 Y95.587 E9.43596
G1 X83.792 Y95.131 E9.46483
G1 X83.016 Y94.613 E9.49370
G1 X82.283 Y94.035 E9.52256
G1 X81.598 Y93.402 E9.55143
G1 X80.965 Y92.717 E9.58030
G1 X80.387 Y91.984 E9.60917
G1 X79.869 Y91.208 E9.63803
G1 X79.413 Y90.394 E9.66690
G1 X79.022 Y89.547 E9.69577
G1 X78.699 Y88.672 E9.72464
G1 X78.446 Y87.774 E9.75351
G1 X78.264 Y86.859 E9.78237
