; Gcode updated with 'stl_info' on 2019-12-05 15:40:37.605325

; stl_min_x = -20.0
; stl_max_x = 20.0
; stl_min_y = -2.0799999237060547
; stl_max_y = 26.799999237060547
; stl_min_z = -8.199999809265137

; generated by Slic3r 1.3.1-dev (Build adea0d9) on 2019-12-05 at 15:40:37

; external perimeters extrusion width = 0.44mm (2.86mm^3/s)
; perimeters extrusion width = 0.56mm (4.14mm^3/s)
; infill extrusion width = 0.50mm (3.66mm^3/s)
; solid infill extrusion width = 0.56mm (3.10mm^3/s)
; top infill extrusion width = 0.56mm (3.10mm^3/s)

M107
G92 E0
;D3D:START:START
T0
M104 S215 T0

G21
G90
M107
T0
G28
G29
M109 T0 S215 T0
G0 F3000
M107
T0
G92 E0
G0 X0 Y149 Z0.1 F3600
G1 Y49 E6.5 F1200
G0 Z1
G92 E0
; Filament gcode

G21 ; set units to millimeters
G90 ; use absolute coordinates
M82 ; use absolute distances for extrusion
G92 E0
G1 Z0.300 F7800.000
G1 E-2.00000 F2400.00000
G92 E0
G1 X67.496 Y81.136 F7800.000
G1 E2.00000 F2400.00000
G1 F1800.000
G1 X67.496 Y61.256 E2.65861
G1 X73.804 Y61.256 E2.86758
G1 X73.804 Y68.270 E3.09995
G1 X73.178 Y68.432 E3.12137
G1 X72.743 Y68.592 E3.13671
G1 X72.323 Y68.786 E3.15205
G1 X71.919 Y69.012 E3.16739
G1 X71.534 Y69.269 E3.18273
G1 X71.170 Y69.556 E3.19807
G1 X70.830 Y69.870 E3.21341
G1 X70.516 Y70.210 E3.22875
G1 X70.229 Y70.574 E3.24408
G1 X69.972 Y70.959 E3.25942
G1 X69.746 Y71.363 E3.27476
G1 X69.552 Y71.783 E3.29010
G1 X69.392 Y72.218 E3.30544
G1 X69.266 Y72.663 E3.32078
G1 X69.176 Y73.117 E3.33612
G1 X69.121 Y73.577 E3.35146
G1 X69.103 Y74.040 E3.36680
G1 X69.121 Y74.503 E3.38214
G1 X69.176 Y74.963 E3.39748
G1 X69.266 Y75.417 E3.41282
G1 X69.392 Y75.862 E3.42816
G1 X69.552 Y76.297 E3.44350
G1 X69.746 Y76.717 E3.45883
G1 X69.972 Y77.121 E3.47417
G1 X70.229 Y77.506 E3.48952
G1 X70.516 Y77.870 E3.50485
G1 X70.830 Y78.210 E3.52019
G1 X71.170 Y78.524 E3.53553
G1 X71.534 Y78.811 E3.55087
G1 X71.919 Y79.068 E3.56621
G1 X72.323 Y79.294 E3.58155
G1 X72.743 Y79.488 E3.59689
G1 X73.178 Y79.648 E3.61223
G1 X73.623 Y79.774 E3.62757
G1 X74.077 Y79.864 E3.64291
G1 X74.537 Y79.919 E3.65825
G1 X75.000 Y79.937 E3.67359
G1 X75.463 Y79.919 E3.68893
G1 X75.922 Y79.864 E3.70427
G1 X76.377 Y79.774 E3.71961
G1 X76.822 Y79.648 E3.73494
G1 X77.257 Y79.488 E3.75029
G1 X77.677 Y79.294 E3.76563
G1 X78.081 Y79.068 E3.78096
G1 X78.466 Y78.811 E3.79630
G1 X78.830 Y78.524 E3.81164
G1 X79.170 Y78.210 E3.82698
G1 X79.484 Y77.870 E3.84232
G1 X79.771 Y77.506 E3.85766
G1 X80.028 Y77.121 E3.87300
G1 X80.254 Y76.717 E3.88834
G1 X80.448 Y76.297 E3.90368
G1 X80.608 Y75.862 E3.91902
G1 X80.734 Y75.417 E3.93436
G1 X80.824 Y74.963 E3.94969
G1 X80.879 Y74.503 E3.96504
G1 X80.897 Y74.040 E3.98038
G1 X80.879 Y73.577 E3.99572
G1 X80.824 Y73.117 E4.01106
G1 X80.734 Y72.663 E4.02639
G1 X80.608 Y72.218 E4.04173
G1 X80.448 Y71.783 E4.05707
G1 X80.254 Y71.363 E4.07241
G1 X80.028 Y70.959 E4.08775
G1 X79.771 Y70.574 E4.10309
G1 X79.484 Y70.210 E4.11843
G1 X79.170 Y69.870 E4.13377
G1 X78.830 Y69.556 E4.14911
G1 X78.466 Y69.269 E4.16445
G1 X78.081 Y69.012 E4.17979
G1 X77.677 Y68.786 E4.19513
G1 X77.257 Y68.592 E4.21047
G1 X76.822 Y68.432 E4.22581
G1 X76.196 Y68.270 E4.24722
G1 X76.196 Y61.256 E4.47959
G1 X82.504 Y61.256 E4.68856
G1 X82.504 Y81.136 E5.34717
G1 X94.304 Y81.136 E5.73810
G1 X94.304 Y88.744 E5.99014
G1 X55.696 Y88.744 E7.26919
G1 X55.696 Y81.136 E7.52122
G1 X67.436 Y81.136 E7.91016
G1 X67.231 Y80.871 F7800.000
G1 F1800.000
G1 X67.231 Y60.991 E8.56877
G1 X74.069 Y60.991 E8.79534
G1 X74.069 Y68.488 E9.04373
G1 X73.685 Y68.565 E9.05670
G1 X73.260 Y68.685 E9.07135
G1 X72.845 Y68.838 E9.08600
G1 X72.444 Y69.023 E9.10064
G1 X72.058 Y69.239 E9.11529
G1 X71.690 Y69.484 E9.12994
G1 X71.343 Y69.758 E9.14459
G1 X71.018 Y70.058 E9.15924
G1 X70.718 Y70.383 E9.17388
G1 X70.444 Y70.730 E9.18853
G1 X70.199 Y71.098 E9.20318
G1 X69.983 Y71.484 E9.21783
G1 X69.798 Y71.885 E9.23248
G1 X69.645 Y72.300 E9.24712
G1 X69.525 Y72.725 E9.26177
G1 X69.438 Y73.159 E9.27642
G1 X69.386 Y73.598 E9.29107
G1 X69.369 Y74.040 E9.30572
G1 X69.386 Y74.482 E9.32036
G1 X69.438 Y74.921 E9.33501
G1 X69.525 Y75.355 E9.34966
G1 X69.645 Y75.780 E9.36431
G1 X69.798 Y76.195 E9.37896
G1 X69.983 Y76.596 E9.39360
G1 X70.199 Y76.982 E9.40825
G1 X70.444 Y77.350 E9.42290
G1 X70.718 Y77.697 E9.43755
G1 X71.018 Y78.022 E9.45219
G1 X71.343 Y78.322 E9.46684
G1 X71.690 Y78.596 E9.48149
G1 X72.058 Y78.841 E9.49614
G1 X72.444 Y79.057 E9.51078
G1 X72.845 Y79.242 E9.52543
G1 X73.260 Y79.395 E9.54008
G1 X73.685 Y79.515 E9.55473
G1 X74.119 Y79.602 E9.56938
G1 X74.558 Y79.654 E9.58403
G1 X75.000 Y79.671 E9.59867
G1 X75.442 Y79.654 E9.61332
G1 X75.881 Y79.602 E9.62797
G1 X76.315 Y79.515 E9.64262
G1 X76.740 Y79.395 E9.65726
G1 X77.155 Y79.242 E9.67191
G1 X77.556 Y79.057 E9.68656
G1 X77.942 Y78.841 E9.70121
G1 X78.310 Y78.596 E9.71586
G1 X78.657 Y78.322 E9.73050
G1 X78.982 Y78.022 E9.74515
G1 X79.282 Y77.697 E9.75980
G1 X79.556 Y77.350 E9.77445
G1 X79.801 Y76.982 E9.78910
G1 X80.017 Y76.596 E9.80375
G1 X80.202 Y76.195 E9.81839
G1 X80.355 Y75.780 E9.83304
G1 X80.475 Y75.355 E9.84769
G1 X80.562 Y74.921 E9.86233
G1 X80.614 Y74.482 E9.87698
G1 X80.631 Y74.040 E9.89163
G1 X80.614 Y73.598 E9.90628
G1 X80.562 Y73.159 E9.92093
G1 X80.475 Y72.725 E9.93557
G1 X80.355 Y72.300 E9.95022
G1 X80.202 Y71.885 E9.96487
G1 X80.017 Y71.484 E9.97952
G1 X79.801 Y71.098 E9.99417
G1 X79.556 Y70.730 E10.00881
G1 X79.282 Y70.383 E10.02346
G1 X78.982 Y70.058 E10.03811
G1 X78.657 Y69.758 E10.05276
G1 X78.310 Y69.484 E10.06741
G1 X77.942 Y69.239 E10.08205
G1 X77.556 Y69.023 E10.09670
G1 X77.155 Y68.838 E10.11135
G1 X76.740 Y68.685 E10.12600
G1 X76.315 Y68.565 E10.14064
G1 X75.931 Y68.488 E10.15361
G1 X75.931 Y60.991 E10.40201
G1 X82.769 Y60.991 E10.62857
G1 X82.769 Y80.871 E11.28719
G1 X94.569 Y80.871 E11.67811
G1 X94.569 Y89.009 E11.94775
G1 X55.431 Y89.009 E13.24440
G1 X55.431 Y80.871 E13.51403
G1 X67.171 Y80.871 E13.90297
G1 X66.965 Y80.605 F7800.000
G1 F1800.000
G1 X66.965 Y60.725 E14.56159
G1 X74.335 Y60.725 E14.80575
G1 X74.335 Y68.720 E15.07063
G1 X73.748 Y68.823 E15.09039
G1 X73.342 Y68.937 E15.10434
G1 X72.947 Y69.083 E15.11830
G1 X72.564 Y69.260 E15.13226
G1 X72.197 Y69.465 E15.14621
G1 X71.846 Y69.700 E15.16017
G1 X71.516 Y69.960 E15.17413
G1 X71.206 Y70.246 E15.18808
G1 X70.920 Y70.556 E15.20204
G1 X70.660 Y70.886 E15.21600
G1 X70.425 Y71.237 E15.22995
G1 X70.220 Y71.604 E15.24391
G1 X70.043 Y71.987 E15.25787
G1 X69.897 Y72.382 E15.27182
G1 X69.783 Y72.788 E15.28578
G1 X69.701 Y73.201 E15.29973
G1 X69.651 Y73.619 E15.31369
G1 X69.635 Y74.040 E15.32765
G1 X69.651 Y74.461 E15.34160
G1 X69.701 Y74.879 E15.35556
G1 X69.783 Y75.292 E15.36952
G1 X69.897 Y75.698 E15.38347
G1 X70.043 Y76.093 E15.39743
G1 X70.220 Y76.476 E15.41138
G1 X70.425 Y76.843 E15.42534
G1 X70.660 Y77.194 E15.43930
G1 X70.920 Y77.524 E15.45325
G1 X71.206 Y77.834 E15.46721
G1 X71.516 Y78.120 E15.48117
G1 X71.846 Y78.380 E15.49512
G1 X72.197 Y78.614 E15.50908
G1 X72.564 Y78.820 E15.52304
G1 X72.947 Y78.997 E15.53699
G1 X73.342 Y79.143 E15.55095
G1 X73.748 Y79.257 E15.56491
G1 X74.161 Y79.339 E15.57886
G1 X74.579 Y79.389 E15.59282
G1 X75.000 Y79.405 E15.60678
G1 X75.421 Y79.389 E15.62073
G1 X75.839 Y79.339 E15.63469
G1 X76.252 Y79.257 E15.64864
G1 X76.658 Y79.143 E15.66260
G1 X77.053 Y78.997 E15.67656
G1 X77.436 Y78.820 E15.69051
G1 X77.803 Y78.614 E15.70447
G1 X78.154 Y78.380 E15.71843
G1 X78.484 Y78.120 E15.73238
G1 X78.794 Y77.834 E15.74634
G1 X79.080 Y77.524 E15.76030
G1 X79.340 Y77.194 E15.77425
G1 X79.575 Y76.843 E15.78821
G1 X79.780 Y76.476 E15.80217
G1 X79.957 Y76.093 E15.81612
G1 X80.103 Y75.698 E15.83008
G1 X80.217 Y75.292 E15.84403
G1 X80.299 Y74.879 E15.85799
G1 X80.349 Y74.461 E15.87195
G1 X80.365 Y74.040 E15.88590
G1 X80.349 Y73.619 E15.89986
G1 X80.299 Y73.201 E15.91382
G1 X80.217 Y72.788 E15.92777
G1 X80.103 Y72.382 E15.94173
G1 X79.957 Y71.987 E15.95569
G1 X79.780 Y71.604 E15.96964
G1 X79.575 Y71.237 E15.98360
G1 X79.340 Y70.886 E15.99755
G1 X79.080 Y70.556 E16.01151
G1 X78.794 Y70.246 E16.02547
G1 X78.484 Y69.960 E16.03942
G1 X78.154 Y69.700 E16.05338
G1 X77.803 Y69.465 E16.06734
G1 X77.436 Y69.260 E16.08129
G1 X77.053 Y69.083 E16.09525
G1 X76.658 Y68.937 E16.10921
G1 X76.252 Y68.823 E16.12316
G1 X75.665 Y68.720 E16.14292
G1 X75.665 Y60.725 E16.40780
G1 X83.035 Y60.725 E16.65197
G1 X83.035 Y80.605 E17.31058
G1 X94.835 Y80.605 E17.70151
G1 X94.835 Y89.275 E17.98874
G1 X55.165 Y89.275 E19.30299
G1 X55.165 Y80.605 E19.59022
G1 X66.905 Y80.605 E19.97916
G1 X67.356 Y80.521 F7800.000
G1 E17.97916 F2400.00000
G92 E0
G1 X60.334 Y88.581 F7800.000
G1 E2.00000 F2400.00000
G1 F1800.000
G1 X67.617 Y81.299 E2.34294
G1 X67.240 Y81.299 E2.35551
G1 X59.957 Y88.581 E2.69845
G1 X59.579 Y88.581 E2.71102
G1 X66.862 Y81.299 E3.05396
G1 X66.485 Y81.299 E3.06653
G1 X59.202 Y88.581 E3.40947
G1 X58.824 Y88.581 E3.42204
G1 X66.107 Y81.299 E3.76498
G1 X65.729 Y81.299 E3.77755
G1 X58.446 Y88.581 E4.12049
G1 X58.069 Y88.581 E4.13306
G1 X65.352 Y81.299 E4.47600
G1 X64.974 Y81.299 E4.48857
G1 X57.691 Y88.581 E4.83151
G1 X57.314 Y88.581 E4.84408
G1 X64.597 Y81.299 E5.18702
G1 X64.219 Y81.299 E5.19959
G1 X56.936 Y88.581 E5.54253
G1 X56.559 Y88.581 E5.55510
G1 X63.842 Y81.299 E5.89804
G1 X63.464 Y81.299 E5.91061
G1 X56.181 Y88.581 E6.25355
G1 X55.859 Y88.581 E6.26430
G1 X55.859 Y88.527 E6.26612
G1 X63.087 Y81.299 E6.60648
G1 X62.709 Y81.299 E6.61905
G1 X55.859 Y88.149 E6.94164
G1 X55.859 Y87.772 E6.95421
G1 X62.332 Y81.299 E7.25901
G1 X61.954 Y81.299 E7.27158
G1 X55.859 Y87.394 E7.55861
G1 X55.859 Y87.017 E7.57118
G1 X61.577 Y81.299 E7.84043
G1 X61.199 Y81.299 E7.85300
G1 X55.859 Y86.639 E8.10448
G1 X55.859 Y86.261 E8.11705
G1 X60.821 Y81.299 E8.35075
G1 X60.444 Y81.299 E8.36332
G1 X55.859 Y85.884 E8.57923
G1 X55.859 Y85.506 E8.59180
G1 X60.066 Y81.299 E8.78995
G1 X59.689 Y81.299 E8.80252
G1 X55.859 Y85.129 E8.98288
G1 X55.859 Y84.751 E8.99545
G1 X59.311 Y81.299 E9.15804
G1 X58.934 Y81.299 E9.17061
G1 X55.859 Y84.374 E9.31542
G1 X55.859 Y83.996 E9.32799
G1 X58.556 Y81.299 E9.45502
G1 X58.179 Y81.299 E9.46759
G1 X55.859 Y83.619 E9.57685
G1 X55.859 Y83.241 E9.58942
G1 X57.801 Y81.299 E9.68089
G1 X57.424 Y81.299 E9.69346
G1 X55.859 Y82.864 E9.76716
G1 X55.859 Y82.486 E9.77973
G1 X57.046 Y81.299 E9.83566
G1 X56.669 Y81.299 E9.84823
G1 X55.859 Y82.109 E9.88637
G1 X55.859 Y81.731 E9.89894
G1 X56.291 Y81.299 E9.91931
G1 E7.91931 F2400.00000
G92 E0
G1 X73.114 Y68.251 F7800.000
G1 E2.00000 F2400.00000
G1 F1800.000
G1 X73.641 Y67.723 E2.02482
G1 X73.641 Y67.346 E2.03739
G1 X72.537 Y68.450 E2.08940
G1 X72.099 Y68.652 E2.10546
G1 X71.777 Y68.832 E2.11773
G1 X73.641 Y66.968 E2.20550
G1 X73.641 Y66.591 E2.21807
G1 E0.21807 F2400.00000
G92 E0
G1 X76.720 Y61.625 F7800.000
G1 E2.00000 F2400.00000
G1 F1800.000
G1 X76.359 Y61.625 E2.01202
G1 X76.359 Y61.986 E2.02404
G1 X76.926 Y61.419 E2.05077
G1 X77.304 Y61.419 E2.06334
G1 X76.359 Y62.364 E2.10784
G1 X76.359 Y62.741 E2.12042
G1 X77.681 Y61.419 E2.18270
G1 X78.059 Y61.419 E2.19527
G1 X76.359 Y63.119 E2.27533
G1 X76.359 Y63.496 E2.28790
G1 X78.436 Y61.419 E2.38574
G1 X78.814 Y61.419 E2.39831
G1 X76.359 Y63.874 E2.51392
G1 X76.359 Y64.251 E2.52649
G1 X79.191 Y61.419 E2.65988
G1 X79.569 Y61.419 E2.67246
G1 X76.359 Y64.629 E2.82363
G1 X76.359 Y65.006 E2.83620
G1 X79.946 Y61.419 E3.00514
G1 X80.324 Y61.419 E3.01771
G1 X76.359 Y65.384 E3.20444
G1 X76.359 Y65.761 E3.21701
G1 X80.701 Y61.419 E3.42151
G1 X81.079 Y61.419 E3.43408
G1 X76.359 Y66.139 E3.65636
G1 X76.359 Y66.517 E3.66893
G1 X81.457 Y61.419 E3.90899
G1 X81.834 Y61.419 E3.92156
G1 X76.359 Y66.894 E4.17939
G1 X76.359 Y67.272 E4.19196
G1 X82.212 Y61.419 E4.46757
G1 X82.341 Y61.419 E4.47190
G1 X82.341 Y61.666 E4.48014
G1 X76.359 Y67.649 E4.76187
G1 X76.359 Y68.027 E4.77444
G1 X82.341 Y62.044 E5.05616
G1 X82.341 Y62.421 E5.06873
G1 X76.546 Y68.216 E5.34161
G1 X76.843 Y68.298 E5.35184
G1 X82.341 Y62.799 E5.61077
G1 X82.341 Y63.176 E5.62334
G1 X77.118 Y68.399 E5.86928
G1 X77.385 Y68.510 E5.87891
G1 X82.341 Y63.554 E6.11228
G1 X82.341 Y63.931 E6.12485
G1 X77.644 Y68.629 E6.34605
G1 X77.889 Y68.761 E6.35533
G1 X82.341 Y64.309 E6.56498
G1 X82.341 Y64.687 E6.57755
G1 X78.130 Y68.898 E6.77586
G1 X78.356 Y69.049 E6.78492
G1 X82.341 Y65.064 E6.97257
G1 X82.341 Y65.442 E6.98514
G1 X78.578 Y69.205 E7.16233
G1 X78.790 Y69.371 E7.17128
G1 X82.341 Y65.819 E7.33853
G1 X82.341 Y66.197 E7.35110
G1 X78.993 Y69.545 E7.50875
G1 X79.190 Y69.726 E7.51765
G1 X82.341 Y66.574 E7.66606
G1 X82.341 Y66.952 E7.67863
G1 X79.376 Y69.917 E7.81827
G1 X79.557 Y70.113 E7.82717
G1 X82.341 Y67.329 E7.95827
G1 X82.341 Y67.707 E7.97084
G1 X79.726 Y70.322 E8.09401
G1 X79.891 Y70.534 E8.10297
G1 X82.341 Y68.084 E8.21834
G1 X82.341 Y68.462 E8.23091
G1 X80.043 Y70.761 E8.33916
G1 X80.189 Y70.992 E8.34827
G1 X82.341 Y68.839 E8.44961
G1 X82.341 Y69.217 E8.46218
G1 X80.325 Y71.234 E8.55714
G1 X80.452 Y71.484 E8.56649
G1 X82.341 Y69.594 E8.65549
G1 X82.341 Y69.972 E8.66806
G1 X80.571 Y71.743 E8.75144
G1 X80.675 Y72.016 E8.76117
G1 X82.341 Y70.350 E8.83963
G1 X82.341 Y70.727 E8.85220
G1 X80.773 Y72.295 E8.92603
G1 X80.857 Y72.590 E8.93622
G1 X82.341 Y71.105 E9.00614
G1 X82.341 Y71.482 E9.01871
G1 X80.927 Y72.896 E9.08531
G1 X80.987 Y73.214 E9.09606
G1 X82.341 Y71.860 E9.15982
G1 X82.341 Y72.237 E9.17239
G1 X81.027 Y73.551 E9.23427
G1 X81.050 Y73.906 E9.24611
G1 X82.341 Y72.615 E9.30692
G1 X82.341 Y72.992 E9.31949
G1 X81.054 Y74.280 E9.38012
G1 X81.034 Y74.677 E9.39336
G1 X82.341 Y73.370 E9.45491
G1 X82.341 Y73.747 E9.46748
G1 X80.984 Y75.105 E9.53142
G1 X80.890 Y75.576 E9.54741
G1 X82.341 Y74.125 E9.61575
G1 X82.341 Y74.502 E9.62832
G1 X80.735 Y76.109 E9.70396
G1 X80.590 Y76.502 E9.71791
G1 X80.479 Y76.742 E9.72672
G1 X82.341 Y74.880 E9.81440
G1 X82.341 Y75.257 E9.82698
G1 X79.981 Y77.618 E9.93813
G1 E7.93813 F2400.00000
G92 E0
G1 X93.935 Y88.581 F7800.000
G1 E2.00000 F2400.00000
G1 F1800.000
G1 X94.141 Y88.375 E2.00974
G1 X94.141 Y87.997 E2.02231
G1 X93.557 Y88.581 E2.04982
G1 X93.180 Y88.581 E2.06239
G1 X94.141 Y87.620 E2.10768
G1 X94.141 Y87.242 E2.12025
G1 X92.802 Y88.581 E2.18332
G1 X92.425 Y88.581 E2.19589
G1 X94.141 Y86.865 E2.27673
G1 X94.141 Y86.487 E2.28930
G1 X92.047 Y88.581 E2.38792
G1 X91.670 Y88.581 E2.40049
G1 X94.141 Y86.110 E2.51689
G1 X94.141 Y85.732 E2.52946
G1 X91.292 Y88.581 E2.66364
G1 X90.914 Y88.581 E2.67621
G1 X94.141 Y85.354 E2.82817
G1 X94.141 Y84.977 E2.84074
G1 X90.537 Y88.581 E3.01047
G1 X90.159 Y88.581 E3.02304
G1 X94.141 Y84.599 E3.21055
G1 X94.141 Y84.222 E3.22312
G1 X89.782 Y88.581 E3.42841
G1 X89.404 Y88.581 E3.44098
G1 X94.141 Y83.844 E3.66404
G1 X94.141 Y83.467 E3.67661
G1 X89.027 Y88.581 E3.91745
G1 X88.649 Y88.581 E3.93002
G1 X94.141 Y83.089 E4.18864
G1 X94.141 Y82.712 E4.20121
G1 X88.272 Y88.581 E4.47761
G1 X87.894 Y88.581 E4.49018
G1 X94.141 Y82.334 E4.78435
G1 X94.141 Y81.957 E4.79692
G1 X87.517 Y88.581 E5.10887
G1 X87.139 Y88.581 E5.12144
G1 X94.141 Y81.579 E5.45117
G1 X94.141 Y81.299 E5.46051
G1 X94.045 Y81.299 E5.46374
G1 X86.762 Y88.581 E5.80668
G1 X86.384 Y88.581 E5.81925
G1 X93.667 Y81.299 E6.16219
G1 X93.289 Y81.299 E6.17476
G1 X86.007 Y88.581 E6.51770
G1 X85.629 Y88.581 E6.53027
G1 X92.912 Y81.299 E6.87321
G1 X92.534 Y81.299 E6.88578
G1 X85.251 Y88.581 E7.22872
G1 X84.874 Y88.581 E7.24129
G1 X92.157 Y81.299 E7.58423
G1 X91.779 Y81.299 E7.59680
G1 X84.496 Y88.581 E7.93974
G1 X84.119 Y88.581 E7.95231
G1 X91.402 Y81.299 E8.29525
G1 X91.024 Y81.299 E8.30782
G1 X83.741 Y88.581 E8.65076
G1 X83.364 Y88.581 E8.66333
G1 X90.647 Y81.299 E9.00627
G1 X90.269 Y81.299 E9.01884
G1 X82.986 Y88.581 E9.36178
G1 X82.609 Y88.581 E9.37435
G1 X89.892 Y81.299 E9.71729
G1 X89.514 Y81.299 E9.72987
G1 X82.231 Y88.581 E10.07280
G1 X81.854 Y88.581 E10.08538
G1 X89.137 Y81.299 E10.42832
G1 X88.759 Y81.299 E10.44089
G1 X81.476 Y88.581 E10.78383
G1 X81.099 Y88.581 E10.79640
G1 X88.381 Y81.299 E11.13934
G1 X88.004 Y81.299 E11.15191
G1 X80.721 Y88.581 E11.49485
G1 X80.343 Y88.581 E11.50742
G1 X87.626 Y81.299 E11.85036
G1 X87.249 Y81.299 E11.86293
G1 X79.966 Y88.581 E12.20587
G1 X79.588 Y88.581 E12.21844
G1 X86.871 Y81.299 E12.56138
G1 X86.494 Y81.299 E12.57395
G1 X79.211 Y88.581 E12.91689
