; Gcode updated with 'stl_info' on 2019-12-09 14:08:48.407868

; stl_min_x = -168.8939971923828
; stl_max_x = -0.16772499680519104
; stl_min_y = -25.487899780273438
; stl_max_y = 25.487899780273438
; stl_min_z = -170.0

; generated by Slic3r 1.3.1-dev (Build adea0d9) on 2019-12-09 at 14:08:47

; external perimeters extrusion width = 0.44mm (2.86mm^3/s)
; perimeters extrusion width = 0.56mm (4.14mm^3/s)
; infill extrusion width = 0.50mm (3.66mm^3/s)
; solid infill extrusion width = 0.56mm (3.10mm^3/s)
; top infill extrusion width = 0.56mm (3.10mm^3/s)

M107
G92 E0
;D3D:START:START
T0
M104 S215 T0

G21
G90
M107
T0
G28
G29
M109 T0 S215 T0
G0 F3000
M107
T0
G92 E0
G0 X0 Y149 Z0.1 F3600
G1 Y49 E6.5 F1200
G0 Z1
G92 E0
; Filament gcode

G21 ; set units to millimeters
G90 ; use absolute coordinates
M82 ; use absolute distances for extrusion
G92 E0
G1 Z0.300 F7800.000
G1 E-2.00000 F2400.00000
G92 E0
G1 X-4.993 Y73.904 F7800.000
G1 E2.00000 F2400.00000
G1 F1800.000
G1 X-5.015 Y73.771 E2.00446
G1 X-2.233 Y72.805 E2.10204
G1 X2.904 Y71.081 E2.28156
G1 X5.902 Y70.105 E2.38601
G1 X9.170 Y69.064 E2.49964
G1 X12.698 Y67.968 E2.62203
G1 X16.470 Y66.826 E2.75258
G1 X20.470 Y65.649 E2.89073
G1 X24.684 Y64.445 E3.03592
G1 X29.085 Y63.228 E3.18718
G1 X33.687 Y61.999 E3.34498
G1 X38.439 Y60.777 E3.50755
G1 X43.332 Y59.568 E3.67454
G1 X48.351 Y58.384 E3.84536
G1 X53.470 Y57.235 E4.01919
G1 X58.660 Y56.135 E4.19494
G1 X63.924 Y55.091 E4.37275
G1 X69.236 Y54.114 E4.55168
G1 X74.556 Y53.222 E4.73039
G1 X79.883 Y52.421 E4.90886
G1 X85.187 Y51.725 E5.08607
G1 X90.447 Y51.147 E5.26136
G1 X95.637 Y50.696 E5.43397
G1 X100.746 Y50.384 E5.60355
G1 X105.750 Y50.219 E5.76941
G1 X110.628 Y50.208 E5.93102
G1 X115.363 Y50.360 E6.08795
G1 X119.930 Y50.677 E6.23963
G1 X124.318 Y51.163 E6.38591
G1 X128.504 Y51.818 E6.52625
G1 X132.474 Y52.640 E6.66058
G1 X136.212 Y53.627 E6.78865
G1 X139.702 Y54.771 E6.91035
G1 X142.931 Y56.066 E7.02561
G1 X145.886 Y57.503 E7.13445
G1 X148.554 Y59.070 E7.23697
G1 X150.926 Y60.757 E7.33340
G1 X152.993 Y62.550 E7.42407
G1 X154.749 Y64.439 E7.50948
G1 X156.187 Y66.411 E7.59037
G1 X157.307 Y68.458 E7.66767
G1 X158.108 Y70.573 E7.74259
G1 X158.588 Y72.754 E7.81656
G1 X158.749 Y75.000 E7.89116
G1 X158.588 Y77.246 E7.96576
G1 X158.108 Y79.427 E8.03974
G1 X157.307 Y81.542 E8.11466
G1 X156.187 Y83.589 E8.19196
G1 X154.749 Y85.561 E8.27284
G1 X152.993 Y87.450 E8.35826
G1 X150.926 Y89.243 E8.44893
G1 X148.554 Y90.930 E8.54535
G1 X145.886 Y92.497 E8.64788
G1 X142.931 Y93.934 E8.75672
G1 X139.702 Y95.229 E8.87198
G1 X136.212 Y96.373 E8.99367
G1 X132.474 Y97.360 E9.12175
G1 X128.504 Y98.182 E9.25608
G1 X124.317 Y98.837 E9.39648
G1 X119.930 Y99.323 E9.54270
G1 X115.361 Y99.640 E9.69443
G1 X110.628 Y99.792 E9.85131
G1 X105.750 Y99.781 E10.01292
G1 X100.746 Y99.616 E10.17878
G1 X95.637 Y99.303 E10.34836
G1 X90.443 Y98.853 E10.52109
G1 X85.184 Y98.274 E10.69637
G1 X79.881 Y97.579 E10.87354
G1 X74.556 Y96.778 E11.05193
G1 X69.230 Y95.885 E11.23085
G1 X63.924 Y94.909 E11.40958
G1 X58.660 Y93.865 E11.58739
G1 X53.456 Y92.762 E11.76361
G1 X48.337 Y91.613 E11.93742
G1 X43.319 Y90.429 E12.10822
G1 X38.426 Y89.220 E12.27521
G1 X33.675 Y87.998 E12.43775
G1 X29.085 Y86.772 E12.59515
G1 X24.673 Y85.552 E12.74678
G1 X20.460 Y84.348 E12.89195
G1 X16.460 Y83.171 E13.03008
G1 X12.689 Y82.029 E13.16061
G1 X9.162 Y80.933 E13.28298
G1 X5.894 Y79.892 E13.39659
G1 X2.898 Y78.916 E13.50101
G1 X-2.238 Y77.193 E13.68048
G1 X-5.015 Y76.229 E13.77786
G1 X-4.993 Y76.096 E13.78233
G1 X5.205 Y76.096 E14.12017
G1 X11.043 Y77.958 E14.32317
G1 X15.598 Y79.348 E14.48095
G1 X18.258 Y80.137 E14.57289
G1 X24.283 Y81.859 E14.78048
G1 X27.628 Y82.780 E14.89541
G1 X31.174 Y83.730 E15.01705
G1 X34.912 Y84.700 E15.14497
G1 X38.823 Y85.684 E15.27859
G1 X42.893 Y86.673 E15.41736
G1 X47.107 Y87.659 E15.56074
G1 X51.448 Y88.634 E15.70811
G1 X55.898 Y89.589 E15.85892
G1 X60.440 Y90.516 E16.01250
G1 X65.057 Y91.406 E16.16826
G1 X69.730 Y92.249 E16.32558
G1 X74.441 Y93.037 E16.48381
G1 X79.172 Y93.759 E16.64235
G1 X83.903 Y94.406 E16.80056
G1 X88.617 Y94.968 E16.95785
G1 X93.296 Y95.436 E17.11361
G1 X97.920 Y95.801 E17.26729
G1 X102.472 Y96.054 E17.41833
G1 X106.934 Y96.188 E17.56622
G1 X111.289 Y96.196 E17.71050
G1 X115.520 Y96.073 E17.85071
G1 X119.609 Y95.815 E17.98648
G1 X123.542 Y95.419 E18.11744
G1 X127.304 Y94.884 E18.24330
G1 X130.878 Y94.210 E18.36381
G1 X134.253 Y93.401 E18.47878
G1 X137.414 Y92.458 E18.58807
G1 X140.350 Y91.387 E18.69160
G1 X143.049 Y90.193 E18.78938
G1 X145.502 Y88.883 E18.88150
G1 X147.698 Y87.463 E18.96813
G1 X149.628 Y85.940 E19.04960
G1 X151.285 Y84.319 E19.12637
G1 X152.658 Y82.608 E19.19908
G1 X153.739 Y80.811 E19.26854
G1 X154.518 Y78.938 E19.33576
G1 X154.988 Y76.997 E19.40191
G1 X155.145 Y75.000 E19.46828
G1 X154.988 Y73.003 E19.53464
G1 X154.518 Y71.062 E19.60079
G1 X153.739 Y69.189 E19.66802
G1 X152.658 Y67.392 E19.73748
G1 X151.285 Y65.681 E19.81018
G1 X149.628 Y64.060 E19.88695
G1 X147.698 Y62.537 E19.96842
G1 X145.502 Y61.117 E20.05505
G1 X143.049 Y59.807 E20.14717
G1 X140.350 Y58.613 E20.24495
G1 X137.414 Y57.542 E20.34848
G1 X134.253 Y56.599 E20.45777
G1 X130.878 Y55.790 E20.57274
G1 X127.304 Y55.116 E20.69325
G1 X123.542 Y54.581 E20.81912
G1 X119.609 Y54.185 E20.95008
G1 X115.520 Y53.927 E21.08584
G1 X111.289 Y53.804 E21.22605
G1 X106.934 Y53.812 E21.37033
G1 X102.472 Y53.946 E21.51822
G1 X97.920 Y54.199 E21.66926
G1 X93.296 Y54.564 E21.82294
G1 X88.617 Y55.032 E21.97870
G1 X83.903 Y55.594 E22.13599
G1 X79.172 Y56.241 E22.29420
G1 X74.441 Y56.963 E22.45274
G1 X69.730 Y57.751 E22.61098
G1 X65.057 Y58.594 E22.76829
G1 X60.440 Y59.484 E22.92406
G1 X55.898 Y60.411 E23.07763
G1 X51.448 Y61.366 E23.22844
G1 X47.107 Y62.341 E23.37581
G1 X42.893 Y63.327 E23.51919
G1 X38.823 Y64.316 E23.65797
G1 X34.912 Y65.300 E23.79158
G1 X31.174 Y66.270 E23.91950
G1 X27.626 Y67.220 E24.04118
G1 X21.157 Y69.024 E24.26370
G1 X18.256 Y69.864 E24.36374
G1 X13.191 Y71.380 E24.53890
G1 X9.165 Y72.630 E24.67856
G1 X5.204 Y73.904 E24.81641
G1 X-4.933 Y73.904 E25.15224
G1 X-6.561 Y74.169 F7800.000
G1 F1800.000
G1 X-6.584 Y74.037 E25.15668
G1 X-6.246 Y73.917 E25.16857
G1 X-2.318 Y72.554 E25.30630
G1 X2.821 Y70.829 E25.48590
G1 X5.821 Y69.852 E25.59041
G1 X9.091 Y68.811 E25.70411
G1 X12.620 Y67.714 E25.82656
G1 X16.394 Y66.572 E25.95718
G1 X20.396 Y65.394 E26.09540
G1 X24.612 Y64.190 E26.24066
G1 X29.015 Y62.972 E26.39199
G1 X33.619 Y61.742 E26.54988
G1 X38.374 Y60.519 E26.71252
G1 X43.270 Y59.310 E26.87961
G1 X48.291 Y58.125 E27.05052
G1 X53.414 Y56.976 E27.22445
G1 X58.607 Y55.875 E27.40031
G1 X63.875 Y54.830 E27.57824
G1 X69.190 Y53.853 E27.75729
G1 X74.515 Y52.959 E27.93616
G1 X79.846 Y52.158 E28.11478
G1 X85.155 Y51.462 E28.29217
G1 X90.421 Y50.883 E28.46765
G1 X95.617 Y50.432 E28.64047
G1 X100.734 Y50.119 E28.81028
G1 X105.745 Y49.953 E28.97640
G1 X110.632 Y49.943 E29.13830
G1 X115.376 Y50.094 E29.29555
G1 X119.954 Y50.412 E29.44757
G1 X124.354 Y50.900 E29.59423
G1 X128.551 Y51.556 E29.73498
G1 X132.535 Y52.382 E29.86976
G1 X136.287 Y53.372 E29.99833
G1 X139.793 Y54.521 E30.12057
G1 X143.039 Y55.823 E30.23644
G1 X146.011 Y57.268 E30.34593
G1 X148.699 Y58.847 E30.44918
G1 X151.091 Y60.548 E30.54642
G1 X153.178 Y62.359 E30.63798
G1 X154.954 Y64.270 E30.72439
G1 X156.412 Y66.269 E30.80637
G1 X157.549 Y68.347 E30.88485
G1 X158.363 Y70.497 E30.96102
G1 X158.852 Y72.716 E31.03628
G1 X159.015 Y75.000 E31.11215
G1 X158.852 Y77.284 E31.18802
G1 X158.363 Y79.503 E31.26328
G1 X157.549 Y81.653 E31.33945
G1 X156.412 Y83.731 E31.41793
G1 X154.954 Y85.730 E31.49991
G1 X153.178 Y87.641 E31.58632
G1 X151.091 Y89.452 E31.67788
G1 X148.699 Y91.153 E31.77512
G1 X146.011 Y92.732 E31.87837
G1 X143.039 Y94.177 E31.98787
G1 X139.793 Y95.479 E32.10373
G1 X136.287 Y96.628 E32.22597
G1 X132.535 Y97.618 E32.35454
G1 X128.551 Y98.444 E32.48932
G1 X124.352 Y99.101 E32.63013
G1 X119.954 Y99.588 E32.77673
G1 X115.374 Y99.906 E32.92881
G1 X110.632 Y100.057 E33.08600
G1 X105.745 Y100.047 E33.24790
G1 X100.734 Y99.881 E33.41402
G1 X95.617 Y99.568 E33.58383
G1 X90.417 Y99.117 E33.75678
G1 X85.152 Y98.538 E33.93225
G1 X79.844 Y97.842 E34.10959
G1 X74.515 Y97.041 E34.28814
G1 X69.184 Y96.146 E34.46720
G1 X63.875 Y95.170 E34.64606
G1 X58.607 Y94.125 E34.82399
G1 X53.400 Y93.022 E35.00032
G1 X48.278 Y91.872 E35.17424
G1 X43.257 Y90.687 E35.34513
G1 X38.361 Y89.478 E35.51220
G1 X33.607 Y88.255 E35.67483
G1 X29.015 Y87.028 E35.83231
G1 X24.602 Y85.807 E35.98401
G1 X20.386 Y84.603 E36.12926
G1 X16.384 Y83.425 E36.26746
G1 X12.611 Y82.283 E36.39805
G1 X9.082 Y81.187 E36.52048
G1 X5.813 Y80.145 E36.63415
G1 X2.814 Y79.169 E36.73864
G1 X-2.324 Y77.444 E36.91819
G1 X-6.250 Y76.082 E37.05587
G1 X-6.584 Y75.963 E37.06762
G1 X-6.561 Y75.831 E37.07206
G1 X5.246 Y75.831 E37.46323
G1 X11.122 Y77.705 E37.66755
G1 X15.674 Y79.094 E37.82524
G1 X18.333 Y79.881 E37.91710
G1 X24.355 Y81.604 E38.12460
G1 X27.697 Y82.524 E38.23946
G1 X31.242 Y83.473 E38.36104
G1 X34.977 Y84.443 E38.48889
G1 X38.887 Y85.426 E38.62244
G1 X42.955 Y86.415 E38.76114
G1 X47.167 Y87.400 E38.90444
G1 X51.505 Y88.375 E39.05173
G1 X55.953 Y89.329 E39.20245
G1 X60.492 Y90.256 E39.35594
G1 X65.106 Y91.145 E39.51160
G1 X69.776 Y91.987 E39.66881
G1 X74.483 Y92.774 E39.82693
G1 X79.210 Y93.496 E39.98533
G1 X83.937 Y94.142 E40.14340
G1 X88.646 Y94.704 E40.30053
G1 X93.319 Y95.171 E40.45612
G1 X97.938 Y95.536 E40.60960
G1 X102.483 Y95.788 E40.76043
G1 X106.938 Y95.922 E40.90808
G1 X111.285 Y95.931 E41.05210
G1 X115.507 Y95.808 E41.19203
G1 X119.588 Y95.550 E41.32748
G1 X123.510 Y95.155 E41.45809
G1 X127.260 Y94.622 E41.58358
G1 X130.823 Y93.951 E41.70367
G1 X134.184 Y93.144 E41.81819
G1 X137.331 Y92.206 E41.92697
G1 X140.251 Y91.140 E42.02995
G1 X142.933 Y89.954 E42.12711
G1 X145.367 Y88.654 E42.21853
G1 X147.543 Y87.247 E42.30439
G1 X149.453 Y85.740 E42.38497
G1 X151.087 Y84.141 E42.46074
G1 X152.439 Y82.455 E42.53233
G1 X153.501 Y80.691 E42.60054
G1 X154.265 Y78.855 E42.66643
G1 X154.725 Y76.955 E42.73118
G1 X154.879 Y75.000 E42.79616
G1 X154.725 Y73.045 E42.86113
G1 X154.265 Y71.145 E42.92589
G1 X153.501 Y69.309 E42.99177
G1 X152.439 Y67.545 E43.05999
G1 X151.087 Y65.859 E43.13157
G1 X149.453 Y64.260 E43.20734
G1 X147.543 Y62.753 E43.28793
G1 X145.367 Y61.346 E43.37378
G1 X142.933 Y60.046 E43.46520
G1 X140.251 Y58.860 E43.56236
G1 X137.331 Y57.794 E43.66534
G1 X134.184 Y56.856 E43.77413
G1 X130.823 Y56.049 E43.88864
G1 X127.260 Y55.378 E44.00874
G1 X123.510 Y54.845 E44.13422
G1 X119.588 Y54.450 E44.26484
G1 X115.507 Y54.192 E44.40029
G1 X111.285 Y54.069 E44.54021
G1 X106.938 Y54.078 E44.68423
G1 X102.483 Y54.212 E44.83189
G1 X97.938 Y54.464 E44.98272
G1 X93.319 Y54.829 E45.13620
G1 X88.646 Y55.296 E45.29178
G1 X83.937 Y55.858 E45.44891
G1 X79.210 Y56.504 E45.60698
G1 X74.483 Y57.226 E45.76539
G1 X69.776 Y58.013 E45.92351
G1 X65.106 Y58.855 E46.08071
G1 X60.492 Y59.744 E46.23637
G1 X55.953 Y60.671 E46.38986
G1 X51.505 Y61.625 E46.54058
G1 X47.167 Y62.600 E46.68787
G1 X42.955 Y63.585 E46.83117
G1 X38.887 Y64.574 E46.96988
G1 X34.977 Y65.557 E47.10342
G1 X31.242 Y66.527 E47.23127
G1 X27.696 Y67.476 E47.35288
G1 X21.229 Y69.279 E47.57531
G1 X18.331 Y70.119 E47.67526
G1 X13.268 Y71.634 E47.85034
G1 X9.245 Y72.884 E47.98991
G1 X5.245 Y74.169 E48.12910
G1 X-6.501 Y74.169 E48.51826
G1 X-8.098 Y74.435 F7800.000
G1 F1800.000
G1 X-8.121 Y74.303 E48.52270
G1 X-6.334 Y73.666 E48.58555
G1 X-2.404 Y72.303 E48.72336
G1 X2.738 Y70.577 E48.90305
G1 X5.739 Y69.599 E49.00762
G1 X9.011 Y68.557 E49.12138
G1 X12.542 Y67.460 E49.24389
G1 X16.318 Y66.317 E49.37458
G1 X20.322 Y65.139 E49.51287
G1 X24.541 Y63.934 E49.65821
G1 X28.945 Y62.716 E49.80961
G1 X33.552 Y61.485 E49.96758
G1 X38.309 Y60.262 E50.13030
G1 X43.208 Y59.052 E50.29748
G1 X48.231 Y57.866 E50.46848
G1 X53.357 Y56.716 E50.64251
G1 X58.553 Y55.615 E50.81848
G1 X63.825 Y54.569 E50.99653
G1 X69.144 Y53.591 E51.17572
G1 X74.473 Y52.697 E51.35472
G1 X79.809 Y51.895 E51.53350
G1 X85.124 Y51.198 E51.71106
G1 X90.395 Y50.618 E51.88674
G1 X95.598 Y50.167 E52.05977
G1 X100.721 Y49.853 E52.22982
G1 X105.740 Y49.687 E52.39620
G1 X110.636 Y49.677 E52.55838
G1 X115.389 Y49.829 E52.71595
G1 X119.977 Y50.148 E52.86832
G1 X124.389 Y50.636 E53.01535
G1 X128.598 Y51.295 E53.15651
G1 X132.596 Y52.123 E53.29175
G1 X136.362 Y53.117 E53.42082
G1 X139.884 Y54.272 E53.54360
G1 X143.147 Y55.580 E53.66006
G1 X146.137 Y57.034 E53.77021
G1 X148.843 Y58.624 E53.87419
G1 X151.255 Y60.339 E53.97224
G1 X153.363 Y62.168 E54.06470
G1 X155.159 Y64.100 E54.15211
G1 X156.637 Y66.126 E54.23518
G1 X157.791 Y68.236 E54.31484
G1 X158.618 Y70.421 E54.39226
G1 X159.116 Y72.677 E54.46880
G1 X159.282 Y75.000 E54.54594
G1 X159.116 Y77.323 E54.62308
G1 X158.618 Y79.579 E54.69962
G1 X157.791 Y81.764 E54.77704
G1 X156.637 Y83.874 E54.85670
G1 X155.159 Y85.900 E54.93977
G1 X153.363 Y87.832 E55.02718
G1 X151.255 Y89.661 E55.11964
G1 X148.843 Y91.376 E55.21769
G1 X146.137 Y92.966 E55.32167
G1 X143.147 Y94.420 E55.43183
G1 X139.884 Y95.728 E55.54828
G1 X136.362 Y96.883 E55.67107
G1 X132.596 Y97.877 E55.80013
G1 X128.598 Y98.705 E55.93537
G1 X124.387 Y99.364 E56.07659
G1 X119.978 Y99.852 E56.22357
G1 X115.388 Y100.171 E56.37599
G1 X110.636 Y100.323 E56.53350
G1 X105.740 Y100.313 E56.69568
G1 X100.721 Y100.147 E56.86206
G1 X95.598 Y99.833 E57.03211
G1 X90.391 Y99.381 E57.20527
G1 X85.120 Y98.802 E57.38093
G1 X79.807 Y98.105 E57.55845
G1 X74.473 Y97.303 E57.73716
G1 X69.138 Y96.408 E57.91636
G1 X63.825 Y95.431 E58.09535
G1 X58.553 Y94.385 E58.27340
G1 X53.343 Y93.281 E58.44984
G1 X48.218 Y92.131 E58.62385
G1 X43.195 Y90.945 E58.79485
G1 X38.296 Y89.735 E58.96200
G1 X33.540 Y88.512 E59.12472
G1 X28.945 Y87.284 E59.28227
G1 X24.530 Y86.063 E59.43405
G1 X20.312 Y84.858 E59.57937
G1 X16.308 Y83.680 E59.71764
G1 X12.533 Y82.537 E59.84830
G1 X9.003 Y81.440 E59.97079
G1 X2.731 Y79.421 E60.18908
G1 X-2.410 Y77.695 E60.36871
G1 X-6.338 Y76.332 E60.50648
G1 X-8.121 Y75.697 E60.56918
G1 X-8.098 Y75.565 E60.57362
G1 X5.287 Y75.565 E61.01708
G1 X11.201 Y77.451 E61.22271
G1 X15.750 Y78.840 E61.38031
G1 X18.407 Y79.626 E61.47209
G1 X24.426 Y81.348 E61.67951
G1 X27.767 Y82.268 E61.79429
G1 X31.310 Y83.216 E61.91581
G1 X35.043 Y84.186 E62.04359
G1 X38.950 Y85.168 E62.17707
G1 X43.017 Y86.156 E62.31570
G1 X47.226 Y87.141 E62.45892
G1 X51.562 Y88.115 E62.60614
G1 X56.007 Y89.069 E62.75677
G1 X60.544 Y89.995 E62.91016
G1 X65.155 Y90.884 E63.06573
G1 X69.821 Y91.726 E63.22282
G1 X74.525 Y92.512 E63.38082
G1 X79.248 Y93.233 E63.53910
G1 X83.971 Y93.879 E63.69702
G1 X88.675 Y94.440 E63.85399
G1 X93.343 Y94.907 E64.00940
G1 X97.956 Y95.271 E64.16269
G1 X102.495 Y95.523 E64.31330
G1 X106.943 Y95.657 E64.46072
G1 X111.282 Y95.665 E64.60448
G1 X115.495 Y95.543 E64.74412
G1 X119.566 Y95.285 E64.87926
G1 X123.478 Y94.891 E65.00953
G1 X127.217 Y94.360 E65.13463
G1 X130.767 Y93.691 E65.25432
G1 X134.115 Y92.887 E65.36837
G1 X137.247 Y91.953 E65.47666
G1 X140.151 Y90.894 E65.57908
G1 X142.817 Y89.716 E65.67562
G1 X145.232 Y88.425 E65.76635
G1 X147.388 Y87.031 E65.85142
G1 X149.277 Y85.541 E65.93112
G1 X150.890 Y83.962 E66.00589
G1 X152.221 Y82.303 E66.07635
G1 X153.263 Y80.571 E66.14333
G1 X154.012 Y78.772 E66.20787
G1 X154.462 Y76.913 E66.27124
G1 X154.613 Y75.000 E66.33482
G1 X154.462 Y73.087 E66.39840
G1 X154.012 Y71.228 E66.46176
G1 X153.263 Y69.429 E66.52630
G1 X152.221 Y67.697 E66.59328
G1 X150.890 Y66.038 E66.66374
G1 X149.277 Y64.459 E66.73851
G1 X147.388 Y62.969 E66.81822
G1 X145.232 Y61.575 E66.90329
G1 X142.817 Y60.284 E66.99402
G1 X140.151 Y59.106 E67.09056
G1 X137.247 Y58.047 E67.19298
G1 X134.115 Y57.113 E67.30126
G1 X130.767 Y56.309 E67.41532
G1 X127.217 Y55.640 E67.53500
G1 X123.478 Y55.109 E67.66011
G1 X119.566 Y54.715 E67.79038
G1 X115.495 Y54.457 E67.92551
G1 X111.282 Y54.335 E68.06516
G1 X106.943 Y54.343 E68.20891
G1 X102.495 Y54.477 E68.35633
G1 X97.956 Y54.729 E68.50695
G1 X93.343 Y55.093 E68.66023
G1 X88.675 Y55.560 E68.81565
G1 X83.971 Y56.121 E68.97261
G1 X79.248 Y56.767 E69.13054
G1 X74.525 Y57.488 E69.28881
G1 X69.821 Y58.274 E69.44681
