; Gcode updated with 'stl_info' on 2019-12-05 15:39:30.341135

; stl_min_x = -16.0
; stl_max_x = 16.0
; stl_min_y = -8.666179656982422
; stl_max_y = 8.666179656982422
; stl_min_z = -19.75

; generated by Slic3r 1.3.1-dev (Build adea0d9) on 2019-12-05 at 15:39:29

; external perimeters extrusion width = 0.44mm (2.86mm^3/s)
; perimeters extrusion width = 0.56mm (4.14mm^3/s)
; infill extrusion width = 0.50mm (3.66mm^3/s)
; solid infill extrusion width = 0.56mm (3.10mm^3/s)
; top infill extrusion width = 0.56mm (3.10mm^3/s)

M107
G92 E0
;D3D:START:START
T0
M104 S215 T0

G21
G90
M107
T0
G28
G29
M109 T0 S215 T0
G0 F3000
M107
T0
G92 E0
G0 X0 Y149 Z0.1 F3600
G1 Y49 E6.5 F1200
G0 Z1
G92 E0
; Filament gcode

G21 ; set units to millimeters
G90 ; use absolute coordinates
M82 ; use absolute distances for extrusion
G92 E0
G1 Z0.300 F7800.000
G1 E-2.00000 F2400.00000
G92 E0
G1 X70.895 Y71.145 F7800.000
G1 E2.00000 F2400.00000
G1 F1800.000
G1 X71.410 Y70.661 E2.02343
G1 X71.983 Y70.245 E2.04686
G1 X72.602 Y69.904 E2.07029
G1 X73.260 Y69.644 E2.09372
G1 X73.945 Y69.468 E2.11715
G1 X74.646 Y69.380 E2.14058
G1 X75.354 Y69.380 E2.16401
G1 X76.055 Y69.468 E2.18744
G1 X76.740 Y69.644 E2.21086
G1 X77.398 Y69.904 E2.23429
G1 X78.017 Y70.245 E2.25772
G1 X78.590 Y70.661 E2.28115
G1 X79.105 Y71.145 E2.30458
G1 X79.556 Y71.690 E2.32801
G1 X79.935 Y72.287 E2.35144
G1 X80.236 Y72.927 E2.37487
G1 X80.455 Y73.600 E2.39830
G1 X80.587 Y74.294 E2.42173
G1 X80.631 Y75.000 E2.44516
G1 X80.587 Y75.706 E2.46859
G1 X80.455 Y76.400 E2.49202
G1 X80.237 Y77.069 E2.51532
G1 X79.935 Y77.713 E2.53888
G1 X79.556 Y78.310 E2.56230
G1 X79.105 Y78.855 E2.58573
G1 X78.590 Y79.339 E2.60916
G1 X78.017 Y79.755 E2.63259
G1 X77.398 Y80.096 E2.65602
G1 X76.740 Y80.356 E2.67945
G1 X76.055 Y80.532 E2.70288
G1 X75.354 Y80.620 E2.72631
G1 X74.646 Y80.620 E2.74974
G1 X73.945 Y80.532 E2.77317
G1 X73.260 Y80.356 E2.79660
G1 X72.602 Y80.096 E2.82003
G1 X71.983 Y79.755 E2.84346
G1 X71.410 Y79.339 E2.86689
G1 X70.895 Y78.855 E2.89032
G1 X70.444 Y78.310 E2.91375
G1 X70.065 Y77.713 E2.93717
G1 X69.764 Y77.073 E2.96060
G1 X69.545 Y76.400 E2.98403
G1 X69.413 Y75.706 E3.00746
G1 X69.369 Y75.000 E3.03089
G1 X69.413 Y74.294 E3.05432
G1 X69.545 Y73.600 E3.07775
G1 X69.764 Y72.927 E3.10118
G1 X70.065 Y72.287 E3.12461
G1 X70.444 Y71.690 E3.14804
G1 X70.857 Y71.191 E3.16948
G1 X71.089 Y71.327 F7800.000
G1 F1800.000
G1 X71.580 Y70.866 E3.19180
G1 X72.125 Y70.470 E3.21412
G1 X72.716 Y70.145 E3.23645
G1 X73.342 Y69.897 E3.25877
G1 X73.995 Y69.730 E3.28109
G1 X74.663 Y69.645 E3.30341
G1 X75.337 Y69.645 E3.32574
G1 X76.005 Y69.730 E3.34806
G1 X76.658 Y69.897 E3.37038
G1 X77.284 Y70.145 E3.39270
G1 X77.875 Y70.470 E3.41502
G1 X78.420 Y70.866 E3.43735
G1 X78.911 Y71.327 E3.45967
G1 X79.341 Y71.846 E3.48199
G1 X79.702 Y72.415 E3.50431
G1 X79.989 Y73.025 E3.52663
G1 X80.197 Y73.666 E3.54896
G1 X80.323 Y74.328 E3.57128
G1 X80.365 Y75.000 E3.59360
G1 X80.323 Y75.672 E3.61592
G1 X80.197 Y76.334 E3.63825
G1 X79.989 Y76.975 E3.66057
G1 X79.702 Y77.585 E3.68289
G1 X79.341 Y78.154 E3.70521
G1 X78.911 Y78.673 E3.72753
G1 X78.420 Y79.134 E3.74986
G1 X77.875 Y79.530 E3.77218
G1 X77.284 Y79.855 E3.79450
G1 X76.658 Y80.103 E3.81682
G1 X76.005 Y80.270 E3.83914
G1 X75.337 Y80.355 E3.86147
G1 X74.663 Y80.355 E3.88379
G1 X73.995 Y80.270 E3.90611
G1 X73.342 Y80.103 E3.92843
G1 X72.716 Y79.855 E3.95075
G1 X72.125 Y79.530 E3.97308
G1 X71.580 Y79.134 E3.99540
G1 X71.089 Y78.673 E4.01772
G1 X70.659 Y78.154 E4.04004
G1 X70.298 Y77.585 E4.06237
G1 X70.011 Y76.975 E4.08469
G1 X69.803 Y76.334 E4.10701
G1 X69.677 Y75.672 E4.12933
G1 X69.635 Y75.000 E4.15165
G1 X69.677 Y74.328 E4.17398
G1 X69.803 Y73.666 E4.19630
G1 X70.011 Y73.025 E4.21862
G1 X70.298 Y72.415 E4.24094
G1 X70.659 Y71.846 E4.26326
G1 X71.051 Y71.373 E4.28360
G1 X70.973 Y70.944 F7800.000
G1 X69.856 Y71.906 F7800.000
G1 F1800.000
G1 X69.856 Y67.037 E4.44492
G1 X80.144 Y67.037 E4.78574
G1 X80.144 Y71.906 E4.94706
G1 X80.029 Y71.939 E4.95103
G1 X79.771 Y71.533 E4.96695
G1 X79.299 Y70.963 E4.99149
G1 X78.759 Y70.456 E5.01603
G1 X78.160 Y70.020 E5.04056
G1 X77.511 Y69.664 E5.06510
G1 X76.822 Y69.391 E5.08964
G1 X76.105 Y69.207 E5.11417
G1 X75.370 Y69.114 E5.13871
G1 X74.630 Y69.114 E5.16325
G1 X73.895 Y69.207 E5.18778
G1 X73.178 Y69.391 E5.21232
G1 X72.489 Y69.664 E5.23686
G1 X71.840 Y70.020 E5.26139
G1 X71.241 Y70.456 E5.28593
G1 X70.701 Y70.963 E5.31047
G1 X70.229 Y71.533 E5.33500
G1 X69.971 Y71.939 E5.35093
G1 X69.914 Y71.923 E5.35291
G1 E3.35291 F2400.00000
G92 E0
G1 X69.856 Y78.094 F7800.000
G1 E2.00000 F2400.00000
G1 F1800.000
G1 X69.971 Y78.061 E2.00396
G1 X70.229 Y78.467 E2.01989
G1 X70.701 Y79.037 E2.04443
G1 X71.241 Y79.544 E2.06896
G1 X71.840 Y79.980 E2.09350
G1 X72.489 Y80.336 E2.11804
G1 X73.178 Y80.609 E2.14257
G1 X73.895 Y80.793 E2.16711
G1 X74.630 Y80.886 E2.19165
G1 X75.370 Y80.886 E2.21618
G1 X76.105 Y80.793 E2.24072
G1 X76.822 Y80.609 E2.26526
G1 X77.511 Y80.336 E2.28979
G1 X78.160 Y79.980 E2.31433
G1 X78.759 Y79.544 E2.33887
G1 X79.299 Y79.037 E2.36340
G1 X79.771 Y78.467 E2.38794
G1 X80.029 Y78.061 E2.40387
G1 X80.144 Y78.094 E2.40783
G1 X80.144 Y82.963 E2.56915
G1 X69.856 Y82.963 E2.90997
G1 X69.856 Y78.154 E3.06931
G1 E1.06931 F2400.00000
G92 E0
G1 X80.603 Y76.804 F7800.000
G1 E2.00000 F2400.00000
G1 F1800.000
G1 X80.712 Y76.467 E2.01174
G1 X80.851 Y75.739 E2.03628
G1 X80.898 Y75.000 E2.06082
G1 X80.851 Y74.261 E2.08535
G1 X80.712 Y73.533 E2.10989
G1 X80.603 Y73.196 E2.12163
G1 X90.304 Y73.196 E2.44302
G1 X90.304 Y76.804 E2.56253
G1 X80.663 Y76.804 E2.88194
G1 E0.88194 F2400.00000
G92 E0
G1 X69.397 Y76.804 F7800.000
G1 E2.00000 F2400.00000
G1 F1800.000
G1 X59.696 Y76.804 E2.32139
G1 X59.696 Y73.196 E2.44090
G1 X69.397 Y73.196 E2.76229
G1 X69.288 Y73.533 E2.77403
G1 X69.149 Y74.261 E2.79857
G1 X69.102 Y75.000 E2.82311
G1 X69.149 Y75.739 E2.84764
G1 X69.288 Y76.467 E2.87218
G1 X69.379 Y76.747 E2.88193
G1 X69.591 Y77.069 F7800.000
G1 F1800.000
G1 X59.431 Y77.069 E3.21853
G1 X59.431 Y72.931 E3.35565
G1 X69.591 Y72.931 E3.69224
G1 X69.591 Y66.771 E3.89631
G1 X80.409 Y66.771 E4.25473
G1 X80.409 Y72.931 E4.45880
G1 X90.569 Y72.931 E4.79539
G1 X90.569 Y77.069 E4.93251
G1 X80.409 Y77.069 E5.26910
G1 X80.409 Y83.229 E5.47317
G1 X69.591 Y83.229 E5.83159
G1 X69.591 Y77.129 E6.03367
G1 X69.325 Y77.335 F7800.000
G1 F1800.000
G1 X59.165 Y77.335 E6.37027
G1 X59.165 Y72.665 E6.52498
G1 X69.325 Y72.665 E6.86158
G1 X69.325 Y66.505 E7.06564
G1 X80.675 Y66.505 E7.44166
G1 X80.675 Y72.665 E7.64573
G1 X90.835 Y72.665 E7.98233
G1 X90.835 Y77.335 E8.13704
G1 X80.675 Y77.335 E8.47364
G1 X80.675 Y83.495 E8.67771
G1 X69.325 Y83.495 E9.05373
G1 X69.325 Y77.395 E9.25581
G1 X69.185 Y76.960 F7800.000
G1 X69.732 Y77.370 F7800.000
G1 F1800.000
G1 X69.843 Y77.835 E9.26627
G1 X70.025 Y77.907 E9.27054
G1 X70.225 Y78.651 F7800.000
G1 F1800.000
G1 X70.019 Y78.857 E9.28035
G1 X70.019 Y79.238 E9.29312
G1 X70.397 Y78.859 E9.31111
G1 X70.570 Y79.067 E9.32018
G1 X70.019 Y79.619 E9.34635
G1 X70.019 Y79.999 E9.35912
G1 X70.760 Y79.257 E9.39433
G1 X70.957 Y79.442 E9.40337
G1 X70.019 Y80.380 E9.44790
G1 X70.019 Y80.760 E9.46067
G1 X71.153 Y79.626 E9.51451
G1 X71.371 Y79.789 E9.52364
G1 X70.019 Y81.141 E9.58782
G1 X70.019 Y81.521 E9.60059
G1 X71.591 Y79.949 E9.67524
G1 X71.813 Y80.108 E9.68439
G1 X70.019 Y81.902 E9.76955
G1 X70.019 Y82.282 E9.78232
G1 X72.058 Y80.243 E9.87914
G1 X72.304 Y80.378 E9.88855
G1 X70.019 Y82.663 E9.99702
G1 X70.019 Y82.801 E10.00166
G1 X70.261 Y82.801 E10.00979
G1 X72.557 Y80.505 E10.11879
G1 X72.830 Y80.613 E10.12863
G1 X70.641 Y82.801 E10.23250
G1 X71.022 Y82.801 E10.24527
G1 X73.102 Y80.721 E10.34402
G1 X73.395 Y80.809 E10.35426
G1 X71.403 Y82.801 E10.44882
G1 X71.783 Y82.801 E10.46159
G1 X73.697 Y80.887 E10.55245
G1 X74.006 Y80.959 E10.56309
G1 X72.164 Y82.801 E10.65055
G1 X72.544 Y82.801 E10.66332
G1 X74.344 Y81.001 E10.74875
G1 X74.682 Y81.044 E10.76018
G1 X72.925 Y82.801 E10.84359
G1 X73.305 Y82.801 E10.85636
G1 X75.058 Y81.048 E10.93956
G1 X75.439 Y81.048 E10.95233
G1 X73.686 Y82.801 E11.03553
G1 X74.066 Y82.801 E11.04830
G1 X75.867 Y81.001 E11.13376
G1 X76.310 Y80.938 E11.14879
G1 X74.447 Y82.801 E11.23722
G1 X74.828 Y82.801 E11.25000
G1 X76.822 Y80.806 E11.34467
G1 X77.008 Y80.759 E11.35111
G1 X77.409 Y80.600 E11.36560
G1 X75.208 Y82.801 E11.47009
G1 X75.589 Y82.801 E11.48286
G1 X78.146 Y80.244 E11.60424
G1 X78.406 Y80.101 E11.61420
G1 X79.032 Y79.646 E11.64018
G1 X79.596 Y79.116 E11.66616
G1 X79.981 Y78.651 E11.68643
G1 X79.981 Y78.789 E11.69107
G1 X75.969 Y82.801 E11.88151
G1 X76.350 Y82.801 E11.89428
G1 X79.981 Y79.169 E12.06666
G1 X79.981 Y79.550 E12.07943
G1 X76.730 Y82.801 E12.23374
G1 X77.111 Y82.801 E12.24652
G1 X79.981 Y79.931 E12.38277
G1 X79.981 Y80.311 E12.39554
G1 X77.491 Y82.801 E12.51373
G1 X77.872 Y82.801 E12.52650
G1 X79.981 Y80.692 E12.62663
G1 X79.981 Y81.072 E12.63940
G1 X78.253 Y82.801 E12.72147
G1 X78.633 Y82.801 E12.73424
G1 X79.981 Y81.453 E12.79824
G1 X79.981 Y81.833 E12.81101
G1 X79.014 Y82.801 E12.85695
G1 X79.394 Y82.801 E12.86972
G1 X79.981 Y82.214 E12.89760
G1 X79.981 Y82.594 E12.91037
G1 X79.775 Y82.801 E12.92018
G1 E10.92018 F2400.00000
G92 E0
G1 X79.975 Y77.907 F7800.000
G1 E2.00000 F2400.00000
G1 F1800.000
G1 X80.157 Y77.835 E2.00427
G1 X80.268 Y77.370 E2.01473
G1 E0.01473 F2400.00000
G92 E0
G1 X81.072 Y73.359 F7800.000
G1 E2.00000 F2400.00000
G1 F1800.000
G1 X80.865 Y73.565 E2.00979
G1 X80.926 Y73.883 E2.02063
G1 X81.451 Y73.359 E2.04548
G1 X81.831 Y73.359 E2.05819
G1 X80.987 Y74.202 E2.09813
G1 X81.025 Y74.544 E2.10963
G1 X82.211 Y73.359 E2.16574
G1 X82.590 Y73.359 E2.17845
G1 X81.048 Y74.901 E2.25147
G1 X81.049 Y75.279 E2.26412
G1 X82.970 Y73.359 E2.35502
G1 X83.349 Y73.359 E2.36773
G1 X81.024 Y75.684 E2.47780
G1 X81.012 Y75.876 E2.48425
G1 X80.965 Y76.122 E2.49265
G1 X83.729 Y73.359 E2.62350
G1 X84.108 Y73.359 E2.63620
G1 X80.875 Y76.592 E2.78926
G1 X80.865 Y76.641 E2.79096
G1 X81.205 Y76.641 E2.80234
G1 X84.488 Y73.359 E2.95775
G1 X84.867 Y73.359 E2.97046
G1 X81.584 Y76.641 E3.12587
G1 X81.964 Y76.641 E3.13858
G1 X85.247 Y73.359 E3.29400
G1 X85.627 Y73.359 E3.30670
G1 X82.344 Y76.641 E3.46212
G1 X82.723 Y76.641 E3.47482
G1 X86.006 Y73.359 E3.63024
G1 X86.386 Y73.359 E3.64294
G1 X83.103 Y76.641 E3.79836
G1 X83.482 Y76.641 E3.81106
G1 X86.765 Y73.359 E3.96648
G1 X87.145 Y73.359 E3.97918
G1 X83.862 Y76.641 E4.13460
G1 X84.241 Y76.641 E4.14730
G1 X87.524 Y73.359 E4.30272
G1 X87.904 Y73.359 E4.31543
G1 X84.621 Y76.641 E4.47084
G1 X85.000 Y76.641 E4.48355
G1 X88.283 Y73.359 E4.63896
G1 X88.663 Y73.359 E4.65167
G1 X85.380 Y76.641 E4.80708
G1 X85.760 Y76.641 E4.81979
G1 X89.043 Y73.359 E4.97520
G1 X89.422 Y73.359 E4.98791
G1 X86.139 Y76.641 E5.14332
G1 X86.519 Y76.641 E5.15603
G1 X89.802 Y73.359 E5.31144
G1 X90.141 Y73.359 E5.32282
G1 X90.141 Y73.398 E5.32415
G1 X86.898 Y76.641 E5.47768
G1 X87.278 Y76.641 E5.49039
G1 X90.141 Y73.778 E5.62596
G1 X90.141 Y74.157 E5.63866
G1 X87.657 Y76.641 E5.75626
G1 X88.037 Y76.641 E5.76896
G1 X90.141 Y74.537 E5.86859
G1 X90.141 Y74.916 E5.88130
G1 X88.416 Y76.641 E5.96296
G1 X88.796 Y76.641 E5.97566
G1 X90.141 Y75.296 E6.03936
G1 X90.141 Y75.676 E6.05206
G1 X89.176 Y76.641 E6.09779
G1 X89.555 Y76.641 E6.11049
G1 X90.141 Y76.055 E6.13825
G1 X90.141 Y76.435 E6.15095
G1 X89.935 Y76.641 E6.16074
G1 E4.16074 F2400.00000
G92 E0
G1 X80.268 Y72.630 F7800.000
G1 E2.00000 F2400.00000
G1 F1800.000
G1 X80.157 Y72.165 E2.01046
G1 X79.975 Y72.093 E2.01473
G1 X79.775 Y71.349 F7800.000
G1 F1800.000
G1 X79.981 Y71.143 E2.02454
G1 X79.981 Y70.762 E2.03732
G1 X79.603 Y71.141 E2.05530
G1 X79.430 Y70.933 E2.06438
G1 X79.981 Y70.381 E2.09054
G1 X79.981 Y70.001 E2.10331
G1 X79.240 Y70.743 E2.13853
G1 X79.043 Y70.559 E2.14756
G1 X79.981 Y69.620 E2.19209
G1 X79.981 Y69.240 E2.20486
G1 X78.847 Y70.374 E2.25871
G1 X78.629 Y70.211 E2.26783
G1 X79.981 Y68.859 E2.33201
G1 X79.981 Y68.479 E2.34478
G1 X78.409 Y70.051 E2.41943
G1 X78.187 Y69.892 E2.42858
G1 X79.981 Y68.098 E2.51374
G1 X79.981 Y67.718 E2.52652
G1 X77.942 Y69.757 E2.62333
G1 X77.696 Y69.622 E2.63274
G1 X79.981 Y67.337 E2.74121
G1 X79.981 Y67.199 E2.74585
G1 X79.739 Y67.199 E2.75398
G1 X77.443 Y69.495 E2.86298
G1 X77.170 Y69.387 E2.87282
G1 X79.359 Y67.199 E2.97669
G1 X78.978 Y67.199 E2.98946
G1 X76.898 Y69.279 E3.08821
G1 X76.605 Y69.191 E3.09845
G1 X78.597 Y67.199 E3.19301
G1 X78.217 Y67.199 E3.20578
G1 X76.303 Y69.113 E3.29664
G1 X75.994 Y69.041 E3.30728
G1 X77.836 Y67.199 E3.39474
G1 X77.456 Y67.199 E3.40751
G1 X75.656 Y68.999 E3.49294
G1 X75.318 Y68.956 E3.50437
G1 X77.075 Y67.199 E3.58777
G1 X76.695 Y67.199 E3.60055
G1 X74.942 Y68.952 E3.68375
G1 X74.561 Y68.952 E3.69652
G1 X76.314 Y67.199 E3.77972
G1 X75.934 Y67.199 E3.79249
G1 X74.133 Y68.999 E3.87795
G1 X73.690 Y69.062 E3.89297
G1 X75.553 Y67.199 E3.98141
G1 X75.172 Y67.199 E3.99418
G1 X73.178 Y69.194 E4.08886
G1 X72.992 Y69.241 E4.09530
G1 X72.591 Y69.400 E4.10979
G1 X74.792 Y67.199 E4.21427
G1 X74.411 Y67.199 E4.22704
G1 X71.854 Y69.756 E4.34842
G1 X71.594 Y69.899 E4.35838
G1 X70.968 Y70.354 E4.38436
G1 X70.404 Y70.884 E4.41034
G1 X70.019 Y71.349 E4.43061
G1 X70.019 Y71.211 E4.43525
G1 X74.031 Y67.199 E4.62569
G1 X73.650 Y67.199 E4.63846
G1 X70.019 Y70.831 E4.81084
G1 X70.019 Y70.450 E4.82361
G1 X73.270 Y67.199 E4.97793
G1 X72.889 Y67.199 E4.99070
G1 X70.019 Y70.069 E5.12695
G1 X70.019 Y69.689 E5.13973
G1 X72.509 Y67.199 E5.25792
G1 X72.128 Y67.199 E5.27069
G1 X70.019 Y69.308 E5.37082
G1 X70.019 Y68.928 E5.38359
G1 X71.748 Y67.199 E5.46565
G1 X71.367 Y67.199 E5.47842
G1 X70.019 Y68.547 E5.54243
G1 X70.019 Y68.167 E5.55520
G1 X70.986 Y67.199 E5.60114
G1 X70.606 Y67.199 E5.61391
G1 X70.019 Y67.786 E5.64179
G1 X70.019 Y67.406 E5.65456
G1 X70.225 Y67.199 E5.66437
G1 E3.66437 F2400.00000
G92 E0
G1 X70.025 Y72.093 F7800.000
G1 E2.00000 F2400.00000
G1 F1800.000
G1 X69.843 Y72.165 E2.00428
G1 X69.732 Y72.630 E2.01474
G1 E0.01474 F2400.00000
G92 E0
G1 X68.928 Y76.641 F7800.000
G1 E2.00000 F2400.00000
G1 F1800.000
G1 X69.135 Y76.435 E2.00979
G1 X69.074 Y76.117 E2.02063
G1 X68.549 Y76.641 E2.04548
G1 X68.169 Y76.641 E2.05819
G1 X69.013 Y75.798 E2.09812
G1 X68.975 Y75.456 E2.10963
G1 X67.790 Y76.641 E2.16574
G1 X67.410 Y76.641 E2.17844
G1 X68.952 Y75.099 E2.25146
G1 X68.951 Y74.721 E2.26411
G1 X67.030 Y76.641 E2.35501
G1 X66.651 Y76.641 E2.36772
G1 X68.976 Y74.316 E2.47779
G1 X68.988 Y74.124 E2.48424
G1 X69.035 Y73.878 E2.49264
G1 X66.271 Y76.641 E2.62348
G1 X65.892 Y76.641 E2.63619
G1 X69.125 Y73.409 E2.78924
G1 X69.135 Y73.359 E2.79095
G1 X68.795 Y73.359 E2.80232
G1 X65.512 Y76.641 E2.95774
G1 X65.133 Y76.641 E2.97044
G1 X68.416 Y73.359 E3.12586
G1 X68.036 Y73.359 E3.13856
G1 X64.753 Y76.641 E3.29398
G1 X64.374 Y76.641 E3.30668
G1 X67.656 Y73.359 E3.46210
G1 X67.277 Y73.359 E3.47481
G1 X63.994 Y76.641 E3.63022
G1 X63.614 Y76.641 E3.64293
G1 X66.897 Y73.359 E3.79834
G1 X66.518 Y73.359 E3.81105
G1 X63.235 Y76.641 E3.96646
G1 X62.855 Y76.641 E3.97917
G1 X66.138 Y73.359 E4.13458
G1 X65.759 Y73.359 E4.14729
G1 X62.476 Y76.641 E4.30270
G1 X62.096 Y76.641 E4.31541
G1 X65.379 Y73.359 E4.47082
G1 X65.000 Y73.359 E4.48353
G1 X61.717 Y76.641 E4.63894
G1 X61.337 Y76.641 E4.65165
G1 X64.620 Y73.359 E4.80707
G1 X64.240 Y73.359 E4.81977
G1 X60.957 Y76.641 E4.97519
G1 X60.578 Y76.641 E4.98789
G1 X63.861 Y73.359 E5.14331
G1 X63.481 Y73.359 E5.15601
G1 X60.198 Y76.641 E5.31143
G1 X59.859 Y76.641 E5.32280
G1 X59.859 Y76.602 E5.32413
G1 X63.102 Y73.359 E5.47767
G1 X62.722 Y73.359 E5.49037
G1 X59.859 Y76.222 E5.62594
G1 X59.859 Y75.843 E5.63865
G1 X62.343 Y73.359 E5.75625
G1 X61.963 Y73.359 E5.76895
G1 X59.859 Y75.463 E5.86858
G1 X59.859 Y75.084 E5.88129
G1 X61.584 Y73.359 E5.96295
G1 X61.204 Y73.359 E5.97566
G1 X59.859 Y74.704 E6.03935
G1 X59.859 Y74.324 E6.05205
G1 X60.824 Y73.359 E6.09778
G1 X60.445 Y73.359 E6.11049
G1 X59.859 Y73.945 E6.13824
G1 X59.859 Y73.565 E6.15095
G1 X60.065 Y73.359 E6.16074
G1 Z0.500 F7800.000
G1 X69.960 Y76.995 F7800.000
G1 F1800.000
G1 X69.750 Y76.348 E6.18321
G1 X69.622 Y75.679 E6.20569
G1 X69.580 Y75.000 E6.22816
G1 X69.622 Y74.321 E6.25064
G1 X69.750 Y73.652 E6.27311
