; Gcode updated with 'stl_info' on 2019-12-03 19:07:00.106580

; stl_min_x = -20.0
; stl_max_x = 20.0
; stl_min_y = -13.0
; stl_max_y = 26.799999237060547
; stl_min_z = -8.199999809265137

; generated by Slic3r 1.3.1-dev (Build adea0d9) on 2019-12-03 at 19:06:59

; external perimeters extrusion width = 0.55mm (1.90mm^3/s)
; perimeters extrusion width = 0.70mm (2.71mm^3/s)
; infill extrusion width = 0.62mm (2.41mm^3/s)
; solid infill extrusion width = 0.70mm (2.04mm^3/s)
; top infill extrusion width = 0.70mm (2.04mm^3/s)

M107
G92 E0
;D3D:START:START
T0
M104 S215 T0

G21
G90
M107
T0
G28
G29
M109 T0 S215 T0
G0 F3000
M107
T0
G92 E0
G0 X0 Y149 Z0.1 F3600
G1 Y49 E6.5 F1200
G0 Z1
G92 E0
; Filament gcode

G21 ; set units to millimeters
G90 ; use absolute coordinates
M82 ; use absolute distances for extrusion
G92 E0
G1 Z0.090 F7800.000
G1 E-2.00000 F2400.00000
G92 E0
G1 X62.266 Y51.050 F7800.000
G1 E2.00000 F2400.00000
G1 F1800.000
G1 X64.001 Y49.703 E2.00655
G1 X66.800 Y49.020 E2.01514
G1 X83.200 Y49.020 E2.06404
G1 X85.360 Y49.417 E2.07059
G1 X87.238 Y50.555 E2.07714
G1 X88.877 Y52.925 E2.08573
G1 X100.677 Y83.725 E2.18407
G1 X101.080 Y85.900 E2.19067
G1 X101.080 Y94.900 E2.21750
G1 X100.683 Y97.060 E2.22405
G1 X99.545 Y98.938 E2.23060
G1 X97.813 Y100.290 E2.23715
G1 X95.000 Y100.980 E2.24578
G1 X55.000 Y100.980 E2.36505
G1 X52.840 Y100.583 E2.37160
G1 X50.962 Y99.445 E2.37815
G1 X49.610 Y97.713 E2.38469
G1 X48.920 Y94.900 E2.39333
G1 X48.920 Y85.900 E2.42017
G1 X49.323 Y83.725 E2.42676
G1 X61.123 Y52.925 E2.52511
G1 X62.227 Y51.114 E2.53143
G1 E0.53143 F2400.00000
G92 E0
G1 X79.680 Y82.368 F7800.000
G1 E2.00000 F2400.00000
G1 F1800.000
G1 X79.441 Y82.726 E2.00129
G1 X79.174 Y83.065 E2.00257
G1 X78.881 Y83.381 E2.00386
G1 X78.565 Y83.674 E2.00514
G1 X78.226 Y83.941 E2.00643
G1 X77.868 Y84.180 E2.00771
G1 X77.492 Y84.390 E2.00900
G1 X77.100 Y84.571 E2.01028
G1 X76.696 Y84.720 E2.01157
G1 X76.281 Y84.837 E2.01285
G1 X75.859 Y84.921 E2.01414
G1 X75.431 Y84.972 E2.01542
G1 X75.000 Y84.989 E2.01671
G1 X74.569 Y84.972 E2.01799
G1 X74.141 Y84.921 E2.01928
G1 X73.719 Y84.837 E2.02056
G1 X73.304 Y84.720 E2.02185
G1 X72.900 Y84.571 E2.02313
G1 X72.508 Y84.390 E2.02442
G1 X72.132 Y84.180 E2.02570
G1 X71.774 Y83.941 E2.02699
G1 X71.435 Y83.674 E2.02827
G1 X71.119 Y83.381 E2.02956
G1 X70.826 Y83.065 E2.03084
G1 X70.559 Y82.726 E2.03213
G1 X70.320 Y82.368 E2.03341
G1 X70.109 Y81.992 E2.03470
G1 X69.929 Y81.601 E2.03598
G1 X69.780 Y81.196 E2.03727
G1 X69.663 Y80.781 E2.03855
G1 X69.579 Y80.359 E2.03984
G1 X69.528 Y79.931 E2.04112
G1 X69.511 Y79.500 E2.04241
G1 X69.528 Y79.069 E2.04369
G1 X69.579 Y78.641 E2.04498
G1 X69.663 Y78.219 E2.04626
G1 X69.780 Y77.804 E2.04755
G1 X69.929 Y77.400 E2.04883
G1 X70.109 Y77.008 E2.05012
G1 X70.320 Y76.632 E2.05140
G1 X70.559 Y76.274 E2.05269
G1 X70.826 Y75.935 E2.05397
G1 X71.119 Y75.619 E2.05526
G1 X71.435 Y75.326 E2.05654
G1 X71.774 Y75.059 E2.05783
G1 X72.132 Y74.820 E2.05911
G1 X72.508 Y74.609 E2.06040
G1 X72.900 Y74.429 E2.06168
G1 X73.304 Y74.280 E2.06297
G1 X73.719 Y74.163 E2.06425
G1 X74.141 Y74.079 E2.06554
G1 X74.569 Y74.028 E2.06682
G1 X75.000 Y74.011 E2.06811
G1 X75.431 Y74.028 E2.06939
G1 X75.859 Y74.079 E2.07068
G1 X76.281 Y74.163 E2.07196
G1 X76.696 Y74.280 E2.07325
G1 X77.100 Y74.429 E2.07453
G1 X77.492 Y74.609 E2.07582
G1 X77.868 Y74.820 E2.07710
G1 X78.226 Y75.059 E2.07839
G1 X78.565 Y75.326 E2.07967
G1 X78.881 Y75.619 E2.08096
G1 X79.174 Y75.935 E2.08224
G1 X79.441 Y76.274 E2.08353
G1 X79.680 Y76.632 E2.08481
G1 X79.891 Y77.008 E2.08610
G1 X80.071 Y77.400 E2.08738
G1 X80.220 Y77.804 E2.08867
G1 X80.337 Y78.219 E2.08995
G1 X80.421 Y78.641 E2.09124
G1 X80.472 Y79.069 E2.09252
G1 X80.489 Y79.500 E2.09381
G1 X80.472 Y79.931 E2.09509
G1 X80.421 Y80.359 E2.09638
G1 X80.337 Y80.781 E2.09766
G1 X80.220 Y81.196 E2.09895
G1 X80.071 Y81.601 E2.10023
G1 X79.891 Y81.992 E2.10152
G1 X79.717 Y82.302 E2.10258
G1 X79.612 Y82.326 F7800.000
G1 F1800.000
G1 X79.376 Y82.679 E2.10384
G1 X79.113 Y83.013 E2.10511
G1 X78.825 Y83.325 E2.10638
G1 X78.513 Y83.613 E2.10764
G1 X78.179 Y83.876 E2.10891
G1 X77.826 Y84.112 E2.11018
G1 X77.456 Y84.319 E2.11144
G1 X77.070 Y84.497 E2.11271
G1 X76.671 Y84.644 E2.11398
G1 X76.263 Y84.760 E2.11524
G1 X75.846 Y84.842 E2.11651
G1 X75.424 Y84.892 E2.11777
G1 X75.000 Y84.909 E2.11904
G1 X74.576 Y84.892 E2.12031
G1 X74.154 Y84.842 E2.12157
G1 X73.737 Y84.760 E2.12284
G1 X73.329 Y84.644 E2.12411
G1 X72.930 Y84.497 E2.12537
G1 X72.544 Y84.319 E2.12664
G1 X72.174 Y84.112 E2.12791
G1 X71.821 Y83.876 E2.12917
G1 X71.487 Y83.613 E2.13044
G1 X71.175 Y83.325 E2.13170
G1 X70.887 Y83.013 E2.13297
G1 X70.624 Y82.679 E2.13424
G1 X70.388 Y82.326 E2.13550
G1 X70.181 Y81.956 E2.13677
G1 X70.003 Y81.570 E2.13804
G1 X69.856 Y81.171 E2.13930
G1 X69.740 Y80.763 E2.14057
G1 X69.658 Y80.346 E2.14184
G1 X69.608 Y79.924 E2.14310
G1 X69.591 Y79.500 E2.14437
G1 X69.608 Y79.076 E2.14563
G1 X69.658 Y78.654 E2.14690
G1 X69.740 Y78.237 E2.14817
G1 X69.856 Y77.829 E2.14943
G1 X70.003 Y77.430 E2.15070
G1 X70.181 Y77.044 E2.15197
G1 X70.388 Y76.674 E2.15323
G1 X70.624 Y76.321 E2.15450
G1 X70.887 Y75.987 E2.15577
G1 X71.175 Y75.675 E2.15703
G1 X71.487 Y75.387 E2.15830
G1 X71.821 Y75.124 E2.15956
G1 X72.174 Y74.888 E2.16083
G1 X72.544 Y74.681 E2.16210
G1 X72.930 Y74.503 E2.16336
G1 X73.329 Y74.356 E2.16463
G1 X73.737 Y74.240 E2.16590
G1 X74.154 Y74.158 E2.16716
G1 X74.576 Y74.108 E2.16843
G1 X75.000 Y74.091 E2.16970
G1 X75.424 Y74.108 E2.17096
G1 X75.846 Y74.158 E2.17223
G1 X76.263 Y74.240 E2.17349
G1 X76.671 Y74.356 E2.17476
G1 X77.070 Y74.503 E2.17603
G1 X77.456 Y74.681 E2.17729
G1 X77.826 Y74.888 E2.17856
G1 X78.179 Y75.124 E2.17983
G1 X78.513 Y75.387 E2.18109
G1 X78.825 Y75.675 E2.18236
G1 X79.113 Y75.987 E2.18363
G1 X79.376 Y76.321 E2.18489
G1 X79.612 Y76.674 E2.18616
G1 X79.819 Y77.044 E2.18742
G1 X79.997 Y77.430 E2.18869
G1 X80.144 Y77.829 E2.18996
G1 X80.260 Y78.237 E2.19122
G1 X80.342 Y78.654 E2.19249
G1 X80.392 Y79.076 E2.19376
G1 X80.409 Y79.500 E2.19502
G1 X80.392 Y79.924 E2.19629
G1 X80.342 Y80.346 E2.19756
G1 X80.260 Y80.763 E2.19882
G1 X80.144 Y81.171 E2.20009
G1 X79.997 Y81.570 E2.20135
G1 X79.819 Y81.956 E2.20262
G1 X79.649 Y82.261 E2.20366
G1 X79.544 Y82.285 F7800.000
G1 F1800.000
G1 X79.311 Y82.632 E2.20491
G1 X79.052 Y82.961 E2.20616
G1 X78.768 Y83.268 E2.20741
G1 X78.461 Y83.552 E2.20865
G1 X78.132 Y83.811 E2.20990
G1 X77.785 Y84.044 E2.21115
G1 X77.419 Y84.248 E2.21240
G1 X77.039 Y84.424 E2.21364
G1 X76.647 Y84.568 E2.21489
G1 X76.244 Y84.682 E2.21614
G1 X75.834 Y84.764 E2.21739
G1 X75.418 Y84.813 E2.21864
G1 X75.000 Y84.829 E2.21988
G1 X74.582 Y84.813 E2.22113
G1 X74.166 Y84.764 E2.22238
G1 X73.756 Y84.682 E2.22363
G1 X73.353 Y84.568 E2.22487
G1 X72.961 Y84.424 E2.22612
G1 X72.581 Y84.248 E2.22737
G1 X72.215 Y84.044 E2.22862
G1 X71.868 Y83.811 E2.22986
G1 X71.539 Y83.552 E2.23111
G1 X71.232 Y83.268 E2.23236
G1 X70.948 Y82.961 E2.23361
G1 X70.689 Y82.633 E2.23486
G1 X70.456 Y82.285 E2.23610
G1 X70.252 Y81.919 E2.23735
G1 X70.076 Y81.539 E2.23860
G1 X69.932 Y81.147 E2.23985
G1 X69.818 Y80.744 E2.24109
G1 X69.736 Y80.334 E2.24234
G1 X69.687 Y79.918 E2.24359
G1 X69.671 Y79.500 E2.24484
G1 X69.687 Y79.082 E2.24608
G1 X69.736 Y78.666 E2.24733
G1 X69.818 Y78.256 E2.24858
G1 X69.932 Y77.853 E2.24983
G1 X70.076 Y77.461 E2.25108
G1 X70.252 Y77.081 E2.25232
G1 X70.456 Y76.715 E2.25357
G1 X70.689 Y76.368 E2.25482
G1 X70.948 Y76.039 E2.25607
G1 X71.232 Y75.732 E2.25731
G1 X71.539 Y75.448 E2.25856
G1 X71.868 Y75.189 E2.25981
G1 X72.215 Y74.956 E2.26106
G1 X72.581 Y74.752 E2.26230
G1 X72.961 Y74.576 E2.26355
G1 X73.353 Y74.432 E2.26480
G1 X73.756 Y74.318 E2.26605
G1 X74.166 Y74.236 E2.26730
G1 X74.582 Y74.187 E2.26854
G1 X75.000 Y74.171 E2.26979
G1 X75.418 Y74.187 E2.27104
G1 X75.834 Y74.236 E2.27229
G1 X76.244 Y74.318 E2.27353
G1 X76.647 Y74.432 E2.27478
G1 X77.039 Y74.576 E2.27603
G1 X77.419 Y74.752 E2.27728
G1 X77.785 Y74.956 E2.27852
G1 X78.132 Y75.189 E2.27977
G1 X78.461 Y75.448 E2.28102
G1 X78.768 Y75.732 E2.28227
G1 X79.052 Y76.039 E2.28351
G1 X79.311 Y76.368 E2.28476
G1 X79.544 Y76.715 E2.28601
G1 X79.748 Y77.081 E2.28726
G1 X79.924 Y77.461 E2.28851
G1 X80.068 Y77.853 E2.28975
G1 X80.182 Y78.256 E2.29100
G1 X80.264 Y78.666 E2.29225
G1 X80.313 Y79.082 E2.29350
G1 X80.329 Y79.500 E2.29474
G1 X80.313 Y79.918 E2.29599
G1 X80.264 Y80.334 E2.29724
G1 X80.182 Y80.744 E2.29849
G1 X80.068 Y81.147 E2.29973
G1 X79.924 Y81.539 E2.30098
G1 X79.748 Y81.919 E2.30223
G1 X79.581 Y82.219 E2.30325
G1 X79.476 Y82.243 F7800.000
G1 F1800.000
G1 X79.247 Y82.586 E2.30448
G1 X78.992 Y82.909 E2.30571
G1 X78.712 Y83.212 E2.30694
G1 X78.409 Y83.492 E2.30817
G1 X78.086 Y83.747 E2.30940
G1 X77.743 Y83.976 E2.31063
G1 X77.383 Y84.177 E2.31186
G1 X77.009 Y84.350 E2.31309
G1 X76.622 Y84.493 E2.31432
G1 X76.225 Y84.604 E2.31554
G1 X75.821 Y84.685 E2.31677
G1 X75.412 Y84.733 E2.31800
G1 X75.000 Y84.750 E2.31923
G1 X74.588 Y84.733 E2.32046
G1 X74.179 Y84.685 E2.32169
G1 X73.775 Y84.604 E2.32292
G1 X73.378 Y84.493 E2.32415
G1 X72.991 Y84.350 E2.32538
G1 X72.617 Y84.177 E2.32661
G1 X72.257 Y83.976 E2.32783
G1 X71.914 Y83.747 E2.32906
G1 X71.591 Y83.492 E2.33029
G1 X71.288 Y83.212 E2.33152
G1 X71.008 Y82.909 E2.33275
G1 X70.753 Y82.586 E2.33398
G1 X70.524 Y82.243 E2.33521
G1 X70.323 Y81.883 E2.33644
G1 X70.150 Y81.509 E2.33767
G1 X70.007 Y81.122 E2.33890
G1 X69.896 Y80.725 E2.34012
G1 X69.815 Y80.321 E2.34135
G1 X69.767 Y79.912 E2.34258
G1 X69.750 Y79.500 E2.34381
G1 X69.767 Y79.088 E2.34504
G1 X69.815 Y78.679 E2.34627
G1 X69.896 Y78.275 E2.34750
G1 X70.007 Y77.878 E2.34873
G1 X70.150 Y77.491 E2.34996
G1 X70.323 Y77.117 E2.35119
G1 X70.524 Y76.757 E2.35241
G1 X70.753 Y76.414 E2.35364
G1 X71.008 Y76.091 E2.35487
G1 X71.288 Y75.788 E2.35610
G1 X71.591 Y75.508 E2.35733
G1 X71.914 Y75.253 E2.35856
G1 X72.257 Y75.024 E2.35979
G1 X72.617 Y74.823 E2.36102
G1 X72.991 Y74.650 E2.36225
G1 X73.378 Y74.507 E2.36348
G1 X73.775 Y74.396 E2.36471
G1 X74.179 Y74.315 E2.36593
G1 X74.588 Y74.267 E2.36716
G1 X75.000 Y74.250 E2.36839
G1 X75.412 Y74.267 E2.36962
G1 X75.821 Y74.315 E2.37085
G1 X76.225 Y74.396 E2.37208
G1 X76.622 Y74.507 E2.37331
G1 X77.009 Y74.650 E2.37454
G1 X77.383 Y74.823 E2.37577
G1 X77.743 Y75.024 E2.37700
G1 X78.086 Y75.253 E2.37822
G1 X78.409 Y75.508 E2.37945
G1 X78.712 Y75.788 E2.38068
G1 X78.992 Y76.091 E2.38191
G1 X79.247 Y76.414 E2.38314
G1 X79.476 Y76.757 E2.38437
G1 X79.677 Y77.117 E2.38560
G1 X79.850 Y77.491 E2.38683
G1 X79.993 Y77.878 E2.38806
G1 X80.104 Y78.275 E2.38929
G1 X80.185 Y78.679 E2.39051
G1 X80.233 Y79.088 E2.39174
G1 X80.250 Y79.500 E2.39297
G1 X80.233 Y79.912 E2.39420
G1 X80.185 Y80.321 E2.39543
G1 X80.104 Y80.725 E2.39666
G1 X79.993 Y81.122 E2.39789
G1 X79.850 Y81.509 E2.39912
G1 X79.677 Y81.883 E2.40035
G1 X79.513 Y82.177 E2.40135
G1 X79.476 Y82.243 F7800.000
G1 E0.40135 F2400.00000
G92 E0
G1 X76.817 Y63.446 F7800.000
G1 E2.00000 F2400.00000
G1 F1800.000
G1 X73.183 Y63.446 E2.01083
G1 X71.367 Y60.300 E2.02167
G1 X73.183 Y57.154 E2.03250
G1 X76.817 Y57.154 E2.04333
G1 X78.633 Y60.300 E2.05416
G1 X76.854 Y63.381 E2.06477
G1 X76.771 Y63.367 F7800.000
G1 F1800.000
G1 X73.229 Y63.367 E2.07533
G1 X71.459 Y60.300 E2.08589
G1 X73.229 Y57.233 E2.09645
G1 X76.771 Y57.233 E2.10701
G1 X78.541 Y60.300 E2.11757
G1 X76.808 Y63.302 E2.12790
G1 X76.725 Y63.287 F7800.000
G1 F1800.000
G1 X73.275 Y63.287 E2.13819
G1 X71.551 Y60.300 E2.14847
G1 X73.275 Y57.313 E2.15875
G1 X76.725 Y57.313 E2.16904
G1 X78.449 Y60.300 E2.17932
G1 X76.762 Y63.222 E2.18938
G1 X76.679 Y63.207 F7800.000
G1 F1800.000
G1 X73.321 Y63.207 E2.19939
G1 X71.643 Y60.300 E2.20940
G1 X73.321 Y57.393 E2.21941
G1 X76.679 Y57.393 E2.22942
G1 X78.357 Y60.300 E2.23943
G1 X76.716 Y63.142 E2.24922
G1 X76.679 Y63.707 F7800.000
G1 E0.24922 F2400.00000
G92 E0
G1 X82.911 Y86.189 F7800.000
G1 E2.00000 F2400.00000
G1 F1800.000
G1 X94.711 Y86.189 E2.03518
G1 X94.711 Y94.611 E2.06030
G1 X55.289 Y94.611 E2.17784
G1 X55.289 Y86.189 E2.20296
G1 X67.089 Y86.189 E2.23814
G1 X67.089 Y55.389 E2.32998
G1 X82.911 Y55.389 E2.37715
G1 X82.911 Y86.114 E2.46877
G1 X82.991 Y86.109 F7800.000
G1 F1800.000
G1 X94.791 Y86.109 E2.50395
G1 X94.791 Y94.691 E2.52954
G1 X55.209 Y94.691 E2.64756
G1 X55.209 Y86.109 E2.67315
G1 X67.009 Y86.109 E2.70833
G1 X67.009 Y55.309 E2.80017
G1 X82.991 Y55.309 E2.84782
G1 X82.991 Y86.034 E2.93943
G1 X83.071 Y86.029 F7800.000
G1 F1800.000
G1 X94.871 Y86.029 E2.97462
G1 X94.871 Y94.771 E3.00068
G1 X55.129 Y94.771 E3.11918
G1 X55.129 Y86.029 E3.14524
G1 X66.929 Y86.029 E3.18042
G1 X66.929 Y55.229 E3.27226
G1 X83.071 Y55.229 E3.32039
G1 X83.071 Y85.954 E3.41200
G1 X83.150 Y85.950 F7800.000
G1 F1800.000
G1 X94.951 Y85.950 E3.44718
G1 X94.951 Y94.850 E3.47372
G1 X55.050 Y94.850 E3.59269
G1 X55.050 Y85.950 E3.61923
G1 X66.850 Y85.950 E3.65442
G1 X66.850 Y55.149 E3.74625
G1 X83.150 Y55.149 E3.79486
G1 X83.150 Y85.874 E3.88647
G1 X83.231 Y86.443 F7800.000
G1 E1.88647 F2400.00000
G92 E0
G1 X79.291 Y83.037 F7800.000
G1 E2.00000 F2400.00000
G1 F1800.000
G1 X82.863 Y79.465 E2.01507
G1 X82.863 Y79.352 E2.01541
G1 X79.602 Y82.613 E2.02917
G1 X79.788 Y82.314 E2.03021
G1 X82.863 Y79.239 E2.04319
G1 X82.863 Y79.126 E2.04352
G1 X79.931 Y82.058 E2.05589
G1 X80.027 Y81.849 E2.05658
G1 X82.863 Y79.014 E2.06854
G1 X82.863 Y78.901 E2.06888
G1 X80.121 Y81.643 E2.08045
G1 X80.187 Y81.464 E2.08102
G1 X82.863 Y78.788 E2.09231
G1 X82.863 Y78.675 E2.09265
G1 X80.253 Y81.286 E2.10366
G1 X80.301 Y81.124 E2.10416
G1 X82.863 Y78.563 E2.11497
G1 X82.863 Y78.450 E2.11531
G1 X80.345 Y80.967 E2.12593
G1 X80.387 Y80.812 E2.12641
G1 X82.863 Y78.337 E2.13685
G1 X82.863 Y78.224 E2.13719
G1 X80.415 Y80.672 E2.14751
G1 X80.443 Y80.531 E2.14794
G1 X82.863 Y78.111 E2.15815
G1 X82.863 Y77.999 E2.15849
G1 X80.470 Y80.391 E2.16858
G1 X80.485 Y80.263 E2.16896
G1 X82.863 Y77.886 E2.17899
G1 X82.863 Y77.773 E2.17933
G1 X80.501 Y80.135 E2.18930
G1 X80.516 Y80.008 E2.18968
G1 X82.863 Y77.660 E2.19958
G1 X82.863 Y77.548 E2.19992
G1 X80.524 Y79.887 E2.20979
G1 X80.528 Y79.770 E2.21014
G1 X82.863 Y77.435 E2.21999
G1 X82.863 Y77.322 E2.22033
G1 X80.533 Y79.652 E2.23016
G1 X80.537 Y79.535 E2.23051
G1 X82.863 Y77.209 E2.24032
G1 X82.863 Y77.097 E2.24066
G1 X80.533 Y79.426 E2.25048
G1 X80.529 Y79.318 E2.25081
G1 X82.863 Y76.984 E2.26065
G1 X82.863 Y76.871 E2.26099
G1 X80.525 Y79.209 E2.27085
G1 X80.521 Y79.101 E2.27118
G1 X82.863 Y76.758 E2.28106
G1 X82.863 Y76.646 E2.28140
G1 X80.509 Y78.999 E2.29133
G1 X80.497 Y78.898 E2.29163
G1 X82.863 Y76.533 E2.30161
G1 X82.863 Y76.420 E2.30195
G1 X80.485 Y78.798 E2.31198
G1 X80.473 Y78.697 E2.31228
G1 X82.863 Y76.307 E2.32236
G1 X82.863 Y76.195 E2.32270
G1 X80.457 Y78.600 E2.33285
G1 X80.438 Y78.506 E2.33313
G1 X82.863 Y76.082 E2.34336
G1 X82.863 Y75.969 E2.34370
G1 X80.420 Y78.412 E2.35401
G1 X80.401 Y78.318 E2.35429
G1 X82.863 Y75.856 E2.36468
G1 X82.863 Y75.744 E2.36501
G1 X80.382 Y78.225 E2.37548
G1 X80.357 Y78.137 E2.37575
G1 X82.863 Y75.631 E2.38633
G1 X82.863 Y75.518 E2.38666
G1 X80.332 Y78.049 E2.39734
G1 X80.307 Y77.961 E2.39761
G1 X82.863 Y75.405 E2.40839
G1 X82.863 Y75.293 E2.40873
G1 X80.283 Y77.873 E2.41962
G1 X80.256 Y77.786 E2.41989
G1 X82.863 Y75.180 E2.43088
G1 X82.863 Y75.067 E2.43122
G1 X80.226 Y77.704 E2.44234
G1 X80.195 Y77.622 E2.44261
G1 X82.863 Y74.954 E2.45386
G1 X82.863 Y74.842 E2.45420
G1 X80.165 Y77.539 E2.46558
G1 X80.135 Y77.457 E2.46584
G1 X82.863 Y74.729 E2.47735
G1 X82.863 Y74.616 E2.47769
G1 X80.103 Y77.376 E2.48933
G1 X80.067 Y77.299 E2.48959
G1 X82.863 Y74.503 E2.50138
G1 X82.863 Y74.391 E2.50172
G1 X80.031 Y77.222 E2.51366
G1 X79.996 Y77.145 E2.51392
G1 X82.863 Y74.278 E2.52601
G1 X82.863 Y74.165 E2.52635
G1 X79.960 Y77.067 E2.53859
G1 X79.924 Y76.991 E2.53885
G1 X82.863 Y74.052 E2.55125
G1 X82.863 Y73.939 E2.55158
G1 X79.883 Y76.919 E2.56415
G1 X79.843 Y76.847 E2.56440
G1 X82.863 Y73.827 E2.57714
G1 X82.863 Y73.714 E2.57748
G1 X79.803 Y76.774 E2.59039
G1 X79.762 Y76.702 E2.59064
G1 X82.863 Y73.601 E2.60372
G1 X82.863 Y73.488 E2.60405
G1 X79.722 Y76.630 E2.61731
G1 X79.677 Y76.562 E2.61755
G1 X82.863 Y73.376 E2.63099
