; generated by Slic3r 1.3.1-dev (Build 2ef957d) on 2019-11-25 at 09:24:26

; external perimeters extrusion width = 0.55mm (4.37mm^3/s)
; perimeters extrusion width = 0.70mm (11.44mm^3/s)
; infill extrusion width = 0.62mm (13.45mm^3/s)
; solid infill extrusion width = 0.70mm (3.81mm^3/s)
; top infill extrusion width = 0.70mm (2.86mm^3/s)

M107
G92 E0
M104 S200 ; set temperature
G28 ; home all axes
G1 Z5 F5000 ; lift nozzle

; Filament gcode

M109 S200 ; set temperature and wait for it to be reached
G21 ; set units to millimeters
G90 ; use absolute coordinates
M82 ; use absolute distances for extrusion
G92 E0
G1 Z0.350 F7800.000
G1 E-2.00000 F2400.00000
G92 E0
G1 X73.777 Y51.462 F7800.000
G1 E2.00000 F2400.00000
G1 F1800.000
G1 X74.265 Y50.789 E2.02574
G1 X76.307 Y48.321 E2.12482
G1 X76.876 Y47.715 E2.15057
G1 X79.211 Y45.523 E2.24965
G1 X79.852 Y44.992 E2.27539
G1 X82.442 Y43.110 E2.37447
G1 X83.145 Y42.664 E2.40022
G1 X85.951 Y41.121 E2.49930
G1 X86.704 Y40.767 E2.52505
G1 X89.681 Y39.588 E2.62413
G1 X90.472 Y39.331 E2.64987
G1 X93.574 Y38.535 E2.74895
G1 X94.391 Y38.379 E2.77469
G1 X97.568 Y37.978 E2.87378
G1 X98.399 Y37.925 E2.89952
G1 X101.601 Y37.925 E2.99861
G1 X102.432 Y37.978 E3.02435
G1 X105.609 Y38.379 E3.12343
G1 X106.426 Y38.535 E3.14917
G1 X109.528 Y39.331 E3.24826
G1 X110.319 Y39.588 E3.27400
G1 X113.296 Y40.767 E3.37308
G1 X114.049 Y41.121 E3.39882
G1 X116.855 Y42.664 E3.49791
G1 X117.558 Y43.110 E3.52365
G1 X120.148 Y44.992 E3.62274
G1 X120.789 Y45.523 E3.64847
G1 X123.124 Y47.715 E3.74756
G1 X123.693 Y48.321 E3.77331
G1 X125.735 Y50.789 E3.87239
G1 X126.223 Y51.462 E3.89813
G1 X127.939 Y54.165 E3.99721
G1 X128.340 Y54.895 E4.02295
G1 X129.704 Y57.792 E4.12204
G1 X129.942 Y58.366 E4.14126
G1 X142.788 Y93.999 E5.31324
G1 X143.190 Y95.365 E5.35732
G1 X143.312 Y95.871 E5.37343
G1 X143.498 Y96.807 E5.40294
G1 X143.579 Y97.321 E5.41905
G1 X143.691 Y98.268 E5.44856
G1 X143.732 Y98.786 E5.46464
G1 X143.770 Y99.740 E5.49416
G1 X143.770 Y100.260 E5.51027
G1 X143.732 Y101.214 E5.53979
G1 X143.691 Y101.732 E5.55587
G1 X143.579 Y102.679 E5.58539
G1 X143.498 Y103.193 E5.60149
G1 X143.312 Y104.129 E5.63101
G1 X143.190 Y104.635 E5.64711
G1 X142.931 Y105.553 E5.67663
G1 X142.788 Y106.001 E5.69120
G1 X129.942 Y141.634 E6.86318
G1 X129.704 Y142.208 E6.88240
G1 X128.340 Y145.105 E6.98149
G1 X127.939 Y145.835 E7.00723
G1 X126.223 Y148.538 E7.10631
G1 X125.735 Y149.211 E7.13205
G1 X123.693 Y151.679 E7.23113
G1 X123.124 Y152.285 E7.25688
G1 X120.789 Y154.477 E7.35597
G1 X120.148 Y155.008 E7.38170
G1 X117.558 Y156.890 E7.48079
G1 X116.855 Y157.336 E7.50653
G1 X114.049 Y158.879 E7.60562
G1 X113.296 Y159.233 E7.63136
G1 X110.319 Y160.412 E7.73044
G1 X109.528 Y160.669 E7.75618
G1 X106.426 Y161.465 E7.85526
G1 X105.609 Y161.621 E7.88100
G1 X102.432 Y162.022 E7.98009
G1 X101.601 Y162.075 E8.00583
G1 X98.399 Y162.075 E8.10492
G1 X97.568 Y162.022 E8.13066
G1 X94.391 Y161.621 E8.22975
G1 X93.574 Y161.465 E8.25549
G1 X90.472 Y160.669 E8.35457
G1 X89.681 Y160.412 E8.38031
G1 X86.704 Y159.233 E8.47939
G1 X85.951 Y158.879 E8.50514
G1 X83.145 Y157.336 E8.60422
G1 X82.442 Y156.890 E8.62997
G1 X79.852 Y155.008 E8.72905
G1 X79.211 Y154.477 E8.75479
G1 X76.876 Y152.285 E8.85387
G1 X76.307 Y151.679 E8.87962
G1 X74.265 Y149.211 E8.97870
G1 X73.777 Y148.538 E9.00444
G1 X72.061 Y145.835 E9.10352
G1 X71.660 Y145.106 E9.12926
G1 X70.296 Y142.208 E9.22835
G1 X70.058 Y141.634 E9.24757
G1 X57.212 Y106.001 E10.41955
G1 X56.810 Y104.635 E10.46363
G1 X56.688 Y104.129 E10.47974
G1 X56.502 Y103.193 E10.50926
G1 X56.421 Y102.679 E10.52536
G1 X56.309 Y101.732 E10.55487
G1 X56.268 Y101.214 E10.57095
G1 X56.230 Y100.260 E10.60047
G1 X56.230 Y99.740 E10.61659
G1 X56.268 Y98.786 E10.64610
G1 X56.309 Y98.268 E10.66218
G1 X56.421 Y97.321 E10.69170
G1 X56.502 Y96.807 E10.70780
G1 X56.688 Y95.871 E10.73732
G1 X56.810 Y95.365 E10.75342
G1 X57.069 Y94.447 E10.78294
G1 X57.212 Y93.999 E10.79751
G1 X70.058 Y58.366 E11.96949
G1 X70.296 Y57.792 E11.98872
G1 X71.660 Y54.894 E12.08780
G1 X72.061 Y54.165 E12.11354
G1 X73.736 Y51.525 E12.21030
G1 E10.21030 F2400.00000
G92 E0
G1 X117.874 Y125.542 F7800.000
G1 E2.00000 F2400.00000
G1 F1800.000
G1 X120.447 Y130.000 E2.15926
G1 X117.874 Y134.458 E2.31853
G1 X112.726 Y134.458 E2.47779
G1 X112.220 Y133.580 E2.50915
G1 X111.857 Y134.695 E2.54542
G1 X111.175 Y136.144 E2.59497
G1 X110.317 Y137.496 E2.64453
G1 X109.296 Y138.730 E2.69408
G1 X108.129 Y139.826 E2.74363
G1 X106.833 Y140.768 E2.79319
G1 X105.430 Y141.539 E2.84274
G1 X103.941 Y142.129 E2.89229
G1 X102.390 Y142.527 E2.94185
G1 X100.801 Y142.728 E2.99140
G1 X99.199 Y142.728 E3.04095
G1 X97.610 Y142.527 E3.09051
G1 X96.987 Y142.367 E3.11040
G1 X97.497 Y143.250 E3.14195
G1 X94.924 Y147.708 E3.30122
G1 X89.776 Y147.708 E3.46048
G1 X87.203 Y143.250 E3.61975
G1 X89.776 Y138.793 E3.77901
G1 X90.755 Y138.793 E3.80930
G1 X89.683 Y137.496 E3.86136
G1 X88.825 Y136.144 E3.91091
G1 X88.143 Y134.695 E3.96047
G1 X87.648 Y133.172 E4.01002
G1 X87.348 Y131.598 E4.05957
G1 X87.247 Y130.000 E4.10913
G1 X87.348 Y128.402 E4.15868
G1 X87.648 Y126.828 E4.20824
G1 X88.143 Y125.305 E4.25779
G1 X88.825 Y123.856 E4.30734
G1 X89.683 Y122.504 E4.35690
G1 X90.755 Y121.207 E4.40896
G1 X89.776 Y121.207 E4.43925
G1 X87.203 Y116.750 E4.59851
G1 X89.776 Y112.292 E4.75777
G1 X94.924 Y112.292 E4.91704
G1 X97.497 Y116.750 E5.07630
G1 X96.987 Y117.633 E5.10785
G1 X97.610 Y117.473 E5.12775
G1 X99.199 Y117.272 E5.17730
G1 X100.801 Y117.272 E5.22686
G1 X102.390 Y117.473 E5.27641
G1 X103.941 Y117.871 E5.32596
G1 X105.430 Y118.461 E5.37552
G1 X106.833 Y119.232 E5.42507
G1 X108.129 Y120.174 E5.47462
G1 X109.296 Y121.270 E5.52418
G1 X110.317 Y122.504 E5.57373
G1 X111.175 Y123.856 E5.62328
G1 X111.857 Y125.305 E5.67284
G1 X112.220 Y126.420 E5.70910
G1 X112.726 Y125.542 E5.74047
G1 X117.799 Y125.542 E5.89741
G1 X117.513 Y126.167 F7800.000
G1 F1800.000
G1 X119.726 Y130.000 E6.03435
G1 X117.513 Y133.833 E6.17128
G1 X113.087 Y133.833 E6.30822
G1 X111.962 Y131.884 E6.37786
G1 X111.746 Y133.016 E6.41352
G1 X111.275 Y134.464 E6.46064
G1 X110.627 Y135.842 E6.50776
G1 X109.811 Y137.128 E6.55488
G1 X108.840 Y138.301 E6.60200
G1 X107.730 Y139.344 E6.64912
G1 X106.498 Y140.239 E6.69624
G1 X105.163 Y140.973 E6.74336
G1 X103.747 Y141.533 E6.79048
G1 X102.272 Y141.912 E6.83761
G1 X100.761 Y142.103 E6.88473
G1 X99.239 Y142.103 E6.93185
G1 X97.728 Y141.912 E6.97897
G1 X96.253 Y141.533 E7.02609
G1 X96.022 Y141.442 E7.03375
G1 X95.848 Y141.644 E7.04199
G1 X96.776 Y143.250 E7.09938
G1 X94.563 Y147.083 E7.23632
G1 X90.137 Y147.083 E7.37326
G1 X87.924 Y143.250 E7.51020
G1 X90.137 Y139.417 E7.64713
G1 X92.348 Y139.417 E7.71555
G1 X91.160 Y138.301 E7.76600
G1 X90.189 Y137.128 E7.81312
G1 X89.373 Y135.842 E7.86024
G1 X88.725 Y134.464 E7.90736
G1 X88.254 Y133.016 E7.95448
G1 X87.969 Y131.520 E8.00160
G1 X87.873 Y130.000 E8.04872
G1 X87.969 Y128.480 E8.09584
G1 X88.254 Y126.984 E8.14296
G1 X88.725 Y125.536 E8.19008
G1 X89.373 Y124.158 E8.23720
G1 X90.189 Y122.872 E8.28432
G1 X91.160 Y121.699 E8.33144
G1 X92.348 Y120.583 E8.38189
G1 X90.137 Y120.583 E8.45031
G1 X87.924 Y116.750 E8.58724
G1 X90.137 Y112.917 E8.72418
G1 X94.563 Y112.917 E8.86112
G1 X96.776 Y116.750 E8.99806
G1 X95.848 Y118.356 E9.05545
G1 X96.022 Y118.558 E9.06369
G1 X96.253 Y118.467 E9.07135
G1 X97.728 Y118.088 E9.11847
G1 X99.239 Y117.897 E9.16559
G1 X100.761 Y117.897 E9.21271
G1 X102.272 Y118.088 E9.25983
G1 X103.747 Y118.467 E9.30696
G1 X105.163 Y119.027 E9.35408
G1 X106.498 Y119.761 E9.40120
G1 X107.730 Y120.656 E9.44832
G1 X108.840 Y121.699 E9.49544
G1 X109.811 Y122.872 E9.54256
G1 X110.627 Y124.158 E9.58968
G1 X111.275 Y125.536 E9.63680
G1 X111.746 Y126.984 E9.68392
G1 X111.962 Y128.116 E9.71958
G1 X113.087 Y126.167 E9.78922
G1 X117.438 Y126.167 E9.92384
G1 X117.152 Y126.792 F7800.000
G1 F1800.000
G1 X119.004 Y130.000 E10.03845
G1 X117.152 Y133.208 E10.15306
G1 X113.448 Y133.208 E10.26767
G1 X111.751 Y130.269 E10.37269
G1 X111.480 Y130.332 E10.38130
G1 X111.410 Y131.441 E10.41570
G1 X111.139 Y132.860 E10.46038
G1 X110.693 Y134.234 E10.50507
G1 X110.078 Y135.541 E10.54976
G1 X109.304 Y136.760 E10.59445
G1 X108.384 Y137.873 E10.63913
G1 X107.331 Y138.861 E10.68382
G1 X106.162 Y139.710 E10.72851
G1 X104.897 Y140.406 E10.77320
G1 X103.554 Y140.938 E10.81788
G1 X102.155 Y141.297 E10.86257
G1 X100.722 Y141.478 E10.90726
G1 X99.278 Y141.478 E10.95195
G1 X97.845 Y141.297 E10.99663
G1 X96.446 Y140.938 E11.04132
G1 X95.103 Y140.406 E11.08601
G1 X94.554 Y140.104 E11.10539
G1 X94.355 Y140.308 E11.11419
G1 X96.054 Y143.250 E11.21932
G1 X94.202 Y146.458 E11.33393
G1 X90.498 Y146.458 E11.44854
G1 X88.646 Y143.250 E11.56315
G1 X90.498 Y140.042 E11.67776
G1 X93.854 Y140.042 E11.78160
G1 X93.938 Y139.783 E11.79002
G1 X92.669 Y138.861 E11.83855
G1 X91.616 Y137.873 E11.88323
G1 X90.696 Y136.760 E11.92792
G1 X89.922 Y135.541 E11.97261
G1 X89.307 Y134.234 E12.01730
G1 X88.861 Y132.860 E12.06198
G1 X88.590 Y131.441 E12.10667
G1 X88.499 Y130.000 E12.15136
G1 X88.590 Y128.559 E12.19605
G1 X88.861 Y127.140 E12.24073
G1 X89.307 Y125.766 E12.28542
G1 X89.922 Y124.459 E12.33011
G1 X90.696 Y123.240 E12.37480
G1 X91.616 Y122.127 E12.41948
G1 X92.669 Y121.139 E12.46417
G1 X93.938 Y120.217 E12.51269
G1 X93.854 Y119.958 E12.52112
G1 X90.498 Y119.958 E12.62495
G1 X88.646 Y116.750 E12.73957
G1 X90.498 Y113.542 E12.85418
G1 X94.202 Y113.542 E12.96879
G1 X96.054 Y116.750 E13.08340
G1 X94.355 Y119.692 E13.18853
G1 X94.554 Y119.896 E13.19733
G1 X95.103 Y119.594 E13.21671
G1 X96.446 Y119.062 E13.26140
G1 X97.845 Y118.703 E13.30608
G1 X99.278 Y118.522 E13.35077
G1 X100.722 Y118.522 E13.39546
G1 X102.155 Y118.703 E13.44015
G1 X103.554 Y119.062 E13.48483
G1 X104.897 Y119.594 E13.52952
G1 X106.162 Y120.290 E13.57421
G1 X107.331 Y121.139 E13.61890
G1 X108.384 Y122.127 E13.66359
G1 X109.304 Y123.240 E13.70827
G1 X110.078 Y124.459 E13.75296
G1 X110.693 Y125.766 E13.79765
G1 X111.139 Y127.140 E13.84234
G1 X111.410 Y128.559 E13.88702
G1 X111.480 Y129.668 E13.92141
G1 X111.751 Y129.731 E13.93003
G1 X113.448 Y126.792 E14.03505
G1 X117.077 Y126.792 E14.14734
G1 X117.587 Y126.546 F7800.000
G1 E12.14734 F2400.00000
G92 E0
G1 X123.439 Y125.593 F7800.000
G1 E2.00000 F2400.00000
G1 F1800.000
G1 X123.709 Y127.005 E2.04448
G1 X123.897 Y130.000 E2.13733
G1 X123.709 Y132.995 E2.23019
G1 X123.146 Y135.943 E2.32304
G1 X122.219 Y138.797 E2.41590
G1 X120.941 Y141.512 E2.50875
G1 X119.333 Y144.046 E2.60161
G1 X117.420 Y146.359 E2.69447
G1 X115.233 Y148.413 E2.78732
G1 X112.805 Y150.177 E2.88018
G1 X110.175 Y151.623 E2.97303
G1 X107.385 Y152.727 E3.06589
G1 X104.478 Y153.474 E3.15874
G1 X101.500 Y153.850 E3.25160
G1 X98.500 Y153.850 E3.34445
G1 X95.522 Y153.474 E3.43731
G1 X92.615 Y152.727 E3.53017
G1 X89.825 Y151.623 E3.62302
G1 X87.195 Y150.177 E3.71588
G1 X84.767 Y148.413 E3.80873
G1 X82.580 Y146.359 E3.90159
G1 X80.667 Y144.046 E3.99444
G1 X79.059 Y141.512 E4.08730
G1 X77.781 Y138.797 E4.18015
G1 X76.854 Y135.943 E4.27301
G1 X76.291 Y132.995 E4.36586
G1 X76.103 Y130.000 E4.45872
G1 X76.291 Y127.005 E4.55158
G1 X76.854 Y124.057 E4.64443
G1 X77.781 Y121.203 E4.73729
G1 X79.059 Y118.488 E4.83014
G1 X80.667 Y115.954 E4.92300
G1 X82.580 Y113.641 E5.01585
G1 X84.767 Y111.587 E5.10871
G1 X87.195 Y109.823 E5.20156
G1 X89.825 Y108.377 E5.29442
G1 X92.615 Y107.273 E5.38727
G1 X95.522 Y106.526 E5.48013
G1 X98.499 Y106.150 E5.57298
G1 X101.501 Y106.150 E5.66584
G1 X104.478 Y106.526 E5.75870
G1 X107.385 Y107.273 E5.85155
G1 X110.175 Y108.377 E5.94441
G1 X112.805 Y109.823 E6.03726
G1 X115.233 Y111.587 E6.13012
G1 X117.420 Y113.641 E6.22297
G1 X119.333 Y115.954 E6.31583
G1 X120.941 Y118.488 E6.40868
G1 X122.219 Y121.203 E6.50154
G1 X123.146 Y124.057 E6.59439
G1 X123.425 Y125.519 E6.64045
G1 X124.053 Y125.476 F7800.000
G1 F1800.000
G1 X124.330 Y126.926 E6.68615
G1 X124.523 Y130.000 E6.78143
G1 X124.330 Y133.074 E6.87672
G1 X123.753 Y136.099 E6.97201
G1 X122.801 Y139.028 E7.06730
G1 X121.490 Y141.814 E7.16259
G1 X119.840 Y144.414 E7.25788
G1 X117.877 Y146.787 E7.35316
G1 X115.632 Y148.895 E7.44845
G1 X113.140 Y150.706 E7.54374
G1 X110.442 Y152.189 E7.63903
G1 X107.578 Y153.323 E7.73432
G1 X104.595 Y154.089 E7.82961
G1 X101.540 Y154.475 E7.92489
G1 X98.460 Y154.475 E8.02018
G1 X95.405 Y154.089 E8.11547
G1 X92.422 Y153.323 E8.21076
G1 X89.558 Y152.189 E8.30605
G1 X86.860 Y150.706 E8.40133
G1 X84.368 Y148.895 E8.49662
G1 X82.123 Y146.787 E8.59191
G1 X80.160 Y144.414 E8.68720
G1 X78.510 Y141.814 E8.78249
G1 X77.199 Y139.028 E8.87778
G1 X76.247 Y136.099 E8.97307
G1 X75.670 Y133.074 E9.06835
G1 X75.477 Y130.000 E9.16364
G1 X75.670 Y126.926 E9.25893
G1 X76.247 Y123.901 E9.35422
G1 X77.199 Y120.972 E9.44951
G1 X78.510 Y118.186 E9.54479
G1 X80.160 Y115.586 E9.64008
G1 X82.123 Y113.213 E9.73537
G1 X84.368 Y111.105 E9.83066
G1 X86.860 Y109.294 E9.92595
G1 X89.559 Y107.811 E10.02124
G1 X92.422 Y106.677 E10.11653
G1 X95.405 Y105.911 E10.21181
G1 X98.460 Y105.525 E10.30710
G1 X101.540 Y105.525 E10.40239
G1 X104.595 Y105.911 E10.49768
G1 X107.578 Y106.677 E10.59297
G1 X110.441 Y107.811 E10.68826
G1 X113.140 Y109.294 E10.78354
G1 X115.632 Y111.105 E10.87883
G1 X117.877 Y113.213 E10.97412
G1 X119.840 Y115.586 E11.06941
G1 X121.490 Y118.186 E11.16470
G1 X122.801 Y120.972 E11.25998
G1 X123.753 Y123.901 E11.35527
G1 X124.039 Y125.402 E11.40255
G1 X124.667 Y125.359 F7800.000
G1 F1800.000
G1 X124.951 Y126.848 E11.44946
G1 X125.149 Y130.000 E11.54718
G1 X124.951 Y133.152 E11.64490
G1 X124.359 Y136.254 E11.74262
G1 X123.383 Y139.258 E11.84034
G1 X122.038 Y142.116 E11.93806
G1 X120.346 Y144.782 E12.03578
G1 X118.333 Y147.216 E12.13351
G1 X116.031 Y149.378 E12.23123
G1 X113.476 Y151.234 E12.32895
G1 X110.708 Y152.756 E12.42667
G1 X107.772 Y153.918 E12.52439
G1 X104.713 Y154.704 E12.62211
G1 X101.579 Y155.100 E12.71983
G1 X98.421 Y155.100 E12.81755
G1 X95.287 Y154.704 E12.91528
G1 X92.228 Y153.918 E13.01300
G1 X89.292 Y152.756 E13.11072
G1 X86.524 Y151.234 E13.20844
G1 X83.969 Y149.378 E13.30616
G1 X81.667 Y147.216 E13.40388
G1 X79.654 Y144.782 E13.50160
G1 X77.962 Y142.116 E13.59932
G1 X76.617 Y139.258 E13.69704
G1 X75.641 Y136.254 E13.79477
G1 X75.049 Y133.152 E13.89249
G1 X74.851 Y130.000 E13.99021
G1 X75.049 Y126.848 E14.08793
G1 X75.641 Y123.746 E14.18565
G1 X76.617 Y120.742 E14.28337
G1 X77.962 Y117.884 E14.38109
G1 X79.654 Y115.218 E14.47882
G1 X81.667 Y112.784 E14.57654
G1 X83.969 Y110.622 E14.67426
G1 X86.524 Y108.766 E14.77198
G1 X89.292 Y107.244 E14.86970
G1 X92.228 Y106.082 E14.96742
G1 X95.287 Y105.296 E15.06514
G1 X98.421 Y104.900 E15.16286
G1 X101.579 Y104.900 E15.26058
G1 X104.713 Y105.296 E15.35831
G1 X107.772 Y106.082 E15.45603
G1 X110.708 Y107.244 E15.55375
G1 X113.476 Y108.766 E15.65147
G1 X116.031 Y110.622 E15.74919
G1 X118.333 Y112.784 E15.84691
G1 X120.346 Y115.218 E15.94463
G1 X122.038 Y117.884 E16.04236
G1 X123.383 Y120.742 E16.14008
G1 X124.359 Y123.746 E16.23780
G1 X124.653 Y125.285 E16.28629
G1 X124.298 Y125.696 F7800.000
G1 E14.28629 F2400.00000
G92 E0
G1 X112.941 Y134.840 F7800.000
G1 E2.00000 F2400.00000
G1 F1800.000
G1 X111.827 Y135.953 E2.04903
G1 X111.481 Y136.688 E2.07432
G1 X110.613 Y138.057 E2.12476
G1 X113.830 Y134.840 E2.26637
G1 X114.719 Y134.840 E2.29405
G1 X96.338 Y153.221 E3.10318
G1 X97.127 Y153.320 E3.12794
G1 X115.608 Y134.840 E3.94147
G1 X116.497 Y134.840 E3.96914
G1 X97.916 Y153.420 E4.78705
G1 X98.296 Y153.468 E4.79896
G1 X98.757 Y153.468 E4.81333
G1 X117.386 Y134.840 E5.63335
G1 X118.275 Y134.840 E5.66102
G1 X99.646 Y153.468 E6.48105
G1 E4.48105 F2400.00000
G92 E0
G1 X95.548 Y153.121 F7800.000
G1 E2.00000 F2400.00000
G1 F1800.000
G1 X108.159 Y140.511 E2.55511
G1 X107.412 Y141.053 E2.58385
G1 X105.903 Y141.877 E2.63735
G1 X94.825 Y152.955 E3.12500
G1 X94.118 Y152.773 E3.14774
G1 X104.432 Y142.460 E3.60175
G1 X103.225 Y142.777 E3.64057
G1 X93.411 Y152.592 E4.07262
G1 X92.703 Y152.410 E4.09535
G1 X102.137 Y142.976 E4.51062
G1 X101.119 Y143.105 E4.54255
G1 X92.053 Y152.172 E4.94166
G1 X91.416 Y151.920 E4.96298
G1 X95.246 Y148.090 E5.13157
G1 X94.357 Y148.090 E5.15925
G1 X90.779 Y151.667 E5.31674
