; generated by Slic3r 1.3.1-dev (Build 2ef957d) on 2019-11-25 at 09:19:40

; external perimeters extrusion width = 0.55mm (4.37mm^3/s)
; perimeters extrusion width = 0.70mm (11.44mm^3/s)
; infill extrusion width = 0.62mm (13.45mm^3/s)
; solid infill extrusion width = 0.70mm (3.81mm^3/s)
; top infill extrusion width = 0.70mm (2.86mm^3/s)

M107
G92 E0
M104 S200 ; set temperature
G28 ; home all axes
G1 Z5 F5000 ; lift nozzle

; Filament gcode

M109 S200 ; set temperature and wait for it to be reached
G21 ; set units to millimeters
G90 ; use absolute coordinates
M82 ; use absolute distances for extrusion
G92 E0
G1 Z0.350 F7800.000
G1 E-2.00000 F2400.00000
G92 E0
G1 X69.845 Y52.227 F7800.000
G1 E2.00000 F2400.00000
G1 F1800.000
G1 X71.516 Y50.656 E2.07096
G1 X73.623 Y49.749 E2.14192
G1 X75.912 Y49.614 E2.21289
G1 X77.058 Y49.851 E2.24908
G1 X124.941 Y64.245 E3.79614
G1 X126.990 Y65.275 E3.86711
G1 X128.565 Y66.943 E3.93807
G1 X129.638 Y70.062 E4.04014
G1 X132.414 Y104.838 E5.11956
G1 X133.085 Y140.345 E6.21841
G1 X132.899 Y142.028 E6.27080
G1 X132.117 Y145.249 E6.37336
G1 X131.198 Y147.351 E6.44432
G1 X129.618 Y149.013 E6.51528
G1 X127.566 Y150.037 E6.58624
G1 X125.288 Y150.300 E6.65721
G1 X124.132 Y150.128 E6.69334
G1 X75.514 Y138.457 E8.24041
G1 X73.410 Y137.544 E8.31137
G1 X71.744 Y135.968 E8.38234
G1 X70.714 Y133.918 E8.45330
G1 X70.464 Y132.633 E8.49380
G1 X66.943 Y95.084 E9.66072
G1 X66.915 Y94.345 E9.68360
G1 X67.566 Y59.241 E10.76995
G1 X67.850 Y57.443 E10.82626
G1 X68.810 Y54.274 E10.92875
G1 X69.812 Y52.294 E10.99739
G1 E8.99739 F2400.00000
G92 E0
G1 X125.255 Y133.349 F7800.000
G1 E2.00000 F2400.00000
G1 F1800.000
G1 X124.451 Y136.662 E2.10548
G1 X117.357 Y134.940 E2.33135
G1 X118.162 Y131.627 E2.43683
G1 X125.183 Y133.332 E2.66038
G1 X125.753 Y133.395 F7800.000
G1 E0.66038 F2400.00000
G92 E0
G1 X117.975 Y114.509 F7800.000
G1 E2.00000 F2400.00000
G1 F1800.000
G1 X116.985 Y111.242 E2.10563
G1 X123.972 Y109.124 E2.33150
G1 X124.962 Y112.391 E2.43712
G1 X118.047 Y114.487 E2.66067
G1 X117.523 Y114.722 F7800.000
G1 E0.66067 F2400.00000
G92 E0
G1 X107.380 Y119.026 F7800.000
G1 E2.00000 F2400.00000
G1 F1800.000
G1 X98.331 Y121.769 E2.29256
G1 X98.628 Y122.271 E2.31061
G1 X98.893 Y122.914 E2.33213
G1 X99.058 Y123.590 E2.35367
G1 X99.114 Y124.285 E2.37522
G1 X99.058 Y124.979 E2.39678
G1 X98.892 Y125.662 E2.41853
G1 X107.329 Y127.711 E2.68719
G1 X105.936 Y133.453 E2.87001
G1 X96.413 Y131.141 E3.17322
G1 X97.134 Y128.167 E3.26789
G1 X96.179 Y128.788 E3.30312
G1 X95.528 Y129.130 E3.32590
G1 X94.839 Y129.421 E3.34904
G1 X94.118 Y129.659 E3.37253
G1 X93.372 Y129.845 E3.39633
G1 X92.606 Y129.979 E3.42037
G1 X91.827 Y130.059 E3.44460
G1 X91.042 Y130.086 E3.46890
G1 X90.257 Y130.059 E3.49321
G1 X89.478 Y129.979 E3.51743
G1 X88.713 Y129.845 E3.54148
G1 X87.967 Y129.659 E3.56527
G1 X87.246 Y129.421 E3.58877
G1 X86.557 Y129.130 E3.61190
G1 X85.905 Y128.788 E3.63468
G1 X85.298 Y128.393 E3.65709
G1 X84.741 Y127.947 E3.67917
G1 X84.243 Y127.448 E3.70099
G1 X83.811 Y126.898 E3.72263
G1 X83.456 Y126.298 E3.74418
G1 X83.191 Y125.655 E3.76570
G1 X83.027 Y124.979 E3.78723
G1 X82.970 Y124.285 E3.80878
G1 X83.026 Y123.590 E3.83034
G1 X83.191 Y122.914 E3.85188
G1 X83.457 Y122.271 E3.87340
G1 X83.811 Y121.672 E3.89494
G1 X84.242 Y121.122 E3.91658
G1 X84.741 Y120.623 E3.93840
G1 X85.298 Y120.176 E3.96049
G1 X85.905 Y119.782 E3.98289
G1 X86.557 Y119.439 E4.00566
G1 X87.246 Y119.149 E4.02881
G1 X87.967 Y118.910 E4.05230
G1 X88.713 Y118.724 E4.07609
G1 X89.478 Y118.591 E4.10014
G1 X90.257 Y118.511 E4.12436
G1 X91.042 Y118.484 E4.14867
G1 X91.828 Y118.511 E4.17298
G1 X92.606 Y118.591 E4.19720
G1 X93.372 Y118.724 E4.22124
G1 X94.118 Y118.910 E4.24504
G1 X94.839 Y119.149 E4.26853
G1 X95.528 Y119.439 E4.29167
G1 X96.179 Y119.782 E4.31445
G1 X96.787 Y120.176 E4.33685
G1 X97.350 Y120.628 E4.35919
G1 X97.579 Y120.473 E4.36774
G1 X96.287 Y116.210 E4.50558
G1 X105.665 Y113.367 E4.80879
G1 X107.358 Y118.955 E4.98943
G1 E2.98943 F2400.00000
G92 E0
G1 X106.575 Y128.171 F7800.000
G1 E2.00000 F2400.00000
G1 F1800.000
G1 X105.476 Y132.698 E2.14415
G1 X97.167 Y130.681 E2.40869
G1 X98.201 Y126.421 E2.54434
G1 X97.902 Y126.299 E2.55434
G1 X97.757 Y126.544 E2.56316
G1 X97.374 Y127.033 E2.58237
G1 X96.926 Y127.481 E2.60197
G1 X96.420 Y127.886 E2.62202
G1 X95.863 Y128.248 E2.64258
G1 X95.261 Y128.565 E2.66364
G1 X94.619 Y128.835 E2.68518
G1 X93.944 Y129.059 E2.70718
G1 X93.243 Y129.234 E2.72955
G1 X92.521 Y129.359 E2.75223
G1 X91.785 Y129.435 E2.77511
G1 X91.042 Y129.460 E2.79810
G1 X90.300 Y129.435 E2.82109
G1 X89.564 Y129.359 E2.84397
G1 X88.842 Y129.234 E2.86664
G1 X88.141 Y129.059 E2.88902
G1 X87.466 Y128.835 E2.91101
G1 X86.824 Y128.565 E2.93256
G1 X86.222 Y128.248 E2.95362
G1 X85.665 Y127.886 E2.97417
G1 X85.159 Y127.481 E2.99423
G1 X84.711 Y127.033 E3.01383
G1 X84.328 Y126.544 E3.03303
G1 X84.017 Y126.019 E3.05192
G1 X83.787 Y125.461 E3.07059
G1 X83.645 Y124.880 E3.08911
G1 X83.597 Y124.285 E3.10757
G1 X83.645 Y123.690 E3.12603
G1 X83.787 Y123.109 E3.14456
G1 X84.017 Y122.551 E3.16323
G1 X84.328 Y122.025 E3.18211
G1 X84.711 Y121.537 E3.20132
G1 X85.159 Y121.089 E3.22092
G1 X85.665 Y120.683 E3.24098
G1 X86.222 Y120.322 E3.26153
G1 X86.824 Y120.005 E3.28259
G1 X87.466 Y119.734 E3.30414
G1 X88.141 Y119.511 E3.32613
G1 X88.842 Y119.336 E3.34850
G1 X89.564 Y119.210 E3.37118
G1 X90.300 Y119.135 E3.39406
G1 X91.042 Y119.109 E3.41705
G1 X91.785 Y119.135 E3.44004
G1 X92.521 Y119.210 E3.46292
G1 X93.243 Y119.336 E3.48560
G1 X93.944 Y119.511 E3.50797
G1 X94.619 Y119.734 E3.52996
G1 X95.261 Y120.005 E3.55151
G1 X95.863 Y120.322 E3.57257
G1 X96.420 Y120.684 E3.59312
G1 X96.926 Y121.089 E3.61318
G1 X97.374 Y121.537 E3.63278
G1 X97.757 Y122.025 E3.65198
G1 X98.068 Y122.551 E3.67087
G1 X98.298 Y123.109 E3.68954
G1 X98.439 Y123.690 E3.70807
G1 X98.487 Y124.285 E3.72652
G1 X98.439 Y124.880 E3.74499
G1 X98.298 Y125.461 E3.76351
G1 X98.035 Y126.098 E3.78481
G1 X106.502 Y128.153 E4.05439
G1 X105.820 Y128.631 F7800.000
G1 F1800.000
G1 X105.016 Y131.943 E4.15987
G1 X97.922 Y130.221 E4.38574
G1 X98.726 Y126.908 E4.49122
G1 X105.747 Y128.613 E4.71477
G1 X106.318 Y128.677 F7800.000
G1 E2.71477 F2400.00000
G92 E0
G1 X97.697 Y125.280 F7800.000
G1 E2.00000 F2400.00000
G1 F1800.000
G1 X97.507 Y125.739 E2.01539
G1 X97.240 Y126.191 E2.03163
G1 X96.905 Y126.617 E2.04839
G1 X96.508 Y127.015 E2.06577
G1 X96.054 Y127.379 E2.08380
G1 X95.547 Y127.708 E2.10250
G1 X94.993 Y127.999 E2.12185
G1 X94.399 Y128.250 E2.14180
G1 X93.770 Y128.458 E2.16230
G1 X93.113 Y128.622 E2.18325
G1 X92.435 Y128.740 E2.20455
G1 X91.742 Y128.811 E2.22610
G1 X91.042 Y128.835 E2.24777
G1 X90.342 Y128.811 E2.26944
G1 X89.650 Y128.740 E2.29098
G1 X88.972 Y128.622 E2.31228
G1 X88.315 Y128.458 E2.33323
G1 X87.686 Y128.250 E2.35373
G1 X87.091 Y127.999 E2.37368
G1 X86.538 Y127.708 E2.39303
G1 X86.031 Y127.379 E2.41173
G1 X85.576 Y127.015 E2.42976
G1 X85.179 Y126.617 E2.44714
G1 X84.845 Y126.191 E2.46391
G1 X84.578 Y125.739 E2.48015
G1 X84.383 Y125.267 E2.49596
G1 X84.264 Y124.780 E2.51147
G1 X84.224 Y124.285 E2.52684
G1 X84.264 Y123.790 E2.54220
G1 X84.383 Y123.303 E2.55771
G1 X84.578 Y122.830 E2.57353
G1 X84.845 Y122.379 E2.58976
G1 X85.179 Y121.952 E2.60653
G1 X85.576 Y121.555 E2.62391
G1 X86.031 Y121.191 E2.64194
G1 X86.538 Y120.861 E2.66064
G1 X87.091 Y120.570 E2.67999
G1 X87.686 Y120.320 E2.69994
G1 X88.315 Y120.112 E2.72044
G1 X88.972 Y119.948 E2.74139
G1 X89.650 Y119.830 E2.76269
G1 X90.342 Y119.758 E2.78423
G1 X91.042 Y119.735 E2.80590
G1 X91.742 Y119.758 E2.82757
G1 X92.435 Y119.830 E2.84912
G1 X93.113 Y119.948 E2.87042
G1 X93.770 Y120.112 E2.89137
G1 X94.399 Y120.320 E2.91186
G1 X94.993 Y120.570 E2.93182
G1 X95.547 Y120.861 E2.95117
G1 X96.054 Y121.191 E2.96987
G1 X96.508 Y121.555 E2.98790
G1 X96.905 Y121.952 E3.00528
G1 X97.240 Y122.379 E3.02205
G1 X97.507 Y122.830 E3.03828
G1 X97.702 Y123.303 E3.05410
G1 X97.821 Y123.790 E3.06961
G1 X97.861 Y124.285 E3.08497
G1 X97.821 Y124.780 E3.10033
G1 X97.716 Y125.207 E3.11395
G1 X98.029 Y125.650 F7800.000
G1 E1.11395 F2400.00000
G92 E0
G1 X98.419 Y121.090 F7800.000
G1 E2.00000 F2400.00000
G1 F1800.000
G1 X97.066 Y116.627 E2.14429
G1 X105.248 Y114.147 E2.40884
G1 X106.601 Y118.610 E2.55313
G1 X98.490 Y121.068 E2.81535
G1 X98.835 Y120.310 F7800.000
G1 F1800.000
G1 X97.845 Y117.043 E2.92098
G1 X104.831 Y114.926 E3.14685
G1 X105.821 Y118.193 E3.25247
G1 X98.907 Y120.289 E3.47602
G1 X98.383 Y120.523 F7800.000
G1 E1.47602 F2400.00000
G92 E0
G1 X117.142 Y116.067 F7800.000
G1 E2.00000 F2400.00000
G1 F1800.000
G1 X124.369 Y113.877 E2.23367
G1 X124.417 Y116.435 E2.31284
G1 X121.203 Y116.435 E2.41228
G1 X121.203 Y118.495 E2.47603
G1 X120.274 Y118.591 E2.50493
G1 X119.508 Y118.724 E2.52898
G1 X118.762 Y118.910 E2.55278
G1 X118.041 Y119.149 E2.57626
G1 X117.352 Y119.439 E2.59940
G1 X116.701 Y119.782 E2.62218
G1 X116.093 Y120.176 E2.64458
G1 X115.537 Y120.623 E2.66667
G1 X115.038 Y121.122 E2.68849
G1 X114.606 Y121.672 E2.71013
G1 X114.252 Y122.271 E2.73167
G1 X113.987 Y122.914 E2.75319
G1 X113.822 Y123.590 E2.77473
G1 X113.766 Y124.285 E2.79628
G1 X113.822 Y124.979 E2.81784
G1 X113.987 Y125.656 E2.83938
G1 X114.252 Y126.299 E2.86090
G1 X114.606 Y126.898 E2.88244
G1 X115.038 Y127.448 E2.90407
G1 X115.537 Y127.947 E2.92590
G1 X116.093 Y128.393 E2.94799
G1 X116.701 Y128.788 E2.97039
G1 X117.352 Y129.130 E2.99316
G1 X118.041 Y129.421 E3.01631
G1 X118.762 Y129.659 E3.03980
G1 X119.508 Y129.845 E3.06360
G1 X120.274 Y129.979 E3.08764
G1 X121.203 Y130.074 E3.11654
G1 X121.203 Y131.079 E3.14764
G1 X117.242 Y130.118 E3.27377
G1 X115.848 Y135.859 E3.45658
G1 X124.817 Y138.037 E3.74215
G1 X124.857 Y140.288 E3.81183
G1 X124.501 Y141.759 E3.85863
G1 X78.652 Y130.752 E5.31755
G1 X78.573 Y117.777 E5.71903
G1 X123.781 Y104.187 E7.17967
G1 X124.215 Y105.617 E7.22590
G1 X124.254 Y107.733 E7.29139
G1 X115.427 Y110.408 E7.57679
G1 X117.120 Y115.996 E7.75743
G1 X117.559 Y115.288 F7800.000
G1 F1800.000
G1 X124.978 Y113.039 E7.99733
G1 X125.054 Y117.060 E8.12176
G1 X121.828 Y117.060 E8.22156
G1 X121.828 Y119.110 E8.28499
G1 X121.095 Y119.135 E8.30767
G1 X120.360 Y119.210 E8.33055
G1 X119.638 Y119.336 E8.35323
G1 X118.936 Y119.511 E8.37561
G1 X118.261 Y119.734 E8.39760
G1 X117.619 Y120.005 E8.41914
G1 X117.017 Y120.322 E8.44021
G1 X116.460 Y120.684 E8.46076
G1 X115.954 Y121.089 E8.48082
G1 X115.506 Y121.537 E8.50041
G1 X115.123 Y122.025 E8.51962
G1 X114.813 Y122.551 E8.53851
G1 X114.582 Y123.108 E8.55718
G1 X114.441 Y123.690 E8.57570
G1 X114.393 Y124.285 E8.59416
G1 X114.441 Y124.880 E8.61262
G1 X114.582 Y125.461 E8.63115
G1 X114.813 Y126.019 E8.64981
G1 X115.123 Y126.544 E8.66870
G1 X115.506 Y127.033 E8.68790
G1 X115.954 Y127.481 E8.70751
G1 X116.460 Y127.886 E8.72756
G1 X117.017 Y128.248 E8.74812
G1 X117.619 Y128.565 E8.76918
G1 X118.261 Y128.835 E8.79073
G1 X118.936 Y129.059 E8.81272
G1 X119.638 Y129.234 E8.83509
G1 X120.360 Y129.359 E8.85777
G1 X121.095 Y129.435 E8.88065
G1 X121.828 Y129.460 E8.90334
G1 X121.828 Y131.510 E8.96676
G1 X125.323 Y131.510 E9.07490
G1 X125.345 Y132.728 E9.11260
G1 X117.702 Y130.872 E9.35596
G1 X116.603 Y135.399 E9.50011
G1 X124.911 Y137.417 E9.76466
G1 X125.090 Y136.680 E9.78810
G1 X125.418 Y136.717 E9.79830
G1 X125.484 Y140.358 E9.91097
G1 X124.961 Y142.512 E9.97956
G1 X78.030 Y131.245 E11.47291
G1 X77.946 Y117.313 E11.90400
G1 X124.199 Y103.409 E13.39840
G1 X124.838 Y105.518 E13.46660
G1 X124.902 Y108.924 E13.57199
G1 X124.579 Y108.975 E13.58209
G1 X124.388 Y108.345 E13.60244
G1 X116.206 Y110.825 E13.86698
G1 X117.537 Y115.216 E14.00896
G1 E12.00896 F2400.00000
G92 E0
G1 X122.453 Y117.685 F7800.000
G1 E2.00000 F2400.00000
G1 F1800.000
G1 X122.453 Y119.756 E2.06407
G1 X121.838 Y119.735 E2.08312
G1 X121.138 Y119.758 E2.10478
G1 X120.445 Y119.830 E2.12633
G1 X119.767 Y119.948 E2.14763
G1 X119.110 Y120.112 E2.16858
G1 X118.481 Y120.320 E2.18908
G1 X117.887 Y120.570 E2.20903
G1 X117.333 Y120.861 E2.22838
G1 X116.827 Y121.191 E2.24708
G1 X116.372 Y121.555 E2.26511
G1 X115.975 Y121.952 E2.28249
G1 X115.640 Y122.379 E2.29926
G1 X115.373 Y122.830 E2.31550
G1 X115.178 Y123.303 E2.33131
G1 X115.059 Y123.790 E2.34682
G1 X115.020 Y124.285 E2.36219
G1 X115.059 Y124.780 E2.37755
G1 X115.178 Y125.267 E2.39306
G1 X115.373 Y125.739 E2.40888
G1 X115.640 Y126.191 E2.42511
G1 X115.975 Y126.617 E2.44188
G1 X116.372 Y127.015 E2.45926
G1 X116.827 Y127.379 E2.47729
G1 X117.333 Y127.708 E2.49599
G1 X117.887 Y127.999 E2.51534
G1 X118.481 Y128.250 E2.53529
G1 X119.110 Y128.458 E2.55579
G1 X119.767 Y128.622 E2.57674
G1 X120.445 Y128.740 E2.59804
G1 X121.138 Y128.811 E2.61959
G1 X121.838 Y128.835 E2.64126
G1 X122.453 Y128.814 E2.66030
G1 X122.453 Y130.885 E2.72437
G1 X125.937 Y130.885 E2.83216
G1 X126.110 Y140.427 E3.12745
G1 X125.421 Y143.265 E3.21781
G1 X77.408 Y131.739 E4.74560
G1 X77.318 Y116.849 E5.20630
G1 X124.616 Y102.631 E6.73446
G1 X125.461 Y105.420 E6.82464
G1 X125.690 Y117.685 E7.20420
G1 X122.528 Y117.685 E7.30204
G1 X122.001 Y117.899 F7800.000
G1 E5.30204 F2400.00000
G92 E0
G1 X125.237 Y112.099 F7800.000
G1 E2.00000 F2400.00000
G1 F1800.000
G1 X125.173 Y111.693 E2.00116
G1 F1800.000
G1 X125.109 Y111.287 E2.00428
G1 F1800.000
G1 X125.045 Y110.881 E2.00936
G1 F1800.000
G1 X124.981 Y110.475 E2.01640
G1 F1800.000
G1 X124.917 Y110.069 E2.02540
G1 F1800.000
G1 X124.853 Y109.664 E2.03636
G1 F1800.000
G1 X124.789 Y109.258 E2.04928
G1 E0.04928 F2400.00000
G92 E0
G1 X120.891 Y130.517 F7800.000
G1 E2.00000 F2400.00000
G1 F1800.000
G1 X120.219 Y130.402 E2.00757
G1 F1800.000
G1 X119.429 Y130.237 E2.01368
G1 F1800.000
G1 X118.270 Y129.937 E2.01956
G1 F1800.000
G1 X117.608 Y129.735 E2.02532
G1 F1800.000
G1 X117.057 Y129.554 E2.03231
G1 E0.03231 F2400.00000
G92 E0
G1 X123.248 Y131.859 F7800.000
G1 E2.00000 F2400.00000
G1 F1800.000
G1 X123.691 Y131.912 E2.00219
G1 F1800.000
G1 X124.134 Y131.965 E2.00638
G1 F1800.000
G1 X124.577 Y132.018 E2.01256
G1 F1800.000
G1 X125.021 Y132.071 E2.02073
G1 X125.631 Y133.282 F7800.000
G1 F1800.000
G1 X125.582 Y133.726 E2.02310
G1 F1800.000
G1 X125.533 Y134.169 E2.02765
G1 F1800.000
G1 X125.484 Y134.613 E2.03438
G1 F1800.000
G1 X125.435 Y135.057 E2.04328
G1 F1800.000
G1 X125.386 Y135.501 E2.05436
G1 F1800.000
G1 X125.337 Y135.944 E2.06762
G1 F1800.000
G1 X125.288 Y136.388 E2.08305
G1 E0.08305 F2400.00000
G92 E0
G1 X123.797 Y141.248 F7800.000
G1 E2.00000 F2400.00000
G1 F1800.000
G1 X124.284 Y140.762 E2.02141
G1 X124.474 Y139.976 E2.04660
G1 X124.469 Y139.687 E2.05561
G1 X123.080 Y141.076 E2.11679
G1 X122.363 Y140.904 E2.13976
G1 X124.453 Y138.814 E2.23184
G1 X124.444 Y138.287 E2.24824
G1 X124.159 Y138.218 E2.25735
G1 X121.645 Y140.732 E2.36807
G1 X120.928 Y140.560 E2.39105
G1 X123.443 Y138.044 E2.50183
G1 X122.728 Y137.871 E2.52477
G1 X120.211 Y140.387 E2.63562
G1 X119.493 Y140.215 E2.65860
G1 X122.012 Y137.697 E2.76952
G1 X121.296 Y137.523 E2.79246
G1 X118.776 Y140.043 E2.90345
G1 X118.059 Y139.871 E2.92643
G1 X120.580 Y137.349 E3.03749
G1 X119.865 Y137.175 E3.06043
G1 X117.341 Y139.699 E3.17156
G1 X116.624 Y139.526 E3.19454
G1 X119.149 Y137.002 E3.30574
G1 X118.433 Y136.828 E3.32868
G1 X115.907 Y139.354 E3.43995
G1 X115.189 Y139.182 E3.46292
G1 X117.717 Y136.654 E3.57426
G1 X117.002 Y136.480 E3.59720
G1 X114.472 Y139.010 E3.70861
G1 X113.755 Y138.838 E3.73158
G1 X116.286 Y136.307 E3.84306
G1 X115.570 Y136.133 E3.86600
G1 X113.037 Y138.665 E3.97755
G1 X112.320 Y138.493 E4.00052
G1 X115.528 Y135.285 E4.14183
G1 X115.814 Y134.110 E4.17948
G1 X111.603 Y138.321 E4.36494
G1 X110.885 Y138.149 E4.38792
G1 X116.099 Y132.935 E4.61754
G1 X116.384 Y131.761 E4.65519
G1 X110.168 Y137.977 E4.92896
G1 X109.451 Y137.804 E4.95194
G1 X116.669 Y130.586 E5.26987
G1 X116.817 Y129.977 E5.28939
G1 X116.495 Y129.871 E5.29995
G1 X108.734 Y137.632 E5.64181
G1 X108.016 Y137.460 E5.66479
G1 X116.485 Y128.992 E6.03777
G1 X115.947 Y128.639 E6.05778
G1 X107.299 Y137.288 E6.43870
G1 X106.582 Y137.116 E6.46168
G1 X115.454 Y128.243 E6.85245
G1 X115.000 Y127.808 E6.87205
G1 X105.864 Y136.943 E7.27442
G1 X105.147 Y136.771 E7.29740
G1 X114.586 Y127.332 E7.71315
G1 X114.332 Y127.008 E7.72597
