; Gcode updated with 'stl_info' on 2019-12-09 14:09:26.643977

; stl_min_x = -20.0
; stl_max_x = 20.0
; stl_min_y = -13.0
; stl_max_y = 26.799999237060547
; stl_min_z = -8.199999809265137

; generated by Slic3r 1.3.1-dev (Build adea0d9) on 2019-12-09 at 14:09:25

; external perimeters extrusion width = 0.44mm (2.86mm^3/s)
; perimeters extrusion width = 0.56mm (4.14mm^3/s)
; infill extrusion width = 0.50mm (3.66mm^3/s)
; solid infill extrusion width = 0.56mm (3.10mm^3/s)
; top infill extrusion width = 0.56mm (3.10mm^3/s)

M107
G92 E0
;D3D:START:START
T0
M104 S215 T0

G21
G90
M107
T0
G28
G29
M109 T0 S215 T0
G0 F3000
M107
T0
G92 E0
G0 X0 Y149 Z0.1 F3600
G1 Y49 E6.5 F1200
G0 Z1
G92 E0
; Filament gcode

G21 ; set units to millimeters
G90 ; use absolute coordinates
M82 ; use absolute distances for extrusion
G92 E0
G1 Z0.300 F7800.000
G1 E-2.00000 F2400.00000
G92 E0
G1 X70.830 Y75.330 F7800.000
G1 E2.00000 F2400.00000
G1 F1800.000
G1 X71.170 Y75.016 E2.01534
G1 X71.534 Y74.729 E2.03068
G1 X71.919 Y74.472 E2.04602
G1 X72.323 Y74.246 E2.06136
G1 X72.743 Y74.052 E2.07670
G1 X73.178 Y73.892 E2.09204
G1 X73.623 Y73.766 E2.10738
G1 X74.078 Y73.676 E2.12271
G1 X74.537 Y73.621 E2.13805
G1 X75.000 Y73.603 E2.15339
G1 X75.463 Y73.621 E2.16873
G1 X75.922 Y73.676 E2.18407
G1 X76.377 Y73.766 E2.19941
G1 X76.822 Y73.892 E2.21475
G1 X77.257 Y74.052 E2.23009
G1 X77.677 Y74.246 E2.24543
G1 X78.081 Y74.472 E2.26077
G1 X78.466 Y74.729 E2.27611
G1 X78.830 Y75.016 E2.29145
G1 X79.170 Y75.330 E2.30679
G1 X79.484 Y75.670 E2.32213
G1 X79.771 Y76.034 E2.33747
G1 X80.028 Y76.419 E2.35281
G1 X80.254 Y76.823 E2.36815
G1 X80.448 Y77.243 E2.38348
G1 X80.608 Y77.678 E2.39882
G1 X80.734 Y78.123 E2.41416
G1 X80.824 Y78.577 E2.42950
G1 X80.879 Y79.037 E2.44484
G1 X80.897 Y79.500 E2.46018
G1 X80.879 Y79.963 E2.47552
G1 X80.824 Y80.423 E2.49086
G1 X80.734 Y80.877 E2.50620
G1 X80.608 Y81.322 E2.52154
G1 X80.448 Y81.757 E2.53688
G1 X80.254 Y82.177 E2.55222
G1 X80.028 Y82.581 E2.56756
G1 X79.771 Y82.966 E2.58290
G1 X79.484 Y83.330 E2.59823
G1 X79.170 Y83.670 E2.61358
G1 X78.830 Y83.984 E2.62892
G1 X78.466 Y84.271 E2.64426
G1 X78.081 Y84.528 E2.65959
G1 X77.677 Y84.754 E2.67493
G1 X77.257 Y84.948 E2.69027
G1 X76.822 Y85.108 E2.70561
G1 X76.377 Y85.234 E2.72095
G1 X75.922 Y85.324 E2.73629
G1 X75.463 Y85.379 E2.75163
G1 X75.000 Y85.397 E2.76697
G1 X74.537 Y85.379 E2.78231
G1 X74.077 Y85.324 E2.79765
G1 X73.623 Y85.234 E2.81299
G1 X73.178 Y85.108 E2.82833
G1 X72.743 Y84.948 E2.84367
G1 X72.323 Y84.754 E2.85901
G1 X71.919 Y84.528 E2.87434
G1 X71.534 Y84.271 E2.88968
G1 X71.170 Y83.984 E2.90502
G1 X70.830 Y83.670 E2.92036
G1 X70.516 Y83.330 E2.93570
G1 X70.229 Y82.966 E2.95104
G1 X69.972 Y82.581 E2.96638
G1 X69.746 Y82.177 E2.98172
G1 X69.552 Y81.757 E2.99706
G1 X69.392 Y81.322 E3.01240
G1 X69.266 Y80.877 E3.02774
G1 X69.176 Y80.423 E3.04308
G1 X69.121 Y79.963 E3.05842
G1 X69.103 Y79.500 E3.07376
G1 X69.121 Y79.037 E3.08910
G1 X69.176 Y78.577 E3.10444
G1 X69.266 Y78.123 E3.11978
G1 X69.392 Y77.678 E3.13511
G1 X69.552 Y77.243 E3.15045
G1 X69.746 Y76.823 E3.16579
G1 X69.972 Y76.419 E3.18113
G1 X70.229 Y76.034 E3.19647
G1 X70.516 Y75.670 E3.21181
G1 X70.790 Y75.374 E3.22516
G1 X71.018 Y75.518 F7800.000
G1 F1800.000
G1 X71.343 Y75.218 E3.23981
G1 X71.690 Y74.944 E3.25446
G1 X72.058 Y74.699 E3.26911
G1 X72.444 Y74.483 E3.28375
G1 X72.845 Y74.298 E3.29840
G1 X73.260 Y74.145 E3.31305
G1 X73.685 Y74.025 E3.32770
G1 X74.119 Y73.938 E3.34235
G1 X74.558 Y73.886 E3.35699
G1 X75.000 Y73.869 E3.37164
G1 X75.442 Y73.886 E3.38629
G1 X75.881 Y73.938 E3.40094
G1 X76.315 Y74.025 E3.41559
G1 X76.740 Y74.145 E3.43023
G1 X77.155 Y74.298 E3.44488
G1 X77.556 Y74.483 E3.45953
G1 X77.942 Y74.699 E3.47418
G1 X78.310 Y74.944 E3.48883
G1 X78.657 Y75.218 E3.50347
G1 X78.982 Y75.518 E3.51812
G1 X79.282 Y75.843 E3.53277
G1 X79.556 Y76.190 E3.54742
G1 X79.801 Y76.558 E3.56206
G1 X80.017 Y76.944 E3.57671
G1 X80.202 Y77.345 E3.59136
G1 X80.355 Y77.760 E3.60601
G1 X80.475 Y78.185 E3.62066
G1 X80.562 Y78.619 E3.63530
G1 X80.614 Y79.058 E3.64995
G1 X80.631 Y79.500 E3.66460
G1 X80.614 Y79.942 E3.67925
G1 X80.562 Y80.381 E3.69390
G1 X80.475 Y80.814 E3.70854
G1 X80.355 Y81.240 E3.72319
G1 X80.202 Y81.655 E3.73784
G1 X80.017 Y82.056 E3.75249
G1 X79.801 Y82.442 E3.76713
G1 X79.556 Y82.810 E3.78178
G1 X79.282 Y83.157 E3.79643
G1 X78.982 Y83.482 E3.81108
G1 X78.657 Y83.782 E3.82573
G1 X78.310 Y84.056 E3.84038
G1 X77.942 Y84.301 E3.85502
G1 X77.556 Y84.517 E3.86967
G1 X77.155 Y84.702 E3.88432
G1 X76.740 Y84.855 E3.89897
G1 X76.315 Y84.975 E3.91361
G1 X75.881 Y85.062 E3.92826
G1 X75.442 Y85.114 E3.94291
G1 X75.000 Y85.131 E3.95756
G1 X74.558 Y85.114 E3.97221
G1 X74.119 Y85.062 E3.98685
G1 X73.685 Y84.975 E4.00150
G1 X73.260 Y84.855 E4.01615
G1 X72.845 Y84.702 E4.03080
G1 X72.444 Y84.517 E4.04545
G1 X72.058 Y84.301 E4.06009
G1 X71.690 Y84.056 E4.07474
G1 X71.343 Y83.782 E4.08939
G1 X71.018 Y83.482 E4.10404
G1 X70.718 Y83.157 E4.11869
G1 X70.444 Y82.810 E4.13333
G1 X70.199 Y82.442 E4.14798
G1 X69.983 Y82.056 E4.16263
G1 X69.798 Y81.655 E4.17727
G1 X69.645 Y81.240 E4.19192
G1 X69.525 Y80.815 E4.20657
G1 X69.438 Y80.381 E4.22122
G1 X69.386 Y79.942 E4.23587
G1 X69.369 Y79.500 E4.25052
G1 X69.386 Y79.058 E4.26516
G1 X69.438 Y78.619 E4.27981
G1 X69.525 Y78.185 E4.29446
G1 X69.645 Y77.760 E4.30911
G1 X69.798 Y77.345 E4.32376
G1 X69.983 Y76.944 E4.33840
G1 X70.199 Y76.558 E4.35305
G1 X70.444 Y76.190 E4.36770
G1 X70.718 Y75.843 E4.38235
G1 X70.978 Y75.562 E4.39501
G1 X71.206 Y75.706 F7800.000
G1 F1800.000
G1 X71.516 Y75.420 E4.40896
G1 X71.846 Y75.160 E4.42292
G1 X72.197 Y74.925 E4.43688
G1 X72.564 Y74.720 E4.45083
G1 X72.947 Y74.543 E4.46479
G1 X73.342 Y74.397 E4.47875
G1 X73.748 Y74.283 E4.49270
G1 X74.161 Y74.201 E4.50666
G1 X74.579 Y74.151 E4.52061
G1 X75.000 Y74.135 E4.53457
G1 X75.421 Y74.151 E4.54853
G1 X75.839 Y74.201 E4.56248
G1 X76.252 Y74.283 E4.57644
G1 X76.658 Y74.397 E4.59040
G1 X77.053 Y74.543 E4.60435
G1 X77.436 Y74.720 E4.61831
G1 X77.803 Y74.925 E4.63227
G1 X78.154 Y75.160 E4.64622
G1 X78.484 Y75.420 E4.66018
G1 X78.794 Y75.706 E4.67413
G1 X79.080 Y76.016 E4.68809
G1 X79.340 Y76.346 E4.70205
G1 X79.575 Y76.697 E4.71600
G1 X79.780 Y77.064 E4.72996
G1 X79.957 Y77.447 E4.74392
G1 X80.103 Y77.842 E4.75787
G1 X80.217 Y78.248 E4.77183
G1 X80.299 Y78.661 E4.78578
G1 X80.349 Y79.079 E4.79974
G1 X80.365 Y79.500 E4.81370
G1 X80.349 Y79.921 E4.82766
G1 X80.299 Y80.339 E4.84161
G1 X80.217 Y80.752 E4.85557
G1 X80.103 Y81.158 E4.86952
G1 X79.957 Y81.553 E4.88348
G1 X79.780 Y81.936 E4.89744
G1 X79.575 Y82.303 E4.91139
G1 X79.340 Y82.654 E4.92535
G1 X79.080 Y82.984 E4.93931
G1 X78.794 Y83.294 E4.95326
G1 X78.484 Y83.580 E4.96722
G1 X78.154 Y83.840 E4.98118
G1 X77.803 Y84.074 E4.99513
G1 X77.436 Y84.280 E5.00909
G1 X77.053 Y84.457 E5.02305
G1 X76.658 Y84.603 E5.03700
G1 X76.252 Y84.717 E5.05096
G1 X75.839 Y84.799 E5.06491
G1 X75.421 Y84.849 E5.07887
G1 X75.000 Y84.865 E5.09283
G1 X74.579 Y84.849 E5.10678
G1 X74.161 Y84.799 E5.12074
G1 X73.748 Y84.717 E5.13470
G1 X73.342 Y84.603 E5.14865
G1 X72.947 Y84.457 E5.16261
G1 X72.564 Y84.280 E5.17657
G1 X72.197 Y84.074 E5.19052
G1 X71.846 Y83.840 E5.20448
G1 X71.516 Y83.580 E5.21843
G1 X71.206 Y83.294 E5.23239
G1 X70.920 Y82.984 E5.24635
G1 X70.660 Y82.654 E5.26030
G1 X70.425 Y82.303 E5.27426
G1 X70.220 Y81.936 E5.28822
G1 X70.043 Y81.553 E5.30217
G1 X69.897 Y81.158 E5.31613
G1 X69.783 Y80.752 E5.33009
G1 X69.701 Y80.339 E5.34404
G1 X69.651 Y79.921 E5.35800
G1 X69.635 Y79.500 E5.37196
G1 X69.651 Y79.079 E5.38591
G1 X69.701 Y78.661 E5.39987
G1 X69.783 Y78.248 E5.41382
G1 X69.897 Y77.842 E5.42778
G1 X70.043 Y77.447 E5.44174
G1 X70.220 Y77.064 E5.45569
G1 X70.425 Y76.697 E5.46965
G1 X70.660 Y76.346 E5.48361
G1 X70.920 Y76.016 E5.49756
G1 X71.166 Y75.750 E5.50953
G1 E3.50953 F2400.00000
G92 E0
G1 X72.948 Y63.854 F7800.000
G1 E2.00000 F2400.00000
G1 F1800.000
G1 X70.896 Y60.300 E2.13596
G1 X72.948 Y56.746 E2.27192
G1 X77.052 Y56.746 E2.40789
G1 X79.104 Y60.300 E2.54385
G1 X77.052 Y63.854 E2.67981
G1 X73.008 Y63.854 E2.81378
G1 X73.101 Y63.588 F7800.000
G1 F1800.000
G1 X71.203 Y60.300 E2.93958
G1 X73.101 Y57.011 E3.06539
G1 X76.899 Y57.011 E3.19119
G1 X78.797 Y60.300 E3.31699
G1 X76.899 Y63.588 E3.44279
G1 X73.161 Y63.588 E3.56660
G1 X73.255 Y63.323 F7800.000
G1 F1800.000
G1 X71.509 Y60.300 E3.68224
G1 X73.255 Y57.277 E3.79788
G1 X76.745 Y57.277 E3.91352
G1 X78.491 Y60.300 E4.02916
G1 X76.745 Y63.323 E4.14480
G1 X73.315 Y63.323 E4.25845
G1 E2.25845 F2400.00000
G92 E0
G1 X67.496 Y86.596 F7800.000
G1 E2.00000 F2400.00000
G1 F1800.000
G1 X67.496 Y55.796 E3.02039
G1 X82.504 Y55.796 E3.51758
G1 X82.504 Y86.596 E4.53797
G1 X94.304 Y86.596 E4.92890
G1 X94.304 Y94.204 E5.18093
G1 X55.696 Y94.204 E6.45998
G1 X55.696 Y86.596 E6.71202
G1 X67.436 Y86.596 E7.10096
G1 X67.231 Y86.331 F7800.000
G1 F1800.000
G1 X67.231 Y55.531 E8.12135
G1 X82.769 Y55.531 E8.63614
G1 X82.769 Y86.331 E9.65653
G1 X94.569 Y86.331 E10.04745
G1 X94.569 Y94.469 E10.31709
G1 X55.431 Y94.469 E11.61374
G1 X55.431 Y86.331 E11.88337
G1 X67.171 Y86.331 E12.27231
G1 X66.965 Y86.065 F7800.000
G1 F1800.000
G1 X66.965 Y55.265 E13.29270
G1 X83.035 Y55.265 E13.82509
G1 X83.035 Y86.065 E14.84548
G1 X94.835 Y86.065 E15.23641
G1 X94.835 Y94.735 E15.52364
G1 X55.165 Y94.735 E16.83789
G1 X55.165 Y86.065 E17.12512
G1 X66.905 Y86.065 E17.51406
G1 E15.51406 F2400.00000
G92 E0
G1 X69.562 Y76.526 F7800.000
G1 E2.00000 F2400.00000
G1 F1800.000
G1 X69.911 Y75.981 E2.02155
G1 X70.211 Y75.601 E2.03766
G1 X70.539 Y75.246 E2.05376
G1 X70.894 Y74.917 E2.06986
G1 X71.274 Y74.618 E2.08597
G1 X71.820 Y74.269 E2.10752
G1 X82.341 Y63.747 E2.60274
G1 X82.341 Y64.124 E2.61530
G1 X72.566 Y73.899 E3.07538
G1 X73.144 Y73.700 E3.09571
G1 X82.341 Y64.502 E3.52862
G1 X82.341 Y64.879 E3.54118
G1 X73.647 Y73.573 E3.95039
G1 X74.101 Y73.497 E3.96572
G1 X82.341 Y65.257 E4.35355
G1 X82.341 Y65.634 E4.36611
G1 X74.520 Y73.456 E4.73425
G1 X74.911 Y73.441 E4.74730
G1 X82.341 Y66.011 E5.09700
G1 X82.341 Y66.389 E5.10956
G1 X75.275 Y73.456 E5.44218
G1 X75.619 Y73.488 E5.45371
G1 X82.341 Y66.766 E5.77010
G1 X82.341 Y67.143 E5.78266
G1 X75.950 Y73.534 E6.08346
G1 X76.265 Y73.597 E6.09414
G1 X82.341 Y67.521 E6.38014
G1 X82.341 Y67.898 E6.39270
G1 X76.564 Y73.676 E6.66462
G1 X76.855 Y73.762 E6.67472
G1 X82.341 Y68.275 E6.93296
G1 X82.341 Y68.653 E6.94552
G1 X77.130 Y73.864 E7.19079
G1 X77.397 Y73.975 E7.20039
G1 X82.341 Y69.030 E7.43313
G1 X82.341 Y69.408 E7.44569
G1 X77.655 Y74.094 E7.66627
G1 X77.899 Y74.227 E7.67553
G1 X82.341 Y69.785 E7.88461
G1 X82.341 Y70.162 E7.89717
G1 X78.140 Y74.364 E8.09494
G1 X78.366 Y74.515 E8.10399
G1 X82.341 Y70.540 E8.29112
G1 X82.341 Y70.917 E8.30368
G1 X78.587 Y74.671 E8.48038
G1 X78.798 Y74.838 E8.48933
G1 X82.341 Y71.294 E8.65610
G1 X82.341 Y71.672 E8.66866
G1 X79.001 Y75.012 E8.82587
G1 X79.197 Y75.193 E8.83476
G1 X82.341 Y72.049 E8.98273
G1 X82.341 Y72.427 E8.99529
G1 X79.383 Y75.385 E9.13454
G1 X79.564 Y75.581 E9.14343
G1 X82.341 Y72.804 E9.27414
G1 X82.341 Y73.181 E9.28670
G1 X79.732 Y75.791 E9.40951
G1 X79.897 Y76.003 E9.41846
G1 X82.341 Y73.559 E9.53351
G1 X82.341 Y73.936 E9.54607
G1 X80.048 Y76.229 E9.65401
G1 X80.194 Y76.460 E9.66312
G1 X82.341 Y74.313 E9.76417
G1 X82.341 Y74.691 E9.77673
G1 X80.330 Y76.702 E9.87142
G1 X80.456 Y76.954 E9.88077
G1 X82.341 Y75.068 E9.96952
G1 X82.341 Y75.445 E9.98208
G1 X80.575 Y77.212 E10.06523
G1 X80.679 Y77.485 E10.07496
G1 X82.341 Y75.823 E10.15322
G1 X82.341 Y76.200 E10.16578
G1 X80.776 Y77.765 E10.23944
G1 X80.859 Y78.060 E10.24962
G1 X82.341 Y76.578 E10.31938
G1 X82.341 Y76.955 E10.33194
G1 X80.929 Y78.367 E10.39841
G1 X80.989 Y78.685 E10.40917
G1 X82.341 Y77.332 E10.47283
G1 X82.341 Y77.710 E10.48539
G1 X81.029 Y79.022 E10.54718
G1 X81.050 Y79.378 E10.55904
G1 X82.341 Y78.087 E10.61980
G1 X82.341 Y78.464 E10.63236
G1 X81.053 Y79.752 E10.69299
G1 X81.033 Y80.150 E10.70625
G1 X82.341 Y78.842 E10.76785
G1 X82.341 Y79.219 E10.78041
G1 X80.981 Y80.580 E10.84444
G1 X80.886 Y81.052 E10.86047
G1 X82.341 Y79.596 E10.92896
G1 X82.341 Y79.974 E10.94152
G1 X80.728 Y81.587 E11.01744
G1 X80.590 Y81.962 E11.03074
G1 X80.470 Y82.223 E11.04032
G1 X82.341 Y80.351 E11.12842
G1 X82.341 Y80.729 E11.14098
G1 X79.959 Y83.111 E11.25313
G1 E9.25313 F2400.00000
G92 E0
G1 X93.935 Y94.041 F7800.000
G1 E2.00000 F2400.00000
G1 F1800.000
G1 X94.141 Y93.835 E2.00973
G1 X94.141 Y93.457 E2.02229
G1 X93.557 Y94.041 E2.04978
G1 X93.180 Y94.041 E2.06234
G1 X94.141 Y93.080 E2.10760
G1 X94.141 Y92.703 E2.12016
G1 X92.803 Y94.041 E2.18317
G1 X92.425 Y94.041 E2.19573
G1 X94.141 Y92.325 E2.27651
G1 X94.141 Y91.948 E2.28907
G1 X92.048 Y94.041 E2.38760
G1 X91.671 Y94.041 E2.40016
G1 X94.141 Y91.571 E2.51646
G1 X94.141 Y91.193 E2.52902
G1 X91.293 Y94.041 E2.66308
G1 X90.916 Y94.041 E2.67564
G1 X94.141 Y90.816 E2.82747
G1 X94.141 Y90.438 E2.84003
G1 X90.538 Y94.041 E3.00961
G1 X90.161 Y94.041 E3.02217
G1 X94.141 Y90.061 E3.20952
G1 X94.141 Y89.684 E3.22208
G1 X89.784 Y94.041 E3.42718
G1 X89.406 Y94.041 E3.43974
G1 X94.141 Y89.306 E3.66261
G1 X94.141 Y88.929 E3.67517
G1 X89.029 Y94.041 E3.91580
G1 X88.652 Y94.041 E3.92836
G1 X94.141 Y88.552 E4.18675
G1 X94.141 Y88.174 E4.19931
G1 X88.274 Y94.041 E4.47547
G1 X87.897 Y94.041 E4.48803
G1 X94.141 Y87.797 E4.78194
G1 X94.141 Y87.420 E4.79450
G1 X87.520 Y94.041 E5.10618
G1 X87.142 Y94.041 E5.11874
G1 X94.141 Y87.042 E5.44818
G1 X94.141 Y86.759 E5.45762
G1 X94.048 Y86.759 E5.46074
G1 X86.765 Y94.041 E5.80352
G1 X86.387 Y94.041 E5.81608
G1 X93.670 Y86.759 E6.15887
G1 X93.293 Y86.759 E6.17143
G1 X86.010 Y94.041 E6.51421
G1 X85.633 Y94.041 E6.52677
G1 X92.916 Y86.759 E6.86956
G1 X92.538 Y86.759 E6.88212
G1 X85.255 Y94.041 E7.22491
G1 X84.878 Y94.041 E7.23747
G1 X92.161 Y86.759 E7.58025
G1 X91.784 Y86.759 E7.59281
G1 X84.501 Y94.041 E7.93560
G1 X84.123 Y94.041 E7.94816
G1 X91.406 Y86.759 E8.29095
G1 X91.029 Y86.759 E8.30351
G1 X83.746 Y94.041 E8.64629
G1 X83.368 Y94.041 E8.65885
G1 X90.651 Y86.759 E9.00164
G1 X90.274 Y86.759 E9.01420
G1 X82.991 Y94.041 E9.35698
G1 X82.614 Y94.041 E9.36954
G1 X89.897 Y86.759 E9.71233
G1 X89.519 Y86.759 E9.72489
G1 X82.236 Y94.041 E10.06768
G1 X81.859 Y94.041 E10.08024
G1 X89.142 Y86.759 E10.42302
G1 X88.765 Y86.759 E10.43558
G1 X81.482 Y94.041 E10.77837
G1 X81.104 Y94.041 E10.79093
G1 X88.387 Y86.759 E11.13372
G1 X88.010 Y86.759 E11.14627
G1 X80.727 Y94.041 E11.48906
G1 X80.350 Y94.041 E11.50162
G1 X87.632 Y86.759 E11.84441
G1 X87.255 Y86.759 E11.85697
G1 X79.972 Y94.041 E12.19975
G1 X79.595 Y94.041 E12.21231
G1 X86.878 Y86.759 E12.55510
G1 X86.500 Y86.759 E12.56766
G1 X79.217 Y94.041 E12.91045
G1 X78.840 Y94.041 E12.92301
G1 X86.123 Y86.759 E13.26579
G1 X85.746 Y86.759 E13.27835
G1 X78.463 Y94.041 E13.62114
G1 X78.085 Y94.041 E13.63370
G1 X85.368 Y86.759 E13.97649
G1 X84.991 Y86.759 E13.98904
G1 X77.708 Y94.041 E14.33183
G1 X77.331 Y94.041 E14.34439
G1 X84.614 Y86.759 E14.68718
G1 X84.236 Y86.759 E14.69974
G1 X76.953 Y94.041 E15.04252
G1 X76.576 Y94.041 E15.05508
G1 X83.859 Y86.759 E15.39787
G1 X83.481 Y86.759 E15.41043
G1 X76.199 Y94.041 E15.75322
G1 X75.821 Y94.041 E15.76578
G1 X83.104 Y86.759 E16.10856
G1 X82.727 Y86.759 E16.12112
G1 X75.444 Y94.041 E16.46391
G1 X75.066 Y94.041 E16.47647
G1 X82.349 Y86.759 E16.81926
G1 X82.341 Y86.389 E16.83155
G1 X74.689 Y94.041 E17.19173
G1 X74.312 Y94.041 E17.20429
G1 X82.341 Y86.012 E17.58223
G1 X82.341 Y85.634 E17.59479
G1 X73.934 Y94.041 E17.99049
G1 X73.557 Y94.041 E18.00305
G1 X82.341 Y85.257 E18.41651
G1 X82.341 Y84.880 E18.42907
G1 X73.180 Y94.041 E18.86029
G1 X72.802 Y94.041 E18.87285
G1 X82.341 Y84.502 E19.32184
G1 X82.341 Y84.125 E19.33440
G1 X72.425 Y94.041 E19.80114
G1 X72.047 Y94.041 E19.81370
G1 X82.341 Y83.747 E20.29821
G1 X82.341 Y83.370 E20.31077
G1 X71.670 Y94.041 E20.81304
G1 X71.293 Y94.041 E20.82560
G1 X82.341 Y82.993 E21.34563
G1 X82.341 Y82.615 E21.35819
G1 X70.915 Y94.041 E21.89598
G1 X70.538 Y94.041 E21.90854
G1 X82.341 Y82.238 E22.46409
G1 X82.341 Y81.861 E22.47665
G1 X70.161 Y94.041 E23.04997
G1 X69.783 Y94.041 E23.06253
G1 X82.341 Y81.483 E23.65361
G1 X82.341 Y81.106 E23.66616
