; generated by Slic3r 1.3.1-dev (Build 2ef957d) on 2019-11-25 at 09:24:40

; external perimeters extrusion width = 0.55mm (4.37mm^3/s)
; perimeters extrusion width = 0.70mm (11.44mm^3/s)
; infill extrusion width = 0.62mm (13.45mm^3/s)
; solid infill extrusion width = 0.70mm (3.81mm^3/s)
; top infill extrusion width = 0.70mm (2.86mm^3/s)

M107
G92 E0
M104 S200 ; set temperature
G28 ; home all axes
G1 Z5 F5000 ; lift nozzle

; Filament gcode

M109 S200 ; set temperature and wait for it to be reached
G21 ; set units to millimeters
G90 ; use absolute coordinates
M82 ; use absolute distances for extrusion
G92 E0
G1 Z0.350 F7800.000
G1 E-2.00000 F2400.00000
G92 E0
G1 X77.246 Y64.219 F7800.000
G1 E2.00000 F2400.00000
G1 F1800.000
G1 X78.951 Y62.684 E2.07096
G1 X82.010 Y61.691 E2.17047
G1 X130.803 Y58.330 E3.68377
G1 X131.907 Y58.293 E3.71797
G1 X132.917 Y58.307 E3.74923
G1 X133.748 Y58.371 E3.77499
G1 X134.747 Y58.511 E3.80621
G1 X135.564 Y58.680 E3.83204
G1 X136.537 Y58.944 E3.86322
G1 X137.329 Y59.215 E3.88911
G1 X138.259 Y59.599 E3.92025
G1 X139.012 Y59.968 E3.94620
G1 X139.885 Y60.467 E3.97732
G1 X140.587 Y60.929 E4.00331
G1 X141.390 Y61.534 E4.03441
G1 X142.027 Y62.081 E4.06040
G1 X142.746 Y62.782 E4.09149
G1 X143.311 Y63.407 E4.11753
G1 X143.935 Y64.194 E4.14862
G1 X144.415 Y64.883 E4.17461
G1 X144.935 Y65.743 E4.20570
G1 X145.323 Y66.488 E4.23169
G1 X145.731 Y67.408 E4.26281
G1 X146.022 Y68.194 E4.28877
G1 X146.310 Y69.159 E4.31992
G1 X146.499 Y69.974 E4.34579
G1 X146.663 Y70.968 E4.37697
G1 X146.748 Y71.798 E4.40278
G1 X146.791 Y73.060 E4.44185
G1 X146.791 Y126.940 E6.10899
G1 X146.748 Y128.202 E6.14806
G1 X146.663 Y129.032 E6.17387
G1 X146.499 Y130.026 E6.20506
G1 X146.310 Y130.841 E6.23093
G1 X146.022 Y131.806 E6.26207
G1 X145.731 Y132.592 E6.28803
G1 X145.323 Y133.512 E6.31915
G1 X144.935 Y134.257 E6.34514
G1 X144.415 Y135.117 E6.37624
G1 X143.935 Y135.806 E6.40223
G1 X143.311 Y136.593 E6.43332
G1 X142.746 Y137.218 E6.45936
G1 X142.027 Y137.919 E6.49044
G1 X141.389 Y138.466 E6.51644
G1 X140.587 Y139.071 E6.54753
G1 X139.885 Y139.533 E6.57353
G1 X139.012 Y140.032 E6.60465
G1 X138.259 Y140.401 E6.63059
G1 X137.329 Y140.785 E6.66174
G1 X136.537 Y141.056 E6.68762
G1 X135.565 Y141.320 E6.71880
G1 X134.747 Y141.489 E6.74464
G1 X133.747 Y141.629 E6.77586
G1 X132.917 Y141.693 E6.80162
G1 X131.593 Y141.704 E6.84260
G1 X130.843 Y141.676 E6.86583
G1 X82.050 Y138.612 E8.37853
G1 X79.820 Y138.074 E8.44949
G1 X77.225 Y136.053 E8.55127
G1 X56.355 Y109.074 E9.60664
G1 X55.779 Y108.263 E9.63742
G1 X55.238 Y107.415 E9.66854
G1 X54.835 Y106.685 E9.69435
G1 X54.406 Y105.776 E9.72546
G1 X54.097 Y105.000 E9.75128
G1 X53.785 Y104.045 E9.78238
G1 X53.577 Y103.236 E9.80821
G1 X53.388 Y102.249 E9.83930
G1 X53.283 Y101.420 E9.86517
G1 X53.219 Y100.417 E9.89626
G1 X53.219 Y99.583 E9.92209
G1 X53.283 Y98.580 E9.95317
G1 X53.388 Y97.751 E9.97904
G1 X53.577 Y96.764 E10.01013
G1 X53.785 Y95.955 E10.03596
G1 X54.097 Y95.000 E10.06706
G1 X54.406 Y94.224 E10.09288
G1 X54.835 Y93.315 E10.12399
G1 X55.238 Y92.585 E10.14980
G1 X55.779 Y91.737 E10.18093
G1 X56.377 Y90.901 E10.21272
G1 X77.200 Y64.278 E11.25852
G1 E9.25852 F2400.00000
G92 E0
G1 X137.849 Y129.468 F7800.000
G1 E2.00000 F2400.00000
G1 F1800.000
G1 X137.632 Y129.958 E2.01658
G1 X137.230 Y130.623 E2.04063
G1 X136.747 Y131.231 E2.06467
G1 X136.190 Y131.774 E2.08871
G1 X135.570 Y132.241 E2.11276
G1 X134.895 Y132.627 E2.13681
G1 X134.176 Y132.924 E2.16088
G1 X133.425 Y133.129 E2.18496
G1 X132.654 Y133.237 E2.20905
G1 X131.875 Y133.248 E2.23317
G1 X131.100 Y133.161 E2.25730
G1 X130.341 Y132.978 E2.28145
G1 X129.610 Y132.702 E2.30561
G1 X128.920 Y132.337 E2.32977
G1 X128.280 Y131.889 E2.35395
G1 X127.700 Y131.365 E2.37813
G1 X127.189 Y130.774 E2.40231
G1 X126.757 Y130.123 E2.42648
G1 X126.408 Y129.424 E2.45064
G1 X126.149 Y128.688 E2.47479
G1 X125.984 Y127.926 E2.49892
G1 X125.916 Y127.149 E2.52304
G1 X125.946 Y126.371 E2.54714
G1 X126.073 Y125.603 E2.57122
G1 X126.296 Y124.858 E2.59529
G1 X126.611 Y124.147 E2.61934
G1 X127.014 Y123.482 E2.64339
G1 X127.497 Y122.874 E2.66744
G1 X128.053 Y122.331 E2.69148
G1 X128.674 Y121.864 E2.71552
G1 X129.349 Y121.478 E2.73957
G1 X130.068 Y121.181 E2.76364
G1 X130.819 Y120.976 E2.78772
G1 X131.590 Y120.868 E2.81182
G1 X132.369 Y120.857 E2.83593
G1 X133.144 Y120.944 E2.86006
G1 X133.903 Y121.127 E2.88421
G1 X134.633 Y121.403 E2.90837
G1 X135.324 Y121.768 E2.93254
G1 X135.964 Y122.216 E2.95671
G1 X136.544 Y122.740 E2.98089
G1 X137.054 Y123.331 E3.00507
G1 X137.487 Y123.982 E3.02924
G1 X137.835 Y124.680 E3.05340
G1 X138.094 Y125.417 E3.07755
G1 X138.259 Y126.179 E3.10169
G1 X138.327 Y126.956 E3.12580
G1 X138.297 Y127.734 E3.14990
G1 X138.170 Y128.502 E3.17398
G1 X137.947 Y129.247 E3.19805
G1 X137.880 Y129.399 E3.20320
G1 X137.278 Y129.215 F7800.000
G1 F1800.000
G1 X137.077 Y129.668 E3.21856
G1 X136.716 Y130.265 E3.24015
G1 X136.282 Y130.811 E3.26173
G1 X135.783 Y131.298 E3.28332
G1 X135.225 Y131.718 E3.30490
G1 X134.619 Y132.065 E3.32650
G1 X133.974 Y132.332 E3.34812
G1 X133.299 Y132.515 E3.36976
G1 X132.606 Y132.613 E3.39141
G1 X131.905 Y132.622 E3.41309
G1 X131.208 Y132.544 E3.43480
G1 X130.525 Y132.380 E3.45653
G1 X129.868 Y132.131 E3.47828
G1 X129.246 Y131.803 E3.50003
G1 X128.670 Y131.400 E3.52180
G1 X128.148 Y130.928 E3.54357
G1 X127.688 Y130.395 E3.56534
G1 X127.298 Y129.809 E3.58710
G1 X126.984 Y129.180 E3.60885
G1 X126.752 Y128.518 E3.63058
G1 X126.603 Y127.832 E3.65229
G1 X126.542 Y127.134 E3.67398
G1 X126.569 Y126.434 E3.69564
G1 X126.683 Y125.745 E3.71728
G1 X126.883 Y125.075 E3.73890
G1 X127.166 Y124.437 E3.76050
G1 X127.528 Y123.840 E3.78209
G1 X127.961 Y123.294 E3.80367
G1 X128.461 Y122.807 E3.82526
G1 X129.018 Y122.387 E3.84684
G1 X129.624 Y122.040 E3.86844
G1 X130.270 Y121.773 E3.89006
G1 X130.945 Y121.590 E3.91170
G1 X131.638 Y121.492 E3.93335
G1 X132.338 Y121.483 E3.95503
G1 X133.036 Y121.561 E3.97674
G1 X133.718 Y121.725 E3.99847
G1 X134.376 Y121.974 E4.02021
G1 X134.997 Y122.302 E4.04197
G1 X135.574 Y122.705 E4.06374
G1 X136.096 Y123.177 E4.08551
G1 X136.555 Y123.710 E4.10728
G1 X136.945 Y124.296 E4.12905
G1 X137.259 Y124.925 E4.15079
G1 X137.492 Y125.587 E4.17252
G1 X137.640 Y126.273 E4.19423
G1 X137.701 Y126.971 E4.21592
G1 X137.675 Y127.671 E4.23758
G1 X137.560 Y128.360 E4.25922
G1 X137.360 Y129.030 E4.28084
G1 X137.309 Y129.146 E4.28476
G1 X137.583 Y129.606 F7800.000
G1 E2.28476 F2400.00000
G92 E0
G1 X124.065 Y121.600 F7800.000
G1 E2.00000 F2400.00000
G1 F1800.000
G1 X80.865 Y121.600 E3.33665
G1 X80.865 Y78.400 E4.67330
G1 X124.065 Y78.400 E6.00995
G1 X124.065 Y121.525 E7.34428
G1 X123.440 Y120.975 F7800.000
G1 F1800.000
G1 X81.490 Y120.975 E8.64226
G1 X81.490 Y79.025 E9.94025
G1 X123.440 Y79.025 E11.23823
G1 X123.440 Y120.900 E12.53389
G1 X122.815 Y120.350 F7800.000
G1 F1800.000
G1 X82.115 Y120.350 E13.79320
G1 X82.115 Y79.650 E15.05251
G1 X122.815 Y79.650 E16.31182
G1 X122.815 Y120.275 E17.56881
G1 X122.944 Y120.833 F7800.000
G1 E15.56881 F2400.00000
G92 E0
G1 X128.864 Y133.014 F7800.000
G1 E2.00000 F2400.00000
G1 F1800.000
G1 X128.781 Y133.306 E2.00937
G1 X83.287 Y130.449 E3.41979
G1 X64.611 Y106.304 E4.36426
G1 X64.809 Y106.073 E4.37369
G1 X64.962 Y106.157 E4.37910
G1 X65.759 Y106.471 E4.40559
G1 X66.588 Y106.683 E4.43208
G1 X67.438 Y106.790 E4.45858
G1 X68.294 Y106.790 E4.48507
G1 X69.144 Y106.683 E4.51156
G1 X69.973 Y106.471 E4.53806
G1 X70.770 Y106.157 E4.56455
G1 X71.521 Y105.746 E4.59104
G1 X72.214 Y105.244 E4.61752
G1 X72.839 Y104.659 E4.64400
G1 X73.386 Y104.001 E4.67047
G1 X73.846 Y103.280 E4.69694
G1 X74.211 Y102.507 E4.72341
G1 X74.477 Y101.693 E4.74988
G1 X74.638 Y100.854 E4.77634
G1 X74.692 Y100.000 E4.80280
G1 X74.638 Y99.146 E4.82926
G1 X74.477 Y98.307 E4.85572
G1 X74.211 Y97.493 E4.88218
G1 X73.846 Y96.720 E4.90865
G1 X73.386 Y95.999 E4.93512
G1 X72.839 Y95.341 E4.96160
G1 X72.214 Y94.756 E4.98807
G1 X71.521 Y94.254 E5.01456
G1 X70.770 Y93.843 E5.04105
G1 X69.973 Y93.529 E5.06754
G1 X69.144 Y93.317 E5.09403
G1 X68.294 Y93.210 E5.12053
G1 X67.438 Y93.210 E5.14702
G1 X66.588 Y93.317 E5.17351
G1 X65.759 Y93.529 E5.20001
G1 X64.827 Y93.897 E5.23100
G1 X64.655 Y93.667 E5.23986
G1 X83.286 Y69.847 E6.17554
G1 X128.737 Y66.717 E7.58519
G1 X128.820 Y67.009 E7.59460
G1 X128.594 Y67.129 E7.60253
G1 X127.890 Y67.621 E7.62911
G1 X127.252 Y68.197 E7.65570
G1 X126.691 Y68.848 E7.68228
G1 X126.215 Y69.563 E7.70886
G1 X125.831 Y70.331 E7.73544
G1 X125.547 Y71.141 E7.76201
G1 X125.365 Y71.980 E7.78856
G1 X125.290 Y72.835 E7.81511
G1 X125.323 Y73.692 E7.84165
G1 X125.463 Y74.538 E7.86817
G1 X125.709 Y75.359 E7.89469
G1 X126.056 Y76.142 E7.92120
G1 X126.499 Y76.875 E7.94771
G1 X127.032 Y77.546 E7.97421
G1 X127.645 Y78.144 E8.00071
G1 X128.329 Y78.659 E8.02721
G1 X129.073 Y79.084 E8.05371
G1 X129.865 Y79.412 E8.08023
G1 X130.692 Y79.637 E8.10676
G1 X131.541 Y79.756 E8.13329
G1 X132.399 Y79.768 E8.15984
G1 X133.252 Y79.673 E8.18639
G1 X134.087 Y79.471 E8.21296
G1 X134.890 Y79.168 E8.23953
G1 X135.650 Y78.766 E8.26611
G1 X136.354 Y78.274 E8.29269
G1 X136.992 Y77.698 E8.31928
G1 X137.553 Y77.047 E8.34587
G1 X138.029 Y76.332 E8.37245
G1 X138.278 Y75.833 E8.38970
G1 X138.567 Y75.901 E8.39889
G1 X138.567 Y124.099 E9.89018
G1 X138.278 Y124.167 E9.89937
G1 X138.029 Y123.668 E9.91662
G1 X137.553 Y122.953 E9.94320
G1 X136.992 Y122.302 E9.96979
G1 X136.354 Y121.726 E9.99638
G1 X135.650 Y121.234 E10.02296
G1 X134.890 Y120.832 E10.04954
G1 X134.087 Y120.529 E10.07611
G1 X133.252 Y120.327 E10.10268
G1 X132.399 Y120.232 E10.12923
G1 X131.541 Y120.244 E10.15578
G1 X130.692 Y120.363 E10.18231
G1 X129.865 Y120.588 E10.20884
G1 X129.073 Y120.916 E10.23536
G1 X128.329 Y121.341 E10.26186
G1 X127.645 Y121.856 E10.28836
G1 X127.032 Y122.454 E10.31486
G1 X126.499 Y123.125 E10.34136
G1 X126.056 Y123.858 E10.36787
G1 X125.709 Y124.641 E10.39438
G1 X125.463 Y125.462 E10.42090
G1 X125.323 Y126.308 E10.44742
G1 X125.290 Y127.165 E10.47396
G1 X125.365 Y128.020 E10.50051
G1 X125.547 Y128.859 E10.52706
G1 X125.831 Y129.669 E10.55363
G1 X126.215 Y130.437 E10.58021
G1 X126.691 Y131.152 E10.60679
G1 X127.252 Y131.803 E10.63337
G1 X127.890 Y132.379 E10.65996
G1 X128.594 Y132.871 E10.68654
G1 X128.797 Y132.979 E10.69367
G1 E8.69367 F2400.00000
G92 E0
G1 X131.590 Y79.132 F7800.000
G1 E2.00000 F2400.00000
G1 F1800.000
G1 X130.819 Y79.024 E2.02409
G1 X130.068 Y78.819 E2.04817
G1 X129.349 Y78.522 E2.07224
G1 X128.674 Y78.136 E2.09629
G1 X128.053 Y77.669 E2.12034
G1 X127.497 Y77.126 E2.14438
G1 X127.014 Y76.518 E2.16842
G1 X126.611 Y75.853 E2.19247
G1 X126.296 Y75.142 E2.21653
G1 X126.073 Y74.397 E2.24060
G1 X125.946 Y73.629 E2.26468
G1 X125.916 Y72.851 E2.28878
G1 X125.984 Y72.074 E2.31289
G1 X126.149 Y71.312 E2.33703
G1 X126.408 Y70.576 E2.36117
G1 X126.757 Y69.877 E2.38534
G1 X127.189 Y69.226 E2.40951
G1 X127.700 Y68.635 E2.43368
G1 X128.280 Y68.111 E2.45787
G1 X128.920 Y67.663 E2.48204
G1 X129.610 Y67.298 E2.50621
G1 X130.341 Y67.022 E2.53037
G1 X131.100 Y66.839 E2.55452
G1 X131.875 Y66.752 E2.57865
G1 X132.654 Y66.763 E2.60276
G1 X133.425 Y66.871 E2.62686
G1 X134.176 Y67.076 E2.65094
G1 X134.895 Y67.373 E2.67500
G1 X135.570 Y67.759 E2.69906
G1 X136.190 Y68.226 E2.72310
G1 X136.747 Y68.769 E2.74714
G1 X137.230 Y69.377 E2.77118
G1 X137.632 Y70.042 E2.79523
G1 X137.947 Y70.753 E2.81929
G1 X138.170 Y71.498 E2.84336
G1 X138.297 Y72.266 E2.86744
G1 X138.327 Y73.044 E2.89154
G1 X138.259 Y73.821 E2.91565
G1 X138.094 Y74.583 E2.93979
G1 X137.835 Y75.320 E2.96394
G1 X137.487 Y76.018 E2.98810
G1 X137.054 Y76.669 E3.01227
G1 X136.544 Y77.260 E3.03645
G1 X135.964 Y77.784 E3.06063
G1 X135.324 Y78.232 E3.08480
G1 X134.633 Y78.597 E3.10897
G1 X133.903 Y78.873 E3.13313
G1 X133.144 Y79.056 E3.15728
G1 X132.369 Y79.143 E3.18141
G1 X131.665 Y79.133 E3.20320
G1 X131.638 Y78.508 F7800.000
G1 F1800.000
G1 X130.945 Y78.410 E3.22486
G1 X130.270 Y78.227 E3.24650
G1 X129.624 Y77.960 E3.26811
G1 X129.018 Y77.613 E3.28971
G1 X128.461 Y77.193 E3.31130
G1 X127.961 Y76.706 E3.33288
G1 X127.528 Y76.160 E3.35447
G1 X127.166 Y75.563 E3.37606
G1 X126.883 Y74.925 E3.39766
G1 X126.683 Y74.255 E3.41928
G1 X126.569 Y73.566 E3.44092
G1 X126.542 Y72.866 E3.46258
G1 X126.603 Y72.168 E3.48426
G1 X126.752 Y71.482 E3.50597
G1 X126.984 Y70.820 E3.52770
G1 X127.298 Y70.191 E3.54945
G1 X127.688 Y69.605 E3.57121
G1 X128.148 Y69.072 E3.59298
G1 X128.670 Y68.600 E3.61476
G1 X129.246 Y68.197 E3.63652
G1 X129.868 Y67.869 E3.65828
G1 X130.525 Y67.620 E3.68003
G1 X131.208 Y67.456 E3.70176
G1 X131.905 Y67.378 E3.72346
G1 X132.606 Y67.387 E3.74514
G1 X133.299 Y67.485 E3.76680
G1 X133.974 Y67.668 E3.78844
G1 X134.619 Y67.935 E3.81005
G1 X135.225 Y68.282 E3.83165
G1 X135.783 Y68.702 E3.85324
G1 X136.282 Y69.189 E3.87482
G1 X136.716 Y69.735 E3.89641
G1 X137.077 Y70.332 E3.91800
G1 X137.360 Y70.970 E3.93960
G1 X137.560 Y71.640 E3.96122
G1 X137.675 Y72.329 E3.98286
G1 X137.701 Y73.029 E4.00452
G1 X137.640 Y73.727 E4.02620
G1 X137.492 Y74.413 E4.04792
G1 X137.259 Y75.075 E4.06964
G1 X136.945 Y75.704 E4.09139
G1 X136.555 Y76.290 E4.11315
G1 X136.096 Y76.823 E4.13492
G1 X135.574 Y77.295 E4.15670
G1 X134.997 Y77.698 E4.17846
G1 X134.376 Y78.026 E4.20022
G1 X133.718 Y78.275 E4.22197
G1 X133.035 Y78.439 E4.24370
G1 X132.338 Y78.517 E4.26540
G1 X131.713 Y78.509 E4.28476
G1 X131.638 Y78.508 F7800.000
G1 E2.28476 F2400.00000
G92 E0
G1 X73.630 Y97.725 F7800.000
G1 E2.00000 F2400.00000
G1 F1800.000
G1 X73.870 Y98.463 E2.02402
G1 X74.016 Y99.225 E2.04804
G1 X74.065 Y100.000 E2.07206
G1 X74.016 Y100.775 E2.09608
G1 X73.870 Y101.537 E2.12009
G1 X73.630 Y102.275 E2.14412
G1 X73.298 Y102.977 E2.16815
G1 X72.880 Y103.632 E2.19218
G1 X72.384 Y104.230 E2.21622
G1 X71.816 Y104.761 E2.24026
G1 X71.186 Y105.216 E2.26432
G1 X70.504 Y105.590 E2.28838
G1 X69.780 Y105.875 E2.31244
G1 X69.027 Y106.068 E2.33651
G1 X68.255 Y106.165 E2.36059
G1 X67.477 Y106.165 E2.38466
G1 X66.705 Y106.068 E2.40873
G1 X65.951 Y105.875 E2.43280
G1 X65.228 Y105.590 E2.45686
G1 X64.546 Y105.216 E2.48092
G1 X63.916 Y104.761 E2.50498
G1 X63.348 Y104.230 E2.52902
G1 X62.852 Y103.632 E2.55307
G1 X62.434 Y102.977 E2.57710
G1 X62.102 Y102.275 E2.60113
G1 X61.861 Y101.537 E2.62515
G1 X61.715 Y100.775 E2.64917
G1 X61.666 Y100.000 E2.67318
G1 X61.715 Y99.225 E2.69720
G1 X61.861 Y98.463 E2.72122
G1 X62.102 Y97.725 E2.74524
G1 X62.434 Y97.023 E2.76927
G1 X62.852 Y96.368 E2.79330
G1 X63.348 Y95.770 E2.81734
G1 X63.916 Y95.239 E2.84139
G1 X64.546 Y94.784 E2.86544
G1 X65.228 Y94.410 E2.88951
G1 X65.951 Y94.125 E2.91357
G1 X66.705 Y93.932 E2.93764
G1 X67.477 Y93.835 E2.96171
G1 X68.255 Y93.835 E2.98578
G1 X69.027 Y93.932 E3.00985
G1 X69.780 Y94.125 E3.03392
G1 X70.504 Y94.410 E3.05799
G1 X71.186 Y94.784 E3.08205
G1 X71.816 Y95.239 E3.10610
G1 X72.384 Y95.770 E3.13015
G1 X72.880 Y96.368 E3.15419
G1 X73.298 Y97.023 E3.17822
G1 X73.598 Y97.657 E3.19993
G1 X73.048 Y97.956 F7800.000
G1 F1800.000
G1 X73.264 Y98.619 E3.22151
G1 X73.395 Y99.304 E3.24309
G1 X73.439 Y100.000 E3.26466
G1 X73.395 Y100.696 E3.28624
G1 X73.264 Y101.381 E3.30781
G1 X73.048 Y102.044 E3.32939
G1 X72.750 Y102.675 E3.35098
G1 X72.375 Y103.263 E3.37258
G1 X71.928 Y103.800 E3.39418
G1 X71.418 Y104.277 E3.41580
G1 X70.852 Y104.687 E3.43742
G1 X70.238 Y105.023 E3.45906
G1 X69.588 Y105.279 E3.48070
G1 X68.910 Y105.452 E3.50234
G1 X68.216 Y105.540 E3.52399
G1 X67.516 Y105.540 E3.54564
G1 X66.822 Y105.452 E3.56729
G1 X66.144 Y105.279 E3.58893
G1 X65.493 Y105.023 E3.61057
G1 X64.880 Y104.687 E3.63221
G1 X64.314 Y104.277 E3.65383
G1 X63.804 Y103.800 E3.67545
G1 X63.357 Y103.263 E3.69705
G1 X62.982 Y102.675 E3.71865
G1 X62.684 Y102.044 E3.74024
G1 X62.468 Y101.381 E3.76182
G1 X62.337 Y100.696 E3.78339
G1 X62.293 Y100.000 E3.80497
G1 X62.337 Y99.304 E3.82654
G1 X62.468 Y98.619 E3.84812
G1 X62.684 Y97.956 E3.86970
G1 X62.982 Y97.325 E3.89129
G1 X63.357 Y96.737 E3.91288
G1 X63.804 Y96.200 E3.93449
G1 X64.314 Y95.723 E3.95610
G1 X64.880 Y95.313 E3.97773
G1 X65.493 Y94.977 E3.99936
G1 X66.144 Y94.721 E4.02100
G1 X66.822 Y94.548 E4.04265
G1 X67.516 Y94.460 E4.06429
G1 X68.216 Y94.460 E4.08594
G1 X68.910 Y94.548 E4.10759
