; generated by Slic3r 1.3.1-dev (Build 2ef957d) on 2019-11-25 at 09:24:47

; external perimeters extrusion width = 0.55mm (4.37mm^3/s)
; perimeters extrusion width = 0.70mm (11.44mm^3/s)
; infill extrusion width = 0.62mm (13.45mm^3/s)
; solid infill extrusion width = 0.70mm (3.81mm^3/s)
; top infill extrusion width = 0.70mm (2.86mm^3/s)

M107
G92 E0
M104 S200 ; set temperature
G28 ; home all axes
G1 Z5 F5000 ; lift nozzle

; Filament gcode

M109 S200 ; set temperature and wait for it to be reached
G21 ; set units to millimeters
G90 ; use absolute coordinates
M82 ; use absolute distances for extrusion
G92 E0
G1 Z0.350 F7800.000
G1 E-2.00000 F2400.00000
G92 E0
G1 X29.320 Y74.281 F7800.000
G1 E2.00000 F2400.00000
G1 F1800.000
G1 X32.995 Y72.821 E2.12235
G1 X36.527 Y71.663 E2.23733
G1 X41.023 Y70.475 E2.38123
G1 X45.348 Y69.587 E2.51785
G1 X49.862 Y68.888 E2.65920
G1 X54.549 Y68.374 E2.80507
G1 X59.392 Y68.043 E2.95528
G1 X64.376 Y67.887 E3.10955
G1 X69.276 Y67.898 E3.26118
G1 X74.505 Y68.067 E3.42306
G1 X79.819 Y68.390 E3.58777
G1 X85.198 Y68.854 E3.75484
G1 X90.624 Y69.449 E3.92372
G1 X96.077 Y70.163 E4.09389
G1 X101.649 Y71.000 E4.26824
G1 X107.088 Y71.914 E4.43887
G1 X112.502 Y72.910 E4.60921
G1 X117.860 Y73.974 E4.77821
G1 X123.072 Y75.078 E4.94306
G1 X128.276 Y76.246 E5.10809
G1 X133.372 Y77.448 E5.27009
G1 X138.338 Y78.675 E5.42838
G1 X143.158 Y79.914 E5.58237
G1 X147.813 Y81.158 E5.73145
G1 X152.286 Y82.394 E5.87503
G1 X156.558 Y83.614 E6.01251
G1 X160.614 Y84.808 E6.14333
G1 X164.485 Y85.980 E6.26846
G1 X168.062 Y87.091 E6.38435
G1 X174.376 Y89.125 E6.58960
G1 X179.624 Y90.886 E6.76088
G1 X183.582 Y92.259 E6.89050
G1 X186.690 Y93.367 E6.99261
G1 X188.681 Y94.505 E7.06357
G1 X190.165 Y96.254 E7.13453
G1 X190.963 Y98.404 E7.20550
G1 X191.072 Y99.600 E7.24265
G1 X191.072 Y100.400 E7.26740
G1 X190.675 Y102.659 E7.33836
G1 X189.532 Y104.647 E7.40933
G1 X187.779 Y106.126 E7.48029
G1 X186.690 Y106.633 E7.51745
G1 X183.578 Y107.742 E7.61969
G1 X177.127 Y109.961 E7.83076
G1 X171.367 Y111.856 E8.01838
G1 X168.053 Y112.911 E8.12597
G1 X164.430 Y114.037 E8.24338
G1 X160.605 Y115.195 E8.36703
G1 X156.548 Y116.389 E8.49787
G1 X152.275 Y117.609 E8.63537
G1 X147.802 Y118.845 E8.77896
G1 X143.147 Y120.089 E8.92805
G1 X138.327 Y121.328 E9.08205
G1 X133.426 Y122.539 E9.23823
G1 X128.334 Y123.741 E9.40011
G1 X123.136 Y124.908 E9.56495
G1 X117.847 Y126.029 E9.73225
G1 X112.397 Y127.110 E9.90415
G1 X106.987 Y128.104 E10.07436
G1 X101.538 Y129.017 E10.24531
G1 X96.077 Y129.837 E10.41616
G1 X90.624 Y130.551 E10.58633
G1 X85.198 Y131.146 E10.75521
G1 X79.987 Y131.598 E10.91706
G1 X74.691 Y131.924 E11.08124
G1 X69.481 Y132.099 E11.24253
G1 X64.376 Y132.113 E11.40050
G1 X59.143 Y131.945 E11.56248
G1 X54.549 Y131.626 E11.70498
G1 X49.862 Y131.112 E11.85087
G1 X45.348 Y130.413 E11.99220
G1 X41.023 Y129.525 E12.12882
G1 X36.900 Y128.447 E12.26066
G1 X32.995 Y127.179 E12.38771
G1 X32.593 Y127.032 E12.40095
G1 X29.320 Y125.719 E12.51006
G1 X28.890 Y125.529 E12.52462
G1 X25.888 Y124.069 E12.62789
G1 X25.430 Y123.824 E12.64398
G1 X22.712 Y122.227 E12.74152
G1 X22.228 Y121.914 E12.75935
G1 X19.804 Y120.190 E12.85139
G1 X19.301 Y119.795 E12.87118
G1 X17.180 Y117.955 E12.95806
G1 X16.669 Y117.461 E12.98004
G1 X14.860 Y115.515 E13.06226
G1 X14.361 Y114.909 E13.08655
G1 X12.871 Y112.867 E13.16477
G1 X12.412 Y112.142 E13.19131
G1 X11.247 Y110.013 E13.26640
G1 X10.862 Y109.178 E13.29485
G1 X10.027 Y106.970 E13.36788
G1 X9.754 Y106.052 E13.39753
G1 X9.251 Y103.773 E13.46975
G1 X9.113 Y102.819 E13.49957
G1 X8.945 Y100.472 E13.57236
G1 X8.945 Y99.528 E13.60159
G1 X9.113 Y97.181 E13.67437
G1 X9.251 Y96.227 E13.70419
G1 X9.754 Y93.948 E13.77642
G1 X10.027 Y93.030 E13.80606
G1 X10.862 Y90.822 E13.87910
G1 X11.247 Y89.987 E13.90754
G1 X12.412 Y87.858 E13.98263
G1 X12.871 Y87.133 E14.00918
G1 X14.361 Y85.091 E14.08739
G1 X14.860 Y84.485 E14.11169
G1 X16.669 Y82.539 E14.19390
G1 X17.180 Y82.045 E14.21588
G1 X19.301 Y80.205 E14.30276
G1 X19.804 Y79.810 E14.32256
G1 X22.228 Y78.086 E14.41461
G1 X22.712 Y77.772 E14.43244
G1 X25.430 Y76.176 E14.52997
G1 X25.888 Y75.931 E14.54606
G1 X28.890 Y74.471 E14.64932
G1 X29.252 Y74.311 E14.66156
G1 E12.66156 F2400.00000
G92 E0
G1 X174.036 Y102.314 F7800.000
G1 E2.00000 F2400.00000
G1 F1800.000
G1 X168.825 Y104.034 E2.16980
G1 X165.563 Y105.073 E2.27573
G1 X162.041 Y106.167 E2.38982
G1 X158.277 Y107.306 E2.51152
G1 X154.283 Y108.482 E2.64032
G1 X150.077 Y109.683 E2.77568
G1 X145.673 Y110.901 E2.91706
G1 X141.090 Y112.125 E3.06382
G1 X136.347 Y113.346 E3.21537
G1 X131.462 Y114.552 E3.37104
G1 X126.454 Y115.734 E3.53027
G1 X121.345 Y116.881 E3.69229
G1 X116.152 Y117.981 E3.85652
G1 X110.900 Y119.023 E4.02221
G1 X105.613 Y119.995 E4.18851
G1 X100.302 Y120.886 E4.35516
G1 X94.993 Y121.684 E4.52127
G1 X89.708 Y122.377 E4.68618
G1 X84.469 Y122.954 E4.84927
G1 X79.296 Y123.402 E5.00991
G1 X74.211 Y123.713 E5.16755
G1 X69.234 Y123.878 E5.32163
G1 X64.386 Y123.888 E5.47165
G1 X59.683 Y123.738 E5.61722
G1 X55.151 Y123.423 E5.75779
G1 X50.803 Y122.941 E5.89315
G1 X46.658 Y122.293 E6.02296
G1 X42.733 Y121.480 E6.14698
G1 X39.044 Y120.507 E6.26502
G1 X35.607 Y119.379 E6.37695
G1 X32.435 Y118.107 E6.48270
G1 X29.541 Y116.700 E6.58226
G1 X26.937 Y115.171 E6.67570
G1 X24.633 Y113.532 E6.76319
G1 X22.635 Y111.799 E6.84501
G1 X20.950 Y109.985 E6.92163
G1 X19.577 Y108.103 E6.99370
G1 X18.515 Y106.163 E7.06213
G1 X17.761 Y104.168 E7.12813
G1 X17.308 Y102.116 E7.19316
G1 X17.157 Y100.000 E7.25879
G1 X17.308 Y97.884 E7.32442
G1 X17.761 Y95.832 E7.38945
G1 X18.515 Y93.837 E7.45545
G1 X19.577 Y91.897 E7.52388
G1 X20.950 Y90.015 E7.59595
G1 X22.635 Y88.201 E7.67257
G1 X24.633 Y86.468 E7.75439
G1 X26.938 Y84.829 E7.84190
G1 X29.541 Y83.300 E7.93532
G1 X32.435 Y81.893 E8.03488
G1 X35.607 Y80.621 E8.14063
G1 X39.044 Y79.493 E8.25256
G1 X42.733 Y78.520 E8.37060
G1 X46.658 Y77.707 E8.49462
G1 X50.804 Y77.059 E8.62445
G1 X55.151 Y76.577 E8.75979
G1 X59.685 Y76.262 E8.90041
G1 X64.386 Y76.112 E9.04593
G1 X69.234 Y76.122 E9.19595
G1 X74.211 Y76.287 E9.35003
G1 X79.296 Y76.598 E9.50767
G1 X84.469 Y77.046 E9.66831
G1 X89.708 Y77.623 E9.83140
G1 X94.993 Y78.316 E9.99631
G1 X100.302 Y79.114 E10.16242
G1 X105.613 Y80.005 E10.32907
G1 X110.912 Y80.979 E10.49578
G1 X116.165 Y82.022 E10.66146
G1 X121.357 Y83.122 E10.82569
G1 X126.466 Y84.269 E10.98770
G1 X131.474 Y85.451 E11.14692
G1 X136.359 Y86.657 E11.30259
G1 X141.102 Y87.878 E11.45413
G1 X145.684 Y89.102 E11.60087
G1 X150.087 Y90.320 E11.74223
G1 X154.293 Y91.521 E11.87758
G1 X158.286 Y92.696 E12.00636
G1 X162.050 Y93.836 E12.12805
G1 X165.571 Y94.930 E12.24212
G1 X168.832 Y95.969 E12.34803
G1 X174.036 Y97.686 E12.51758
G1 X173.985 Y98.000 E12.52744
G1 X169.938 Y98.000 E12.65266
G1 X166.107 Y96.769 E12.77716
G1 X162.073 Y95.515 E12.90788
G1 X156.999 Y93.997 E13.07174
G1 X154.090 Y93.155 E13.16543
G1 X147.612 Y91.348 E13.37354
G1 X144.056 Y90.396 E13.48743
G1 X140.312 Y89.424 E13.60711
G1 X136.394 Y88.439 E13.73212
G1 X132.316 Y87.448 E13.86197
G1 X128.095 Y86.460 E13.99612
G1 X123.746 Y85.484 E14.13401
G1 X119.287 Y84.526 E14.27513
G1 X114.735 Y83.598 E14.41886
G1 X110.109 Y82.706 E14.56466
G1 X105.425 Y81.861 E14.71193
G1 X100.702 Y81.071 E14.86009
G1 X95.958 Y80.347 E15.00857
G1 X91.211 Y79.698 E15.15679
G1 X86.481 Y79.134 E15.30420
G1 X81.785 Y78.664 E15.45023
G1 X77.141 Y78.298 E15.59437
G1 X72.567 Y78.043 E15.73612
G1 X68.080 Y77.908 E15.87499
G1 X63.699 Y77.900 E16.01057
G1 X59.439 Y78.024 E16.14243
G1 X55.317 Y78.284 E16.27022
G1 X51.349 Y78.684 E16.39362
G1 X47.549 Y79.225 E16.51237
G1 X43.932 Y79.906 E16.62624
G1 X40.512 Y80.727 E16.73507
G1 X37.302 Y81.684 E16.83873
G1 X34.312 Y82.775 E16.93720
G1 X31.555 Y83.994 E17.03049
G1 X29.039 Y85.337 E17.11873
G1 X26.776 Y86.801 E17.20212
G1 X24.774 Y88.380 E17.28102
G1 X23.045 Y90.073 E17.35589
G1 X21.599 Y91.875 E17.42735
G1 X20.453 Y93.780 E17.49617
G1 X19.621 Y95.781 E17.56321
G1 X19.116 Y97.860 E17.62941
G1 X18.948 Y100.000 E17.69583
G1 X19.116 Y102.140 E17.76224
G1 X19.621 Y104.219 E17.82844
G1 X20.453 Y106.220 E17.89548
G1 X21.599 Y108.125 E17.96430
G1 X23.045 Y109.927 E18.03576
G1 X24.774 Y111.620 E18.11063
G1 X26.776 Y113.199 E18.18953
G1 X29.039 Y114.663 E18.27292
G1 X31.555 Y116.006 E18.36116
G1 X34.312 Y117.225 E18.45445
G1 X37.302 Y118.316 E18.55292
G1 X40.512 Y119.273 E18.65659
G1 X43.932 Y120.094 E18.76541
G1 X47.549 Y120.775 E18.87928
G1 X51.349 Y121.316 E18.99803
G1 X55.317 Y121.716 E19.12143
G1 X59.439 Y121.976 E19.24922
G1 X63.699 Y122.100 E19.38109
G1 X68.080 Y122.092 E19.51666
G1 X72.567 Y121.957 E19.65553
G1 X77.141 Y121.702 E19.79728
G1 X81.785 Y121.336 E19.94142
G1 X86.481 Y120.866 E20.08746
G1 X91.211 Y120.302 E20.23486
G1 X95.958 Y119.653 E20.38308
G1 X100.702 Y118.929 E20.53156
G1 X105.425 Y118.139 E20.67973
G1 X110.109 Y117.294 E20.82700
G1 X114.735 Y116.402 E20.97279
G1 X119.287 Y115.474 E21.11652
G1 X123.746 Y114.516 E21.25764
G1 X128.095 Y113.540 E21.39553
G1 X132.316 Y112.552 E21.52968
G1 X136.394 Y111.561 E21.65953
G1 X140.312 Y110.576 E21.78454
G1 X144.056 Y109.604 E21.90422
G1 X147.609 Y108.652 E22.01803
G1 X150.961 Y107.729 E22.12561
G1 X156.994 Y106.004 E22.31976
G1 X159.663 Y105.214 E22.40587
G1 X164.227 Y103.821 E22.55351
G1 X169.936 Y102.000 E22.73894
G1 X173.985 Y102.000 E22.86421
G1 X174.024 Y102.240 E22.87175
G1 E20.87175 F2400.00000
G92 E0
G1 X177.844 Y101.688 F7800.000
G1 E2.00000 F2400.00000
G1 F1800.000
G1 X172.011 Y103.653 E2.19044
G1 X169.016 Y104.628 E2.28791
G1 X165.750 Y105.669 E2.39397
G1 X162.225 Y106.764 E2.50820
G1 X158.455 Y107.905 E2.63005
G1 X154.457 Y109.082 E2.75900
G1 X150.246 Y110.285 E2.89452
G1 X145.837 Y111.504 E3.03606
G1 X141.249 Y112.730 E3.18299
G1 X136.500 Y113.952 E3.33472
G1 X131.609 Y115.159 E3.49059
G1 X126.594 Y116.343 E3.65003
G1 X121.478 Y117.491 E3.81227
G1 X116.278 Y118.593 E3.97674
G1 X111.017 Y119.637 E4.14269
G1 X105.721 Y120.610 E4.30928
G1 X100.400 Y121.503 E4.47624
G1 X95.080 Y122.303 E4.64270
G1 X89.783 Y122.998 E4.80799
G1 X84.530 Y123.575 E4.97150
G1 X79.342 Y124.026 E5.13262
G1 X74.241 Y124.338 E5.29077
G1 X69.245 Y124.503 E5.44542
G1 X64.376 Y124.513 E5.59607
G1 X59.652 Y124.362 E5.74233
G1 X55.095 Y124.046 E5.88366
G1 X50.720 Y123.561 E6.01985
G1 X46.546 Y122.908 E6.15057
G1 X42.590 Y122.088 E6.27558
G1 X38.867 Y121.106 E6.39471
G1 X35.393 Y119.967 E6.50784
G1 X32.182 Y118.679 E6.61490
G1 X29.246 Y117.251 E6.71591
G1 X26.597 Y115.696 E6.81095
G1 X24.246 Y114.024 E6.90021
G1 X22.200 Y112.249 E6.98401
G1 X20.467 Y110.383 E7.06281
G1 X19.048 Y108.439 E7.13728
G1 X17.946 Y106.425 E7.20832
G1 X17.160 Y104.347 E7.27706
G1 X16.688 Y102.206 E7.34490
G1 X16.530 Y100.000 E7.41332
G1 X16.688 Y97.794 E7.48175
G1 X17.160 Y95.653 E7.54959
G1 X17.946 Y93.575 E7.61833
G1 X19.048 Y91.561 E7.68937
G1 X20.467 Y89.617 E7.76384
G1 X22.200 Y87.751 E7.84264
G1 X24.246 Y85.976 E7.92644
G1 X26.598 Y84.304 E8.01572
G1 X29.246 Y82.749 E8.11074
G1 X32.182 Y81.321 E8.21175
G1 X35.393 Y80.033 E8.31881
G1 X38.867 Y78.894 E8.43194
G1 X42.590 Y77.912 E8.55107
G1 X46.546 Y77.092 E8.67608
G1 X50.721 Y76.439 E8.80682
G1 X55.095 Y75.954 E8.94299
G1 X59.653 Y75.638 E9.08436
G1 X64.376 Y75.487 E9.23058
G1 X69.245 Y75.497 E9.38123
G1 X74.241 Y75.662 E9.53588
G1 X79.342 Y75.974 E9.69403
G1 X84.530 Y76.425 E9.85515
G1 X89.783 Y77.002 E10.01866
G1 X95.080 Y77.697 E10.18395
G1 X100.400 Y78.497 E10.35041
G1 X105.721 Y79.390 E10.51737
G1 X111.030 Y80.366 E10.68436
G1 X116.290 Y81.410 E10.85031
G1 X121.490 Y82.512 E11.01478
G1 X126.606 Y83.660 E11.17701
G1 X131.621 Y84.843 E11.33644
G1 X136.511 Y86.051 E11.49230
G1 X141.260 Y87.273 E11.64402
G1 X145.848 Y88.499 E11.79094
G1 X150.256 Y89.718 E11.93247
G1 X154.467 Y90.921 E12.06797
G1 X158.465 Y92.098 E12.19691
G1 X162.233 Y93.238 E12.31874
G1 X165.758 Y94.334 E12.43295
G1 X172.018 Y96.349 E12.63643
G1 X177.844 Y98.312 E12.82665
G1 X177.791 Y98.625 E12.83646
G1 X169.840 Y98.625 E13.08249
G1 X165.919 Y97.365 E13.20993
G1 X161.890 Y96.113 E13.34045
G1 X156.822 Y94.597 E13.50413
G1 X153.920 Y93.756 E13.59764
G1 X147.447 Y91.951 E13.80555
G1 X143.897 Y91.001 E13.91927
G1 X140.157 Y90.030 E14.03880
G1 X136.244 Y89.045 E14.16366
G1 X132.171 Y88.056 E14.29334
G1 X127.955 Y87.069 E14.42732
G1 X123.612 Y86.094 E14.56504
G1 X119.159 Y85.138 E14.70597
G1 X114.614 Y84.211 E14.84950
G1 X109.994 Y83.320 E14.99507
G1 X105.318 Y82.476 E15.14210
G1 X100.603 Y81.688 E15.29001
G1 X95.868 Y80.966 E15.43820
G1 X91.132 Y80.318 E15.58610
G1 X86.413 Y79.755 E15.73316
G1 X81.729 Y79.287 E15.87881
G1 X77.099 Y78.921 E16.02252
G1 X72.540 Y78.668 E16.16380
G1 X68.070 Y78.533 E16.30215
G1 X63.707 Y78.525 E16.43715
G1 X59.468 Y78.648 E16.56839
G1 X55.368 Y78.907 E16.69549
G1 X51.424 Y79.304 E16.81814
G1 X47.651 Y79.841 E16.93606
G1 X44.063 Y80.517 E17.04901
G1 X40.675 Y81.330 E17.15684
G1 X37.498 Y82.277 E17.25940
G1 X34.546 Y83.354 E17.35664
G1 X31.828 Y84.556 E17.44857
G1 X29.357 Y85.876 E17.53528
G1 X27.140 Y87.310 E17.61696
G1 X25.187 Y88.850 E17.69391
G1 X23.509 Y90.493 E17.76659
G1 X22.113 Y92.233 E17.83559
G1 X21.012 Y94.063 E17.90168
G1 X20.216 Y95.976 E17.96578
G1 X19.736 Y97.959 E18.02892
G1 X19.575 Y100.000 E18.09227
G1 X19.736 Y102.041 E18.15562
G1 X20.216 Y104.024 E18.21876
G1 X21.012 Y105.937 E18.28286
G1 X22.113 Y107.767 E18.34895
G1 X23.509 Y109.507 E18.41795
G1 X25.187 Y111.150 E18.49063
G1 X27.140 Y112.690 E18.56758
G1 X29.357 Y114.124 E18.64926
G1 X31.828 Y115.444 E18.73597
G1 X34.546 Y116.646 E18.82790
G1 X37.498 Y117.723 E18.92514
G1 X40.675 Y118.670 E19.02770
G1 X44.063 Y119.483 E19.13553
G1 X47.651 Y120.159 E19.24848
G1 X51.424 Y120.696 E19.36640
G1 X55.368 Y121.093 E19.48905
G1 X59.468 Y121.352 E19.61615
G1 X63.707 Y121.475 E19.74739
G1 X68.070 Y121.467 E19.88239
G1 X72.540 Y121.332 E20.02074
G1 X77.099 Y121.079 E20.16202
G1 X81.729 Y120.713 E20.30573
G1 X86.413 Y120.245 E20.45138
G1 X91.132 Y119.682 E20.59844
G1 X95.868 Y119.034 E20.74634
G1 X100.603 Y118.312 E20.89453
G1 X105.318 Y117.524 E21.04244
G1 X109.994 Y116.680 E21.18947
G1 X114.614 Y115.789 E21.33504
G1 X119.159 Y114.862 E21.47857
G1 X123.612 Y113.906 E21.61950
G1 X127.955 Y112.931 E21.75722
G1 X132.171 Y111.944 E21.89120
G1 X136.244 Y110.955 E22.02088
G1 X140.157 Y109.970 E22.14574
G1 X143.897 Y108.999 E22.26527
G1 X147.445 Y108.049 E22.37894
G1 X150.792 Y107.128 E22.48636
G1 X156.819 Y105.404 E22.68032
G1 X159.483 Y104.615 E22.76626
G1 X164.040 Y103.224 E22.91370
G1 X169.839 Y101.375 E23.10202
G1 X177.791 Y101.375 E23.34808
G1 X177.832 Y101.614 E23.35557
G1 E21.35557 F2400.00000
G92 E0
G1 X181.549 Y101.061 F7800.000
G1 E2.00000 F2400.00000
G1 F1800.000
G1 X177.347 Y102.521 E2.13763
G1 X172.207 Y104.246 E2.30537
G1 X165.938 Y106.265 E2.50917
G1 X162.408 Y107.362 E2.62354
G1 X158.634 Y108.504 E2.74554
G1 X154.631 Y109.682 E2.87464
G1 X150.415 Y110.887 E3.01032
G1 X146.001 Y112.107 E3.15203
G1 X141.407 Y113.334 E3.29913
G1 X136.652 Y114.557 E3.45105
G1 X131.756 Y115.767 E3.60712
G1 X126.734 Y116.952 E3.76675
G1 X121.611 Y118.102 E3.92922
G1 X116.403 Y119.205 E4.09393
G1 X111.134 Y120.251 E4.26014
G1 X105.830 Y121.226 E4.42702
G1 X100.498 Y122.120 E4.59429
G1 X95.167 Y122.922 E4.76109
G1 X89.858 Y123.618 E4.92677
G1 X84.591 Y124.197 E5.09071
G1 X79.389 Y124.649 E5.25229
G1 X74.270 Y124.962 E5.41096
G1 X69.256 Y125.128 E5.56618
G1 X64.367 Y125.138 E5.71747
G1 X59.620 Y124.986 E5.86441
G1 X55.039 Y124.668 E6.00650
G1 X50.638 Y124.180 E6.14352
G1 X46.435 Y123.523 E6.27515
G1 X42.447 Y122.697 E6.40116
G1 X38.690 Y121.706 E6.52137
G1 X35.179 Y120.554 E6.63569
G1 X31.928 Y119.250 E6.74406
G1 X28.950 Y117.803 E6.84652
G1 X26.257 Y116.221 E6.94316
G1 X23.859 Y114.516 E7.03420
G1 X21.766 Y112.699 E7.11997
G1 X19.984 Y110.782 E7.20096
G1 X18.520 Y108.774 E7.27783
G1 X17.377 Y106.687 E7.35147
G1 X16.560 Y104.526 E7.42296
G1 X16.068 Y102.296 E7.49361
G1 X15.904 Y100.000 E7.56483
G1 X16.068 Y97.704 E7.63605
G1 X16.560 Y95.474 E7.70670
G1 X17.377 Y93.313 E7.77819
G1 X18.520 Y91.226 E7.85182
G1 X19.984 Y89.218 E7.92870
G1 X21.766 Y87.301 E8.00968
G1 X23.859 Y85.484 E8.09545
G1 X26.258 Y83.779 E8.18651
