; generated by Slic3r 1.3.1-dev (Build 2ef957d) on 2019-11-25 at 09:24:28

; external perimeters extrusion width = 0.55mm (4.37mm^3/s)
; perimeters extrusion width = 0.70mm (11.44mm^3/s)
; infill extrusion width = 0.62mm (13.45mm^3/s)
; solid infill extrusion width = 0.70mm (3.81mm^3/s)
; top infill extrusion width = 0.70mm (2.86mm^3/s)

M107
G92 E0
M104 S200 ; set temperature
G28 ; home all axes
G1 Z5 F5000 ; lift nozzle

; Filament gcode

M109 S200 ; set temperature and wait for it to be reached
G21 ; set units to millimeters
G90 ; use absolute coordinates
M82 ; use absolute distances for extrusion
G92 E0
G1 Z0.350 F7800.000
G1 E-2.00000 F2400.00000
G92 E0
G1 X18.375 Y0.000 F7800.000
G1 E2.00000 F2400.00000
G1 F1800.000
G1 X18.772 Y-2.259 E2.07096
G1 X19.915 Y-4.247 E2.14192
G1 X21.668 Y-5.726 E2.21289
G1 X23.820 Y-6.519 E2.28385
G1 X25.000 Y-6.625 E2.32050
G1 X175.000 Y-6.625 E6.96170
G1 X177.259 Y-6.228 E7.03266
G1 X179.247 Y-5.085 E7.10362
G1 X180.726 Y-3.332 E7.17458
G1 X181.519 Y-1.180 E7.24555
G1 X181.625 Y0.000 E7.28220
G1 X181.625 Y200.000 E13.47046
G1 X181.228 Y202.259 E13.54142
G1 X180.085 Y204.247 E13.61239
G1 X178.332 Y205.726 E13.68335
G1 X176.180 Y206.519 E13.75431
G1 X175.000 Y206.625 E13.79096
G1 X25.000 Y206.625 E18.43216
G1 X22.741 Y206.228 E18.50312
G1 X20.753 Y205.085 E18.57408
G1 X19.274 Y203.332 E18.64505
G1 X18.481 Y201.180 E18.71601
G1 X18.375 Y200.000 E18.75266
G1 X18.375 Y0.075 E24.93860
G1 E22.93860 F2400.00000
G92 E0
G1 X26.600 Y1.600 F7800.000
G1 E2.00000 F2400.00000
G1 F1800.000
G1 X173.400 Y1.600 E6.54220
G1 X173.400 Y198.400 E12.63146
G1 X26.600 Y198.400 E17.17366
G1 X26.600 Y1.675 E23.26061
G1 X25.975 Y0.975 F7800.000
G1 F1800.000
G1 X174.025 Y0.975 E27.84147
G1 X174.025 Y199.025 E33.96941
G1 X25.975 Y199.025 E38.55028
G1 X25.975 Y1.050 E44.67589
G1 X25.350 Y0.350 F7800.000
G1 F1800.000
G1 X174.650 Y0.350 E49.29543
G1 X174.650 Y199.650 E55.46203
G1 X25.350 Y199.650 E60.08157
G1 X25.350 Y0.425 E66.24586
G1 X25.826 Y0.502 F7800.000
G1 E64.24586 F2400.00000
G92 E0
G1 X26.982 Y2.468 F7800.000
G1 E2.00000 F2400.00000
G1 F1800.000
G1 X27.468 Y1.982 E2.02132
G1 X28.354 Y1.982 E2.04881
G1 X26.982 Y3.354 E2.10901
G1 X26.982 Y4.240 E2.13649
G1 X29.240 Y1.982 E2.23556
G1 X30.126 Y1.982 E2.26305
G1 X26.982 Y5.126 E2.40098
G1 X26.982 Y6.012 E2.42847
G1 X31.012 Y1.982 E2.60527
G1 X31.898 Y1.982 E2.63275
G1 X26.982 Y6.898 E2.84843
G1 X26.982 Y7.784 E2.87591
G1 X32.784 Y1.982 E3.13045
G1 X33.670 Y1.982 E3.15793
G1 X26.982 Y8.670 E3.45134
G1 X26.982 Y9.556 E3.47882
G1 X34.556 Y1.982 E3.81109
G1 X35.442 Y1.982 E3.83857
G1 X26.982 Y10.442 E4.20971
G1 X26.982 Y11.328 E4.23720
G1 X36.328 Y1.982 E4.64720
G1 X37.214 Y1.982 E4.67469
G1 X26.982 Y12.214 E5.12356
G1 X26.982 Y13.100 E5.15104
G1 X38.100 Y1.982 E5.63878
G1 X38.986 Y1.982 E5.66626
G1 X26.982 Y13.986 E6.19287
G1 X26.982 Y14.872 E6.22035
G1 X39.872 Y1.982 E6.78583
G1 X40.758 Y1.982 E6.81331
G1 X26.982 Y15.758 E7.41765
G1 X26.982 Y16.644 E7.44514
G1 X41.644 Y1.982 E8.08834
G1 X42.530 Y1.982 E8.11583
G1 X26.982 Y17.530 E8.79790
G1 X26.982 Y18.416 E8.82538
G1 X43.416 Y1.982 E9.54632
G1 X44.302 Y1.982 E9.57381
G1 X26.982 Y19.302 E10.33362
G1 X26.982 Y20.188 E10.36110
G1 X45.188 Y1.982 E11.15977
G1 X46.074 Y1.982 E11.18726
G1 X26.982 Y21.074 E12.02480
G1 X26.982 Y21.959 E12.05228
G1 X46.959 Y1.982 E12.92869
G1 X47.845 Y1.982 E12.95617
G1 X26.982 Y22.845 E13.87145
G1 X26.982 Y23.731 E13.89893
G1 X48.731 Y1.982 E14.85308
G1 X49.617 Y1.982 E14.88056
G1 X26.982 Y24.617 E15.87357
G1 X26.982 Y25.503 E15.90105
G1 X50.503 Y1.982 E16.93293
G1 X51.389 Y1.982 E16.96041
G1 X26.982 Y26.389 E18.03116
G1 X26.982 Y27.275 E18.05864
G1 X52.275 Y1.982 E19.16825
G1 X53.161 Y1.982 E19.19573
G1 X26.982 Y28.161 E20.34421
G1 X26.982 Y29.047 E20.37169
G1 X54.047 Y1.982 E21.55904
G1 X54.933 Y1.982 E21.58652
G1 X26.982 Y29.933 E22.81273
G1 X26.982 Y30.819 E22.84021
G1 X55.819 Y1.982 E24.10529
G1 X56.705 Y1.982 E24.13278
G1 X26.982 Y31.705 E25.43672
G1 X26.982 Y32.591 E25.46420
G1 X57.591 Y1.982 E26.80702
G1 X58.477 Y1.982 E26.83450
G1 X26.982 Y33.477 E28.21618
G1 X26.982 Y34.363 E28.24366
G1 X59.363 Y1.982 E29.66421
G1 X60.249 Y1.982 E29.69169
G1 X26.982 Y35.249 E31.15110
G1 X26.982 Y36.135 E31.17858
G1 X61.135 Y1.982 E32.67686
G1 X62.021 Y1.982 E32.70435
G1 X26.982 Y37.021 E34.24149
G1 X26.982 Y37.907 E34.26898
G1 X62.907 Y1.982 E35.84499
G1 X63.793 Y1.982 E35.87247
G1 X26.982 Y38.793 E37.48735
G1 X26.982 Y39.679 E37.51484
G1 X64.679 Y1.982 E39.16858
G1 X65.565 Y1.982 E39.19607
G1 X26.982 Y40.565 E40.88868
G1 X26.982 Y41.451 E40.91616
G1 X66.451 Y1.982 E42.64765
G1 X67.337 Y1.982 E42.67513
G1 X26.982 Y42.337 E44.44548
G1 X26.982 Y43.223 E44.47296
G1 X68.223 Y1.982 E46.28217
G1 X69.109 Y1.982 E46.30966
G1 X26.982 Y44.109 E48.15774
G1 X26.982 Y44.995 E48.18522
G1 X69.995 Y1.982 E50.07217
G1 X70.881 Y1.982 E50.09965
G1 X26.982 Y45.881 E52.02547
G1 X26.982 Y46.767 E52.05295
G1 X71.767 Y1.982 E54.01764
G1 X72.653 Y1.982 E54.04512
G1 X26.982 Y47.653 E56.04867
G1 X26.982 Y48.539 E56.07615
G1 X73.539 Y1.982 E58.11857
G1 X74.425 Y1.982 E58.14605
G1 X26.982 Y49.425 E60.22733
G1 X26.982 Y50.311 E60.25482
G1 X75.311 Y1.982 E62.37497
G1 X76.197 Y1.982 E62.40245
G1 X26.982 Y51.197 E64.56147
G1 X26.982 Y52.083 E64.58895
G1 X77.083 Y1.982 E66.78683
G1 X77.969 Y1.982 E66.81432
G1 X26.982 Y52.969 E69.05107
G1 X26.982 Y53.855 E69.07855
G1 X78.855 Y1.982 E71.35417
G1 X79.741 Y1.982 E71.38165
G1 X26.982 Y54.741 E73.69614
G1 X26.982 Y55.627 E73.72362
G1 X80.627 Y1.982 E76.07697
G1 X81.513 Y1.982 E76.10445
G1 X26.982 Y56.513 E78.49667
G1 X26.982 Y57.399 E78.52416
G1 X82.399 Y1.982 E80.95524
G1 X83.285 Y1.982 E80.98272
G1 X26.982 Y58.285 E83.45268
G1 X26.982 Y59.170 E83.48016
G1 X84.171 Y1.982 E85.98898
G1 X85.056 Y1.982 E86.01646
G1 X26.982 Y60.056 E88.56415
G1 X26.982 Y60.942 E88.59163
G1 X85.942 Y1.982 E91.17818
G1 X86.828 Y1.982 E91.20567
G1 X26.982 Y61.828 E93.83109
G1 X26.982 Y62.714 E93.85857
G1 X87.714 Y1.982 E96.52286
G1 X88.600 Y1.982 E96.55034
G1 X26.982 Y63.600 E99.25349
G1 X26.982 Y64.486 E99.28098
G1 X89.486 Y1.982 E102.02300
G1 X90.372 Y1.982 E102.05048
G1 X26.982 Y65.372 E104.83137
G1 X26.982 Y66.258 E104.85885
G1 X91.258 Y1.982 E107.67861
G1 X92.144 Y1.982 E107.70609
G1 X26.982 Y67.144 E110.56471
G1 X26.982 Y68.030 E110.59219
G1 X93.030 Y1.982 E113.48968
G1 X93.916 Y1.982 E113.51717
G1 X26.982 Y68.916 E116.45352
G1 X26.982 Y69.802 E116.48100
G1 X94.802 Y1.982 E119.45623
G1 X95.688 Y1.982 E119.48371
G1 X26.982 Y70.688 E122.49780
G1 X26.982 Y71.574 E122.52528
G1 X96.574 Y1.982 E125.57824
G1 X97.460 Y1.982 E125.60572
G1 X26.982 Y72.460 E128.69754
G1 X26.982 Y73.346 E128.72503
G1 X98.346 Y1.982 E131.85572
G1 X99.232 Y1.982 E131.88320
G1 X26.982 Y74.232 E135.05276
G1 X26.982 Y75.118 E135.08024
G1 X100.118 Y1.982 E138.28866
G1 X101.004 Y1.982 E138.31615
G1 X26.982 Y76.004 E141.56344
G1 X26.982 Y76.890 E141.59092
G1 X101.890 Y1.982 E144.87708
G1 X102.776 Y1.982 E144.90456
G1 X26.982 Y77.776 E148.22959
G1 X26.982 Y78.662 E148.25707
G1 X103.662 Y1.982 E151.62096
G1 X104.548 Y1.982 E151.64844
G1 X26.982 Y79.548 E155.05120
G1 X26.982 Y80.434 E155.07868
G1 X105.434 Y1.982 E158.52031
G1 X106.320 Y1.982 E158.54779
G1 X26.982 Y81.320 E162.02828
G1 X26.982 Y82.206 E162.05577
G1 X107.206 Y1.982 E165.57513
G1 X108.092 Y1.982 E165.60261
G1 X26.982 Y83.092 E169.16084
G1 X26.982 Y83.978 E169.18832
G1 X108.978 Y1.982 E172.78541
G1 X109.864 Y1.982 E172.81289
G1 X26.982 Y84.864 E176.44885
G1 X26.982 Y85.750 E176.47634
G1 X110.750 Y1.982 E180.15116
G1 X111.636 Y1.982 E180.17865
G1 X26.982 Y86.636 E183.89234
G1 X26.982 Y87.522 E183.91982
G1 X112.522 Y1.982 E187.67238
G1 X113.408 Y1.982 E187.69987
G1 X26.982 Y88.408 E191.49130
G1 X26.982 Y89.294 E191.51878
G1 X114.294 Y1.982 E195.34907
G1 X115.180 Y1.982 E195.37656
G1 X26.982 Y90.180 E199.24572
G1 X26.982 Y91.066 E199.27320
G1 X116.066 Y1.982 E203.18123
G1 X116.952 Y1.982 E203.20871
G1 X26.982 Y91.952 E207.15561
G1 X26.982 Y92.838 E207.18309
G1 X117.838 Y1.982 E211.16885
G1 X118.724 Y1.982 E211.19633
G1 X26.982 Y93.724 E215.22096
G1 X26.982 Y94.610 E215.24845
G1 X119.610 Y1.982 E219.31194
G1 X120.496 Y1.982 E219.33942
G1 X26.982 Y95.496 E223.44179
G1 X26.982 Y96.381 E223.46927
G1 X121.382 Y1.982 E227.61050
G1 X122.268 Y1.982 E227.63798
G1 X26.982 Y97.267 E231.81808
G1 X26.982 Y98.153 E231.84556
G1 X123.153 Y1.982 E236.06453
G1 X124.039 Y1.982 E236.09201
G1 X26.982 Y99.039 E240.34984
G1 X26.982 Y99.925 E240.37732
G1 X124.925 Y1.982 E244.67402
G1 X125.811 Y1.982 E244.70150
G1 X26.982 Y100.811 E249.03707
G1 X26.982 Y101.697 E249.06455
G1 X126.697 Y1.982 E253.43898
G1 X127.583 Y1.982 E253.46646
G1 X26.982 Y102.583 E257.87976
G1 X26.982 Y103.469 E257.90725
G1 X128.469 Y1.982 E262.35941
G1 X129.355 Y1.982 E262.38689
G1 X26.982 Y104.355 E266.87793
G1 X26.982 Y105.241 E266.90541
G1 X130.241 Y1.982 E271.43531
G1 X131.127 Y1.982 E271.46279
G1 X26.982 Y106.127 E276.03156
G1 X26.982 Y107.013 E276.05904
G1 X132.013 Y1.982 E280.66667
G1 X132.899 Y1.982 E280.69415
G1 X26.982 Y107.899 E285.34065
G1 X26.982 Y108.785 E285.36814
G1 X133.785 Y1.982 E290.05350
G1 X134.671 Y1.982 E290.08099
G1 X26.982 Y109.671 E294.80522
G1 X26.982 Y110.557 E294.83270
G1 X135.557 Y1.982 E299.59580
G1 X136.443 Y1.982 E299.62329
G1 X26.982 Y111.443 E304.42525
G1 X26.982 Y112.329 E304.45274
G1 X137.329 Y1.982 E309.29357
G1 X138.215 Y1.982 E309.32105
G1 X26.982 Y113.215 E314.20075
G1 X26.982 Y114.101 E314.22824
G1 X139.101 Y1.982 E319.14681
G1 X139.987 Y1.982 E319.17429
G1 X26.982 Y114.987 E324.13172
G1 X26.982 Y115.873 E324.15921
G1 X140.873 Y1.982 E329.15551
G1 X141.759 Y1.982 E329.18299
G1 X26.982 Y116.759 E334.21816
G1 X26.982 Y117.645 E334.24564
G1 X142.645 Y1.982 E339.31968
G1 X143.531 Y1.982 E339.34716
G1 X26.982 Y118.531 E344.46006
G1 X26.982 Y119.417 E344.48755
G1 X144.417 Y1.982 E349.63932
G1 X145.303 Y1.982 E349.66680
G1 X26.982 Y120.303 E354.85744
G1 X26.982 Y121.189 E354.88492
G1 X146.189 Y1.982 E360.11442
G1 X147.075 Y1.982 E360.14191
G1 X26.982 Y122.075 E365.41028
G1 X26.982 Y122.961 E365.43776
G1 X147.961 Y1.982 E370.74500
G1 X148.847 Y1.982 E370.77248
G1 X26.982 Y123.847 E376.11858
G1 X26.982 Y124.733 E376.14607
G1 X149.733 Y1.982 E381.53104
G1 X150.619 Y1.982 E381.55852
G1 X26.982 Y125.619 E386.98236
G1 X26.982 Y126.505 E387.00984
G1 X151.505 Y1.982 E392.47254
G1 X152.391 Y1.982 E392.50003
G1 X26.982 Y127.391 E398.00160
G1 X26.982 Y128.277 E398.02908
G1 X153.277 Y1.982 E403.56952
G1 X154.163 Y1.982 E403.59700
G1 X26.982 Y129.163 E409.17631
G1 X26.982 Y130.049 E409.20379
G1 X155.049 Y1.982 E414.82196
G1 X155.935 Y1.982 E414.84945
G1 X26.982 Y130.935 E420.50649
G1 X26.982 Y131.821 E420.53397
G1 X156.821 Y1.982 E426.22988
G1 X157.707 Y1.982 E426.25736
G1 X26.982 Y132.707 E431.99213
G1 X26.982 Y133.592 E432.01962
G1 X158.593 Y1.982 E437.79326
G1 X159.479 Y1.982 E437.82074
G1 X26.982 Y134.478 E443.63325
G1 X26.982 Y135.364 E443.66073
G1 X160.364 Y1.982 E449.51210
G1 X161.250 Y1.982 E449.53959
G1 X26.982 Y136.250 E455.42983
G1 X26.982 Y137.136 E455.45731
G1 X162.136 Y1.982 E461.38642
G1 X163.022 Y1.982 E461.41390
G1 X26.982 Y138.022 E467.38187
G1 X26.982 Y138.908 E467.40936
G1 X163.908 Y1.982 E473.41620
G1 X164.794 Y1.982 E473.44368
G1 X26.982 Y139.794 E479.48939
G1 X26.982 Y140.680 E479.51687
G1 X165.680 Y1.982 E485.60145
G1 X166.566 Y1.982 E485.62893
G1 X26.982 Y141.566 E491.75237
G1 X26.982 Y142.452 E491.77986
G1 X167.452 Y1.982 E497.94217
G1 X168.338 Y1.982 E497.96965
G1 X26.982 Y143.338 E504.17082
G1 X26.982 Y144.224 E504.19831
G1 X169.224 Y1.982 E510.43835
G1 X170.110 Y1.982 E510.46583
G1 X26.982 Y145.110 E516.74474
G1 X26.982 Y145.996 E516.77223
G1 X170.996 Y1.982 E523.09000
G1 X171.882 Y1.982 E523.11749
G1 X26.982 Y146.882 E529.47413
G1 X26.982 Y147.768 E529.50161
G1 X172.768 Y1.982 E535.89712
G1 X173.018 Y1.982 E535.90489
G1 X173.018 Y2.617 E535.92461
G1 X26.982 Y148.654 E542.33109
G1 X26.982 Y149.540 E542.35858
G1 X173.018 Y3.503 E548.76506
G1 X173.018 Y4.389 E548.79255
G1 X26.982 Y150.426 E555.19903
G1 X26.982 Y151.312 E555.22652
G1 X173.018 Y5.275 E561.63300
G1 X173.018 Y6.161 E561.66049
G1 X26.982 Y152.198 E568.06697
G1 X26.982 Y153.084 E568.09446
G1 X173.018 Y7.047 E574.50094
G1 X173.018 Y7.933 E574.52843
G1 X26.982 Y153.970 E580.93491
G1 X26.982 Y154.856 E580.96240
G1 X173.018 Y8.819 E587.36888
G1 X173.018 Y9.705 E587.39637
G1 X26.982 Y155.742 E593.80285
G1 X26.982 Y156.628 E593.83034
G1 X173.018 Y10.591 E600.23682
G1 X173.018 Y11.477 E600.26431
G1 X26.982 Y157.514 E606.67079
G1 X26.982 Y158.400 E606.69828
G1 X173.018 Y12.363 E613.10476
G1 X173.018 Y13.249 E613.13225
G1 X26.982 Y159.286 E619.53873
G1 X26.982 Y160.172 E619.56622
G1 X173.018 Y14.135 E625.97270
G1 X173.018 Y15.021 E626.00019
G1 X26.982 Y161.058 E632.40667
G1 X26.982 Y161.944 E632.43416
G1 X173.018 Y15.907 E638.84064
G1 X173.018 Y16.793 E638.86813
G1 X26.982 Y162.830 E645.27461
G1 X26.982 Y163.716 E645.30210
G1 X173.018 Y17.679 E651.70858
G1 X173.018 Y18.565 E651.73607
G1 X26.982 Y164.602 E658.14255
G1 X26.982 Y165.488 E658.17004
G1 X173.018 Y19.451 E664.57652
G1 X173.018 Y20.337 E664.60401
G1 X26.982 Y166.374 E671.01049
G1 X26.982 Y167.260 E671.03798
G1 X173.018 Y21.223 E677.44446
G1 X173.018 Y22.109 E677.47195
G1 X26.982 Y168.146 E683.87843
G1 X26.982 Y169.032 E683.90592
G1 X173.018 Y22.995 E690.31240
G1 X173.018 Y23.881 E690.33989
G1 X26.982 Y169.918 E696.74637
G1 X26.982 Y170.804 E696.77386
G1 X173.018 Y24.767 E703.18034
G1 X173.018 Y25.653 E703.20783
G1 X26.982 Y171.689 E709.61431
G1 X26.982 Y172.575 E709.64180
G1 X173.018 Y26.539 E716.04828
G1 X173.018 Y27.425 E716.07577
G1 X26.982 Y173.461 E722.48225
G1 X26.982 Y174.347 E722.50974
G1 X173.018 Y28.311 E728.91622
G1 X173.018 Y29.197 E728.94371
G1 X26.982 Y175.233 E735.35019
G1 X26.982 Y176.119 E735.37768
G1 X173.018 Y30.083 E741.78416
G1 X173.018 Y30.969 E741.81165
G1 X26.982 Y177.005 E748.21813
G1 X26.982 Y177.891 E748.24562
G1 X173.018 Y31.855 E754.65210
G1 X173.018 Y32.741 E754.67959
G1 X26.982 Y178.777 E761.08607
G1 X26.982 Y179.663 E761.11356
G1 X173.018 Y33.627 E767.52004
G1 X173.018 Y34.513 E767.54753
G1 X26.982 Y180.549 E773.95401
G1 X26.982 Y181.435 E773.98150
G1 X173.018 Y35.399 E780.38798
G1 X173.018 Y36.284 E780.41547
G1 X26.982 Y182.321 E786.82195
G1 X26.982 Y183.207 E786.84944
G1 X173.018 Y37.170 E793.25592
G1 X173.018 Y38.056 E793.28341
G1 X26.982 Y184.093 E799.68989
G1 X26.982 Y184.979 E799.71738
G1 X173.018 Y38.942 E806.12386
G1 X173.018 Y39.828 E806.15135
G1 X26.982 Y185.865 E812.55783
G1 X26.982 Y186.751 E812.58532
G1 X173.018 Y40.714 E818.99180
G1 X173.018 Y41.600 E819.01929
G1 X26.982 Y187.637 E825.42577
G1 X26.982 Y188.523 E825.45326
G1 X173.018 Y42.486 E831.85974
G1 X173.018 Y43.372 E831.88723
G1 X26.982 Y189.409 E838.29371
G1 X26.982 Y190.295 E838.32120
G1 X173.018 Y44.258 E844.72768
G1 X173.018 Y45.144 E844.75517
G1 X26.982 Y191.181 E851.16165
G1 X26.982 Y192.067 E851.18914
G1 X173.018 Y46.030 E857.59562
G1 X173.018 Y46.916 E857.62311
G1 X26.982 Y192.953 E864.02960
G1 X26.982 Y193.839 E864.05708
G1 X173.018 Y47.802 E870.46357
G1 X173.018 Y48.688 E870.49105
G1 X26.982 Y194.725 E876.89754
G1 X26.982 Y195.611 E876.92502
G1 X173.018 Y49.574 E883.33151
G1 X173.018 Y50.460 E883.35899
G1 X26.982 Y196.497 E889.76548
G1 X26.982 Y197.383 E889.79296
G1 X173.018 Y51.346 E896.19945
G1 X173.018 Y52.232 E896.22693
G1 X27.232 Y198.018 E902.62243
G1 X28.118 Y198.018 E902.64992
G1 X173.018 Y53.118 E909.00655
G1 X173.018 Y54.004 E909.03404
G1 X29.004 Y198.018 E915.35180
G1 X29.890 Y198.018 E915.37929
G1 X173.018 Y54.890 E921.65819
G1 X173.018 Y55.776 E921.68567
G1 X30.776 Y198.018 E927.92571
G1 X31.662 Y198.018 E927.95319
G1 X173.018 Y56.662 E934.15436
G1 X173.018 Y57.548 E934.18184
G1 X32.548 Y198.018 E940.34414
G1 X33.434 Y198.018 E940.37162
G1 X173.018 Y58.434 E946.49506
G1 X173.018 Y59.320 E946.52254
G1 X34.320 Y198.018 E952.60711
G1 X35.206 Y198.018 E952.63459
G1 X173.018 Y60.206 E958.68029
G1 X173.018 Y61.092 E958.70777
G1 X36.092 Y198.018 E964.71461
G1 X36.978 Y198.018 E964.74209
G1 X173.018 Y61.978 E970.71006
