; Gcode updated with 'stl_info' on 2019-12-03 19:06:38.355115

; stl_min_x = -19.33329963684082
; stl_max_x = 19.33329963684082
; stl_min_y = -12.906700134277344
; stl_max_y = 8.666669845581055
; stl_min_z = -8.666669845581055

; generated by Slic3r 1.3.1-dev (Build adea0d9) on 2019-12-03 at 19:06:38

; external perimeters extrusion width = 0.55mm (1.90mm^3/s)
; perimeters extrusion width = 0.70mm (2.71mm^3/s)
; infill extrusion width = 0.62mm (2.41mm^3/s)
; solid infill extrusion width = 0.70mm (2.04mm^3/s)
; top infill extrusion width = 0.70mm (2.04mm^3/s)

M107
G92 E0
;D3D:START:START
T0
M104 S215 T0

G21
G90
M107
T0
G28
G29
M109 T0 S215 T0
G0 F3000
M107
T0
G92 E0
G0 X0 Y149 Z0.1 F3600
G1 Y49 E6.5 F1200
G0 Z1
G92 E0
; Filament gcode

G21 ; set units to millimeters
G90 ; use absolute coordinates
M82 ; use absolute distances for extrusion
G92 E0
G1 Z0.090 F7800.000
G1 E-2.00000 F2400.00000
G92 E0
G1 X55.132 Y59.914 F7800.000
G1 E2.00000 F2400.00000
G1 F1800.000
G1 X56.940 Y58.667 E2.00655
G1 X59.431 Y58.134 E2.01414
G1 X90.569 Y58.134 E2.10699
G1 X92.729 Y58.530 E2.11354
G1 X94.868 Y59.914 E2.12113
G1 X98.632 Y63.678 E2.13701
G1 X99.879 Y65.486 E2.14355
G1 X100.413 Y67.977 E2.15115
G1 X100.413 Y82.068 E2.19316
G1 X100.016 Y84.228 E2.19971
G1 X98.878 Y86.106 E2.20626
G1 X97.146 Y87.457 E2.21281
G1 X94.333 Y88.147 E2.22144
G1 X55.667 Y88.147 E2.33674
G1 X53.507 Y87.751 E2.34328
G1 X51.628 Y86.612 E2.34983
G1 X50.277 Y84.881 E2.35638
G1 X49.587 Y82.068 E2.36502
G1 X49.587 Y67.977 E2.40703
G1 X49.984 Y65.817 E2.41358
G1 X51.368 Y63.678 E2.42117
G1 X55.079 Y59.967 E2.43682
G1 E0.43682 F2400.00000
G92 E0
G1 X91.817 Y80.266 F7800.000
G1 E2.00000 F2400.00000
G1 F1800.000
G1 X88.183 Y80.266 E2.01083
G1 X86.367 Y77.120 E2.02167
G1 X88.183 Y73.974 E2.03250
G1 X91.817 Y73.974 E2.04333
G1 X93.633 Y77.120 E2.05416
G1 X91.854 Y80.201 E2.06477
G1 X91.771 Y80.187 F7800.000
G1 F1800.000
G1 X88.229 Y80.187 E2.07533
G1 X86.459 Y77.120 E2.08589
G1 X88.229 Y74.053 E2.09645
G1 X91.771 Y74.053 E2.10701
G1 X93.541 Y77.120 E2.11757
G1 X91.808 Y80.122 E2.12790
G1 X91.725 Y80.107 F7800.000
G1 F1800.000
G1 X88.275 Y80.107 E2.13819
G1 X86.551 Y77.120 E2.14847
G1 X88.275 Y74.133 E2.15875
G1 X91.725 Y74.133 E2.16904
G1 X93.449 Y77.120 E2.17932
G1 X91.762 Y80.042 E2.18938
G1 X91.679 Y80.027 F7800.000
G1 F1800.000
G1 X88.321 Y80.027 E2.19939
G1 X86.643 Y77.120 E2.20940
G1 X88.321 Y74.213 E2.21941
G1 X91.679 Y74.213 E2.22942
G1 X93.357 Y77.120 E2.23943
G1 X91.716 Y79.962 E2.24922
G1 X91.679 Y80.527 F7800.000
G1 E0.24922 F2400.00000
G92 E0
G1 X84.967 Y77.120 F7800.000
G1 E2.00000 F2400.00000
G1 F1800.000
G1 X83.150 Y80.266 E2.01083
G1 X79.517 Y80.266 E2.02167
G1 X77.700 Y77.120 E2.03250
G1 X79.517 Y73.974 E2.04333
G1 X83.150 Y73.974 E2.05416
G1 X84.929 Y77.055 E2.06477
G1 X84.875 Y77.120 F7800.000
G1 F1800.000
G1 X83.104 Y80.187 E2.07533
G1 X79.563 Y80.187 E2.08589
G1 X77.792 Y77.120 E2.09645
G1 X79.563 Y74.053 E2.10701
G1 X83.104 Y74.053 E2.11757
G1 X84.837 Y77.055 E2.12790
G1 X84.782 Y77.120 F7800.000
G1 F1800.000
G1 X83.058 Y80.107 E2.13819
G1 X79.609 Y80.107 E2.14847
G1 X77.884 Y77.120 E2.15875
G1 X79.609 Y74.133 E2.16904
G1 X83.058 Y74.133 E2.17932
G1 X84.745 Y77.055 E2.18938
G1 X84.690 Y77.120 F7800.000
G1 F1800.000
G1 X83.012 Y80.027 E2.19939
G1 X79.655 Y80.027 E2.20940
G1 X77.976 Y77.120 E2.21941
G1 X79.655 Y74.213 E2.22942
G1 X83.012 Y74.213 E2.23943
G1 X84.653 Y77.055 E2.24922
G1 X85.123 Y77.370 F7800.000
G1 E0.24922 F2400.00000
G92 E0
G1 X83.400 Y72.656 F7800.000
G1 E2.00000 F2400.00000
G1 F1800.000
G1 X81.133 Y68.730 E2.01352
G1 X83.400 Y64.804 E2.02703
G1 X87.933 Y64.804 E2.04055
G1 X90.200 Y68.730 E2.05407
G1 X87.933 Y72.656 E2.06758
G1 X83.475 Y72.656 E2.08088
G1 X83.446 Y72.576 F7800.000
G1 F1800.000
G1 X81.225 Y68.730 E2.09412
G1 X83.446 Y64.884 E2.10736
G1 X87.887 Y64.884 E2.12060
G1 X90.108 Y68.730 E2.13384
G1 X87.887 Y72.576 E2.14709
G1 X83.521 Y72.576 E2.16010
G1 X83.492 Y72.497 F7800.000
G1 F1800.000
G1 X81.317 Y68.730 E2.17307
G1 X83.492 Y64.964 E2.18604
G1 X87.841 Y64.964 E2.19901
G1 X90.016 Y68.730 E2.21198
G1 X87.841 Y72.497 E2.22494
G1 X83.567 Y72.497 E2.23769
G1 X83.538 Y72.417 F7800.000
G1 F1800.000
G1 X81.410 Y68.730 E2.25038
G1 X83.538 Y65.043 E2.26307
G1 X87.795 Y65.043 E2.27577
G1 X89.924 Y68.730 E2.28846
G1 X87.795 Y72.417 E2.30115
G1 X83.613 Y72.417 E2.31362
G1 X83.105 Y72.667 F7800.000
G1 E0.31362 F2400.00000
G92 E0
G1 X77.289 Y81.779 F7800.000
G1 E2.00000 F2400.00000
G1 F1800.000
G1 X77.289 Y68.097 E2.04080
G1 X80.884 Y64.502 E2.05595
G1 X90.450 Y64.502 E2.08448
G1 X94.045 Y68.097 E2.09964
G1 X94.045 Y81.779 E2.14043
G1 X77.364 Y81.779 E2.19017
G1 X77.209 Y81.859 F7800.000
G1 F1800.000
G1 X77.209 Y68.064 E2.23130
G1 X80.851 Y64.422 E2.24666
G1 X90.483 Y64.422 E2.27538
G1 X94.124 Y68.064 E2.29073
G1 X94.124 Y81.859 E2.33186
G1 X77.284 Y81.859 E2.38208
G1 X77.129 Y81.938 F7800.000
G1 F1800.000
G1 X77.129 Y68.031 E2.42355
G1 X80.818 Y64.343 E2.43910
G1 X90.516 Y64.343 E2.46801
G1 X94.204 Y68.031 E2.48357
G1 X94.204 Y81.938 E2.52503
G1 X77.204 Y81.938 E2.57572
G1 X77.050 Y82.018 F7800.000
G1 F1800.000
G1 X77.050 Y67.998 E2.61753
G1 X80.785 Y64.263 E2.63328
G1 X90.549 Y64.263 E2.66239
G1 X94.284 Y67.998 E2.67814
G1 X94.284 Y82.018 E2.71994
G1 X77.125 Y82.018 E2.77111
G1 X77.195 Y81.540 F7800.000
G1 E0.77111 F2400.00000
G92 E0
G1 X81.732 Y81.730 F7800.000
G1 E2.00000 F2400.00000
G1 F1800.000
G1 X83.147 Y80.315 E2.00598
G1 X83.034 Y80.315 E2.00632
G1 X81.619 Y81.730 E2.01230
G1 X81.506 Y81.730 E2.01264
G1 X82.921 Y80.315 E2.01862
G1 X82.808 Y80.315 E2.01896
G1 X81.393 Y81.730 E2.02495
G1 X81.280 Y81.730 E2.02528
G1 X82.695 Y80.315 E2.03127
G1 X82.582 Y80.315 E2.03160
G1 X81.167 Y81.730 E2.03759
G1 X81.054 Y81.730 E2.03792
G1 X82.469 Y80.315 E2.04391
G1 X82.356 Y80.315 E2.04425
G1 X80.941 Y81.730 E2.05023
G1 X80.828 Y81.730 E2.05057
G1 X82.243 Y80.315 E2.05655
G1 X82.130 Y80.315 E2.05689
G1 X80.715 Y81.730 E2.06287
G1 X80.602 Y81.730 E2.06321
G1 X82.017 Y80.315 E2.06919
G1 X81.904 Y80.315 E2.06953
G1 X80.489 Y81.730 E2.07551
G1 X80.376 Y81.730 E2.07585
G1 X81.791 Y80.315 E2.08183
G1 X81.678 Y80.315 E2.08217
G1 X80.263 Y81.730 E2.08815
G1 X80.150 Y81.730 E2.08849
G1 X81.565 Y80.315 E2.09447
G1 X81.452 Y80.315 E2.09481
G1 X80.037 Y81.730 E2.10080
G1 X79.924 Y81.730 E2.10113
G1 X81.340 Y80.315 E2.10712
G1 X81.227 Y80.315 E2.10745
G1 X79.811 Y81.730 E2.11344
G1 X79.698 Y81.730 E2.11377
G1 X81.114 Y80.315 E2.11976
G1 X81.001 Y80.315 E2.12010
G1 X79.585 Y81.730 E2.12608
G1 X79.472 Y81.730 E2.12642
G1 X80.888 Y80.315 E2.13240
G1 X80.775 Y80.315 E2.13274
G1 X79.359 Y81.730 E2.13872
G1 X79.246 Y81.730 E2.13906
G1 X80.662 Y80.315 E2.14504
G1 X80.549 Y80.315 E2.14538
G1 X79.133 Y81.730 E2.15136
G1 X79.020 Y81.730 E2.15170
G1 X80.436 Y80.315 E2.15768
G1 X80.323 Y80.315 E2.15802
G1 X78.907 Y81.730 E2.16400
G1 X78.794 Y81.730 E2.16434
G1 X80.210 Y80.315 E2.17032
G1 X80.097 Y80.315 E2.17066
G1 X78.681 Y81.730 E2.17664
G1 X78.568 Y81.730 E2.17698
G1 X79.984 Y80.315 E2.18297
G1 X79.871 Y80.315 E2.18330
G1 X78.455 Y81.730 E2.18929
G1 X78.342 Y81.730 E2.18962
G1 X79.758 Y80.315 E2.19561
G1 X79.645 Y80.315 E2.19594
G1 X78.230 Y81.730 E2.20193
G1 X78.117 Y81.730 E2.20227
G1 X79.532 Y80.315 E2.20825
G1 X79.502 Y80.315 E2.20834
G1 X79.471 Y80.263 E2.20852
G1 X78.004 Y81.730 E2.21473
G1 X77.891 Y81.730 E2.21506
G1 X79.430 Y80.191 E2.22157
G1 X79.389 Y80.119 E2.22182
G1 X77.778 Y81.730 E2.22863
G1 X77.665 Y81.730 E2.22897
G1 X79.347 Y80.048 E2.23608
G1 X79.306 Y79.976 E2.23633
G1 X77.552 Y81.730 E2.24374
G1 X77.439 Y81.730 E2.24408
G1 X79.265 Y79.904 E2.25180
G1 X79.223 Y79.833 E2.25205
G1 X77.337 Y81.719 E2.26002
G1 X77.337 Y81.606 E2.26036
G1 X79.182 Y79.761 E2.26816
G1 X79.141 Y79.690 E2.26841
G1 X77.337 Y81.493 E2.27603
G1 X77.337 Y81.380 E2.27637
G1 X79.099 Y79.618 E2.28381
G1 X79.058 Y79.546 E2.28406
G1 X77.337 Y81.267 E2.29134
G1 X77.337 Y81.154 E2.29167
G1 X79.016 Y79.475 E2.29877
G1 X78.975 Y79.403 E2.29902
G1 X77.337 Y81.041 E2.30594
G1 X77.337 Y80.928 E2.30628
G1 X78.934 Y79.331 E2.31303
G1 X78.892 Y79.260 E2.31328
G1 X77.337 Y80.815 E2.31985
G1 X77.337 Y80.702 E2.32019
G1 X78.851 Y79.188 E2.32659
G1 X78.810 Y79.117 E2.32684
G1 X77.337 Y80.589 E2.33306
G1 X77.337 Y80.476 E2.33340
G1 X78.768 Y79.045 E2.33945
G1 X78.727 Y78.973 E2.33970
G1 X77.337 Y80.363 E2.34557
G1 X77.337 Y80.250 E2.34591
G1 X78.686 Y78.902 E2.35161
G1 X78.644 Y78.830 E2.35186
G1 X77.337 Y80.137 E2.35738
G1 X77.337 Y80.024 E2.35772
G1 X78.603 Y78.758 E2.36307
G1 X78.562 Y78.687 E2.36332
G1 X77.337 Y79.911 E2.36850
G1 X77.337 Y79.798 E2.36883
G1 X78.520 Y78.615 E2.37384
G1 X78.479 Y78.544 E2.37408
G1 X77.337 Y79.685 E2.37891
G1 X77.337 Y79.572 E2.37925
G1 X78.438 Y78.472 E2.38390
G1 X78.396 Y78.400 E2.38415
G1 X77.337 Y79.459 E2.38862
G1 X77.337 Y79.346 E2.38896
G1 X78.355 Y78.329 E2.39326
G1 X78.313 Y78.257 E2.39351
G1 X77.337 Y79.233 E2.39764
G1 X77.337 Y79.120 E2.39797
G1 X78.272 Y78.185 E2.40193
G1 X78.231 Y78.114 E2.40217
G1 X77.337 Y79.007 E2.40595
G1 X77.337 Y78.894 E2.40629
G1 X78.189 Y78.042 E2.40989
G1 X78.148 Y77.970 E2.41014
G1 X77.337 Y78.781 E2.41357
G1 X77.337 Y78.668 E2.41390
G1 X78.107 Y77.899 E2.41716
G1 X78.065 Y77.827 E2.41740
G1 X77.337 Y78.555 E2.42048
G1 X77.337 Y78.442 E2.42082
G1 X78.024 Y77.756 E2.42372
G1 X77.983 Y77.684 E2.42397
G1 X77.337 Y78.329 E2.42670
G1 X77.337 Y78.216 E2.42704
G1 X77.941 Y77.612 E2.42959
G1 X77.900 Y77.541 E2.42984
G1 X77.337 Y78.103 E2.43222
G1 X77.337 Y77.990 E2.43255
G1 X77.859 Y77.469 E2.43476
G1 X77.817 Y77.397 E2.43500
G1 X77.337 Y77.877 E2.43703
G1 X77.337 Y77.764 E2.43737
G1 X77.776 Y77.326 E2.43923
G1 X77.735 Y77.254 E2.43947
G1 X77.337 Y77.651 E2.44115
G1 X77.337 Y77.539 E2.44149
G1 X77.693 Y77.183 E2.44299
G1 X77.652 Y77.111 E2.44324
G1 X77.337 Y77.426 E2.44457
G1 X77.337 Y77.313 E2.44491
G1 X77.746 Y76.904 E2.44664
G1 X77.901 Y76.636 E2.44756
G1 X77.337 Y77.200 E2.44994
G1 X77.337 Y77.087 E2.45028
G1 X78.055 Y76.369 E2.45331
G1 X78.209 Y76.102 E2.45424
G1 X77.337 Y76.974 E2.45792
G1 X77.337 Y76.861 E2.45826
G1 X78.364 Y75.834 E2.46260
G1 X78.518 Y75.567 E2.46352
G1 X77.337 Y76.748 E2.46851
G1 X77.337 Y76.635 E2.46885
G1 X78.672 Y75.300 E2.47449
G1 X78.827 Y75.032 E2.47542
G1 X77.337 Y76.522 E2.48171
G1 X77.337 Y76.409 E2.48205
G1 X78.981 Y74.765 E2.48900
G1 X79.135 Y74.498 E2.48992
G1 X77.337 Y76.296 E2.49752
G1 X77.337 Y76.183 E2.49786
G1 X79.290 Y74.230 E2.50611
G1 X79.444 Y73.963 E2.50704
G1 X77.337 Y76.070 E2.51594
G1 X77.337 Y75.957 E2.51628
G1 X82.362 Y70.932 E2.53752
G1 X82.320 Y70.861 E2.53777
G1 X77.337 Y75.844 E2.55884
G1 X77.337 Y75.731 E2.55917
G1 X82.279 Y70.789 E2.58007
G1 X82.238 Y70.717 E2.58031
G1 X77.337 Y75.618 E2.60103
G1 X77.337 Y75.505 E2.60137
G1 X82.196 Y70.646 E2.62191
G1 X82.155 Y70.574 E2.62216
G1 X77.337 Y75.392 E2.64252
G1 X77.337 Y75.279 E2.64286
G1 X82.114 Y70.502 E2.66305
G1 X82.072 Y70.431 E2.66330
G1 X77.337 Y75.166 E2.68332
G1 X77.337 Y75.053 E2.68366
G1 X82.031 Y70.359 E2.70350
G1 X81.990 Y70.288 E2.70375
G1 X77.337 Y74.940 E2.72341
G1 X77.337 Y74.827 E2.72375
G1 X81.948 Y70.216 E2.74325
G1 X81.907 Y70.144 E2.74349
G1 X77.337 Y74.714 E2.76281
G1 X77.337 Y74.601 E2.76315
G1 X81.866 Y70.073 E2.78229
G1 X81.824 Y70.001 E2.78254
G1 X77.337 Y74.488 E2.80151
G1 X77.337 Y74.375 E2.80185
G1 X81.783 Y69.929 E2.82064
G1 X81.741 Y69.858 E2.82089
G1 X77.337 Y74.262 E2.83951
G1 X77.337 Y74.149 E2.83984
G1 X81.700 Y69.786 E2.85829
G1 X81.659 Y69.715 E2.85854
G1 X77.337 Y74.036 E2.87680
G1 X77.337 Y73.923 E2.87714
G1 X81.617 Y69.643 E2.89524
G1 X81.576 Y69.571 E2.89548
G1 X77.337 Y73.810 E2.91340
G1 X77.337 Y73.697 E2.91374
G1 X81.535 Y69.500 E2.93149
G1 X81.493 Y69.428 E2.93173
G1 X77.337 Y73.584 E2.94930
G1 X77.337 Y73.471 E2.94964
G1 X81.452 Y69.356 E2.96704
G1 X81.411 Y69.285 E2.96728
G1 X77.337 Y73.358 E2.98450
G1 X77.337 Y73.245 E2.98484
G1 X81.369 Y69.213 E3.00189
G1 X81.328 Y69.142 E3.00214
G1 X77.337 Y73.132 E3.01901
G1 X77.337 Y73.019 E3.01934
G1 X81.287 Y69.070 E3.03604
G1 X81.245 Y68.998 E3.03629
G1 X77.337 Y72.906 E3.05281
G1 X77.337 Y72.793 E3.05315
G1 X81.204 Y68.927 E3.06949
G1 X81.163 Y68.855 E3.06974
G1 X77.337 Y72.680 E3.08591
G1 X77.337 Y72.567 E3.08625
G1 X81.121 Y68.783 E3.10225
G1 X81.080 Y68.712 E3.10249
G1 X77.337 Y72.454 E3.11831
G1 X77.337 Y72.341 E3.11865
G1 X81.199 Y68.479 E3.13498
G1 X81.354 Y68.212 E3.13590
G1 X77.337 Y72.228 E3.15288
G1 X77.337 Y72.115 E3.15322
G1 X81.508 Y67.945 E3.17085
G1 X81.662 Y67.677 E3.17177
G1 X77.337 Y72.002 E3.19006
G1 X77.337 Y71.889 E3.19040
G1 X81.817 Y67.410 E3.20933
G1 X81.971 Y67.143 E3.21026
G1 X77.337 Y71.776 E3.22985
G1 X77.337 Y71.663 E3.23018
G1 X82.125 Y66.875 E3.25043
G1 X82.280 Y66.608 E3.25135
G1 X77.337 Y71.550 E3.27224
G1 X77.337 Y71.438 E3.27258
G1 X82.434 Y66.341 E3.29413
G1 X82.588 Y66.073 E3.29505
G1 X77.337 Y71.325 E3.31725
G1 X77.337 Y71.212 E3.31759
G1 X82.743 Y65.806 E3.34044
G1 X82.897 Y65.539 E3.34136
G1 X77.337 Y71.099 E3.36487
G1 X77.337 Y70.986 E3.36520
G1 X83.051 Y65.271 E3.38936
G1 X83.206 Y65.004 E3.39028
G1 X77.337 Y70.873 E3.41509
G1 X77.337 Y70.760 E3.41543
G1 X83.360 Y64.737 E3.44089
G1 E1.44089 F2400.00000
G92 E0
G1 X80.886 Y64.613 F7800.000
G1 E2.00000 F2400.00000
G1 F1800.000
G1 X77.337 Y68.161 E2.01500
G1 X80.948 Y64.551 E2.03026
G1 X81.061 Y64.551 E2.03060
G1 X77.337 Y68.274 E2.04634
G1 X77.337 Y68.387 E2.04668
G1 X81.174 Y64.551 E2.06290
G1 X81.287 Y64.551 E2.06324
G1 X77.337 Y68.500 E2.07993
G1 X77.337 Y68.613 E2.08027
G1 X81.400 Y64.551 E2.09745
G1 X81.513 Y64.551 E2.09778
G1 X77.337 Y68.726 E2.11544
G1 X77.337 Y68.839 E2.11577
G1 X81.626 Y64.551 E2.13390
G1 X81.739 Y64.551 E2.13424
G1 X77.337 Y68.952 E2.15285
G1 X77.337 Y69.065 E2.15318
G1 X81.852 Y64.551 E2.17227
G1 X81.965 Y64.551 E2.17261
G1 X77.337 Y69.178 E2.19217
G1 X77.337 Y69.291 E2.19251
G1 X82.078 Y64.551 E2.21255
G1 X82.191 Y64.551 E2.21288
G1 X77.337 Y69.404 E2.23340
G1 X77.337 Y69.517 E2.23374
G1 X82.304 Y64.551 E2.25473
G1 X82.416 Y64.551 E2.25507
G1 X77.337 Y69.630 E2.27654
G1 X77.337 Y69.743 E2.27688
G1 X82.529 Y64.551 E2.29883
G1 X82.642 Y64.551 E2.29917
G1 X77.337 Y69.856 E2.32160
G1 X77.337 Y69.969 E2.32194
G1 X82.755 Y64.551 E2.34484
G1 X82.868 Y64.551 E2.34518
G1 X77.337 Y70.082 E2.36856
G1 X77.337 Y70.195 E2.36890
G1 X82.981 Y64.551 E2.39276
G1 X83.094 Y64.551 E2.39310
G1 X77.337 Y70.308 E2.41744
G1 X77.337 Y70.421 E2.41777
G1 X83.207 Y64.551 E2.44259
G1 X83.320 Y64.551 E2.44293
G1 X77.337 Y70.534 E2.46822
G1 X77.337 Y70.647 E2.46856
G1 X83.433 Y64.551 E2.49433
G1 X83.546 Y64.551 E2.49467
G1 X83.341 Y64.755 E2.49553
G1 X83.454 Y64.755 E2.49587
G1 X83.659 Y64.551 E2.49674
G1 X83.772 Y64.551 E2.49708
G1 X83.567 Y64.755 E2.49794
G1 X83.680 Y64.755 E2.49828
G1 X83.885 Y64.551 E2.49915
G1 X83.998 Y64.551 E2.49948
G1 X83.793 Y64.755 E2.50035
G1 X83.906 Y64.755 E2.50069
G1 X84.111 Y64.551 E2.50156
G1 X84.224 Y64.551 E2.50189
G1 X84.019 Y64.755 E2.50276
G1 X84.132 Y64.755 E2.50310
G1 X84.337 Y64.551 E2.50396
G1 X84.450 Y64.551 E2.50430
G1 X84.245 Y64.755 E2.50517
G1 X84.358 Y64.755 E2.50551
G1 X84.563 Y64.551 E2.50637
G1 X84.676 Y64.551 E2.50671
G1 X84.471 Y64.755 E2.50758
G1 X84.584 Y64.755 E2.50791
G1 X84.789 Y64.551 E2.50878
G1 X84.902 Y64.551 E2.50912
G1 X84.697 Y64.755 E2.50998
G1 X84.810 Y64.755 E2.51032
G1 X85.015 Y64.551 E2.51119
G1 X85.128 Y64.551 E2.51153
G1 X84.923 Y64.755 E2.51239
G1 X85.036 Y64.755 E2.51273
G1 X85.241 Y64.551 E2.51360
G1 X85.354 Y64.551 E2.51393
G1 X85.149 Y64.755 E2.51480
G1 X85.262 Y64.755 E2.51514
G1 X85.467 Y64.551 E2.51600
G1 X85.580 Y64.551 E2.51634
G1 X85.375 Y64.755 E2.51721
G1 X85.488 Y64.755 E2.51755
G1 X85.693 Y64.551 E2.51841
G1 X85.806 Y64.551 E2.51875
G1 X85.601 Y64.755 E2.51962
G1 X85.714 Y64.755 E2.51996
G1 X85.919 Y64.551 E2.52082
G1 X86.032 Y64.551 E2.52116
G1 X85.827 Y64.755 E2.52203
G1 X85.940 Y64.755 E2.52236
G1 X86.145 Y64.551 E2.52323
G1 X86.258 Y64.551 E2.52357
G1 X86.053 Y64.755 E2.52443
G1 X86.166 Y64.755 E2.52477
G1 X86.371 Y64.551 E2.52564
G1 X86.484 Y64.551 E2.52598
G1 X86.279 Y64.755 E2.52684
G1 X86.392 Y64.755 E2.52718
