; generated by Slic3r 1.3.1-dev (Build 2ef957d) on 2019-11-25 at 09:24:33

; external perimeters extrusion width = 0.55mm (4.37mm^3/s)
; perimeters extrusion width = 0.70mm (11.44mm^3/s)
; infill extrusion width = 0.62mm (13.45mm^3/s)
; solid infill extrusion width = 0.70mm (3.81mm^3/s)
; top infill extrusion width = 0.70mm (2.86mm^3/s)

M107
G92 E0
M104 S200 ; set temperature
G28 ; home all axes
G1 Z5 F5000 ; lift nozzle

; Filament gcode

M109 S200 ; set temperature and wait for it to be reached
G21 ; set units to millimeters
G90 ; use absolute coordinates
M82 ; use absolute distances for extrusion
G92 E0
G1 Z0.350 F7800.000
G1 E-2.00000 F2400.00000
G92 E0
G1 X78.915 Y93.253 F7800.000
G1 E2.00000 F2400.00000
G1 F1800.000
G1 X80.566 Y91.835 E2.06733
G1 X90.726 Y85.676 E2.43494
G1 X92.863 Y84.845 E2.50590
G1 X94.160 Y84.717 E2.54622
G1 X105.840 Y84.717 E2.90761
G1 X108.099 Y85.113 E2.97858
G1 X109.274 Y85.676 E3.01889
G1 X119.434 Y91.835 E3.38650
G1 X121.160 Y93.345 E3.45746
G1 X122.267 Y95.353 E3.52843
G1 X122.625 Y97.500 E3.59576
G1 X122.625 Y102.500 E3.75047
G1 X122.228 Y104.759 E3.82143
G1 X121.085 Y106.747 E3.89239
G1 X119.434 Y108.165 E3.95972
G1 X109.274 Y114.324 E4.32733
G1 X107.137 Y115.155 E4.39830
G1 X105.840 Y115.283 E4.43861
G1 X94.160 Y115.283 E4.80001
G1 X91.901 Y114.887 E4.87097
G1 X90.726 Y114.324 E4.91128
G1 X80.566 Y108.165 E5.27889
G1 X78.840 Y106.655 E5.34985
G1 X77.733 Y104.647 E5.42082
G1 X77.375 Y102.500 E5.48815
G1 X77.375 Y97.500 E5.64286
G1 X77.772 Y95.241 E5.71382
G1 X78.878 Y93.318 E5.78246
G1 E3.78246 F2400.00000
G92 E0
G1 X103.538 Y104.277 F7800.000
G1 E2.00000 F2400.00000
G1 F1800.000
G1 X102.974 Y104.687 E2.02157
G1 X102.363 Y105.022 E2.04314
G1 X101.715 Y105.279 E2.06470
G1 X101.040 Y105.452 E2.08627
G1 X100.349 Y105.540 E2.10784
G1 X99.651 Y105.540 E2.12941
G1 X98.960 Y105.452 E2.15098
G1 X98.285 Y105.279 E2.17254
G1 X97.637 Y105.022 E2.19411
G1 X97.026 Y104.687 E2.21568
G1 X96.462 Y104.277 E2.23725
G1 X95.954 Y103.800 E2.25882
G1 X95.509 Y103.263 E2.28038
G1 X95.136 Y102.674 E2.30195
G1 X94.839 Y102.043 E2.32352
G1 X94.624 Y101.380 E2.34509
G1 X94.493 Y100.696 E2.36666
G1 X94.449 Y100.000 E2.38822
G1 X94.493 Y99.304 E2.40979
G1 X94.624 Y98.620 E2.43136
G1 X94.839 Y97.957 E2.45293
G1 X95.136 Y97.326 E2.47450
G1 X95.509 Y96.737 E2.49606
G1 X95.954 Y96.200 E2.51763
G1 X96.462 Y95.723 E2.53920
G1 X97.026 Y95.313 E2.56077
G1 X97.637 Y94.978 E2.58234
G1 X98.285 Y94.721 E2.60390
G1 X98.960 Y94.548 E2.62547
G1 X99.651 Y94.460 E2.64704
G1 X100.349 Y94.460 E2.66861
G1 X101.040 Y94.548 E2.69018
G1 X101.715 Y94.721 E2.71174
G1 X102.363 Y94.978 E2.73331
G1 X102.974 Y95.313 E2.75488
G1 X103.538 Y95.723 E2.77645
G1 X104.046 Y96.200 E2.79802
G1 X104.491 Y96.737 E2.81958
G1 X104.864 Y97.326 E2.84115
G1 X105.161 Y97.957 E2.86272
G1 X105.376 Y98.620 E2.88429
G1 X105.507 Y99.304 E2.90586
G1 X105.551 Y100.000 E2.92742
G1 X105.507 Y100.696 E2.94899
G1 X105.376 Y101.380 E2.97056
G1 X105.161 Y102.043 E2.99213
G1 X104.864 Y102.674 E3.01370
G1 X104.491 Y103.263 E3.03526
G1 X104.046 Y103.800 E3.05683
G1 X103.593 Y104.226 E3.07608
G1 X103.538 Y104.277 F7800.000
G1 E1.07608 F2400.00000
G92 E0
G1 X104.240 Y94.688 F7800.000
G1 E2.00000 F2400.00000
G1 F1800.000
G1 X103.645 Y94.256 E2.02276
G1 X102.897 Y93.845 E2.04919
G1 X102.102 Y93.530 E2.07562
G1 X101.275 Y93.318 E2.10206
G1 X101.077 Y93.293 E2.10823
G1 X101.099 Y92.941 E2.11912
G1 X104.240 Y92.941 E2.21631
G1 X104.240 Y94.613 E2.26805
G1 E0.26805 F2400.00000
G92 E0
G1 X98.923 Y93.293 F7800.000
G1 E2.00000 F2400.00000
G1 F1800.000
G1 X98.725 Y93.318 E2.00617
G1 X97.898 Y93.530 E2.03260
G1 X97.103 Y93.845 E2.05904
G1 X96.355 Y94.256 E2.08547
G1 X95.760 Y94.688 E2.10823
G1 X95.760 Y92.941 E2.16229
G1 X98.901 Y92.941 E2.25948
G1 X98.918 Y93.218 E2.26805
G1 E0.26805 F2400.00000
G92 E0
G1 X95.135 Y92.316 F7800.000
G1 E2.00000 F2400.00000
G1 F1800.000
G1 X104.865 Y92.316 E2.30107
G1 X104.865 Y96.210 E2.42153
G1 X104.503 Y95.772 E2.43913
G1 X103.937 Y95.241 E2.46313
G1 X103.310 Y94.785 E2.48713
G1 X102.630 Y94.411 E2.51113
G1 X101.909 Y94.126 E2.53513
G1 X101.157 Y93.933 E2.55913
G1 X100.388 Y93.835 E2.58313
G1 X99.612 Y93.835 E2.60713
G1 X98.843 Y93.933 E2.63113
G1 X98.091 Y94.126 E2.65513
G1 X97.370 Y94.411 E2.67914
G1 X96.690 Y94.785 E2.70314
G1 X96.063 Y95.241 E2.72714
G1 X95.497 Y95.772 E2.75114
G1 X95.135 Y96.210 E2.76873
G1 X95.135 Y92.391 E2.88688
G1 E0.88688 F2400.00000
G92 E0
G1 X93.254 Y99.100 F7800.000
G1 E2.00000 F2400.00000
G1 F1800.000
G1 X93.197 Y100.000 E2.02791
G1 X93.254 Y100.900 E2.05582
G1 X85.600 Y100.900 E2.29264
G1 X85.600 Y99.100 E2.34835
G1 X93.179 Y99.100 E2.58285
G1 X94.015 Y98.475 F7800.000
G1 F1800.000
G1 X93.872 Y99.226 E2.60650
G1 X93.823 Y100.000 E2.63051
G1 X93.872 Y100.774 E2.65451
G1 X94.015 Y101.525 E2.67816
G1 X84.975 Y101.525 E2.95788
G1 X84.975 Y98.475 E3.05226
G1 X93.940 Y98.475 E3.32965
G1 E1.32965 F2400.00000
G92 E0
G1 X95.760 Y105.312 F7800.000
G1 E2.00000 F2400.00000
G1 F1800.000
G1 X96.355 Y105.744 E2.02276
G1 X97.103 Y106.155 E2.04919
G1 X97.898 Y106.470 E2.07562
G1 X98.725 Y106.682 E2.10206
G1 X98.923 Y106.707 E2.10823
G1 X98.901 Y107.059 E2.11912
G1 X95.760 Y107.059 E2.21632
G1 X95.760 Y105.387 E2.26806
G1 E0.26806 F2400.00000
G92 E0
G1 X101.077 Y106.707 F7800.000
G1 E2.00000 F2400.00000
G1 F1800.000
G1 X101.275 Y106.682 E2.00617
G1 X102.102 Y106.470 E2.03260
G1 X102.897 Y106.155 E2.05904
G1 X103.645 Y105.744 E2.08547
G1 X104.240 Y105.312 E2.10823
G1 X104.240 Y107.059 E2.16229
G1 X101.099 Y107.059 E2.25948
G1 X101.082 Y106.782 E2.26806
G1 E0.26806 F2400.00000
G92 E0
G1 X104.865 Y107.684 F7800.000
G1 E2.00000 F2400.00000
G1 F1800.000
G1 X95.135 Y107.684 E2.30107
G1 X95.135 Y103.790 E2.42153
G1 X95.497 Y104.228 E2.43913
G1 X96.063 Y104.759 E2.46313
G1 X96.690 Y105.215 E2.48713
G1 X97.370 Y105.589 E2.51113
G1 X98.091 Y105.874 E2.53513
G1 X98.843 Y106.067 E2.55913
G1 X99.612 Y106.165 E2.58313
G1 X100.388 Y106.165 E2.60713
G1 X101.157 Y106.067 E2.63113
G1 X101.909 Y105.874 E2.65513
G1 X102.630 Y105.589 E2.67914
G1 X103.310 Y105.215 E2.70314
G1 X103.937 Y104.759 E2.72714
G1 X104.503 Y104.228 E2.75114
G1 X104.865 Y103.790 E2.76873
G1 X104.865 Y107.609 E2.88688
G1 E0.88688 F2400.00000
G92 E0
G1 X106.746 Y100.900 F7800.000
G1 E2.00000 F2400.00000
G1 F1800.000
G1 X106.803 Y100.000 E2.02791
G1 X106.746 Y99.100 E2.05582
G1 X114.400 Y99.100 E2.29264
G1 X114.400 Y100.900 E2.34835
G1 X106.821 Y100.900 E2.58285
G1 X105.985 Y101.525 F7800.000
G1 F1800.000
G1 X106.128 Y100.774 E2.60650
G1 X106.177 Y100.000 E2.63051
G1 X106.128 Y99.226 E2.65451
G1 X105.985 Y98.475 E2.67816
G1 X115.025 Y98.475 E2.95788
G1 X115.025 Y101.525 E3.05226
G1 X106.060 Y101.525 E3.32965
G1 X105.490 Y102.150 F7800.000
G1 F1800.000
G1 X105.490 Y108.309 E3.52021
G1 X94.510 Y108.309 E3.85994
G1 X94.510 Y102.150 E4.05050
G1 X84.350 Y102.150 E4.36486
G1 X84.350 Y97.850 E4.49791
G1 X94.510 Y97.850 E4.81227
G1 X94.510 Y91.691 E5.00283
G1 X105.490 Y91.691 E5.34257
G1 X105.490 Y97.850 E5.53312
G1 X115.650 Y97.850 E5.84748
G1 X115.650 Y102.150 E5.98053
G1 X105.565 Y102.150 E6.29257
G1 X104.994 Y102.217 F7800.000
G1 E4.29257 F2400.00000
G92 E0
G1 X107.169 Y99.968 F7800.000
G1 E2.00000 F2400.00000
G1 F1800.000
G1 X107.655 Y99.482 E2.02377
G1 X108.643 Y99.482 E2.05793
G1 X107.606 Y100.518 E2.10863
G1 X108.594 Y100.518 E2.14279
G1 X109.630 Y99.482 E2.19350
G1 X110.618 Y99.482 E2.22765
G1 X109.581 Y100.518 E2.27836
G1 X110.569 Y100.518 E2.31252
G1 X111.606 Y99.482 E2.36322
G1 X112.594 Y99.482 E2.39738
G1 X111.557 Y100.518 E2.44809
G1 X112.544 Y100.518 E2.48224
G1 X113.581 Y99.482 E2.53295
G1 X114.018 Y99.482 E2.54807
G1 X114.018 Y100.032 E2.56711
G1 X113.532 Y100.518 E2.59088
G1 E0.59088 F2400.00000
G92 E0
G1 X103.928 Y105.935 F7800.000
G1 E2.00000 F2400.00000
G1 F1800.000
G1 X103.481 Y106.746 E2.00366
G1 X102.957 Y106.612 F7800.000
G1 F1800.000
G1 X102.694 Y106.662 E2.00627
G1 F1800.000
G1 X102.432 Y106.712 E2.00763
G1 X102.957 Y106.612 F7800.000
G1 F1800.000
G1 X103.928 Y106.399 E2.02007
G1 E0.02007 F2400.00000
G92 E0
G1 X97.568 Y106.712 F7800.000
G1 E2.00000 F2400.00000
G1 F1800.000
G1 X97.306 Y106.662 E2.00074
G1 F1800.000
G1 X97.043 Y106.612 E2.00272
G1 F1800.000
G1 X96.072 Y106.399 E2.01471
G1 X96.072 Y105.935 F7800.000
G1 F1800.000
G1 X96.519 Y106.746 E2.01838
G1 E0.01838 F2400.00000
G92 E0
G1 X92.345 Y100.518 F7800.000
G1 E2.00000 F2400.00000
G1 F1800.000
G1 X92.831 Y100.032 E2.02377
G1 X91.357 Y100.518 F7800.000
G1 F1800.000
G1 X92.394 Y99.482 E2.07448
G1 X91.406 Y99.482 E2.10863
G1 X90.370 Y100.518 E2.15934
G1 X89.382 Y100.518 E2.19350
G1 X90.419 Y99.482 E2.24420
G1 X89.431 Y99.482 E2.27836
G1 X88.394 Y100.518 E2.32906
G1 X87.406 Y100.518 E2.36322
G1 X88.443 Y99.482 E2.41393
G1 X87.456 Y99.482 E2.44808
G1 X86.419 Y100.518 E2.49879
G1 X85.982 Y100.518 E2.51391
G1 X85.982 Y99.968 E2.53295
G1 X86.468 Y99.482 E2.55673
G1 E0.55673 F2400.00000
G92 E0
G1 X96.072 Y94.065 F7800.000
G1 E2.00000 F2400.00000
G1 F1800.000
G1 X96.519 Y93.254 E2.00366
G1 X97.043 Y93.388 F7800.000
G1 F1800.000
G1 X96.072 Y93.601 E2.01565
G1 X97.043 Y93.388 F7800.000
G1 F1800.000
G1 X97.306 Y93.338 E2.01764
G1 F1800.000
G1 X97.568 Y93.288 E2.01837
G1 E0.01837 F2400.00000
G92 E0
G1 X102.432 Y93.288 F7800.000
G1 E2.00000 F2400.00000
G1 F1800.000
G1 X102.694 Y93.338 E2.00136
G1 F1800.000
G1 X102.957 Y93.388 E2.00397
G1 F1800.000
G1 X103.928 Y93.601 E2.01640
G1 X103.928 Y94.065 F7800.000
G1 F1800.000
G1 X103.481 Y93.254 E2.02007
G1 Z0.650 F7800.000
G1 E0.02007 F2400.00000
G92 E0
G1 X105.091 Y102.016 F7800.000
G1 E2.00000 F2400.00000
G1 F900.000
G1 X104.798 Y102.638 E2.01417
G1 X104.430 Y103.218 E2.02834
G1 X103.992 Y103.748 E2.04252
G1 X103.490 Y104.219 E2.05669
G1 X102.934 Y104.623 E2.07086
G1 X102.331 Y104.954 E2.08503
G1 X101.692 Y105.208 E2.09921
G1 X101.026 Y105.379 E2.11338
G1 X100.344 Y105.465 E2.12755
G1 X99.656 Y105.465 E2.14172
G1 X98.974 Y105.379 E2.15589
G1 X98.308 Y105.208 E2.17007
G1 X97.669 Y104.954 E2.18424
G1 X97.066 Y104.623 E2.19841
G1 X96.510 Y104.219 E2.21258
G1 X96.008 Y103.748 E2.22675
G1 X95.570 Y103.218 E2.24093
G1 X95.202 Y102.638 E2.25510
G1 X94.909 Y102.016 E2.26927
G1 X94.696 Y101.362 E2.28344
G1 X94.568 Y100.686 E2.29762
G1 X94.524 Y100.000 E2.31179
G1 X94.568 Y99.314 E2.32596
G1 X94.696 Y98.638 E2.34013
G1 X94.909 Y97.984 E2.35430
G1 X95.202 Y97.362 E2.36848
G1 X95.570 Y96.782 E2.38265
G1 X96.008 Y96.252 E2.39682
G1 X96.510 Y95.781 E2.41099
G1 X97.066 Y95.377 E2.42516
G1 X97.669 Y95.046 E2.43934
G1 X98.308 Y94.792 E2.45351
G1 X98.974 Y94.621 E2.46768
G1 X99.706 Y94.529 E2.48288
G1 X100.345 Y94.535 E2.49606
G1 X101.026 Y94.621 E2.51021
G1 X101.692 Y94.792 E2.52438
G1 X102.331 Y95.046 E2.53855
G1 X102.934 Y95.377 E2.55272
G1 X103.490 Y95.781 E2.56689
G1 X103.992 Y96.252 E2.58107
G1 X104.430 Y96.782 E2.59524
G1 X104.798 Y97.362 E2.60941
G1 X105.091 Y97.984 E2.62358
G1 X105.304 Y98.638 E2.63776
G1 X105.432 Y99.314 E2.65193
G1 X105.476 Y100.000 E2.66610
G1 X105.432 Y100.686 E2.68027
G1 X105.304 Y101.362 E2.69444
G1 X105.114 Y101.944 E2.70707
G1 X105.091 Y102.016 F7800.000
G1 E0.70707 F2400.00000
G92 E0
G1 X104.369 Y94.941 F7800.000
G1 E2.00000 F2400.00000
G1 F900.000
G1 X103.576 Y94.365 E2.02643
G1 X102.842 Y93.961 E2.04904
G1 X102.062 Y93.653 E2.07165
G1 X101.251 Y93.444 E2.09426
G1 X100.426 Y93.340 E2.11667
G1 X99.636 Y93.332 E2.13799
G1 X98.749 Y93.444 E2.16210
G1 X97.938 Y93.653 E2.18471
G1 X97.158 Y93.961 E2.20732
G1 X96.424 Y94.365 E2.22993
G1 X95.631 Y94.941 E2.25636
G1 X95.631 Y92.827 E2.31339
G1 X104.369 Y92.827 E2.54910
G1 X104.369 Y94.866 E2.60410
G1 X105.004 Y96.597 F7800.000
G1 F900.000
G1 X104.401 Y95.867 E2.62964
G1 X103.848 Y95.348 E2.65009
G1 X103.235 Y94.903 E2.67054
G1 X102.571 Y94.537 E2.69099
G1 X101.866 Y94.258 E2.71145
G1 X101.131 Y94.070 E2.73190
G1 X100.383 Y93.975 E2.75224
G1 X99.673 Y93.968 E2.77140
G1 X98.869 Y94.070 E2.79327
G1 X98.134 Y94.258 E2.81372
G1 X97.429 Y94.537 E2.83417
G1 X96.765 Y94.903 E2.85463
G1 X96.152 Y95.348 E2.87508
G1 X95.599 Y95.867 E2.89553
G1 X94.996 Y96.597 E2.92107
G1 X94.996 Y92.191 E3.03991
G1 X105.004 Y92.191 E3.30991
G1 X105.004 Y96.522 E3.42674
G1 E1.42674 F2400.00000
G92 E0
G1 X104.369 Y105.059 F7800.000
G1 E2.00000 F2400.00000
G1 F900.000
G1 X104.369 Y107.173 E2.05703
G1 X95.631 Y107.173 E2.29273
G1 X95.631 Y105.059 E2.34976
G1 X96.424 Y105.635 E2.37619
G1 X97.158 Y106.039 E2.39880
G1 X97.938 Y106.347 E2.42141
G1 X98.749 Y106.556 E2.44402
G1 X99.581 Y106.661 E2.46663
G1 X100.419 Y106.661 E2.48924
G1 X101.251 Y106.556 E2.51185
G1 X102.062 Y106.347 E2.53446
G1 X102.842 Y106.039 E2.55707
G1 X103.576 Y105.635 E2.57968
G1 X104.308 Y105.103 E2.60409
G1 X105.004 Y103.403 F7800.000
G1 F900.000
G1 X105.004 Y107.809 E2.72293
G1 X94.996 Y107.809 E2.99293
G1 X94.996 Y103.403 E3.11178
G1 X95.599 Y104.133 E3.13731
G1 X96.152 Y104.652 E3.15777
G1 X96.765 Y105.097 E3.17822
G1 X97.429 Y105.463 E3.19867
G1 X98.134 Y105.742 E3.21913
G1 X98.869 Y105.930 E3.23958
G1 X99.621 Y106.025 E3.26003
G1 X100.379 Y106.025 E3.28048
G1 X101.131 Y105.930 E3.30094
G1 X101.866 Y105.742 E3.32139
G1 X102.571 Y105.463 E3.34184
G1 X103.235 Y105.097 E3.36229
G1 X103.848 Y104.652 E3.38275
G1 X104.401 Y104.133 E3.40320
G1 X104.957 Y103.461 E3.42671
G1 X106.609 Y101.029 F7800.000
G1 F900.000
G1 X106.674 Y100.000 E3.45452
G1 X106.609 Y98.971 E3.48233
G1 X114.529 Y98.971 E3.69596
G1 X114.529 Y101.029 E3.75147
G1 X106.684 Y101.029 E3.96308
G1 X105.817 Y101.664 F7800.000
G1 F900.000
G1 X105.990 Y100.757 E3.98801
G1 X106.037 Y100.000 E4.00846
G1 X105.990 Y99.243 E4.02892
G1 X105.817 Y98.336 E4.05384
G1 X115.164 Y98.336 E4.30602
G1 X115.164 Y101.664 E4.39582
G1 X105.892 Y101.664 E4.64597
G1 E2.64597 F2400.00000
G92 E0
G1 X93.391 Y101.029 F7800.000
G1 E2.00000 F2400.00000
G1 F900.000
G1 X85.471 Y101.029 E2.21364
G1 X85.471 Y98.971 E2.26914
G1 X93.391 Y98.971 E2.48278
G1 X93.326 Y100.000 E2.51058
G1 X93.386 Y100.954 E2.53637
G1 X94.183 Y101.664 F7800.000
G1 F900.000
G1 X84.836 Y101.664 E2.78854
G1 X84.836 Y98.336 E2.87834
G1 X94.183 Y98.336 E3.13051
G1 X94.010 Y99.243 E3.15544
G1 X93.963 Y100.000 E3.17589
G1 X94.010 Y100.757 E3.19635
G1 X94.169 Y101.591 E3.21925
G1 X94.435 Y102.225 F7800.000
G1 F1800.000
G1 X84.275 Y102.225 E3.42865
G1 X84.275 Y97.775 E3.52037
G1 X94.435 Y97.775 E3.72977
G1 X94.435 Y91.630 E3.85641
G1 X105.565 Y91.630 E4.08580
G1 X105.565 Y97.775 E4.21244
G1 X115.725 Y97.775 E4.42184
G1 X115.725 Y102.225 E4.51356
G1 X105.565 Y102.225 E4.72296
G1 X105.565 Y108.370 E4.84960
G1 X94.435 Y108.370 E5.07899
G1 X94.435 Y102.300 E5.20409
G1 X94.261 Y101.756 F7800.000
G1 X94.715 Y102.480 F7800.000
G1 F1200.000
G1 X94.815 Y102.636 E5.20476
G1 F1200.000
G1 X94.974 Y102.876 E5.20509
G1 X95.313 Y104.372 F7800.000
G1 F1200.000
G1 X95.466 Y104.498 E5.20535
G1 X95.949 Y105.711 F7800.000
G1 F1200.000
G1 X96.579 Y106.855 E5.22454
G1 X97.047 Y106.606 F7800.000
G1 F1200.000
G1 X95.949 Y106.364 E5.24760
G1 X97.047 Y106.606 F7800.000
G1 F1200.000
G1 X97.298 Y106.653 E5.25180
G1 F1200.000
G1 X97.549 Y106.701 E5.25497
G1 F1200.000
G1 X97.800 Y106.749 E5.25709
G1 F1200.000
G1 X97.991 Y106.774 E5.25827
G1 F1200.000
G1 X98.347 Y106.819 E5.25920
G1 X101.653 Y106.819 F7800.000
G1 F1200.000
G1 X101.831 Y106.796 E5.25967
G1 F1200.000
G1 X102.200 Y106.749 E5.26201
G1 F1200.000
G1 X102.451 Y106.701 E5.26465
G1 F1200.000
G1 X102.702 Y106.653 E5.26833
G1 F1200.000
G1 X102.953 Y106.606 E5.27305
G1 F1200.000
G1 X104.051 Y106.364 E5.29686
G1 X104.051 Y105.711 F7800.000
G1 F1200.000
G1 X103.421 Y106.855 E5.31605
G1 X104.534 Y104.498 F7800.000
G1 F1200.000
G1 X104.687 Y104.372 E5.31632
G1 X105.026 Y102.876 F7800.000
G1 F1200.000
G1 X105.086 Y102.793 E5.31644
G1 F1200.000
G1 X105.285 Y102.480 E5.31778
G1 X107.039 Y100.146 F7800.000
G1 F1200.000
G1 X107.534 Y100.640 E5.33718
G1 X108.458 Y100.640 E5.36281
G1 X107.177 Y99.360 E5.41304
G1 X108.101 Y99.360 E5.43867
G1 X109.382 Y100.640 E5.48890
G1 X110.306 Y100.640 E5.51453
G1 X109.025 Y99.360 E5.56476
G1 X109.949 Y99.360 E5.59039
G1 X111.230 Y100.640 E5.64062
G1 X112.154 Y100.640 E5.66625
G1 X110.873 Y99.360 E5.71648
