; generated by Slic3r 1.3.1-dev (Build 2ef957d) on 2019-11-25 at 09:24:40

; external perimeters extrusion width = 0.55mm (4.37mm^3/s)
; perimeters extrusion width = 0.70mm (11.44mm^3/s)
; infill extrusion width = 0.62mm (13.45mm^3/s)
; solid infill extrusion width = 0.70mm (3.81mm^3/s)
; top infill extrusion width = 0.70mm (2.86mm^3/s)

M107
G92 E0
M104 S200 ; set temperature
G28 ; home all axes
G1 Z5 F5000 ; lift nozzle

; Filament gcode

M109 S200 ; set temperature and wait for it to be reached
G21 ; set units to millimeters
G90 ; use absolute coordinates
M82 ; use absolute distances for extrusion
G92 E0
G1 Z0.350 F7800.000
G1 E-2.00000 F2400.00000
G92 E0
G1 X116.675 Y69.111 F7800.000
G1 E2.00000 F2400.00000
G1 F1800.000
G1 X118.553 Y67.795 E2.07096
G1 X121.359 Y67.171 E2.15992
G1 X126.280 Y67.171 E2.31216
G1 X128.538 Y67.568 E2.38313
G1 X130.526 Y68.711 E2.45409
G1 X132.006 Y70.464 E2.52505
G1 X132.799 Y72.616 E2.59601
G1 X132.904 Y73.900 E2.63587
G1 X132.878 Y75.552 E2.68702
G1 X132.793 Y77.412 E2.74460
G1 X132.631 Y79.474 E2.80862
G1 X132.449 Y81.117 E2.85976
G1 X132.191 Y82.960 E2.91734
G1 X131.874 Y84.794 E2.97493
G1 X131.454 Y86.820 E3.03895
G1 X131.017 Y88.629 E3.09653
G1 X130.580 Y90.223 E3.14767
G1 X129.972 Y92.201 E3.21170
G1 X129.437 Y93.765 E3.26284
G1 X128.782 Y95.507 E3.32042
G1 X128.473 Y96.261 E3.34564
G1 X128.158 Y96.917 E3.36816
G1 X122.386 Y107.417 E3.73890
G1 X122.000 Y108.035 E3.76142
G1 X121.651 Y108.532 E3.78023
G1 X120.408 Y110.187 E3.84426
G1 X119.242 Y111.638 E3.90185
G1 X118.031 Y113.050 E3.95943
G1 X116.776 Y114.425 E4.01701
G1 X115.479 Y115.759 E4.07459
G1 X114.140 Y117.052 E4.13218
G1 X112.761 Y118.302 E4.18976
G1 X111.504 Y119.375 E4.24090
G1 X110.054 Y120.542 E4.29850
G1 X108.568 Y121.661 E4.35606
G1 X107.047 Y122.734 E4.41366
G1 X105.493 Y123.759 E4.47123
G1 X103.729 Y124.840 E4.53525
G1 X102.111 Y125.759 E4.59284
G1 X100.465 Y126.627 E4.65043
G1 X98.792 Y127.443 E4.70801
G1 X97.095 Y128.206 E4.76558
G1 X95.374 Y128.915 E4.82318
G1 X93.632 Y129.570 E4.88076
G1 X91.870 Y130.169 E4.93834
G1 X90.090 Y130.714 E4.99593
G1 X88.295 Y131.201 E5.05350
G1 X86.484 Y131.633 E5.11108
G1 X84.661 Y132.007 E5.16867
G1 X82.827 Y132.324 E5.22626
G1 X81.191 Y132.556 E5.27740
G1 X79.640 Y132.731 E5.32569
G1 X78.195 Y132.732 E5.37040
G1 X72.945 Y132.160 E5.53380
G1 X70.742 Y131.520 E5.60477
G1 X68.890 Y130.168 E5.67573
G1 X67.609 Y128.266 E5.74669
G1 X67.038 Y125.574 E5.83183
G1 X67.038 Y121.492 E5.95813
G1 X67.435 Y119.233 E6.02909
G1 X68.978 Y116.808 E6.11805
G1 X116.622 Y69.164 E8.20281
G1 E6.20281 F2400.00000
G92 E0
G1 X112.476 Y105.825 F7800.000
G1 E2.00000 F2400.00000
G1 F1800.000
G1 X113.364 Y105.825 E2.02749
G1 X112.972 Y106.315 E2.04691
G1 X111.931 Y107.534 E2.09649
G1 X110.852 Y108.719 E2.14608
G1 X109.737 Y109.870 E2.19567
G1 X108.586 Y110.985 E2.24526
G1 X107.401 Y112.064 E2.29485
G1 X106.182 Y113.105 E2.34444
G1 X104.931 Y114.107 E2.39403
G1 X103.650 Y115.069 E2.44362
G1 X102.338 Y115.991 E2.49320
G1 X100.999 Y116.871 E2.54279
G1 X99.632 Y117.708 E2.59238
G1 X98.240 Y118.502 E2.64197
G1 X96.824 Y119.252 E2.69156
G1 X95.385 Y119.957 E2.74115
G1 X93.924 Y120.617 E2.79074
G1 X92.443 Y121.230 E2.84033
G1 X90.944 Y121.797 E2.88992
G1 X89.428 Y122.316 E2.93951
G1 X87.896 Y122.787 E2.98909
G1 X86.350 Y123.210 E3.03868
G1 X84.792 Y123.584 E3.08827
G1 X83.222 Y123.909 E3.13786
G1 X81.643 Y124.185 E3.18745
G1 X80.512 Y124.345 E3.22280
G1 X80.512 Y123.561 E3.24706
G1 X76.809 Y123.875 E3.36207
G1 X75.262 Y123.948 E3.40996
G1 X75.262 Y123.065 E3.43727
G1 X76.758 Y122.995 E3.48360
G1 X78.302 Y122.873 E3.53152
G1 X79.841 Y122.703 E3.57943
G1 X81.374 Y122.485 E3.62735
G1 X82.900 Y122.219 E3.67527
G1 X84.416 Y121.905 E3.72318
G1 X85.922 Y121.543 E3.77110
G1 X87.416 Y121.135 E3.81902
G1 X88.896 Y120.679 E3.86693
G1 X90.361 Y120.178 E3.91485
G1 X91.810 Y119.630 E3.96277
G1 X93.241 Y119.038 E4.01068
G1 X94.652 Y118.400 E4.05860
G1 X96.043 Y117.719 E4.10652
G1 X97.411 Y116.995 E4.15443
G1 X98.757 Y116.227 E4.20235
G1 X100.077 Y115.418 E4.25027
G1 X101.371 Y114.568 E4.29818
G1 X102.638 Y113.677 E4.34610
G1 X103.877 Y112.748 E4.39402
G1 X105.085 Y111.779 E4.44193
G1 X106.263 Y110.774 E4.48985
G1 X107.408 Y109.731 E4.53777
G1 X108.520 Y108.654 E4.58568
G1 X109.598 Y107.541 E4.63360
G1 X110.641 Y106.396 E4.68152
G1 X111.646 Y105.218 E4.72943
G1 X112.614 Y104.010 E4.77735
G1 X113.544 Y102.771 E4.82527
G1 X114.435 Y101.504 E4.87318
G1 X115.285 Y100.210 E4.92110
G1 X116.094 Y98.890 E4.96901
G1 X116.862 Y97.544 E5.01693
G1 X117.586 Y96.176 E5.06485
G1 X118.267 Y94.785 E5.11277
G1 X118.768 Y93.675 E5.15044
G1 X119.736 Y93.675 E5.18037
G1 X119.065 Y95.161 E5.23079
G1 X118.372 Y96.576 E5.27956
G1 X117.634 Y97.969 E5.32834
G1 X116.853 Y99.338 E5.37711
G1 X116.030 Y100.683 E5.42588
G1 X115.164 Y102.000 E5.47466
G1 X112.519 Y105.764 E5.61701
G1 X113.679 Y105.201 F7800.000
G1 F1800.000
G1 X114.665 Y105.201 E5.64754
G1 X113.453 Y106.713 E5.70752
G1 X112.400 Y107.947 E5.75772
G1 X111.308 Y109.147 E5.80791
G1 X110.179 Y110.312 E5.85811
G1 X109.014 Y111.441 E5.90831
G1 X107.814 Y112.533 E5.95850
G1 X106.580 Y113.586 E6.00870
G1 X105.314 Y114.601 E6.05890
G1 X104.017 Y115.575 E6.10909
G1 X102.690 Y116.508 E6.15929
G1 X101.334 Y117.398 E6.20949
G1 X99.950 Y118.246 E6.25968
G1 X98.541 Y119.050 E6.30988
G1 X97.108 Y119.809 E6.36007
G1 X95.651 Y120.523 E6.41027
G1 X94.172 Y121.190 E6.46047
G1 X92.673 Y121.811 E6.51066
G1 X91.156 Y122.385 E6.56086
G1 X89.621 Y122.910 E6.61106
G1 X88.070 Y123.387 E6.66125
G1 X86.505 Y123.815 E6.71145
G1 X84.928 Y124.194 E6.76165
G1 X83.339 Y124.523 E6.81184
G1 X81.741 Y124.802 E6.86204
G1 X79.887 Y125.058 E6.91994
G1 X79.887 Y124.242 E6.94519
G1 X76.850 Y124.499 E7.03952
G1 X75.258 Y124.574 E7.08881
G1 X74.637 Y124.584 E7.10803
G1 X74.637 Y122.452 E7.17399
G1 X75.191 Y122.443 E7.19113
G1 X76.719 Y122.371 E7.23844
G1 X78.243 Y122.251 E7.28575
G1 X79.763 Y122.083 E7.33306
G1 X81.277 Y121.868 E7.38036
G1 X82.783 Y121.605 E7.42767
G1 X84.280 Y121.295 E7.47498
G1 X85.767 Y120.938 E7.52229
G1 X87.242 Y120.535 E7.56960
G1 X88.703 Y120.085 E7.61691
G1 X90.150 Y119.590 E7.66422
G1 X91.580 Y119.049 E7.71153
G1 X92.992 Y118.464 E7.75884
G1 X94.386 Y117.835 E7.80615
G1 X95.759 Y117.162 E7.85346
G1 X97.110 Y116.447 E7.90077
G1 X98.438 Y115.689 E7.94808
G1 X99.742 Y114.890 E7.99538
G1 X101.020 Y114.051 E8.04269
G1 X102.271 Y113.172 E8.09000
G1 X103.494 Y112.254 E8.13731
G1 X104.687 Y111.298 E8.18462
G1 X105.850 Y110.305 E8.23193
G1 X106.981 Y109.276 E8.27924
G1 X108.079 Y108.212 E8.32655
G1 X109.143 Y107.114 E8.37386
G1 X110.172 Y105.983 E8.42117
G1 X111.165 Y104.820 E8.46848
G1 X112.121 Y103.627 E8.51579
G1 X113.039 Y102.404 E8.56309
G1 X113.918 Y101.153 E8.61041
G1 X114.757 Y99.875 E8.65771
G1 X115.556 Y98.572 E8.70502
G1 X116.314 Y97.243 E8.75233
G1 X117.029 Y95.892 E8.79964
G1 X117.702 Y94.519 E8.84695
G1 X118.365 Y93.051 E8.89680
G1 X120.669 Y93.051 E8.96810
G1 X120.288 Y93.972 E8.99896
G1 X119.631 Y95.427 E9.04834
G1 X118.929 Y96.860 E9.09772
G1 X118.182 Y98.270 E9.14710
G1 X117.391 Y99.657 E9.19649
G1 X116.557 Y101.017 E9.24587
G1 X115.681 Y102.351 E9.29525
G1 X113.722 Y105.139 E9.40068
G1 X114.882 Y104.576 F7800.000
G1 F1800.000
G1 X115.904 Y104.576 E9.43231
G1 X114.961 Y105.830 E9.48086
G1 X113.935 Y107.112 E9.53166
G1 X112.869 Y108.360 E9.58246
G1 X111.764 Y109.575 E9.63327
G1 X110.621 Y110.754 E9.68407
G1 X109.442 Y111.897 E9.73487
G1 X108.227 Y113.002 E9.78568
G1 X106.979 Y114.068 E9.83648
G1 X105.697 Y115.095 E9.88729
G1 X104.384 Y116.080 E9.93809
G1 X103.041 Y117.025 E9.98890
G1 X101.669 Y117.926 E10.03970
G1 X100.269 Y118.784 E10.09050
G1 X98.842 Y119.597 E10.14131
G1 X97.391 Y120.366 E10.19211
G1 X95.917 Y121.088 E10.24292
G1 X94.420 Y121.764 E10.29372
G1 X92.903 Y122.392 E10.34452
G1 X91.367 Y122.973 E10.39533
G1 X89.814 Y123.504 E10.44613
G1 X88.245 Y123.987 E10.49693
G1 X86.661 Y124.420 E10.54774
G1 X85.064 Y124.804 E10.59854
G1 X83.456 Y125.137 E10.64935
G1 X81.839 Y125.419 E10.70015
G1 X80.213 Y125.650 E10.75095
G1 X79.263 Y125.755 E10.78055
G1 X79.263 Y124.922 E10.80635
G1 X76.891 Y125.122 E10.88000
G1 X75.278 Y125.199 E10.92996
G1 X74.013 Y125.218 E10.96911
G1 X74.013 Y121.837 E11.07375
G1 X75.172 Y121.819 E11.10962
G1 X76.679 Y121.747 E11.15632
G1 X78.184 Y121.629 E11.20302
G1 X79.684 Y121.463 E11.24972
G1 X81.179 Y121.251 E11.29643
G1 X82.666 Y120.991 E11.34313
G1 X84.144 Y120.685 E11.38983
G1 X85.611 Y120.333 E11.43653
G1 X87.067 Y119.934 E11.48323
G1 X88.510 Y119.491 E11.52993
G1 X89.938 Y119.002 E11.57664
G1 X91.350 Y118.468 E11.62334
G1 X92.744 Y117.891 E11.67004
G1 X94.120 Y117.270 E11.71674
G1 X95.475 Y116.605 E11.76344
G1 X96.809 Y115.899 E11.81015
G1 X98.120 Y115.151 E11.85685
G1 X99.407 Y114.363 E11.90355
G1 X100.669 Y113.534 E11.95025
G1 X101.904 Y112.666 E11.99695
G1 X103.111 Y111.760 E12.04365
G1 X104.289 Y110.816 E12.09036
G1 X105.436 Y109.836 E12.13706
G1 X106.553 Y108.820 E12.18376
G1 X107.637 Y107.770 E12.23046
G1 X108.687 Y106.686 E12.27716
G1 X109.703 Y105.569 E12.32386
G1 X110.683 Y104.422 E12.37057
G1 X111.627 Y103.244 E12.41727
G1 X112.533 Y102.037 E12.46397
G1 X113.401 Y100.802 E12.51067
G1 X114.230 Y99.540 E12.55737
G1 X115.018 Y98.253 E12.60407
G1 X115.766 Y96.942 E12.65078
G1 X116.472 Y95.608 E12.69748
G1 X117.136 Y94.253 E12.74418
G1 X117.945 Y92.426 E12.80600
G1 X122.490 Y92.426 E12.94664
G1 X122.119 Y93.376 E12.97820
G1 X121.211 Y93.376 E13.00628
G1 X120.861 Y94.220 E13.03457
G1 X120.196 Y95.693 E13.08456
G1 X119.485 Y97.144 E13.13455
G1 X118.730 Y98.571 E13.18453
G1 X117.929 Y99.975 E13.23452
G1 X117.085 Y101.352 E13.28451
G1 X116.198 Y102.703 E13.33450
G1 X114.925 Y104.514 E13.40302
G1 X114.782 Y105.066 F7800.000
G1 E11.40302 F2400.00000
G92 E0
G1 X122.416 Y92.426 F7800.000
G1 E2.00000 F2400.00000
G1 F1800.000
G1 X122.774 Y91.477 E2.03834
G1 X123.305 Y89.926 E2.10033
G1 X123.788 Y88.358 E2.16232
G1 X124.222 Y86.770 E2.22455
G1 X124.603 Y85.182 E2.28629
G1 X124.936 Y83.576 E2.34828
G1 X125.218 Y81.961 E2.41027
G1 X125.448 Y80.344 E2.47201
G1 X125.628 Y78.708 E2.53425
G1 X125.757 Y77.067 E2.59649
G1 X125.834 Y75.435 E2.65823
G1 X125.848 Y74.602 E2.68972
G1 X125.828 Y74.494 E2.69387
G1 F1800.000
G1 X125.790 Y74.277 E2.70309
G1 X125.519 Y74.216 E2.71476
G1 F1800.000
G1 X125.428 Y74.196 E2.71828
G1 X121.353 Y74.196 E2.87281
G1 E0.87281 F2400.00000
G92 E0
G1 X122.036 Y92.744 F7800.000
G1 E2.00000 F2400.00000
G1 F1800.000
G1 X121.801 Y92.901 E2.00309
G1 X121.069 Y92.901 E2.01111
G1 E0.01111 F2400.00000
G92 E0
G1 X119.111 Y93.988 F7800.000
G1 E2.00000 F2400.00000
G1 F1800.000
G1 X118.666 Y94.973 E2.00972
G1 X117.979 Y96.376 E2.02378
G1 X117.248 Y97.757 E2.03784
G1 X116.474 Y99.114 E2.05189
G1 X115.657 Y100.446 E2.06595
G1 X114.799 Y101.752 E2.08001
G1 X112.981 Y104.297 E2.10815
G1 F1800.000
G1 X112.041 Y105.549 E2.12985
G1 F1800.000
G1 X111.584 Y106.138 E2.14361
G1 E0.14361 F2400.00000
G92 E0
G1 X109.534 Y109.190 F7800.000
G1 E2.00000 F2400.00000
G1 F1800.000
G1 X109.543 Y109.181 E2.00039
G1 X109.048 Y109.676 E2.02209
G1 E0.02209 F2400.00000
G92 E0
G1 X103.013 Y114.825 F7800.000
G1 E2.00000 F2400.00000
G1 F1800.000
G1 X106.369 Y111.469 E2.14703
G1 X105.727 Y112.018 E2.17320
G1 X104.503 Y112.998 E2.22179
G1 X103.249 Y113.940 E2.27038
G1 X102.457 Y114.497 E2.30037
G1 X100.282 Y116.671 E2.39566
G1 X99.071 Y117.413 E2.43966
G1 X98.103 Y117.966 E2.47421
G1 X99.908 Y116.160 E2.55330
G1 X99.318 Y116.522 E2.57475
G1 X97.804 Y117.379 E2.62865
G1 X96.195 Y118.988 E2.69914
G1 X94.875 Y119.635 E2.74468
G1 X94.489 Y119.809 E2.75780
G1 X95.974 Y118.325 E2.82283
G1 X95.161 Y118.723 E2.85086
G1 X94.303 Y119.110 E2.88002
G1 X92.911 Y120.502 E2.94101
G1 X91.434 Y121.095 E2.99033
G1 X92.756 Y119.772 E3.04826
G1 X91.306 Y120.338 E3.09648
G1 X90.037 Y121.606 E3.15208
G1 X88.992 Y121.964 E3.18633
G1 X88.707 Y122.052 E3.19556
G1 X89.934 Y120.825 E3.24933
G1 X88.626 Y121.248 E3.29194
G1 X87.431 Y122.443 E3.34429
G1 X86.213 Y122.776 E3.38342
G1 X87.370 Y121.619 E3.43414
G1 X86.160 Y121.944 E3.47299
G1 X85.037 Y123.067 E3.52218
G1 X83.895 Y123.324 E3.55845
G1 X84.995 Y122.224 E3.60667
G1 X83.871 Y122.463 E3.64229
G1 X82.782 Y123.552 E3.69000
G1 X81.710 Y123.739 E3.72371
G1 X82.775 Y122.675 E3.77036
G1 X81.703 Y122.861 E3.80407
G1 X81.217 Y123.347 E3.82536
G1 X80.825 Y123.051 F7800.000
G1 F1800.000
G1 X78.345 Y123.307 E3.85691
G1 F1800.000
G1 X76.784 Y123.435 E3.87027
G1 X75.575 Y123.492 E3.88059
G1 Z0.650 F7800.000
G1 E1.88059 F2400.00000
G92 E0
G1 X112.590 Y105.697 F7800.000
G1 E2.00000 F2400.00000
G1 F3600.000
G1 X113.494 Y105.697 E2.02439
G1 X112.988 Y106.329 E2.04622
G1 X111.947 Y107.548 E2.08948
G1 X110.868 Y108.734 E2.13273
G1 X109.752 Y109.885 E2.17598
G1 X108.601 Y111.001 E2.21923
G1 X107.415 Y112.080 E2.26248
G1 X106.196 Y113.121 E2.30574
G1 X104.944 Y114.124 E2.34899
G1 X103.662 Y115.086 E2.39224
G1 X102.350 Y116.008 E2.43550
G1 X101.010 Y116.889 E2.47875
G1 X99.643 Y117.726 E2.52200
G1 X98.250 Y118.521 E2.56525
G1 X96.833 Y119.271 E2.60851
G1 X95.394 Y119.976 E2.65176
G1 X93.932 Y120.636 E2.69501
G1 X92.451 Y121.250 E2.73826
G1 X90.951 Y121.816 E2.78152
G1 X89.434 Y122.336 E2.82477
G1 X87.902 Y122.807 E2.86802
G1 X86.355 Y123.230 E2.91127
G1 X84.796 Y123.605 E2.95453
G1 X83.226 Y123.930 E2.99778
G1 X81.647 Y124.205 E3.04103
G1 X80.384 Y124.385 E3.07544
G1 X80.384 Y123.592 E3.09685
G1 X76.810 Y123.895 E3.19360
G1 X75.134 Y123.974 E3.23887
G1 X75.134 Y122.835 E3.26959
G1 X76.743 Y122.759 E3.31305
G1 X78.280 Y122.638 E3.35462
G1 X79.812 Y122.469 E3.39620
G1 X81.337 Y122.252 E3.43778
G1 X82.856 Y121.987 E3.47936
G1 X84.365 Y121.675 E3.52093
G1 X85.863 Y121.315 E3.56251
G1 X87.350 Y120.908 E3.60409
G1 X88.823 Y120.455 E3.64566
G1 X90.281 Y119.956 E3.68724
G1 X91.723 Y119.411 E3.72881
G1 X93.147 Y118.821 E3.77039
G1 X94.551 Y118.187 E3.81197
G1 X95.936 Y117.509 E3.85354
G1 X97.298 Y116.788 E3.89512
G1 X98.636 Y116.024 E3.93670
G1 X99.951 Y115.219 E3.97828
G1 X101.239 Y114.373 E4.01985
G1 X102.500 Y113.486 E4.06143
G1 X103.732 Y112.561 E4.10301
G1 X104.935 Y111.597 E4.14458
G1 X106.107 Y110.597 E4.18616
G1 X107.247 Y109.559 E4.22774
G1 X108.354 Y108.487 E4.26931
G1 X109.426 Y107.380 E4.31089
G1 X110.463 Y106.240 E4.35247
G1 X111.464 Y105.068 E4.39404
G1 X112.428 Y103.865 E4.43562
G1 X113.353 Y102.633 E4.47720
G1 X114.240 Y101.372 E4.51877
G1 X115.086 Y100.084 E4.56035
G1 X115.891 Y98.770 E4.60192
G1 X116.655 Y97.431 E4.64350
G1 X117.376 Y96.069 E4.68508
G1 X118.054 Y94.685 E4.72666
G1 X118.568 Y93.547 E4.76033
G1 X119.815 Y93.547 E4.79400
G1 X119.083 Y95.169 E4.84201
G1 X118.389 Y96.585 E4.88455
G1 X117.651 Y97.979 E4.92709
G1 X116.870 Y99.349 E4.96963
G1 X116.046 Y100.693 E5.01217
G1 X115.180 Y102.011 E5.05471
G1 X112.633 Y105.636 E5.17422
G1 X113.814 Y105.061 F7800.000
G1 F3600.000
G1 X114.797 Y105.061 E5.20075
G1 X113.478 Y106.734 E5.25822
G1 X112.424 Y107.968 E5.30201
G1 X111.331 Y109.169 E5.34580
G1 X110.201 Y110.335 E5.38959
G1 X109.036 Y111.464 E5.43339
G1 X107.835 Y112.557 E5.47718
G1 X106.601 Y113.611 E5.52097
G1 X105.334 Y114.626 E5.56476
G1 X104.036 Y115.601 E5.60855
G1 X102.708 Y116.534 E5.65234
G1 X101.351 Y117.425 E5.69613
G1 X99.967 Y118.273 E5.73993
G1 X98.557 Y119.078 E5.78372
G1 X97.122 Y119.837 E5.82751
G1 X95.664 Y120.551 E5.87130
G1 X94.185 Y121.219 E5.91509
G1 X92.685 Y121.841 E5.95888
G1 X91.166 Y122.414 E6.00267
G1 X89.631 Y122.940 E6.04646
G1 X88.079 Y123.418 E6.09026
G1 X86.513 Y123.846 E6.13405
G1 X84.935 Y124.225 E6.17784
G1 X83.345 Y124.554 E6.22163
G1 X81.746 Y124.833 E6.26542
G1 X79.748 Y125.105 E6.31981
G1 X79.748 Y124.283 E6.34198
G1 X76.852 Y124.529 E6.42039
G1 X75.259 Y124.604 E6.46340
G1 X74.498 Y124.616 E6.48394
G1 X74.498 Y122.207 E6.54892
G1 X75.184 Y122.197 E6.56741
G1 X76.703 Y122.125 E6.60845
G1 X78.220 Y122.006 E6.64949
G1 X79.732 Y121.839 E6.69053
G1 X81.238 Y121.624 E6.73157
G1 X82.737 Y121.363 E6.77260
G1 X84.226 Y121.054 E6.81364
G1 X85.705 Y120.699 E6.85468
G1 X87.173 Y120.298 E6.89572
G1 X88.627 Y119.850 E6.93676
G1 X90.066 Y119.358 E6.97779
G1 X91.489 Y118.820 E7.01883
G1 X92.894 Y118.238 E7.05987
