; generated by Slic3r 1.3.1-dev (Build 2ef957d) on 2019-11-25 at 09:24:52

; external perimeters extrusion width = 0.55mm (4.37mm^3/s)
; perimeters extrusion width = 0.70mm (11.44mm^3/s)
; infill extrusion width = 0.62mm (13.45mm^3/s)
; solid infill extrusion width = 0.70mm (3.81mm^3/s)
; top infill extrusion width = 0.70mm (2.86mm^3/s)

M107
G92 E0
M104 S200 ; set temperature
G28 ; home all axes
G1 Z5 F5000 ; lift nozzle

; Filament gcode

M109 S200 ; set temperature and wait for it to be reached
G21 ; set units to millimeters
G90 ; use absolute coordinates
M82 ; use absolute distances for extrusion
G92 E0
G1 Z0.350 F7800.000
G1 E-2.00000 F2400.00000
G92 E0
G1 X37.415 Y20.753 F7800.000
G1 E2.00000 F2400.00000
G1 F1800.000
G1 X39.168 Y19.274 E2.07096
G1 X41.320 Y18.481 E2.14192
G1 X42.500 Y18.375 E2.17858
G1 X47.500 Y18.375 E2.33328
G1 X49.759 Y18.772 E2.40424
G1 X51.747 Y19.915 E2.47521
G1 X53.236 Y21.685 E2.54677
G1 X114.414 Y127.556 E6.33014
G1 X115.201 Y129.710 E6.40110
G1 X115.303 Y130.870 E6.43714
G1 X115.303 Y175.000 E7.80257
G1 X114.906 Y177.259 E7.87353
G1 X113.763 Y179.247 E7.94449
G1 X112.010 Y180.726 E8.01545
G1 X109.858 Y181.519 E8.08642
G1 X108.678 Y181.625 E8.12307
G1 X107.872 Y181.625 E8.14802
G1 X105.613 Y181.228 E8.21898
G1 X103.625 Y180.085 E8.28994
G1 X102.253 Y178.511 E8.35453
G1 X49.198 Y93.607 E11.45231
G1 X47.098 Y90.173 E11.57685
G1 X45.105 Y86.672 E11.70149
G1 X43.224 Y83.112 E11.82607
G1 X41.454 Y79.493 E11.95072
G1 X39.799 Y75.820 E12.07539
G1 X38.261 Y72.098 E12.19997
G1 X36.911 Y68.526 E12.31815
G1 X36.232 Y66.552 E12.38274
G1 X35.875 Y64.406 E12.45002
G1 X35.875 Y25.000 E13.66931
G1 X36.272 Y22.741 E13.74027
G1 X37.378 Y20.818 E13.80892
G1 E11.80892 F2400.00000
G92 E0
G1 X76.439 Y103.488 F7800.000
G1 E2.00000 F2400.00000
G1 F1800.000
G1 X77.349 Y103.803 E2.02981
G1 X78.126 Y104.374 E2.05965
G1 X78.697 Y105.151 E2.08948
G1 X79.012 Y106.061 E2.11929
G1 X79.042 Y107.023 E2.14906
G1 X78.789 Y107.950 E2.17878
G1 X78.277 Y108.761 E2.20848
G1 X77.550 Y109.387 E2.23817
G1 X76.671 Y109.775 E2.26787
G1 X75.717 Y109.888 E2.29761
G1 X74.770 Y109.714 E2.32741
G1 X73.916 Y109.266 E2.35724
G1 X73.234 Y108.584 E2.38707
G1 X72.786 Y107.730 E2.41690
G1 X72.612 Y106.783 E2.44669
G1 X72.725 Y105.829 E2.47644
G1 X73.113 Y104.950 E2.50614
G1 X73.739 Y104.223 E2.53583
G1 X74.550 Y103.711 E2.56552
G1 X75.477 Y103.458 E2.59525
G1 X76.364 Y103.486 E2.62270
G1 X76.324 Y104.110 F7800.000
G1 F1800.000
G1 X77.056 Y104.362 E2.64664
G1 X77.679 Y104.821 E2.67059
G1 X78.138 Y105.444 E2.69453
G1 X78.390 Y106.176 E2.71848
G1 X78.415 Y106.949 E2.74241
G1 X78.211 Y107.695 E2.76634
G1 X77.798 Y108.349 E2.79026
G1 X77.212 Y108.853 E2.81418
G1 X76.505 Y109.165 E2.83811
G1 X75.737 Y109.256 E2.86204
G1 X74.976 Y109.116 E2.88598
G1 X74.290 Y108.757 E2.90993
G1 X73.743 Y108.210 E2.93387
G1 X73.384 Y107.524 E2.95782
G1 X73.244 Y106.763 E2.98176
G1 X73.335 Y105.995 E3.00569
G1 X73.647 Y105.288 E3.02961
G1 X74.151 Y104.702 E3.05353
G1 X74.805 Y104.289 E3.07745
G1 X75.551 Y104.085 E3.10138
G1 X76.249 Y104.107 E3.12300
G1 X76.210 Y104.731 F7800.000
G1 F1800.000
G1 X76.762 Y104.922 E3.14107
G1 X77.232 Y105.268 E3.15913
G1 X77.578 Y105.738 E3.17719
G1 X77.769 Y106.290 E3.19526
G1 X77.787 Y106.875 E3.21337
G1 X77.633 Y107.440 E3.23150
G1 X77.319 Y107.936 E3.24965
G1 X76.875 Y108.319 E3.26780
G1 X76.339 Y108.556 E3.28594
G1 X75.757 Y108.624 E3.30406
G1 X75.182 Y108.519 E3.32215
G1 X74.665 Y108.248 E3.34021
G1 X74.252 Y107.835 E3.35827
G1 X73.981 Y107.318 E3.37633
G1 X73.876 Y106.743 E3.39442
G1 X73.944 Y106.161 E3.41254
G1 X74.181 Y105.625 E3.43068
G1 X74.564 Y105.181 E3.44884
G1 X75.060 Y104.867 E3.46698
G1 X75.625 Y104.713 E3.48511
G1 X76.135 Y104.729 E3.50090
G1 X76.210 Y104.731 F7800.000
G1 E1.50090 F2400.00000
G92 E0
G1 X62.290 Y95.061 F7800.000
G1 E2.00000 F2400.00000
G1 F1800.000
G1 X65.237 Y93.687 E2.10061
G1 X68.334 Y92.857 E2.19982
G1 X71.528 Y92.578 E2.29903
G1 X74.722 Y92.857 E2.39824
G1 X77.819 Y93.687 E2.49744
G1 X80.725 Y95.042 E2.59665
G1 X83.352 Y96.881 E2.69586
G1 X85.619 Y99.148 E2.79506
G1 X87.458 Y101.775 E2.89427
G1 X88.813 Y104.681 E2.99348
G1 X89.643 Y107.778 E3.09269
G1 X89.922 Y110.972 E3.19189
G1 X89.643 Y114.166 E3.29110
G1 X88.813 Y117.263 E3.39031
G1 X87.439 Y120.210 E3.49092
G1 X91.064 Y122.758 E3.62802
G1 X94.167 Y124.796 E3.74291
G1 X97.333 Y126.736 E3.85779
G1 X100.559 Y128.576 E3.97269
G1 X103.840 Y130.313 E4.08757
G1 X107.078 Y131.900 E4.19913
G1 X107.078 Y133.860 E4.25979
G1 X106.415 Y133.560 E4.28229
G1 X103.031 Y131.902 E4.39891
G1 X99.700 Y130.139 E4.51554
G1 X96.426 Y128.271 E4.63216
G1 X93.212 Y126.302 E4.74878
G1 X90.062 Y124.232 E4.86540
G1 X86.978 Y122.065 E4.98202
G1 X83.964 Y119.802 E5.09864
G1 X81.022 Y117.446 E5.21526
G1 X78.156 Y114.998 E5.33189
G1 X75.368 Y112.461 E5.44851
G1 X72.662 Y109.838 E5.56513
G1 X70.039 Y107.132 E5.68175
G1 X67.502 Y104.344 E5.79837
G1 X65.054 Y101.478 E5.91499
G1 X62.698 Y98.536 E6.03161
G1 X60.435 Y95.522 E6.14823
G1 X58.268 Y92.438 E6.26485
G1 X56.198 Y89.288 E6.38148
G1 X54.229 Y86.074 E6.49810
G1 X53.773 Y85.276 E6.52654
G1 X52.361 Y82.800 E6.61471
G1 X50.598 Y79.469 E6.73134
G1 X48.940 Y76.085 E6.84796
G1 X47.388 Y72.649 E6.96459
G1 X45.946 Y69.167 E7.08120
G1 X44.614 Y65.642 E7.19782
G1 X44.100 Y64.140 E7.24692
G1 X44.100 Y44.880 E7.84287
G1 X45.900 Y44.880 E7.89857
G1 X45.900 Y63.895 E8.48692
G1 X46.292 Y65.038 E8.52431
G1 X47.604 Y68.511 E8.63918
G1 X49.025 Y71.941 E8.75407
G1 X50.554 Y75.328 E8.86905
G1 X52.392 Y79.049 E8.99745
G1 X53.924 Y81.941 E9.09873
G1 X55.764 Y85.167 E9.21362
G1 X57.704 Y88.333 E9.32850
G1 X59.742 Y91.436 E9.44339
G1 X62.247 Y95.000 E9.57817
G1 X62.500 Y94.274 F7800.000
G1 F1800.000
G1 X65.023 Y93.097 E9.66428
G1 X68.225 Y92.239 E9.76687
G1 X71.528 Y91.950 E9.86946
G1 X74.831 Y92.239 E9.97205
G1 X78.034 Y93.097 E10.07464
G1 X81.039 Y94.499 E10.17723
G1 X83.755 Y96.400 E10.27982
G1 X86.100 Y98.745 E10.38241
G1 X88.001 Y101.461 E10.48500
G1 X89.403 Y104.466 E10.58759
G1 X90.261 Y107.669 E10.69018
G1 X90.550 Y110.972 E10.79277
G1 X90.261 Y114.275 E10.89537
G1 X89.403 Y117.477 E10.99795
G1 X88.226 Y120.000 E11.08406
G1 X91.415 Y122.241 E11.20466
G1 X94.502 Y124.269 E11.31894
G1 X97.651 Y126.198 E11.43322
G1 X100.860 Y128.029 E11.54751
G1 X104.124 Y129.756 E11.66178
G1 X107.703 Y131.500 E11.78497
G1 X107.703 Y134.828 E11.88794
G1 X106.149 Y134.126 E11.94069
G1 X102.747 Y132.459 E12.05792
G1 X99.398 Y130.686 E12.17515
G1 X96.107 Y128.809 E12.29238
G1 X92.877 Y126.830 E12.40961
G1 X89.710 Y124.749 E12.52684
G1 X86.611 Y122.571 E12.64407
G1 X83.581 Y120.296 E12.76129
G1 X80.624 Y117.927 E12.87852
G1 X77.743 Y115.467 E12.99575
G1 X74.941 Y112.917 E13.11298
G1 X72.220 Y110.280 E13.23021
G1 X69.583 Y107.559 E13.34743
G1 X67.033 Y104.757 E13.46466
G1 X64.573 Y101.876 E13.58189
G1 X62.204 Y98.919 E13.69912
G1 X59.929 Y95.889 E13.81635
G1 X57.751 Y92.790 E13.93358
G1 X55.670 Y89.623 E14.05081
G1 X53.691 Y86.392 E14.16804
G1 X53.230 Y85.586 E14.19679
G1 X51.814 Y83.102 E14.28526
G1 X50.041 Y79.753 E14.40249
G1 X48.374 Y76.351 E14.51972
G1 X46.814 Y72.898 E14.63696
G1 X45.365 Y69.397 E14.75418
G1 X44.026 Y65.853 E14.87141
G1 X43.475 Y64.244 E14.92403
G1 X43.475 Y44.255 E15.54253
G1 X46.525 Y44.255 E15.63690
G1 X46.525 Y63.791 E16.24137
G1 X46.880 Y64.826 E16.27523
G1 X48.185 Y68.281 E16.38950
G1 X49.598 Y71.693 E16.50378
G1 X51.119 Y75.061 E16.61812
G1 X52.948 Y78.764 E16.74591
G1 X54.471 Y81.640 E16.84661
G1 X56.302 Y84.849 E16.96090
G1 X58.231 Y87.998 E17.07518
G1 X60.259 Y91.085 E17.18946
G1 X62.457 Y94.212 E17.30773
G1 X62.711 Y93.486 F7800.000
G1 F1800.000
G1 X64.808 Y92.508 E17.37934
G1 X68.116 Y91.622 E17.48531
G1 X71.528 Y91.323 E17.59129
G1 X74.940 Y91.622 E17.69726
G1 X78.249 Y92.508 E17.80323
G1 X81.353 Y93.955 E17.90921
G1 X84.158 Y95.920 E18.01518
G1 X86.580 Y98.342 E18.12116
G1 X88.545 Y101.147 E18.22713
G1 X89.992 Y104.251 E18.33310
G1 X90.878 Y107.560 E18.43908
G1 X91.177 Y110.972 E18.54505
G1 X90.878 Y114.384 E18.65103
G1 X89.992 Y117.692 E18.75700
G1 X89.014 Y119.789 E18.82860
G1 X91.766 Y121.724 E18.93270
G1 X94.837 Y123.741 E19.04638
G1 X97.970 Y125.660 E19.16005
G1 X101.161 Y127.481 E19.27373
G1 X104.408 Y129.200 E19.38739
G1 X107.707 Y130.816 E19.50106
G1 X108.328 Y131.096 E19.52215
G1 X108.328 Y135.796 E19.66756
G1 X105.883 Y134.691 E19.75057
G1 X102.463 Y133.016 E19.86840
G1 X99.097 Y131.234 E19.98624
G1 X95.789 Y129.347 E20.10407
G1 X92.542 Y127.357 E20.22191
G1 X89.359 Y125.266 E20.33975
G1 X86.243 Y123.077 E20.45758
G1 X83.198 Y120.790 E20.57542
G1 X80.226 Y118.409 E20.69326
G1 X77.330 Y115.935 E20.81109
G1 X74.513 Y113.372 E20.92893
G1 X71.778 Y110.722 E21.04676
G1 X69.128 Y107.987 E21.16460
G1 X66.565 Y105.170 E21.28243
G1 X64.091 Y102.274 E21.40027
G1 X61.710 Y99.302 E21.51811
G1 X59.423 Y96.257 E21.63594
G1 X57.234 Y93.141 E21.75378
G1 X55.143 Y89.958 E21.87162
G1 X53.153 Y86.711 E21.98945
G1 X52.688 Y85.895 E22.01850
G1 X51.266 Y83.403 E22.10728
G1 X49.484 Y80.037 E22.22512
G1 X47.809 Y76.617 E22.34296
G1 X46.241 Y73.146 E22.46080
G1 X44.784 Y69.627 E22.57863
G1 X43.438 Y66.065 E22.69647
G1 X42.850 Y64.348 E22.75261
G1 X42.850 Y43.630 E23.39366
G1 X47.150 Y43.630 E23.52671
G1 X47.150 Y63.687 E24.14728
G1 X47.468 Y64.614 E24.17762
G1 X48.766 Y68.051 E24.29129
G1 X50.172 Y71.445 E24.40496
G1 X51.684 Y74.794 E24.51866
G1 X53.505 Y78.479 E24.64585
G1 X55.019 Y81.339 E24.74597
G1 X56.840 Y84.530 E24.85965
G1 X58.759 Y87.663 E24.97332
G1 X60.776 Y90.734 E25.08700
G1 X62.668 Y93.425 E25.18877
G1 X62.946 Y93.927 F7800.000
G1 E23.18877 F2400.00000
G92 E0
G1 X42.900 Y43.630 F7800.000
G1 E2.00000 F2400.00000
G1 F1800.000
G1 X42.900 Y25.800 E2.63997
G1 F1800.000
G1 X42.969 Y25.469 E2.65365
G1 X43.190 Y25.423 E2.66277
G1 F1800.000
G1 X43.300 Y25.400 E2.66682
G1 X47.500 Y25.400 E2.81757
G1 E0.81757 F2400.00000
G92 E0
G1 X108.275 Y135.772 F7800.000
G1 E2.00000 F2400.00000
G1 F1800.000
G1 X108.275 Y175.000 E3.42045
G1 E1.42045 F2400.00000
G92 E0
G1 X106.210 Y133.126 F7800.000
G1 E2.00000 F2400.00000
G1 F1800.000
G1 X106.696 Y132.640 E2.02136
G1 X106.696 Y132.046 E2.03982
G1 X106.499 Y131.950 E2.04664
G1 X105.615 Y132.834 E2.08552
G1 X105.019 Y132.543 E2.10613
G1 X105.904 Y131.658 E2.14502
G1 X105.308 Y131.366 E2.16563
G1 X104.423 Y132.251 E2.20451
G1 X103.827 Y131.959 E2.22512
G1 X104.712 Y131.074 E2.26400
G1 X104.116 Y130.782 E2.28462
G1 X103.232 Y131.667 E2.32350
G1 X102.647 Y131.364 E2.34396
G1 X103.528 Y130.483 E2.38266
G1 X102.948 Y130.176 E2.40306
G1 X102.067 Y131.057 E2.44176
G1 X101.487 Y130.749 E2.46217
G1 X102.367 Y129.869 E2.50086
G1 X101.787 Y129.562 E2.52127
G1 X100.906 Y130.442 E2.55996
G1 X100.326 Y130.135 E2.58037
G1 X101.207 Y129.255 E2.61906
G1 X100.626 Y128.947 E2.63946
G1 X99.746 Y129.827 E2.67813
G1 X99.181 Y129.505 E2.69835
G1 X100.058 Y128.628 E2.73688
G1 X99.493 Y128.306 E2.75710
G1 X98.616 Y129.183 E2.79563
G1 X98.051 Y128.860 E2.81585
G1 X98.927 Y127.983 E2.85439
G1 X98.362 Y127.661 E2.87460
G1 X97.485 Y128.538 E2.91314
G1 X96.920 Y128.216 E2.93336
G1 X97.797 Y127.339 E2.97189
G1 X97.233 Y127.016 E2.99210
G1 X96.359 Y127.889 E3.03050
G1 X95.809 Y127.552 E3.05056
G1 X96.682 Y126.678 E3.08896
G1 X96.132 Y126.341 E3.10901
G1 X95.258 Y127.215 E3.14742
G1 X94.708 Y126.878 E3.16747
G1 X95.582 Y126.004 E3.20588
G1 X95.031 Y125.667 E3.22593
G1 X94.158 Y126.541 E3.26434
G1 X93.607 Y126.203 E3.28440
G1 X94.481 Y125.329 E3.32280
G1 X93.935 Y124.988 E3.34282
G1 X93.063 Y125.860 E3.38111
G1 X92.528 Y125.508 E3.40103
G1 X93.399 Y124.636 E3.43931
G1 X92.863 Y124.285 E3.45923
G1 X91.992 Y125.156 E3.49751
G1 X91.457 Y124.804 E3.51743
G1 X92.328 Y123.933 E3.55571
G1 X91.792 Y123.581 E3.57562
G1 X90.921 Y124.452 E3.61390
G1 X90.385 Y124.100 E3.63382
G1 X91.256 Y123.229 E3.67210
G1 X90.727 Y122.871 E3.69196
G1 X89.858 Y123.740 E3.73013
G1 X89.337 Y123.373 E3.74993
G1 X90.206 Y122.505 E3.78811
G1 X89.685 Y122.138 E3.80790
G1 X88.816 Y123.007 E3.84608
G1 X88.295 Y122.641 E3.86588
G1 X89.163 Y121.772 E3.90406
G1 X88.642 Y121.406 E3.92385
G1 X87.773 Y122.274 E3.96204
G1 X87.252 Y121.908 E3.98183
G1 X88.121 Y121.039 E4.02002
G1 X87.600 Y120.673 E4.03981
G1 X86.741 Y121.532 E4.07755
G1 X86.234 Y121.151 E4.09725
G1 X87.078 Y120.307 E4.13436
G1 X86.894 Y120.177 E4.14135
G1 X87.396 Y119.101 E4.17823
G1 X85.727 Y120.770 E4.25157
G1 X85.220 Y120.390 E4.27127
G1 X88.171 Y117.438 E4.40097
G1 X88.467 Y116.805 E4.42267
G1 X88.668 Y116.054 E4.44683
G1 X84.713 Y120.009 E4.62062
G1 X84.206 Y119.628 E4.64032
G1 X88.993 Y114.842 E4.85067
G1 X89.268 Y113.814 E4.88374
G1 X89.281 Y113.666 E4.88836
G1 X83.711 Y119.237 E5.13316
G1 X83.218 Y118.842 E5.15278
G1 X89.366 Y112.693 E5.42298
G1 X89.451 Y111.721 E5.45332
G1 X82.725 Y118.447 E5.74891
G1 X82.232 Y118.052 E5.76853
G1 X89.536 Y110.748 E6.08951
G1 X89.468 Y109.929 E6.11506
G1 X81.740 Y117.657 E6.45470
G1 X81.247 Y117.263 E6.47432
G1 X89.397 Y109.113 E6.83248
G1 X89.325 Y108.297 E6.85794
G1 X80.766 Y116.856 E7.23409
G1 X80.288 Y116.447 E7.25365
G1 X89.231 Y107.504 E7.64667
G1 X89.043 Y106.804 E7.66919
G1 X79.809 Y116.038 E8.07501
G1 X79.330 Y115.629 E8.09457
G1 X88.856 Y106.104 E8.51319
G1 X88.668 Y105.404 E8.53571
G1 X78.851 Y115.220 E8.96712
G1 X78.373 Y114.812 E8.98668
G1 X88.481 Y104.704 E9.43088
G1 X88.205 Y104.091 E9.45174
G1 X77.907 Y114.390 E9.90433
G1 X77.442 Y113.967 E9.92385
G1 X87.923 Y103.486 E10.38446
G1 X87.641 Y102.881 E10.40521
G1 X76.977 Y113.544 E10.87383
G1 X76.513 Y113.122 E10.89335
G1 X87.359 Y102.276 E11.36999
G1 X87.158 Y101.845 E11.38475
G1 X87.052 Y101.694 E11.39047
G1 X76.048 Y112.699 E11.87407
G1 X75.583 Y112.276 E11.89360
G1 X78.494 Y109.365 E12.02153
G1 X78.130 Y109.679 E12.03647
G1 X77.081 Y110.141 E12.07211
G1 X76.797 Y110.175 E12.08100
G1 X75.132 Y111.840 E12.15417
G1 X74.681 Y111.403 E12.17368
G1 X75.828 Y110.256 E12.22410
G1 X75.078 Y110.118 E12.24779
G1 X74.259 Y110.937 E12.28379
G1 X74.511 Y110.589 E12.29713
G1 X74.592 Y110.604 E12.29970
G1 E10.29970 F2400.00000
G92 E0
G1 X71.808 Y108.064 F7800.000
G1 E2.00000 F2400.00000
G1 F1800.000
G1 X72.392 Y107.479 E2.02570
G1 X72.255 Y106.729 E2.04939
G1 X71.130 Y107.853 E2.09881
G1 X70.693 Y107.403 E2.11831
G1 X72.316 Y105.780 E2.18962
G1 X72.359 Y105.419 E2.20091
G1 X72.808 Y104.401 E2.23550
G1 X70.257 Y106.952 E2.34761
G1 X69.834 Y106.487 E2.36713
G1 E0.36713 F2400.00000
G92 E0
G1 X78.631 Y109.228 F7800.000
G1 E2.00000 F2400.00000
G1 F1800.000
G1 X86.687 Y101.172 E2.35401
G1 X86.321 Y100.650 E2.37381
G1 X79.350 Y107.622 E2.68018
G1 X79.427 Y107.340 E2.68925
G1 X79.406 Y106.678 E2.70983
G1 X85.956 Y100.128 E2.99767
G1 X85.590 Y99.606 E3.01748
G1 X79.292 Y105.905 E3.29427
G1 X79.064 Y105.245 E3.31596
G1 X85.191 Y99.118 E3.58522
G1 X84.747 Y98.674 E3.60472
G1 X78.721 Y104.701 E3.86957
G1 X78.344 Y104.189 E3.88930
G1 X84.304 Y98.230 E4.15118
G1 X83.860 Y97.787 E4.17068
G1 X77.838 Y103.808 E4.43531
G1 X77.400 Y103.486 E4.45221
G1 X77.305 Y103.453 E4.45532
G1 X83.416 Y97.343 E4.72385
G1 X83.192 Y97.118 E4.73371
G1 X82.933 Y96.938 E4.74350
G1 X76.646 Y103.226 E5.01983
G1 X76.310 Y103.110 E5.03086
G1 X75.887 Y103.096 E5.04400
G1 X82.411 Y96.572 E5.33072
G1 X81.889 Y96.207 E5.35052
G1 X74.971 Y103.125 E5.65455
G1 X74.052 Y103.376 E5.68415
G1 X73.456 Y103.753 E5.70607
G1 X81.367 Y95.841 E6.05376
G1 X80.845 Y95.476 E6.07356
G1 X69.834 Y106.487 E6.55749
G1 X69.411 Y106.023 E6.57701
G1 X80.271 Y95.163 E7.05427
G1 X79.665 Y94.881 E7.07502
G1 X68.988 Y105.558 E7.54425
G1 X68.565 Y105.093 E7.56378
G1 X79.060 Y94.598 E8.02499
G1 X78.455 Y94.316 E8.04575
G1 X68.142 Y104.629 E8.49894
G1 X67.720 Y104.164 E8.51847
G1 X77.849 Y94.034 E8.96363
G1 X77.150 Y93.846 E8.98615
G1 X67.311 Y103.685 E9.41853
G1 X66.902 Y103.206 E9.43809
G1 X76.450 Y93.659 E9.85768
G1 X75.750 Y93.471 E9.88020
G1 X66.493 Y102.728 E10.28700
G1 X66.084 Y102.249 E10.30656
G1 X75.050 Y93.283 E10.70056
G1 X74.857 Y93.232 E10.70677
G1 X74.266 Y93.180 E10.72521
G1 X65.675 Y101.770 E11.10272
G1 X65.267 Y101.291 E11.12228
G1 X73.449 Y93.109 E11.48185
G1 X72.633 Y93.037 E11.50731
G1 X64.873 Y100.798 E11.84836
G1 X64.478 Y100.305 E11.86799
