; generated by Slic3r 1.3.1-dev (Build 2ef957d) on 2019-11-25 at 09:24:55

; external perimeters extrusion width = 0.55mm (4.37mm^3/s)
; perimeters extrusion width = 0.70mm (11.44mm^3/s)
; infill extrusion width = 0.62mm (13.45mm^3/s)
; solid infill extrusion width = 0.70mm (3.81mm^3/s)
; top infill extrusion width = 0.70mm (2.86mm^3/s)

M107
G92 E0
M104 S200 ; set temperature
G28 ; home all axes
G1 Z5 F5000 ; lift nozzle

; Filament gcode

M109 S200 ; set temperature and wait for it to be reached
G21 ; set units to millimeters
G90 ; use absolute coordinates
M82 ; use absolute distances for extrusion
G92 E0
G1 Z0.350 F7800.000
G1 E-2.00000 F2400.00000
G92 E0
G1 X81.992 Y104.788 F7800.000
G1 E2.00000 F2400.00000
G1 F667.823
G1 X83.798 Y103.374 E2.07096
G1 X86.918 Y102.594 E2.17047
G1 X92.622 Y102.594 E2.34697
G1 X94.881 Y102.991 E2.41793
G1 X96.869 Y104.134 E2.48889
G1 X98.348 Y105.887 E2.55986
G1 X99.141 Y108.039 E2.63082
G1 X99.152 Y110.332 E2.70178
G1 X98.381 Y112.492 E2.77274
G1 X96.920 Y114.260 E2.84371
G1 X94.077 Y115.681 E2.94205
G1 X90.488 Y116.490 E3.05590
G1 X89.366 Y116.643 E3.09093
G1 X87.218 Y116.752 E3.15748
G1 X84.942 Y116.469 E3.22845
G1 X82.899 Y115.427 E3.29941
G1 X81.333 Y113.751 E3.37037
G1 X80.433 Y111.642 E3.44133
G1 X80.263 Y109.893 E3.49571
G1 X80.297 Y108.976 E3.52410
G1 X80.776 Y106.733 E3.59506
G1 X81.952 Y104.852 E3.66370
G1 E1.66370 F2400.00000
G92 E0
G1 X91.955 Y109.293 F7800.000
G1 E2.00000 F2400.00000
G1 F1800.000
G1 X91.497 Y109.343 E2.00322
G1 F1800.000
G1 X91.039 Y109.394 E2.00870
G1 F1800.000
G1 X90.581 Y109.445 E2.01645
G1 F1800.000
G1 X90.122 Y109.496 E2.02645
G1 F1800.000
G1 X89.664 Y109.547 E2.03872
G1 F1800.000
G1 X89.206 Y109.598 E2.05325
G1 F1800.000
G1 X88.977 Y109.624 E2.06164
G1 X87.939 Y109.650 E2.09947
G1 F1800.000
G1 X86.901 Y109.676 E2.14151
G1 Z0.650 F7800.000
G1 E0.14151 F2400.00000
G92 E0
G1 X98.186 Y109.493 F7800.000
G1 E2.00000 F2400.00000

G1 F3600.000
G1 X98.081 Y109.821 E2.00954
G1 X95.242 Y110.460 E2.09039
G1 X87.522 Y110.850 E2.30511
G1 X86.254 Y110.848 E2.34033
G1 X86.299 Y109.493 E2.37798
G1 X86.657 Y109.493 E2.38793

G1 F1800.000
G1 X92.539 Y109.493 E2.50914

G1 F3600.000
G1 X98.111 Y109.493 E2.66393

G1 X96.678 Y109.811 F7800.000
G1 F600.000
G1 X96.249 Y109.859 E2.66514
G1 F600.000
G1 X95.820 Y109.907 E2.66805
G1 F600.000
G1 X95.391 Y109.954 E2.67266
G1 F600.000
G1 X95.176 Y109.978 E2.67582
G1 X94.217 Y110.002 E2.68984
G1 F600.000
G1 X92.300 Y110.051 E2.72576
G1 F600.000
G1 X90.382 Y110.099 E2.76954
G1 F600.000
G1 X88.464 Y110.147 E2.82120
G1 F600.000
G1 X86.557 Y110.171 E2.88040
G1 E0.88040 F2400.00000
G92 E0
G1 X94.056 Y87.943 F7800.000
G1 E2.00000 F2400.00000

G1 F3600.000
G1 X87.104 Y87.943 E2.19311
G1 X87.131 Y87.251 E2.21236
G1 X90.748 Y87.300 E2.31285
G1 X94.072 Y87.668 E2.40574
G1 X94.061 Y87.869 E2.41131

G1 X94.064 Y87.806 F7800.000
G1 F1800.000
G1 X94.865 Y87.850 E2.43477
G1 F1800.000
G1 X96.467 Y87.939 E2.47617
G1 E0.47617 F2400.00000
G92 E0
G1 X90.731 Y87.621 F7800.000
G1 E2.00000 F2400.00000
G1 F600.000
G1 X87.398 Y87.599 E2.00889
G1 Z0.950 F7800.000
G1 E0.00889 F2400.00000
G92 E0
G1 X86.193 Y110.054 F7800.000
G1 E2.00000 F2400.00000
G1 F1889.674
G1 X98.558 Y110.054 E2.33357

G1 F3600.000
G1 X101.614 Y110.054 E2.41844
G1 X101.651 Y110.393 E2.42792
G1 X100.933 Y110.555 E2.44839
G1 X96.135 Y110.797 E2.58182

G1 F1889.674
G1 X94.969 Y110.856 E2.61331
G1 X86.167 Y110.843 E2.85078
G1 X86.190 Y110.129 E2.87006
G1 X85.774 Y109.493 F7800.000
G1 F1800.000
G1 X98.737 Y109.493 E3.13723

G1 F3600.000
G1 X103.394 Y109.493 E3.26658
G1 X103.394 Y109.980 E3.28010
G1 X103.189 Y110.622 E3.29881
G1 X101.009 Y111.113 E3.36088
G1 X94.983 Y111.417 E3.52848
G1 X85.587 Y111.403 E3.78948
G1 X85.651 Y109.493 E3.84256
G1 X85.699 Y109.493 E3.84389

G1 X86.498 Y110.449 F7800.000
G1 F629.891
G1 X94.960 Y110.455 E3.86572
G1 X96.634 Y110.413 E3.87004
G1 E1.87004 F2400.00000
G92 E0
G1 X86.950 Y87.383 F7800.000
G1 E2.00000 F2400.00000
G1 F600.000
G1 X86.964 Y86.996 E2.01043
G1 X87.532 Y87.004 E2.02576
G1 X87.529 Y87.383 E2.03598
G1 X87.025 Y87.383 E2.04957
G1 X86.370 Y87.943 F7800.000

G1 F3600.000
G1 X86.422 Y86.442 E2.09131
G1 X86.837 Y86.434 E2.10284
G1 X97.502 Y86.577 E2.39911
G1 X101.454 Y87.015 E2.50957
G1 X102.475 Y87.654 E2.54302
G1 X102.505 Y87.943 E2.55111
G1 X96.946 Y87.943 E2.70553

G1 F1800.000
G1 X86.579 Y87.943 E2.91920

G1 F3600.000
G1 X86.445 Y87.943 E2.92291

G1 X87.811 Y87.195 F7800.000
G1 F629.891
G1 X94.243 Y87.238 E3.14789
G1 F629.891
G1 X97.459 Y87.260 E3.24918
G1 X97.929 Y87.286 E3.26401
G1 F629.891
G1 X98.870 Y87.338 E3.28990
G1 F629.891
G1 X99.810 Y87.390 E3.31203
G1 F629.891
G1 X100.750 Y87.442 E3.33039
G1 F629.891
G1 X101.691 Y87.494 E3.34499
M106 S249.9
G1 Z1.250 F7800.000
G1 E1.34499 F2400.00000
G92 E0
G1 X85.582 Y110.054 F7800.000
G1 E2.00000 F2400.00000
G1 F3600.000
G1 X103.919 Y110.054 E2.49465
M106 S255

G1 F3600.000
G1 X107.866 Y110.054 E2.60430
G1 X107.866 Y110.945 E2.62905
G1 X106.699 Y111.208 E2.66227
G1 X102.430 Y111.423 E2.78101
G1 X102.023 Y111.422 E2.79232
M106 S249.9

G1 F3600.000
G1 X89.138 Y111.405 E3.13990
G1 X85.542 Y111.326 E3.23694
G1 X85.580 Y110.129 E3.26926
G1 X85.039 Y109.493 F7800.000
M106 S255

G1 F3600.000
G1 X85.125 Y109.493 E3.27166
M106 S249.9

G1 F1800.000
G1 X103.919 Y109.493 E3.65899
M106 S255

G1 F3600.000
G1 X108.427 Y109.493 E3.78422
G1 X108.427 Y111.014 E3.82645
G1 X108.296 Y111.423 E3.83837
G1 X106.776 Y111.765 E3.88167
G1 X102.444 Y111.984 E4.00214
G1 X89.132 Y111.965 E4.37193
G1 X87.574 Y111.931 E4.41521
M106 S249.9

G1 F1800.000
G1 X85.046 Y111.876 E4.46733
M106 S255

G1 F3600.000
G1 X84.964 Y111.875 E4.46960
G1 X85.037 Y109.568 E4.53370
M106 S249.9

G1 X85.880 Y110.694 F7800.000
G1 F1200.000
G1 X87.513 Y110.712 E4.57659
G1 F1200.000
G1 X89.146 Y110.729 E4.62295
G1 X102.413 Y110.738 E4.99960
G1 X103.255 Y110.717 E5.02349
G1 F1200.000
G1 X104.938 Y110.675 E5.06522
G1 F1200.000
G1 X106.621 Y110.632 E5.10089
G1 F1200.000
G1 X107.084 Y110.581 E5.10911
G1 F1200.000
G1 X107.548 Y110.529 E5.11567
G1 E3.11567 F2400.00000
G92 E0
G1 X86.346 Y87.383 F7800.000
G1 E2.00000 F2400.00000
G1 F3600.000
G1 X86.377 Y86.496 E2.02393
G1 X95.123 Y86.312 E2.25993
G1 X96.572 Y86.312 E2.29903
G1 X100.329 Y86.362 E2.40039
M106 S255

G1 F3600.000
G1 X104.220 Y86.414 E2.50848
G1 X106.892 Y86.711 E2.58314
G1 X107.240 Y86.928 E2.59456
G1 X107.287 Y87.383 E2.60725
G1 X102.974 Y87.383 E2.72705
M106 S249.9

G1 F3600.000
G1 X86.421 Y87.383 E3.17361
G1 X85.766 Y87.943 F7800.000
M106 S255

G1 F3600.000
G1 X85.835 Y85.947 E3.22910
G1 X85.914 Y85.945 E3.23130
M106 S249.9

G1 F1800.000
G1 X87.326 Y85.916 E3.26041
M106 S255

G1 F3600.000
G1 X95.117 Y85.751 E3.47688
G1 X96.576 Y85.751 E3.51741
G1 X104.255 Y85.854 E3.73073
G1 X107.081 Y86.167 E3.80970
G1 X107.769 Y86.598 E3.83226
G1 X107.910 Y87.943 E3.86984
G1 X103.033 Y87.943 E4.00530
M106 S249.9

G1 F1800.000
G1 X85.845 Y87.943 E4.35955
M106 S255

G1 F3600.000
G1 X85.841 Y87.943 E4.35967
M106 S249.9

G1 X86.679 Y86.936 F7800.000
G1 F1200.000
G1 X90.904 Y86.892 E4.41045
G1 F1200.000
G1 X95.129 Y86.847 E4.47086
G1 X101.650 Y86.881 E4.56411
G1 F1200.000
G1 X104.190 Y86.898 E4.59310
G1 X104.650 Y86.924 E4.59835
G1 F1200.000
G1 X105.568 Y86.975 E4.60495
G1 F1200.000
G1 X106.487 Y87.025 E4.60767
M106 S247.35
G1 Z1.550 F7800.000
G1 E2.60767 F2400.00000
G92 E0
G1 X87.165 Y110.690 F7800.000
G1 E2.00000 F2400.00000
G1 F3600.000
G1 X108.952 Y110.690 E2.58773
M106 S255

G1 F3600.000
G1 X112.264 Y110.690 E2.67972
G1 X112.264 Y111.234 E2.69484
G1 X109.875 Y111.354 E2.76126
G1 X108.870 Y111.353 E2.78921
M106 S247.35

G1 F3600.000
G1 X99.839 Y111.343 E3.03283
G1 X87.161 Y111.067 E3.37491
G1 X87.164 Y110.765 E3.38306
G1 X85.038 Y110.054 F7800.000
G1 F3600.000
G1 X108.952 Y110.054 E4.02816
M106 S255

G1 F3600.000
G1 X112.899 Y110.054 E4.13781
G1 X112.899 Y111.762 E4.18527
G1 X112.466 Y111.860 E4.19761
G1 X109.891 Y111.990 E4.26922
G1 X108.175 Y111.988 E4.31689
M106 S247.35

G1 F3600.000
G1 X99.831 Y111.979 E4.54197
G1 X84.988 Y111.655 E4.94249
G1 X85.036 Y110.129 E4.98369
G1 X84.495 Y109.493 F7800.000
M106 S255

G1 F3600.000
G1 X84.514 Y109.493 E4.98420
M106 S247.35

G1 F1800.000
G1 X108.952 Y109.493 E5.48788
M106 S255

G1 F3600.000
G1 X113.460 Y109.493 E5.61311
G1 X113.460 Y112.048 E5.68406
G1 X113.404 Y112.223 E5.68918
G1 X112.542 Y112.418 E5.71371
G1 X109.905 Y112.551 E5.78707
G1 X99.825 Y112.539 E6.06707
G1 X98.267 Y112.506 E6.11035
M106 S247.35

G1 F1800.000
G1 X84.428 Y112.204 E6.39564
M106 S255

G1 F3600.000
G1 X84.410 Y112.203 E6.39615
G1 X84.493 Y109.568 E6.46939
M106 S247.35

G1 E4.46939 F2400.00000
G92 E0
G1 X98.669 Y86.747 F7800.000
G1 E2.00000 F2400.00000
G1 F3600.000
G1 X98.664 Y86.370 E2.01018
G1 X103.499 Y86.265 E2.14062
G1 X106.310 Y86.265 E2.21646
G1 X108.265 Y86.291 E2.26921
M106 S255

G1 F3600.000
G1 X110.935 Y86.327 E2.34337
G1 X111.477 Y86.387 E2.35852
G1 X111.457 Y86.747 E2.36855
G1 X108.313 Y86.747 E2.45589
M106 S247.35

G1 F3600.000
G1 X98.744 Y86.747 E2.71404
G1 X85.796 Y86.014 F7800.000
G1 F3600.000
G1 X103.492 Y85.629 E3.19152
G1 X107.083 Y85.639 E3.28839
M106 S255

G1 F3600.000
G1 X110.974 Y85.692 E3.39649
G1 X112.534 Y85.865 E3.44008
G1 X112.692 Y87.383 E3.48249
G1 X108.379 Y87.383 E3.60229
M106 S247.35

G1 F3600.000
G1 X85.752 Y87.383 E4.21268
G1 X85.794 Y86.089 E4.24760
G1 X85.253 Y85.465 F7800.000
M106 S255

G1 F3600.000
G1 X85.326 Y85.464 E4.24963
M106 S247.35

G1 F1800.000
G1 X96.237 Y85.226 E4.47457
M106 S255

G1 F3600.000
G1 X103.486 Y85.069 E4.67597
G1 X106.318 Y85.069 E4.75464
G1 X111.009 Y85.131 E4.88495
G1 X112.707 Y85.320 E4.93243
G1 X113.064 Y85.543 E4.94410
G1 X113.314 Y87.943 E5.01115
G1 X108.437 Y87.943 E5.14662
M106 S247.35

G1 F1800.000
G1 X85.240 Y87.943 E5.62472
M106 S255

G1 F3600.000
G1 X85.173 Y87.943 E5.62658
G1 X85.250 Y85.540 E5.69337
M106 S247.35

G1 X86.092 Y86.695 F7800.000
G1 F1200.000
G1 X88.544 Y86.669 E5.76959
G1 F1200.000
G1 X93.446 Y86.615 E5.94264
G1 F1200.000
G1 X98.349 Y86.562 E6.13630
M106 S234.6
G1 Z1.850 F7800.000
G1 E4.13630 F2400.00000
G92 E0
G1 X85.115 Y110.690 F7800.000
G1 E2.00000 F2400.00000
G1 F3600.000
G1 X113.985 Y110.690 E2.77880
M106 S255

G1 F3600.000
G1 X117.297 Y110.690 E2.87080
G1 X117.297 Y111.921 E2.90501
G1 X113.985 Y111.919 E2.99701
M106 S234.6

G1 F3600.000
G1 X110.532 Y111.917 E3.09016
G1 X85.095 Y111.352 E3.77654
G1 X85.113 Y110.765 E3.79240
G1 X84.499 Y110.054 F7800.000
G1 F3600.000
G1 X113.985 Y110.054 E4.58781
M106 S255

G1 F3600.000
G1 X117.932 Y110.054 E4.69747
G1 X117.932 Y112.528 E4.76618
G1 X117.352 Y112.557 E4.78233
G1 X113.849 Y112.555 E4.87962
M106 S234.6

G1 F3600.000
G1 X110.524 Y112.553 E4.96931
G1 X84.439 Y111.973 E5.67318
G1 X84.497 Y110.129 E5.72296
G1 X83.956 Y109.493 F7800.000
M106 S255

G1 F3600.000
G1 X83.970 Y109.493 E5.72334
M106 S234.6

G1 F1800.000
G1 X113.985 Y109.493 E6.34196
M106 S255

G1 F3600.000
G1 X118.493 Y109.493 E6.46719
G1 X118.493 Y113.029 E6.56538
G1 X118.309 Y113.070 E6.57062
G1 X117.366 Y113.118 E6.59686
G1 X110.518 Y113.113 E6.78707
G1 X108.811 Y113.076 E6.83449
M106 S234.6

G1 F1800.000
G1 X83.875 Y112.522 E7.34857
M106 S255

G1 F3600.000
G1 X83.861 Y112.521 E7.34895
G1 X83.954 Y109.568 E7.43102
M106 S234.6

G1 E5.43102 F2400.00000
G92 E0
G1 X87.626 Y111.049 F7800.000
G1 E2.00000 F2400.00000
G1 F1200.000
G1 X89.709 Y111.072 E2.00582
G1 F1200.000
G1 X93.875 Y111.118 E2.03378
G1 F1200.000
G1 X98.041 Y111.165 E2.07808
G1 F1200.000
G1 X102.207 Y111.211 E2.13871
G1 F1200.000
G1 X106.373 Y111.257 E2.21567
G1 F1200.000
G1 X110.539 Y111.303 E2.30960
G1 X116.979 Y111.305 E2.45481
G1 E0.45481 F2400.00000
G92 E0
G1 X85.888 Y86.747 F7800.000
G1 E2.00000 F2400.00000
G1 F3600.000
G1 X85.901 Y86.323 E2.01145
G1 X105.603 Y85.714 E2.54319
G1 X111.867 Y85.582 E2.71219
G1 X113.596 Y85.582 E2.75884
M106 S255

G1 F3600.000
G1 X117.271 Y85.598 E2.86094
G1 X117.297 Y85.842 E2.86774
G1 X117.297 Y86.747 E2.89289
G1 X113.717 Y86.747 E2.99232
M106 S234.6

G1 F3600.000
G1 X85.963 Y86.747 E3.74105
G1 X85.231 Y87.383 F7800.000
G1 F3600.000
G1 X85.285 Y85.706 E3.78631
G1 X105.587 Y85.079 E4.33422
G1 X111.860 Y84.946 E4.50349
G1 X113.101 Y84.946 E4.53696
M106 S255

G1 F3600.000
G1 X116.056 Y84.946 E4.61906
G1 X117.845 Y84.970 E4.66875
G1 X117.932 Y85.809 E4.69217
G1 X117.932 Y87.383 E4.73589
G1 X113.784 Y87.383 E4.85114
M106 S234.6

G1 F3600.000
G1 X85.306 Y87.383 E5.61936
G1 X84.652 Y87.943 F7800.000
G1 F1800.000
G1 X84.742 Y85.162 E5.67672
G1 X104.754 Y84.544 E6.08936
M106 S255

G1 F3600.000
G1 X111.854 Y84.386 E6.28664
G1 X116.060 Y84.386 E6.40347
G1 X117.762 Y84.409 E6.45076
G1 X118.357 Y84.475 E6.46738
G1 X118.493 Y85.780 E6.50383
G1 X118.493 Y87.943 E6.56394
G1 X113.842 Y87.943 E6.69313
M106 S234.6

G1 F1800.000
G1 X84.727 Y87.943 E7.29320
G1 X84.911 Y87.516 F7800.000
G1 E5.29320 F2400.00000
G92 E0
G1 X95.421 Y86.388 F7800.000
G1 E2.00000 F2400.00000
G1 F1200.000
G1 X98.334 Y86.343 E2.01351
G1 F1200.000
G1 X101.247 Y86.298 E2.03809
G1 F1200.000
G1 X104.160 Y86.253 E2.07375
G1 F1200.000
G1 X107.702 Y86.209 E2.13046
G1 F1200.000
G1 X111.873 Y86.165 E2.21280
G1 X116.979 Y86.171 E2.31360
M106 S226.95
G1 Z2.150 F7800.000
G1 E0.31360 F2400.00000
G92 E0
G1 X84.637 Y110.690 F7800.000
G1 E2.00000 F2400.00000
G1 F3600.000
G1 X119.018 Y110.690 E2.92749
M106 S255

G1 F3600.000
G1 X120.208 Y110.690 E2.96054
G1 X120.208 Y112.294 E3.00510
G1 X119.018 Y112.294 E3.03815
M106 S226.95

G1 F3600.000
G1 X116.658 Y112.294 E3.10182
G1 X109.797 Y112.160 E3.28693
G1 X84.611 Y111.538 E3.96657
G1 X84.634 Y110.765 E3.98744
G1 X84.020 Y110.054 F7800.000
G1 F3600.000
G1 X119.018 Y110.054 E4.93157
M106 S255

G1 F3600.000
G1 X120.844 Y110.054 E4.98227
G1 X120.844 Y112.929 E5.06214
G1 X119.018 Y112.929 E5.11285
M106 S226.95

G1 F3600.000
G1 X116.652 Y112.929 E5.17668
G1 X109.783 Y112.795 E5.36201
G1 X83.957 Y112.157 E6.05893
G1 X84.018 Y110.129 E6.11367
G1 X83.476 Y109.493 F7800.000
G1 F1800.000
G1 X119.018 Y109.493 E6.84621
M106 S255

G1 F3600.000
G1 X121.404 Y109.493 E6.91249
G1 X121.404 Y113.490 E7.02351
G1 X118.834 Y113.490 E7.09491
M106 S226.95

G1 F1800.000
G1 X116.646 Y113.490 E7.13999
G1 X109.771 Y113.356 E7.28173
G1 X83.380 Y112.704 E7.82582
G1 X83.474 Y109.568 E7.89048
G1 X83.975 Y109.518 F7800.000
G1 E5.89048 F2400.00000
G92 E0
G1 X84.942 Y111.118 F7800.000
G1 E2.00000 F2400.00000
G1 F1200.000
G1 X88.768 Y111.165 E2.04109
G1 F1200.000
G1 X92.595 Y111.212 E2.09745
G1 F1200.000
G1 X96.421 Y111.259 E2.16908
G1 F1200.000
G1 X100.247 Y111.307 E2.25599
G1 F1200.000
G1 X104.074 Y111.354 E2.35817
G1 F1200.000
G1 X107.900 Y111.401 E2.47562
G1 F1200.000
G1 X112.098 Y111.447 E2.62078
G1 F1200.000
G1 X116.666 Y111.492 E2.79607
G1 X119.890 Y111.492 E2.91977
G1 E0.91977 F2400.00000
G92 E0
G1 X85.367 Y86.747 F7800.000
G1 E2.00000 F2400.00000
G1 F3600.000
G1 X85.391 Y86.022 E2.01958
G1 X100.118 Y85.567 E2.41706
G1 X112.790 Y85.220 E2.75902
G1 X116.659 Y85.153 E2.86341
G1 X118.956 Y85.153 E2.92537
M106 S255

G1 F3600.000
G1 X120.208 Y85.153 E2.96016
G1 X120.208 Y86.747 E3.00443
G1 X119.018 Y86.747 E3.03748
M106 S226.95

G1 F3600.000
G1 X85.442 Y86.747 E3.94324
G1 X84.711 Y87.383 F7800.000
G1 F3600.000
G1 X84.775 Y85.405 E3.99662
G1 X100.100 Y84.931 E4.41024
G1 X112.775 Y84.584 E4.75231
G1 X116.653 Y84.517 E4.85693
G1 X118.889 Y84.517 E4.91725
M106 S255

G1 F3600.000
G1 X120.844 Y84.518 E4.97154
G1 X120.844 Y87.383 E5.05112
G1 X119.018 Y87.383 E5.10183
M106 S226.95

G1 F3600.000
G1 X84.786 Y87.383 E6.02529
G1 X84.132 Y87.943 F7800.000
G1 F1800.000
G1 X84.232 Y84.861 E6.08886
G1 X100.084 Y84.371 E6.41573
G1 X112.763 Y84.024 E6.67715
G1 X116.648 Y83.956 E6.75725
G1 X118.450 Y83.957 E6.79439
M106 S255

G1 F3600.000
G1 X121.404 Y83.957 E6.87644
G1 X121.404 Y87.943 E6.98716
G1 X119.018 Y87.943 E7.05344
M106 S226.95

G1 F1800.000
G1 X84.207 Y87.943 E7.77091
G1 X84.391 Y87.516 F7800.000
G1 E5.77091 F2400.00000
G92 E0
G1 X85.697 Y86.380 F7800.000
G1 E2.00000 F2400.00000
G1 F1200.000
G1 X88.906 Y86.330 E2.01839
G1 F1200.000
G1 X92.114 Y86.281 E2.05023
G1 F1200.000
G1 X95.323 Y86.231 E2.09552
G1 F1200.000
