; Gcode updated with 'stl_info' on 2019-12-03 19:09:51.591660

; stl_min_x = -115.0
; stl_max_x = 115.0
; stl_min_y = -5.199999809265137
; stl_max_y = 5.199999809265137
; stl_min_z = -16.58970069885254

; generated by Slic3r 1.3.1-dev (Build adea0d9) on 2019-12-03 at 19:09:51

; external perimeters extrusion width = 0.55mm (1.90mm^3/s)
; perimeters extrusion width = 0.70mm (2.71mm^3/s)
; infill extrusion width = 0.62mm (2.41mm^3/s)
; solid infill extrusion width = 0.70mm (2.04mm^3/s)
; top infill extrusion width = 0.70mm (2.04mm^3/s)

M107
G92 E0
;D3D:START:START
T0
M104 S215 T0

G21
G90
M107
T0
G28
G29
M109 T0 S215 T0
G0 F3000
M107
T0
G92 E0
G0 X0 Y149 Z0.1 F3600
G1 Y49 E6.5 F1200
G0 Z1
G92 E0
; Filament gcode

G21 ; set units to millimeters
G90 ; use absolute coordinates
M82 ; use absolute distances for extrusion
G92 E0
G1 Z0.090 F7800.000
G1 E-2.00000 F2400.00000
G92 E0
G1 X-40.000 Y68.237 F7800.000
G1 E2.00000 F2400.00000
G1 F1800.000
G1 X190.000 Y68.237 E2.68578
G1 X192.160 Y68.634 E2.69233
G1 X194.038 Y69.772 E2.69888
G1 X195.390 Y71.504 E2.70543
G1 X196.080 Y74.317 E2.71406
G1 X196.080 Y75.683 E2.71814
G1 X195.683 Y77.843 E2.72468
G1 X194.545 Y79.721 E2.73123
G1 X192.813 Y81.073 E2.73778
G1 X190.000 Y81.763 E2.74642
G1 X-40.000 Y81.763 E3.43220
G1 X-42.160 Y81.366 E3.43875
G1 X-44.038 Y80.228 E3.44530
G1 X-45.390 Y78.496 E3.45185
G1 X-46.080 Y75.683 E3.46048
G1 X-46.080 Y74.317 E3.46455
G1 X-45.683 Y72.157 E3.47110
G1 X-44.545 Y70.279 E3.47765
G1 X-42.813 Y68.927 E3.48420
G1 X-40.073 Y68.255 E3.49261
G1 E1.49261 F2400.00000
G92 E0
G1 X-39.791 Y75.474 F7800.000
G1 E2.00000 F2400.00000
G1 F1800.000
G1 X-39.791 Y74.526 E2.00283
G1 X-34.740 Y74.526 E2.01789
G1 X-34.800 Y74.811 E2.01876
G1 X-34.800 Y75.189 E2.01988
G1 X-34.740 Y75.474 E2.02075
G1 X-39.716 Y75.474 E2.03559
G1 X-39.871 Y75.554 F7800.000
G1 F1800.000
G1 X-39.871 Y74.446 E2.03889
G1 X-34.642 Y74.446 E2.05448
G1 X-34.720 Y74.819 E2.05562
G1 X-34.720 Y75.181 E2.05670
G1 X-34.642 Y75.554 E2.05783
G1 X-39.796 Y75.554 E2.07320
G1 X-39.950 Y75.633 F7800.000
G1 F1800.000
G1 X-39.950 Y74.367 E2.07698
G1 X-34.514 Y74.367 E2.09319
G1 X-34.569 Y74.490 E2.09359
G1 X-34.641 Y74.828 E2.09462
G1 X-34.641 Y75.172 E2.09565
G1 X-34.569 Y75.510 E2.09668
G1 X-34.514 Y75.633 E2.09708
G1 X-39.876 Y75.633 E2.11306
G1 X-39.704 Y75.199 F7800.000
G1 X-39.680 Y74.575 F7800.000
G1 F1800.000
G1 X-39.742 Y74.637 E2.11333
G1 X-39.742 Y74.750 E2.11367
G1 X-39.567 Y74.575 E2.11441
G1 X-39.454 Y74.575 E2.11475
G1 X-39.742 Y74.863 E2.11597
G1 X-39.742 Y74.977 E2.11631
G1 X-39.341 Y74.575 E2.11801
G1 X-39.227 Y74.575 E2.11835
G1 X-39.742 Y75.090 E2.12054
G1 X-39.742 Y75.203 E2.12088
G1 X-39.114 Y74.575 E2.12354
G1 X-39.001 Y74.575 E2.12388
G1 X-39.742 Y75.316 E2.12702
G1 X-39.742 Y75.425 E2.12735
G1 X-38.888 Y74.575 E2.13096
G1 X-38.774 Y74.575 E2.13130
G1 X-39.625 Y75.425 E2.13490
G1 X-39.512 Y75.425 E2.13524
G1 X-38.661 Y74.575 E2.13885
G1 X-38.548 Y74.575 E2.13919
G1 X-39.399 Y75.425 E2.14279
G1 X-39.285 Y75.425 E2.14313
G1 X-38.435 Y74.575 E2.14673
G1 X-38.321 Y74.575 E2.14707
G1 X-39.172 Y75.425 E2.15068
G1 X-39.059 Y75.425 E2.15102
G1 X-38.208 Y74.575 E2.15462
G1 X-38.095 Y74.575 E2.15496
G1 X-38.946 Y75.425 E2.15857
G1 X-38.832 Y75.425 E2.15890
G1 X-37.982 Y74.575 E2.16251
G1 X-37.869 Y74.575 E2.16285
G1 X-38.719 Y75.425 E2.16645
G1 X-38.606 Y75.425 E2.16679
G1 X-37.755 Y74.575 E2.17040
G1 X-37.642 Y74.575 E2.17074
G1 X-38.493 Y75.425 E2.17434
G1 X-38.380 Y75.425 E2.17468
G1 X-37.529 Y74.575 E2.17828
G1 X-37.416 Y74.575 E2.17862
G1 X-38.266 Y75.425 E2.18223
G1 X-38.153 Y75.425 E2.18257
G1 X-37.302 Y74.575 E2.18617
G1 X-37.189 Y74.575 E2.18651
G1 X-38.040 Y75.425 E2.19011
G1 X-37.927 Y75.425 E2.19045
G1 X-37.076 Y74.575 E2.19406
G1 X-36.963 Y74.575 E2.19440
G1 X-37.813 Y75.425 E2.19800
G1 X-37.700 Y75.425 E2.19834
G1 X-36.849 Y74.575 E2.20195
G1 X-36.736 Y74.575 E2.20228
G1 X-37.587 Y75.425 E2.20589
G1 X-37.474 Y75.425 E2.20623
G1 X-36.623 Y74.575 E2.20983
G1 X-36.510 Y74.575 E2.21017
G1 X-37.360 Y75.425 E2.21378
G1 X-37.247 Y75.425 E2.21411
G1 X-36.396 Y74.575 E2.21772
G1 X-36.283 Y74.575 E2.21806
G1 X-37.134 Y75.425 E2.22166
G1 X-37.021 Y75.425 E2.22200
G1 X-36.170 Y74.575 E2.22561
G1 X-36.057 Y74.575 E2.22595
G1 X-36.907 Y75.425 E2.22955
G1 X-36.794 Y75.425 E2.22989
G1 X-35.944 Y74.575 E2.23349
G1 X-35.830 Y74.575 E2.23383
G1 X-36.681 Y75.425 E2.23744
G1 X-36.568 Y75.425 E2.23778
G1 X-35.717 Y74.575 E2.24138
G1 X-35.604 Y74.575 E2.24172
G1 X-36.454 Y75.425 E2.24532
G1 X-36.341 Y75.425 E2.24566
G1 X-35.491 Y74.575 E2.24927
G1 X-35.377 Y74.575 E2.24961
G1 X-36.228 Y75.425 E2.25321
G1 X-36.115 Y75.425 E2.25355
G1 X-35.264 Y74.575 E2.25715
G1 X-35.151 Y74.575 E2.25749
G1 X-36.002 Y75.425 E2.26110
G1 X-35.888 Y75.425 E2.26144
G1 X-35.038 Y74.575 E2.26504
G1 X-34.924 Y74.575 E2.26538
G1 X-35.775 Y75.425 E2.26898
G1 X-35.662 Y75.425 E2.26932
G1 X-34.807 Y74.575 E2.27293
G1 X-34.836 Y74.713 E2.27336
G1 X-35.549 Y75.425 E2.27638
G1 X-35.435 Y75.425 E2.27672
G1 X-34.849 Y74.839 E2.27920
G1 X-34.849 Y74.952 E2.27954
G1 X-35.322 Y75.425 E2.28155
G1 X-35.209 Y75.425 E2.28189
G1 X-34.849 Y75.065 E2.28341
G1 X-34.846 Y75.176 E2.28375
G1 X-35.096 Y75.425 E2.28480
G1 X-34.982 Y75.425 E2.28514
G1 X-34.827 Y75.270 E2.28580
G1 X-34.807 Y75.363 E2.28609
G1 X-34.869 Y75.425 E2.28635
G1 E0.28635 F2400.00000
G92 E0
G1 X-31.260 Y75.474 F7800.000
G1 E2.00000 F2400.00000
G1 F1800.000
G1 X-31.200 Y75.189 E2.00087
G1 X-31.200 Y74.811 E2.00200
G1 X-31.260 Y74.526 E2.00286
G1 X73.260 Y74.526 E2.31451
G1 X73.200 Y74.811 E2.31538
G1 X73.200 Y75.189 E2.31650
G1 X73.260 Y75.474 E2.31737
G1 X-31.185 Y75.474 E2.62879
G1 X-31.358 Y75.554 F7800.000
G1 F1800.000
G1 X-31.280 Y75.181 E2.62993
G1 X-31.280 Y74.819 E2.63101
G1 X-31.358 Y74.446 E2.63214
G1 X73.359 Y74.446 E2.94438
G1 X73.280 Y74.819 E2.94551
G1 X73.280 Y75.181 E2.94659
G1 X73.359 Y75.554 E2.94773
G1 X-31.283 Y75.554 E3.25973
G1 X-31.486 Y75.633 F7800.000
G1 F1800.000
G1 X-31.431 Y75.510 E3.26014
G1 X-31.359 Y75.172 E3.26117
G1 X-31.359 Y74.828 E3.26219
G1 X-31.431 Y74.490 E3.26322
G1 X-31.486 Y74.367 E3.26362
G1 X73.486 Y74.367 E3.57661
G1 X73.431 Y74.490 E3.57702
G1 X73.359 Y74.828 E3.57805
G1 X73.359 Y75.172 E3.57907
G1 X73.431 Y75.510 E3.58010
G1 X73.486 Y75.633 E3.58051
G1 X-31.411 Y75.633 E3.89327
G1 X-31.388 Y75.539 F7800.000
G1 X-31.130 Y74.575 F7800.000
G1 F1800.000
G1 X-31.193 Y74.637 E3.89354
G1 X-31.173 Y74.731 E3.89382
G1 X-31.017 Y74.575 E3.89448
G1 X-30.905 Y74.575 E3.89481
G1 X-31.154 Y74.824 E3.89586
G1 X-31.151 Y74.934 E3.89620
G1 X-30.792 Y74.575 E3.89771
G1 X-30.679 Y74.575 E3.89805
G1 X-31.151 Y75.047 E3.90004
G1 X-31.151 Y75.160 E3.90038
G1 X-30.566 Y74.575 E3.90285
G1 X-30.453 Y74.575 E3.90319
G1 X-31.163 Y75.285 E3.90618
G1 X-31.193 Y75.425 E3.90661
G1 X-30.341 Y74.575 E3.91020
G1 X-30.228 Y74.575 E3.91054
G1 X-31.078 Y75.425 E3.91413
G1 X-30.966 Y75.425 E3.91447
G1 X-30.115 Y74.575 E3.91806
G1 X-30.002 Y74.575 E3.91839
G1 X-30.853 Y75.425 E3.92198
G1 X-30.740 Y75.425 E3.92232
G1 X-29.890 Y74.575 E3.92591
G1 X-29.777 Y74.575 E3.92624
G1 X-30.627 Y75.425 E3.92983
G1 X-30.515 Y75.425 E3.93017
G1 X-29.664 Y74.575 E3.93376
G1 X-29.551 Y74.575 E3.93410
G1 X-30.402 Y75.425 E3.93769
G1 X-30.289 Y75.425 E3.93802
G1 X-29.438 Y74.575 E3.94161
G1 X-29.326 Y74.575 E3.94195
G1 X-30.176 Y75.425 E3.94554
G1 X-30.063 Y75.425 E3.94587
G1 X-29.213 Y74.575 E3.94946
G1 X-29.100 Y74.575 E3.94980
G1 X-29.951 Y75.425 E3.95339
G1 X-29.838 Y75.425 E3.95373
G1 X-28.987 Y74.575 E3.95731
G1 X-28.875 Y74.575 E3.95765
G1 X-29.725 Y75.425 E3.96124
G1 X-29.612 Y75.425 E3.96158
G1 X-28.762 Y74.575 E3.96517
G1 X-28.649 Y74.575 E3.96550
G1 X-29.500 Y75.425 E3.96909
G1 X-29.387 Y75.425 E3.96943
G1 X-28.536 Y74.575 E3.97302
G1 X-28.423 Y74.575 E3.97336
G1 X-29.274 Y75.425 E3.97694
G1 X-29.161 Y75.425 E3.97728
G1 X-28.311 Y74.575 E3.98087
G1 X-28.198 Y74.575 E3.98121
G1 X-29.048 Y75.425 E3.98480
G1 X-28.936 Y75.425 E3.98513
G1 X-28.085 Y74.575 E3.98872
G1 X-27.972 Y74.575 E3.98906
G1 X-28.823 Y75.425 E3.99265
G1 X-28.710 Y75.425 E3.99298
G1 X-27.860 Y74.575 E3.99657
G1 X-27.747 Y74.575 E3.99691
G1 X-28.597 Y75.425 E4.00050
G1 X-28.485 Y75.425 E4.00084
G1 X-27.634 Y74.575 E4.00443
G1 X-27.521 Y74.575 E4.00476
G1 X-28.372 Y75.425 E4.00835
G1 X-28.259 Y75.425 E4.00869
G1 X-27.408 Y74.575 E4.01228
G1 X-27.296 Y74.575 E4.01261
G1 X-28.146 Y75.425 E4.01620
G1 X-28.033 Y75.425 E4.01654
G1 X-27.183 Y74.575 E4.02013
G1 X-27.070 Y74.575 E4.02047
G1 X-27.921 Y75.425 E4.02406
G1 X-27.808 Y75.425 E4.02439
G1 X-26.957 Y74.575 E4.02798
G1 X-26.844 Y74.575 E4.02832
G1 X-27.695 Y75.425 E4.03191
G1 X-27.582 Y75.425 E4.03224
G1 X-26.732 Y74.575 E4.03583
G1 X-26.619 Y74.575 E4.03617
G1 X-27.469 Y75.425 E4.03976
G1 X-27.357 Y75.425 E4.04010
G1 X-26.506 Y74.575 E4.04369
G1 X-26.393 Y74.575 E4.04402
G1 X-27.244 Y75.425 E4.04761
G1 X-27.131 Y75.425 E4.04795
G1 X-26.281 Y74.575 E4.05154
G1 X-26.168 Y74.575 E4.05187
G1 X-27.018 Y75.425 E4.05546
G1 X-26.906 Y75.425 E4.05580
G1 X-26.055 Y74.575 E4.05939
G1 X-25.942 Y74.575 E4.05973
G1 X-26.793 Y75.425 E4.06332
G1 X-26.680 Y75.425 E4.06365
G1 X-25.829 Y74.575 E4.06724
G1 X-25.717 Y74.575 E4.06758
G1 X-26.567 Y75.425 E4.07117
G1 X-26.454 Y75.425 E4.07150
G1 X-25.604 Y74.575 E4.07509
G1 X-25.491 Y74.575 E4.07543
G1 X-26.342 Y75.425 E4.07902
G1 X-26.229 Y75.425 E4.07936
G1 X-25.378 Y74.575 E4.08295
G1 X-25.266 Y74.575 E4.08328
G1 X-26.116 Y75.425 E4.08687
G1 X-26.003 Y75.425 E4.08721
G1 X-25.153 Y74.575 E4.09080
G1 X-25.040 Y74.575 E4.09113
G1 X-25.891 Y75.425 E4.09472
G1 X-25.778 Y75.425 E4.09506
G1 X-24.927 Y74.575 E4.09865
G1 X-24.814 Y74.575 E4.09899
G1 X-25.665 Y75.425 E4.10257
G1 X-25.552 Y75.425 E4.10291
G1 X-24.702 Y74.575 E4.10650
G1 X-24.589 Y74.575 E4.10684
G1 X-25.439 Y75.425 E4.11043
G1 X-25.327 Y75.425 E4.11076
G1 X-24.476 Y74.575 E4.11435
G1 X-24.363 Y74.575 E4.11469
G1 X-25.214 Y75.425 E4.11828
G1 X-25.101 Y75.425 E4.11862
G1 X-24.251 Y74.575 E4.12220
G1 X-24.138 Y74.575 E4.12254
G1 X-24.988 Y75.425 E4.12613
G1 X-24.876 Y75.425 E4.12647
G1 X-24.025 Y74.575 E4.13006
G1 X-23.912 Y74.575 E4.13039
G1 X-24.763 Y75.425 E4.13398
G1 X-24.650 Y75.425 E4.13432
G1 X-23.799 Y74.575 E4.13791
G1 X-23.687 Y74.575 E4.13824
G1 X-24.537 Y75.425 E4.14183
G1 X-24.424 Y75.425 E4.14217
G1 X-23.574 Y74.575 E4.14576
G1 X-23.461 Y74.575 E4.14610
G1 X-24.312 Y75.425 E4.14969
G1 X-24.199 Y75.425 E4.15002
G1 X-23.348 Y74.575 E4.15361
G1 X-23.235 Y74.575 E4.15395
G1 X-24.086 Y75.425 E4.15754
G1 X-23.973 Y75.425 E4.15787
G1 X-23.123 Y74.575 E4.16146
G1 X-23.010 Y74.575 E4.16180
G1 X-23.861 Y75.425 E4.16539
G1 X-23.748 Y75.425 E4.16573
G1 X-22.897 Y74.575 E4.16932
G1 X-22.784 Y74.575 E4.16965
G1 X-23.635 Y75.425 E4.17324
G1 X-23.522 Y75.425 E4.17358
G1 X-22.672 Y74.575 E4.17717
G1 X-22.559 Y74.575 E4.17750
G1 X-23.409 Y75.425 E4.18109
G1 X-23.297 Y75.425 E4.18143
G1 X-22.446 Y74.575 E4.18502
G1 X-22.333 Y74.575 E4.18536
G1 X-23.184 Y75.425 E4.18895
G1 X-23.071 Y75.425 E4.18928
G1 X-22.220 Y74.575 E4.19287
G1 X-22.108 Y74.575 E4.19321
G1 X-22.958 Y75.425 E4.19680
G1 X-22.845 Y75.425 E4.19713
G1 X-21.995 Y74.575 E4.20072
G1 X-21.882 Y74.575 E4.20106
G1 X-22.733 Y75.425 E4.20465
G1 X-22.620 Y75.425 E4.20499
G1 X-21.769 Y74.575 E4.20858
G1 X-21.657 Y74.575 E4.20891
G1 X-22.507 Y75.425 E4.21250
G1 X-22.394 Y75.425 E4.21284
G1 X-21.544 Y74.575 E4.21643
G1 X-21.431 Y74.575 E4.21676
G1 X-22.282 Y75.425 E4.22035
G1 X-22.169 Y75.425 E4.22069
G1 X-21.318 Y74.575 E4.22428
G1 X-21.205 Y74.575 E4.22462
G1 X-22.056 Y75.425 E4.22821
G1 X-21.943 Y75.425 E4.22854
G1 X-21.093 Y74.575 E4.23213
G1 X-20.980 Y74.575 E4.23247
G1 X-21.830 Y75.425 E4.23606
G1 X-21.718 Y75.425 E4.23639
G1 X-20.867 Y74.575 E4.23998
G1 X-20.754 Y74.575 E4.24032
G1 X-21.605 Y75.425 E4.24391
G1 X-21.492 Y75.425 E4.24425
G1 X-20.642 Y74.575 E4.24783
G1 X-20.529 Y74.575 E4.24817
G1 X-21.379 Y75.425 E4.25176
G1 X-21.267 Y75.425 E4.25210
G1 X-20.416 Y74.575 E4.25569
G1 X-20.303 Y74.575 E4.25602
G1 X-21.154 Y75.425 E4.25961
G1 X-21.041 Y75.425 E4.25995
G1 X-20.190 Y74.575 E4.26354
G1 X-20.078 Y74.575 E4.26388
G1 X-20.928 Y75.425 E4.26746
G1 X-20.815 Y75.425 E4.26780
G1 X-19.965 Y74.575 E4.27139
G1 X-19.852 Y74.575 E4.27173
G1 X-20.703 Y75.425 E4.27532
G1 X-20.590 Y75.425 E4.27565
G1 X-19.739 Y74.575 E4.27924
G1 X-19.627 Y74.575 E4.27958
G1 X-20.477 Y75.425 E4.28317
G1 X-20.364 Y75.425 E4.28351
G1 X-19.514 Y74.575 E4.28709
G1 X-19.401 Y74.575 E4.28743
G1 X-20.252 Y75.425 E4.29102
G1 X-20.139 Y75.425 E4.29136
G1 X-19.288 Y74.575 E4.29495
G1 X-19.175 Y74.575 E4.29528
G1 X-20.026 Y75.425 E4.29887
G1 X-19.913 Y75.425 E4.29921
G1 X-19.063 Y74.575 E4.30280
G1 X-18.950 Y74.575 E4.30313
G1 X-19.800 Y75.425 E4.30672
G1 X-19.688 Y75.425 E4.30706
G1 X-18.837 Y74.575 E4.31065
G1 X-18.724 Y74.575 E4.31099
G1 X-19.575 Y75.425 E4.31458
G1 X-19.462 Y75.425 E4.31491
G1 X-18.611 Y74.575 E4.31850
G1 X-18.499 Y74.575 E4.31884
G1 X-19.349 Y75.425 E4.32243
G1 X-19.236 Y75.425 E4.32276
G1 X-18.386 Y74.575 E4.32635
G1 X-18.273 Y74.575 E4.32669
G1 X-19.124 Y75.425 E4.33028
G1 X-19.011 Y75.425 E4.33062
G1 X-18.160 Y74.575 E4.33421
G1 X-18.048 Y74.575 E4.33454
G1 X-18.898 Y75.425 E4.33813
G1 X-18.785 Y75.425 E4.33847
G1 X-17.935 Y74.575 E4.34206
G1 X-17.822 Y74.575 E4.34239
G1 X-18.673 Y75.425 E4.34598
G1 X-18.560 Y75.425 E4.34632
G1 X-17.709 Y74.575 E4.34991
G1 X-17.596 Y74.575 E4.35025
G1 X-18.447 Y75.425 E4.35384
G1 X-18.334 Y75.425 E4.35417
G1 X-17.484 Y74.575 E4.35776
G1 X-17.371 Y74.575 E4.35810
G1 X-18.221 Y75.425 E4.36169
G1 X-18.109 Y75.425 E4.36202
G1 X-17.258 Y74.575 E4.36561
G1 X-17.145 Y74.575 E4.36595
G1 X-17.996 Y75.425 E4.36954
G1 X-17.883 Y75.425 E4.36988
G1 X-17.033 Y74.575 E4.37347
G1 X-16.920 Y74.575 E4.37380
G1 X-17.770 Y75.425 E4.37739
G1 X-17.658 Y75.425 E4.37773
G1 X-16.807 Y74.575 E4.38132
G1 X-16.694 Y74.575 E4.38165
G1 X-17.545 Y75.425 E4.38524
G1 X-17.432 Y75.425 E4.38558
G1 X-16.581 Y74.575 E4.38917
G1 X-16.469 Y74.575 E4.38951
G1 X-17.319 Y75.425 E4.39310
G1 X-17.206 Y75.425 E4.39343
G1 X-16.356 Y74.575 E4.39702
G1 X-16.243 Y74.575 E4.39736
G1 X-17.094 Y75.425 E4.40095
G1 X-16.981 Y75.425 E4.40128
G1 X-16.130 Y74.575 E4.40487
G1 X-16.018 Y74.575 E4.40521
G1 X-16.868 Y75.425 E4.40880
G1 X-16.755 Y75.425 E4.40914
G1 X-15.905 Y74.575 E4.41272
G1 X-15.792 Y74.575 E4.41306
G1 X-16.643 Y75.425 E4.41665
G1 X-16.530 Y75.425 E4.41699
G1 X-15.679 Y74.575 E4.42058
G1 X-15.566 Y74.575 E4.42091
G1 X-16.417 Y75.425 E4.42450
G1 X-16.304 Y75.425 E4.42484
G1 X-15.454 Y74.575 E4.42843
G1 X-15.341 Y74.575 E4.42877
G1 X-16.191 Y75.425 E4.43235
G1 X-16.079 Y75.425 E4.43269
G1 X-15.228 Y74.575 E4.43628
G1 X-15.115 Y74.575 E4.43662
G1 X-15.966 Y75.425 E4.44021
G1 X-15.853 Y75.425 E4.44054
G1 X-15.003 Y74.575 E4.44413
G1 X-14.890 Y74.575 E4.44447
G1 X-15.740 Y75.425 E4.44806
G1 X-15.628 Y75.425 E4.44839
G1 X-14.777 Y74.575 E4.45198
G1 X-14.664 Y74.575 E4.45232
G1 X-15.515 Y75.425 E4.45591
G1 X-15.402 Y75.425 E4.45625
G1 X-14.551 Y74.575 E4.45984
G1 X-14.439 Y74.575 E4.46017
G1 X-15.289 Y75.425 E4.46376
G1 X-15.176 Y75.425 E4.46410
G1 X-14.326 Y74.575 E4.46769
G1 X-14.213 Y74.575 E4.46802
G1 X-15.064 Y75.425 E4.47161
G1 X-14.951 Y75.425 E4.47195
G1 X-14.100 Y74.575 E4.47554
G1 X-13.987 Y74.575 E4.47588
G1 X-14.838 Y75.425 E4.47947
G1 X-14.725 Y75.425 E4.47980
G1 X-13.875 Y74.575 E4.48339
G1 X-13.762 Y74.575 E4.48373
G1 X-14.612 Y75.425 E4.48732
G1 X-14.500 Y75.425 E4.48765
G1 X-13.649 Y74.575 E4.49124
G1 X-13.536 Y74.575 E4.49158
G1 X-14.387 Y75.425 E4.49517
G1 X-14.274 Y75.425 E4.49551
G1 X-13.424 Y74.575 E4.49910
G1 X-13.311 Y74.575 E4.49943
G1 X-14.161 Y75.425 E4.50302
G1 X-14.049 Y75.425 E4.50336
G1 X-13.198 Y74.575 E4.50695
G1 X-13.085 Y74.575 E4.50728
G1 X-13.936 Y75.425 E4.51087
G1 X-13.823 Y75.425 E4.51121
G1 X-12.972 Y74.575 E4.51480
G1 X-12.860 Y74.575 E4.51514
G1 X-13.710 Y75.425 E4.51873
G1 X-13.597 Y75.425 E4.51906
G1 X-12.747 Y74.575 E4.52265
G1 X-12.634 Y74.575 E4.52299
G1 X-13.485 Y75.425 E4.52658
G1 X-13.372 Y75.425 E4.52691
G1 X-12.521 Y74.575 E4.53050
G1 X-12.409 Y74.575 E4.53084
