; generated by Slic3r 1.3.1-dev (Build 2ef957d) on 2019-11-25 at 09:24:37

; external perimeters extrusion width = 0.55mm (4.37mm^3/s)
; perimeters extrusion width = 0.70mm (11.44mm^3/s)
; infill extrusion width = 0.62mm (13.45mm^3/s)
; solid infill extrusion width = 0.70mm (3.81mm^3/s)
; top infill extrusion width = 0.70mm (2.86mm^3/s)

M107
G92 E0
M104 S200 ; set temperature
G28 ; home all axes
G1 Z5 F5000 ; lift nozzle

; Filament gcode

M109 S200 ; set temperature and wait for it to be reached
G21 ; set units to millimeters
G90 ; use absolute coordinates
M82 ; use absolute distances for extrusion
G92 E0
G1 Z0.350 F7800.000
G1 E-2.00000 F2400.00000
G92 E0
G1 X71.893 Y89.431 F7800.000
G1 E2.00000 F2400.00000
G1 F1800.000
G1 X72.454 Y89.024 E2.02145
G1 X73.042 Y88.642 E2.04315
G1 X73.642 Y88.295 E2.06461
G1 X74.267 Y87.976 E2.08631
G1 X74.901 Y87.694 E2.10776
G1 X75.555 Y87.443 E2.12946
G1 X76.215 Y87.229 E2.15092
G1 X76.892 Y87.047 E2.17262
G1 X77.448 Y86.924 E2.19024
G1 X96.721 Y83.500 E2.79589
G1 X97.898 Y83.313 E2.83277
G1 X98.587 Y83.240 E2.85421
G1 X99.653 Y83.184 E2.88725
G1 X100.362 Y83.184 E2.90919
G1 X101.429 Y83.240 E2.94223
G1 X102.118 Y83.313 E2.96368
G1 X103.173 Y83.480 E2.99672
G1 X122.697 Y86.951 E3.61029
G1 X123.785 Y87.229 E3.64504
G1 X124.445 Y87.443 E3.66650
G1 X125.099 Y87.694 E3.68820
G1 X125.733 Y87.976 E3.70965
G1 X126.357 Y88.295 E3.73135
G1 X126.958 Y88.641 E3.75280
G1 X127.546 Y89.023 E3.77450
G1 X128.107 Y89.431 E3.79597
G1 X128.652 Y89.872 E3.81767
G1 X129.168 Y90.336 E3.83912
G1 X129.664 Y90.832 E3.86082
G1 X130.128 Y91.348 E3.88229
G1 X130.569 Y91.893 E3.90398
G1 X130.976 Y92.453 E3.92542
G1 X131.358 Y93.042 E3.94712
G1 X131.705 Y93.642 E3.96858
G1 X132.024 Y94.267 E3.99028
G1 X132.306 Y94.901 E4.01175
G1 X132.557 Y95.556 E4.03345
G1 X132.771 Y96.215 E4.05490
G1 X132.953 Y96.892 E4.07660
G1 X133.097 Y97.571 E4.09806
G1 X133.207 Y98.263 E4.11975
G1 X133.279 Y98.953 E4.14121
G1 X133.316 Y99.653 E4.16291
G1 X133.316 Y100.347 E4.18436
G1 X133.279 Y101.047 E4.20606
G1 X133.207 Y101.737 E4.22751
G1 X133.097 Y102.429 E4.24921
G1 X132.953 Y103.108 E4.27067
G1 X132.771 Y103.785 E4.29237
G1 X132.557 Y104.444 E4.31382
G1 X132.306 Y105.099 E4.33552
G1 X132.024 Y105.733 E4.35699
G1 X131.705 Y106.358 E4.37869
G1 X131.358 Y106.958 E4.40015
G1 X130.976 Y107.547 E4.42185
G1 X130.569 Y108.107 E4.44328
G1 X130.128 Y108.652 E4.46498
G1 X129.664 Y109.168 E4.48645
G1 X129.168 Y109.664 E4.50815
G1 X128.652 Y110.128 E4.52960
G1 X128.107 Y110.569 E4.55130
G1 X127.546 Y110.977 E4.57276
G1 X126.958 Y111.359 E4.59446
G1 X126.357 Y111.705 E4.61592
G1 X125.733 Y112.024 E4.63762
G1 X125.099 Y112.306 E4.65907
G1 X124.445 Y112.557 E4.68076
G1 X123.785 Y112.771 E4.70222
G1 X122.576 Y113.073 E4.74078
G1 X103.295 Y116.500 E5.34670
G1 X102.118 Y116.687 E5.38359
G1 X101.429 Y116.760 E5.40503
G1 X100.362 Y116.816 E5.43807
G1 X99.653 Y116.816 E5.46002
G1 X98.587 Y116.760 E5.49305
G1 X97.898 Y116.687 E5.51450
G1 X96.721 Y116.500 E5.55138
G1 X77.448 Y113.076 E6.15702
G1 X76.892 Y112.953 E6.17464
G1 X76.215 Y112.771 E6.19634
G1 X75.555 Y112.557 E6.21780
G1 X74.901 Y112.306 E6.23950
G1 X74.267 Y112.024 E6.26095
G1 X73.642 Y111.705 E6.28265
G1 X73.042 Y111.358 E6.30411
G1 X72.454 Y110.976 E6.32581
G1 X71.893 Y110.569 E6.34726
G1 X71.348 Y110.128 E6.36896
G1 X70.832 Y109.664 E6.39042
G1 X70.336 Y109.168 E6.41212
G1 X69.872 Y108.652 E6.43357
G1 X69.431 Y108.107 E6.45527
G1 X69.024 Y107.546 E6.47673
G1 X68.642 Y106.958 E6.49843
G1 X68.295 Y106.358 E6.51989
G1 X67.976 Y105.733 E6.54159
G1 X67.694 Y105.099 E6.56304
G1 X67.443 Y104.445 E6.58474
G1 X67.229 Y103.785 E6.60620
G1 X67.047 Y103.108 E6.62789
G1 X66.903 Y102.429 E6.64935
G1 X66.793 Y101.737 E6.67105
G1 X66.721 Y101.047 E6.69251
G1 X66.684 Y100.347 E6.71421
G1 X66.684 Y99.653 E6.73566
G1 X66.721 Y98.953 E6.75736
G1 X66.793 Y98.263 E6.77882
G1 X66.903 Y97.571 E6.80052
G1 X67.047 Y96.892 E6.82197
G1 X67.229 Y96.215 E6.84367
G1 X67.443 Y95.555 E6.86513
G1 X67.694 Y94.901 E6.88683
G1 X67.976 Y94.267 E6.90828
G1 X68.295 Y93.642 E6.92998
G1 X68.642 Y93.042 E6.95144
G1 X69.024 Y92.454 E6.97314
G1 X69.431 Y91.893 E6.99459
G1 X69.872 Y91.348 E7.01629
G1 X70.336 Y90.832 E7.03775
G1 X70.832 Y90.336 E7.05945
G1 X71.348 Y89.872 E7.08090
G1 X71.834 Y89.478 E7.10028
G1 E5.10028 F2400.00000
G92 E0
G1 X120.990 Y103.046 F7800.000
G1 E2.00000 F2400.00000
G1 F1800.000
G1 X120.600 Y103.146 E2.01245
G1 X120.201 Y103.197 E2.02489
G1 X119.799 Y103.197 E2.03734
G1 X119.400 Y103.146 E2.04978
G1 X119.010 Y103.046 E2.06223
G1 X118.636 Y102.898 E2.07467
G1 X118.284 Y102.704 E2.08711
G1 X117.958 Y102.468 E2.09956
G1 X117.665 Y102.192 E2.11202
G1 X117.409 Y101.883 E2.12446
G1 X117.193 Y101.543 E2.13690
G1 X117.022 Y101.179 E2.14935
G1 X116.898 Y100.797 E2.16178
G1 X116.822 Y100.402 E2.17423
G1 X116.797 Y100.000 E2.18668
G1 X116.822 Y99.598 E2.19913
G1 X116.898 Y99.203 E2.21158
G1 X117.022 Y98.821 E2.22401
G1 X117.193 Y98.457 E2.23646
G1 X117.409 Y98.117 E2.24891
G1 X117.665 Y97.808 E2.26135
G1 X117.958 Y97.532 E2.27381
G1 X118.284 Y97.296 E2.28625
G1 X118.636 Y97.102 E2.29869
G1 X119.010 Y96.954 E2.31114
G1 X119.400 Y96.854 E2.32358
G1 X119.799 Y96.803 E2.33603
G1 X120.201 Y96.803 E2.34848
G1 X120.600 Y96.854 E2.36092
G1 X120.990 Y96.954 E2.37337
G1 X121.364 Y97.102 E2.38581
G1 X121.716 Y97.296 E2.39825
G1 X122.042 Y97.532 E2.41070
G1 X122.335 Y97.808 E2.42315
G1 X122.591 Y98.117 E2.43560
G1 X122.807 Y98.457 E2.44804
G1 X122.978 Y98.821 E2.46049
G1 X123.102 Y99.203 E2.47292
G1 X123.178 Y99.598 E2.48537
G1 X123.203 Y100.000 E2.49782
G1 X123.178 Y100.402 E2.51027
G1 X123.102 Y100.797 E2.52272
G1 X122.978 Y101.179 E2.53515
G1 X122.807 Y101.543 E2.54760
G1 X122.591 Y101.883 E2.56004
G1 X122.335 Y102.192 E2.57249
G1 X122.042 Y102.468 E2.58494
G1 X121.716 Y102.704 E2.59739
G1 X121.364 Y102.898 E2.60983
G1 X121.060 Y103.019 E2.61995
G1 X120.796 Y102.451 F7800.000
G1 F1800.000
G1 X120.483 Y102.531 E2.62996
G1 X120.162 Y102.572 E2.63998
G1 X119.838 Y102.572 E2.64999
G1 X119.517 Y102.531 E2.66000
G1 X119.204 Y102.451 E2.67002
G1 X118.903 Y102.332 E2.68003
G1 X118.619 Y102.176 E2.69004
G1 X118.358 Y101.986 E2.70005
G1 X118.121 Y101.764 E2.71007
G1 X117.915 Y101.515 E2.72008
G1 X117.742 Y101.241 E2.73009
G1 X117.604 Y100.948 E2.74011
G1 X117.504 Y100.641 E2.75011
G1 X117.443 Y100.323 E2.76013
G1 X117.423 Y100.000 E2.77014
G1 X117.443 Y99.677 E2.78016
G1 X117.504 Y99.359 E2.79017
G1 X117.604 Y99.052 E2.80018
G1 X117.742 Y98.759 E2.81019
G1 X117.915 Y98.485 E2.82020
G1 X118.121 Y98.236 E2.83021
G1 X118.358 Y98.014 E2.84023
G1 X118.619 Y97.824 E2.85024
G1 X118.903 Y97.668 E2.86026
G1 X119.204 Y97.549 E2.87027
G1 X119.517 Y97.469 E2.88028
G1 X119.838 Y97.428 E2.89029
G1 X120.162 Y97.428 E2.90031
G1 X120.483 Y97.469 E2.91032
G1 X120.796 Y97.549 E2.92033
G1 X121.097 Y97.668 E2.93034
G1 X121.381 Y97.824 E2.94035
G1 X121.642 Y98.014 E2.95036
G1 X121.879 Y98.236 E2.96038
G1 X122.085 Y98.485 E2.97039
G1 X122.258 Y98.759 E2.98041
G1 X122.396 Y99.051 E2.99042
G1 X122.496 Y99.359 E3.00043
G1 X122.557 Y99.677 E3.01044
G1 X122.577 Y100.000 E3.02046
G1 X122.557 Y100.323 E3.03047
G1 X122.496 Y100.641 E3.04048
G1 X122.396 Y100.949 E3.05049
G1 X122.258 Y101.241 E3.06050
G1 X122.085 Y101.515 E3.07052
G1 X121.879 Y101.764 E3.08053
G1 X121.642 Y101.986 E3.09055
G1 X121.381 Y102.176 E3.10056
G1 X121.097 Y102.332 E3.11057
G1 X120.866 Y102.423 E3.11826
G1 X120.603 Y101.855 F7800.000
G1 F1800.000
G1 X120.366 Y101.916 E3.12584
G1 X120.123 Y101.947 E3.13342
G1 X119.877 Y101.947 E3.14100
G1 X119.634 Y101.916 E3.14858
G1 X119.397 Y101.855 E3.15616
G1 X119.169 Y101.765 E3.16374
G1 X118.955 Y101.647 E3.17132
G1 X118.757 Y101.503 E3.17890
G1 X118.578 Y101.335 E3.18648
G1 X118.422 Y101.147 E3.19406
G1 X118.291 Y100.940 E3.20164
G1 X118.186 Y100.718 E3.20922
G1 X118.111 Y100.485 E3.21679
G1 X118.065 Y100.245 E3.22437
G1 X118.049 Y100.000 E3.23195
G1 X118.065 Y99.755 E3.23953
G1 X118.111 Y99.515 E3.24712
G1 X118.186 Y99.282 E3.25469
G1 X118.291 Y99.060 E3.26227
G1 X118.422 Y98.853 E3.26985
G1 X118.578 Y98.665 E3.27743
G1 X118.757 Y98.497 E3.28501
G1 X118.955 Y98.353 E3.29259
G1 X119.169 Y98.235 E3.30017
G1 X119.397 Y98.145 E3.30775
G1 X119.634 Y98.084 E3.31533
G1 X119.877 Y98.053 E3.32291
G1 X120.123 Y98.053 E3.33049
G1 X120.366 Y98.084 E3.33807
G1 X120.603 Y98.145 E3.34565
G1 X120.831 Y98.235 E3.35323
G1 X121.045 Y98.353 E3.36081
G1 X121.243 Y98.497 E3.36839
G1 X121.422 Y98.665 E3.37597
G1 X121.578 Y98.853 E3.38355
G1 X121.709 Y99.060 E3.39113
G1 X121.814 Y99.282 E3.39871
G1 X121.889 Y99.515 E3.40628
G1 X121.935 Y99.755 E3.41387
G1 X121.951 Y100.000 E3.42145
G1 X121.935 Y100.245 E3.42903
G1 X121.889 Y100.485 E3.43661
G1 X121.814 Y100.718 E3.44418
G1 X121.709 Y100.940 E3.45176
G1 X121.578 Y101.147 E3.45934
G1 X121.422 Y101.335 E3.46692
G1 X121.243 Y101.503 E3.47450
G1 X121.045 Y101.647 E3.48209
G1 X120.831 Y101.765 E3.48966
G1 X120.673 Y101.828 E3.49492
G1 X120.603 Y101.855 F7800.000
G1 E1.49492 F2400.00000
G92 E0
G1 X83.203 Y100.000 F7800.000
G1 E2.00000 F2400.00000
G1 F1800.000
G1 X83.178 Y100.401 E2.01245
G1 X83.100 Y100.808 E2.02524
G1 X82.899 Y101.397 E2.04451
G1 X82.591 Y101.883 E2.06230
G1 X82.335 Y102.193 E2.07475
G1 X82.042 Y102.468 E2.08719
G1 X81.716 Y102.704 E2.09964
G1 X81.364 Y102.898 E2.11208
G1 X80.990 Y103.046 E2.12453
G1 X80.600 Y103.146 E2.13698
G1 X80.201 Y103.197 E2.14942
G1 X79.799 Y103.197 E2.16187
G1 X79.400 Y103.146 E2.17431
G1 X79.010 Y103.046 E2.18676
G1 X78.636 Y102.898 E2.19920
G1 X78.284 Y102.704 E2.21165
G1 X77.958 Y102.468 E2.22409
G1 X77.665 Y102.193 E2.23654
G1 X77.409 Y101.883 E2.24898
G1 X77.193 Y101.543 E2.26143
G1 X77.022 Y101.179 E2.27388
G1 X76.898 Y100.797 E2.28632
G1 X76.822 Y100.401 E2.29877
G1 X76.797 Y100.000 E2.31121
G1 X76.822 Y99.599 E2.32366
G1 X76.898 Y99.203 E2.33610
G1 X77.022 Y98.821 E2.34855
G1 X77.193 Y98.457 E2.36099
G1 X77.409 Y98.117 E2.37344
G1 X77.665 Y97.807 E2.38588
G1 X77.958 Y97.532 E2.39833
G1 X78.284 Y97.296 E2.41078
G1 X78.636 Y97.102 E2.42322
G1 X79.010 Y96.954 E2.43567
G1 X79.400 Y96.854 E2.44811
G1 X79.799 Y96.803 E2.46056
G1 X80.201 Y96.803 E2.47300
G1 X80.600 Y96.854 E2.48545
G1 X80.990 Y96.954 E2.49789
G1 X81.364 Y97.102 E2.51034
G1 X81.716 Y97.296 E2.52278
G1 X82.042 Y97.532 E2.53523
G1 X82.335 Y97.807 E2.54768
G1 X82.591 Y98.117 E2.56012
G1 X82.807 Y98.457 E2.57257
G1 X82.978 Y98.821 E2.58501
G1 X83.102 Y99.203 E2.59746
G1 X83.178 Y99.599 E2.60990
G1 X83.198 Y99.925 E2.62003
G1 X82.577 Y100.000 F7800.000
G1 F1800.000
G1 X82.556 Y100.323 E2.63004
G1 X82.495 Y100.648 E2.64027
G1 X82.332 Y101.125 E2.65587
G1 X82.085 Y101.515 E2.67015
G1 X81.878 Y101.764 E2.68016
G1 X81.643 Y101.985 E2.69017
G1 X81.381 Y102.176 E2.70019
G1 X81.097 Y102.332 E2.71020
G1 X80.796 Y102.451 E2.72021
G1 X80.483 Y102.531 E2.73022
G1 X80.162 Y102.572 E2.74024
G1 X79.838 Y102.572 E2.75025
G1 X79.517 Y102.531 E2.76026
G1 X79.204 Y102.451 E2.77027
G1 X78.903 Y102.332 E2.78029
G1 X78.619 Y102.176 E2.79030
G1 X78.357 Y101.985 E2.80031
G1 X78.122 Y101.764 E2.81033
G1 X77.915 Y101.515 E2.82034
G1 X77.742 Y101.241 E2.83035
G1 X77.604 Y100.949 E2.84036
G1 X77.504 Y100.641 E2.85038
G1 X77.444 Y100.323 E2.86039
G1 X77.423 Y100.000 E2.87040
G1 X77.444 Y99.677 E2.88041
G1 X77.504 Y99.359 E2.89043
G1 X77.604 Y99.051 E2.90044
G1 X77.742 Y98.759 E2.91045
G1 X77.915 Y98.485 E2.92046
G1 X78.122 Y98.236 E2.93048
G1 X78.357 Y98.015 E2.94049
G1 X78.619 Y97.824 E2.95050
G1 X78.903 Y97.668 E2.96051
G1 X79.204 Y97.549 E2.97053
G1 X79.517 Y97.469 E2.98054
G1 X79.838 Y97.428 E2.99055
G1 X80.162 Y97.428 E3.00056
G1 X80.483 Y97.469 E3.01058
G1 X80.796 Y97.549 E3.02059
G1 X81.097 Y97.668 E3.03060
G1 X81.381 Y97.824 E3.04061
G1 X81.643 Y98.015 E3.05063
G1 X81.878 Y98.236 E3.06064
G1 X82.085 Y98.485 E3.07065
G1 X82.258 Y98.759 E3.08066
G1 X82.396 Y99.051 E3.09068
G1 X82.496 Y99.359 E3.10069
G1 X82.556 Y99.677 E3.11070
G1 X82.572 Y99.925 E3.11839
G1 X81.951 Y100.000 F7800.000
G1 F1800.000
G1 X81.935 Y100.244 E3.12597
G1 X81.889 Y100.488 E3.13363
G1 X81.764 Y100.853 E3.14558
G1 X81.578 Y101.147 E3.15633
G1 X81.422 Y101.335 E3.16391
G1 X81.243 Y101.503 E3.17149
G1 X81.045 Y101.647 E3.17907
G1 X80.831 Y101.765 E3.18665
G1 X80.603 Y101.855 E3.19423
G1 X80.366 Y101.916 E3.20181
G1 X80.122 Y101.947 E3.20939
G1 X79.878 Y101.947 E3.21697
G1 X79.634 Y101.916 E3.22455
G1 X79.397 Y101.855 E3.23213
G1 X79.169 Y101.765 E3.23971
G1 X78.955 Y101.647 E3.24729
G1 X78.757 Y101.503 E3.25487
G1 X78.578 Y101.335 E3.26245
G1 X78.422 Y101.147 E3.27003
G1 X78.291 Y100.940 E3.27761
G1 X78.186 Y100.718 E3.28519
G1 X78.111 Y100.485 E3.29277
G1 X78.065 Y100.244 E3.30035
G1 X78.049 Y100.000 E3.30793
G1 X78.065 Y99.756 E3.31551
G1 X78.111 Y99.515 E3.32309
G1 X78.186 Y99.282 E3.33067
G1 X78.291 Y99.060 E3.33825
G1 X78.422 Y98.853 E3.34583
G1 X78.578 Y98.665 E3.35341
G1 X78.757 Y98.497 E3.36099
G1 X78.955 Y98.353 E3.36857
G1 X79.169 Y98.235 E3.37614
G1 X79.397 Y98.145 E3.38372
G1 X79.634 Y98.084 E3.39130
G1 X79.878 Y98.053 E3.39888
G1 X80.122 Y98.053 E3.40646
G1 X80.366 Y98.084 E3.41404
G1 X80.603 Y98.145 E3.42162
G1 X80.831 Y98.235 E3.42920
G1 X81.045 Y98.353 E3.43678
G1 X81.243 Y98.497 E3.44436
G1 X81.422 Y98.665 E3.45194
G1 X81.578 Y98.853 E3.45952
G1 X81.709 Y99.060 E3.46710
G1 X81.814 Y99.282 E3.47468
G1 X81.889 Y99.515 E3.48226
G1 X81.935 Y99.756 E3.48984
G1 X81.946 Y99.925 E3.49510
G1 X81.951 Y100.000 F7800.000
G1 E1.49510 F2400.00000
G92 E0
G1 X81.000 Y94.646 F7800.000
G1 E2.00000 F2400.00000
G1 F1800.000
G1 X98.144 Y91.601 E2.53878
G1 X99.101 Y91.449 E2.56876
G1 X100.001 Y91.402 E2.59663
G1 X100.915 Y91.449 E2.62496
G1 X101.872 Y91.601 E2.65493
G1 X120.932 Y94.987 E3.25392
G1 X121.582 Y95.154 E3.27470
G1 X122.074 Y95.343 E3.29097
G1 X122.549 Y95.585 E3.30748
G1 X122.997 Y95.876 E3.32399
G1 X123.411 Y96.211 E3.34050
G1 X123.789 Y96.589 E3.35701
G1 X124.124 Y97.003 E3.37353
G1 X124.415 Y97.451 E3.39004
G1 X124.657 Y97.926 E3.40655
G1 X124.849 Y98.425 E3.42306
G1 X124.987 Y98.940 E3.43957
G1 X125.070 Y99.467 E3.45608
G1 X125.098 Y100.000 E3.47259
G1 X125.070 Y100.533 E3.48910
G1 X124.987 Y101.060 E3.50561
G1 X124.849 Y101.575 E3.52212
G1 X124.657 Y102.074 E3.53863
G1 X124.415 Y102.549 E3.55514
G1 X124.124 Y102.997 E3.57166
G1 X123.789 Y103.411 E3.58817
G1 X123.411 Y103.789 E3.60468
G1 X122.997 Y104.124 E3.62119
G1 X122.549 Y104.415 E3.63770
G1 X122.074 Y104.657 E3.65421
G1 X121.575 Y104.849 E3.67072
G1 X121.045 Y104.991 E3.68770
G1 X101.872 Y108.399 E4.29027
G1 X100.915 Y108.551 E4.32023
G1 X100.001 Y108.598 E4.34856
G1 X99.101 Y108.551 E4.37643
G1 X98.144 Y108.399 E4.40641
G1 X78.955 Y104.991 E5.00946
G1 X78.425 Y104.849 E5.02643
G1 X77.926 Y104.657 E5.04294
G1 X77.451 Y104.415 E5.05945
G1 X77.003 Y104.124 E5.07597
G1 X76.589 Y103.789 E5.09248
G1 X76.211 Y103.411 E5.10899
G1 X75.876 Y102.997 E5.12550
G1 X75.585 Y102.549 E5.14201
G1 X75.343 Y102.074 E5.15852
G1 X75.151 Y101.575 E5.17503
G1 X75.013 Y101.060 E5.19154
G1 X74.930 Y100.533 E5.20805
G1 X74.902 Y100.000 E5.22456
G1 X74.930 Y99.467 E5.24107
G1 X75.013 Y98.940 E5.25759
G1 X75.151 Y98.425 E5.27410
G1 X75.343 Y97.926 E5.29061
G1 X75.585 Y97.451 E5.30712
G1 X75.876 Y97.003 E5.32363
G1 X76.211 Y96.589 E5.34014
G1 X76.589 Y96.211 E5.35665
G1 X77.003 Y95.876 E5.37316
G1 X77.451 Y95.585 E5.38967
G1 X77.926 Y95.343 E5.40618
G1 X78.425 Y95.151 E5.42269
G1 X78.955 Y95.009 E5.43967
G1 X80.926 Y94.659 E5.50162
G1 X80.890 Y94.031 F7800.000
G1 F1800.000
G1 X98.041 Y90.984 E6.04058
G1 X99.036 Y90.827 E6.07175
G1 X100.000 Y90.776 E6.10164
G1 X100.980 Y90.827 E6.13200
G1 X101.975 Y90.984 E6.16317
G1 X121.065 Y94.376 E6.76308
G1 X121.773 Y94.558 E6.78570
G1 X122.328 Y94.771 E6.80410
G1 X122.862 Y95.043 E6.82263
G1 X123.364 Y95.369 E6.84117
G1 X123.830 Y95.746 E6.85971
G1 X124.254 Y96.170 E6.87825
G1 X124.631 Y96.636 E6.89678
G1 X124.957 Y97.138 E6.91532
G1 X125.229 Y97.672 E6.93386
G1 X125.444 Y98.231 E6.95240
G1 X125.599 Y98.810 E6.97093
G1 X125.692 Y99.402 E6.98947
G1 X125.724 Y100.000 E7.00801
G1 X125.692 Y100.598 E7.02655
G1 X125.599 Y101.190 E7.04508
G1 X125.444 Y101.769 E7.06362
