; generated by Slic3r 1.3.1-dev (Build 2ef957d) on 2019-11-25 at 15:45:24

; external perimeters extrusion width = 0.55mm (4.37mm^3/s)
; perimeters extrusion width = 0.70mm (11.44mm^3/s)
; infill extrusion width = 0.62mm (13.45mm^3/s)
; solid infill extrusion width = 0.70mm (3.81mm^3/s)
; top infill extrusion width = 0.70mm (2.86mm^3/s)

M107
G92 E0
M104 S200 ; set temperature
G28 ; home all axes
G1 Z5 F5000 ; lift nozzle

; Filament gcode

M109 S200 ; set temperature and wait for it to be reached
G21 ; set units to millimeters
G90 ; use absolute coordinates
M82 ; use absolute distances for extrusion
G92 E0
G1 Z0.350 F7800.000
G1 E-2.00000 F2400.00000
G92 E0
G1 X23.194 Y25.366 F7800.000
G1 E2.00000 F2400.00000
G1 F1800.000
G1 X25.366 Y23.194 E2.09502
G1 X26.099 Y22.744 E2.12164
G1 X28.569 Y21.837 E2.20306
G1 X29.566 Y21.685 E2.23428
G1 X31.328 Y21.653 E2.28879
G1 X32.587 Y21.798 E2.32801
G1 X33.682 Y22.020 E2.36256
G1 X35.198 Y22.462 E2.41144
G1 X35.893 Y22.708 E2.43425
G1 X37.661 Y23.445 E2.49352
G1 X38.129 Y23.662 E2.50949
G1 X40.475 Y24.875 E2.59121
G1 X42.973 Y26.349 E2.68095
G1 X45.446 Y27.953 E2.77214
G1 X48.490 Y30.082 E2.88707
G1 X51.513 Y32.339 E3.00381
G1 X54.596 Y34.759 E3.12508
G1 X57.969 Y37.526 E3.26007
G1 X61.576 Y40.604 E3.40679
G1 X65.229 Y43.830 E3.55757
G1 X68.980 Y47.246 E3.71454
G1 X72.905 Y50.918 E3.88085
G1 X76.903 Y54.754 E4.05229
G1 X80.942 Y58.716 E4.22733
G1 X85.107 Y62.886 E4.40972
G1 X89.333 Y67.196 E4.59647
G1 X93.639 Y71.663 E4.78845
G1 X97.938 Y76.192 E4.98167
G1 X102.255 Y80.803 E5.17710
G1 X106.574 Y85.477 E5.37402
G1 X110.913 Y90.226 E5.57307
G1 X115.165 Y94.929 E5.76922
G1 X119.407 Y99.666 E5.96599
G1 X123.595 Y104.385 E6.16119
G1 X131.735 Y113.665 E6.54314
G1 X135.690 Y118.222 E6.72982
G1 X143.222 Y126.986 E7.08737
G1 X150.194 Y135.197 E7.42068
G1 X156.530 Y142.739 E7.72545
G1 X162.138 Y149.484 E7.99687
G1 X168.987 Y157.813 E8.33052
G1 X173.790 Y163.721 E8.56612
G1 X176.931 Y167.617 E8.72097
G1 X178.036 Y169.627 E8.79193
G1 X178.390 Y171.893 E8.86290
G1 X177.950 Y174.144 E8.93386
G1 X176.768 Y176.110 E9.00482
G1 X174.987 Y177.555 E9.07578
G1 X172.821 Y178.307 E9.14675
G1 X170.527 Y178.274 E9.21771
G1 X167.617 Y176.931 E9.31687
G1 X160.069 Y170.827 E9.61724
G1 X152.496 Y164.626 E9.92010
G1 X146.197 Y159.413 E10.17308
G1 X139.042 Y153.433 E10.46162
G1 X131.139 Y146.759 E10.78167
G1 X122.640 Y139.499 E11.12751
G1 X113.682 Y131.750 E11.49400
G1 X109.063 Y127.714 E11.68378
G1 X104.385 Y123.595 E11.87665
G1 X99.666 Y119.407 E12.07185
G1 X94.929 Y115.165 E12.26863
G1 X90.192 Y110.882 E12.46621
G1 X85.447 Y106.546 E12.66510
G1 X80.803 Y102.255 E12.86074
G1 X76.192 Y97.938 E13.05618
G1 X71.663 Y93.639 E13.24939
G1 X67.236 Y89.372 E13.43964
G1 X62.930 Y85.151 E13.62622
G1 X58.763 Y80.990 E13.80841
G1 X54.754 Y76.903 E13.98555
G1 X50.862 Y72.845 E14.15953
G1 X47.272 Y69.009 E14.32210
G1 X43.824 Y65.222 E14.48056
G1 X40.604 Y61.576 E14.63105
G1 X37.526 Y57.969 E14.77777
G1 X34.849 Y54.708 E14.90832
G1 X32.339 Y51.513 E15.03403
G1 X30.082 Y48.490 E15.15077
G1 X27.953 Y45.446 E15.26570
G1 X26.349 Y42.973 E15.35689
G1 X24.875 Y40.475 E15.44663
G1 X23.662 Y38.129 E15.52835
G1 X23.445 Y37.661 E15.54433
G1 X22.708 Y35.893 E15.60359
G1 X22.462 Y35.198 E15.62640
G1 X22.020 Y33.682 E15.67528
G1 X21.798 Y32.587 E15.70984
G1 X21.653 Y31.328 E15.74906
G1 X21.685 Y29.566 E15.80357
G1 X21.837 Y28.569 E15.83479
G1 X22.744 Y26.099 E15.91620
G1 X23.155 Y25.430 E15.94050
G1 E13.94050 F2400.00000
G92 E0
G1 X120.993 Y121.437 F7800.000
G1 E2.00000 F2400.00000
G1 F1800.000
G1 X121.473 Y120.957 E2.02101
G1 X122.102 Y120.586 E2.04360
G1 X122.754 Y120.396 E2.06461
G1 X123.218 Y120.352 E2.07903
G1 X123.894 Y120.416 E2.10005
G1 X124.533 Y120.646 E2.12106
G1 X124.934 Y120.883 E2.13546
G1 X125.405 Y121.299 E2.15491
G1 X125.690 Y121.667 E2.16932
G1 X125.976 Y122.227 E2.18876
G1 X126.106 Y122.674 E2.20317
G1 X126.165 Y123.299 E2.22261
G1 X126.126 Y123.713 E2.23546
G1 X126.035 Y124.118 E2.24830
G1 X125.765 Y124.741 E2.26932
G1 X125.318 Y125.318 E2.29190
G1 X124.741 Y125.765 E2.31449
G1 X124.118 Y126.035 E2.33551
G1 X123.713 Y126.126 E2.34835
G1 X123.299 Y126.165 E2.36120
G1 X122.674 Y126.106 E2.38063
G1 X122.227 Y125.976 E2.39505
G1 X121.667 Y125.690 E2.41449
G1 X121.299 Y125.405 E2.42889
G1 X120.883 Y124.934 E2.44834
G1 X120.646 Y124.533 E2.46275
G1 X120.416 Y123.894 E2.48376
G1 X120.352 Y123.218 E2.50478
G1 X120.391 Y122.804 E2.51763
G1 X120.482 Y122.399 E2.53047
G1 X120.731 Y121.823 E2.54991
G1 X120.951 Y121.499 E2.56200
G1 X121.477 Y121.838 F7800.000
G1 F1800.000
G1 X121.859 Y121.455 E2.57874
G1 X122.352 Y121.164 E2.59645
G1 X122.872 Y121.013 E2.61319
G1 X123.218 Y120.980 E2.62395
G1 X123.757 Y121.031 E2.64069
G1 X124.266 Y121.214 E2.65744
G1 X124.565 Y121.391 E2.66819
G1 X124.948 Y121.729 E2.68398
G1 X125.161 Y122.003 E2.69473
G1 X125.392 Y122.458 E2.71052
G1 X125.489 Y122.792 E2.72127
G1 X125.537 Y123.299 E2.73706
G1 X125.507 Y123.615 E2.74686
G1 X125.438 Y123.924 E2.75666
G1 X125.223 Y124.421 E2.77341
G1 X124.873 Y124.873 E2.79111
G1 X124.421 Y125.223 E2.80881
G1 X123.924 Y125.438 E2.82556
G1 X123.615 Y125.507 E2.83535
G1 X123.299 Y125.537 E2.84516
G1 X122.792 Y125.489 E2.86094
G1 X122.458 Y125.392 E2.87170
G1 X122.003 Y125.161 E2.88748
G1 X121.729 Y124.948 E2.89823
G1 X121.391 Y124.565 E2.91403
G1 X121.214 Y124.266 E2.92477
G1 X121.031 Y123.757 E2.94152
G1 X120.980 Y123.218 E2.95827
G1 X121.010 Y122.902 E2.96807
G1 X121.079 Y122.593 E2.97787
G1 X121.281 Y122.125 E2.99365
G1 X121.435 Y121.900 E3.00209
G1 X121.960 Y122.238 F7800.000
G1 F1800.000
G1 X122.246 Y121.953 E3.01456
G1 X122.602 Y121.742 E3.02738
G1 X122.989 Y121.629 E3.03985
G1 X123.218 Y121.608 E3.04695
G1 X123.619 Y121.646 E3.05943
G1 X123.998 Y121.782 E3.07190
G1 X124.196 Y121.899 E3.07900
G1 X124.490 Y122.158 E3.09113
G1 X124.631 Y122.339 E3.09823
G1 X124.809 Y122.689 E3.11036
G1 X124.873 Y122.909 E3.11746
G1 X124.909 Y123.299 E3.12959
G1 X124.889 Y123.517 E3.13635
G1 X124.841 Y123.730 E3.14310
G1 X124.681 Y124.100 E3.15558
G1 X124.427 Y124.427 E3.16840
G1 X124.100 Y124.681 E3.18121
G1 X123.730 Y124.841 E3.19369
G1 X123.517 Y124.889 E3.20044
G1 X123.299 Y124.909 E3.20720
G1 X122.909 Y124.873 E3.21933
G1 X122.689 Y124.809 E3.22643
G1 X122.339 Y124.631 E3.23856
G1 X122.158 Y124.490 E3.24566
G1 X121.899 Y124.196 E3.25779
G1 X121.782 Y123.998 E3.26489
G1 X121.646 Y123.619 E3.27736
G1 X121.608 Y123.218 E3.28984
G1 X121.628 Y123.000 E3.29660
G1 X121.676 Y122.787 E3.30335
G1 X121.831 Y122.427 E3.31548
G1 X121.918 Y122.300 E3.32026
G1 X121.960 Y122.238 F7800.000
G1 E1.32026 F2400.00000
G92 E0
G1 X159.450 Y159.690 F7800.000
G1 E2.00000 F2400.00000
G1 F1800.000
G1 X148.001 Y150.208 E2.45997
G1 X140.490 Y143.899 E2.76348
G1 X132.299 Y136.943 E3.09596
G1 X123.571 Y129.442 E3.45205
G1 X114.476 Y121.522 E3.82520
G1 X109.822 Y117.424 E4.01707
G1 X105.129 Y113.259 E4.21124
G1 X100.418 Y109.040 E4.40688
G1 X95.711 Y104.784 E4.60324
G1 X91.026 Y100.503 E4.79960
G1 X86.389 Y96.218 E4.99495
G1 X81.817 Y91.938 E5.18876
G1 X77.330 Y87.678 E5.38018
G1 X72.949 Y83.455 E5.56846
G1 X68.693 Y79.283 E5.75287
G1 X64.581 Y75.176 E5.93268
G1 X60.631 Y71.150 E6.10719
G1 X56.861 Y67.219 E6.27574
G1 X53.285 Y63.397 E6.43766
G1 X49.914 Y59.694 E6.59261
G1 X46.778 Y56.143 E6.73920
G1 X43.874 Y52.739 E6.87765
G1 X41.217 Y49.503 E7.00718
G1 X38.820 Y46.450 E7.12730
G1 X36.691 Y43.593 E7.23754
G1 X34.838 Y40.948 E7.33746
G1 X33.270 Y38.529 E7.42667
G1 X31.992 Y36.352 E7.50476
G1 X31.012 Y34.437 E7.57133
G1 X30.333 Y32.809 E7.62590
G1 X29.953 Y31.508 E7.66783
G1 X29.848 Y30.597 E7.69622
G1 X29.919 Y30.132 E7.71077
G1 X30.000 Y30.000 E7.71557
G1 X30.132 Y29.919 E7.72037
G1 X30.597 Y29.848 E7.73492
G1 X31.508 Y29.953 E7.76331
G1 X32.809 Y30.333 E7.80523
G1 X34.437 Y31.012 E7.85981
G1 X36.352 Y31.992 E7.92638
G1 X38.529 Y33.270 E8.00447
G1 X40.948 Y34.838 E8.09368
G1 X43.593 Y36.691 E8.19360
G1 X46.450 Y38.820 E8.30384
G1 X49.503 Y41.217 E8.42396
G1 X52.739 Y43.874 E8.55349
G1 X56.143 Y46.778 E8.69194
G1 X59.700 Y49.920 E8.83879
G1 X63.434 Y53.319 E8.99504
G1 X67.219 Y56.861 E9.15540
G1 X71.150 Y60.631 E9.32395
G1 X75.176 Y64.581 E9.49846
G1 X79.283 Y68.693 E9.67827
G1 X83.455 Y72.949 E9.86268
G1 X87.678 Y77.330 E10.05096
G1 X91.938 Y81.817 E10.24238
G1 X96.218 Y86.389 E10.43619
G1 X100.505 Y91.028 E10.63162
G1 X104.815 Y95.745 E10.82934
G1 X109.040 Y100.418 E11.02426
G1 X113.259 Y105.129 E11.21990
G1 X117.423 Y109.821 E11.41403
G1 X125.541 Y119.076 E11.79493
G1 X129.461 Y123.593 E11.97999
G1 X136.963 Y132.321 E12.33608
G1 X140.513 Y136.490 E12.50551
G1 X147.156 Y144.357 E12.82411
G1 X153.108 Y151.479 E13.11130
G1 X158.284 Y157.733 E13.36247
G1 X159.690 Y159.450 E13.43114
G1 X159.503 Y159.637 E13.43932
G1 E11.43932 F2400.00000
G92 E0
G1 X163.908 Y164.148 F7800.000
G1 E2.00000 F2400.00000
G1 F1800.000
G1 X157.322 Y158.755 E2.26339
G1 X147.600 Y150.688 E2.65427
G1 X140.086 Y144.377 E2.95789
G1 X131.893 Y137.418 E3.29049
G1 X123.162 Y129.915 E3.64669
G1 X114.065 Y121.992 E4.01996
G1 X109.408 Y117.893 E4.21192
G1 X104.713 Y113.725 E4.40617
G1 X100.000 Y109.505 E4.60190
G1 X95.291 Y105.247 E4.79836
G1 X90.603 Y100.964 E4.99483
G1 X85.964 Y96.676 E5.19029
G1 X81.388 Y92.392 E5.38423
G1 X76.898 Y88.130 E5.57579
G1 X72.513 Y83.903 E5.76423
G1 X68.253 Y79.727 E5.94881
G1 X64.137 Y75.616 E6.12881
G1 X60.183 Y71.585 E6.30353
G1 X56.407 Y67.648 E6.47230
G1 X52.826 Y63.821 E6.63448
G1 X49.449 Y60.111 E6.78970
G1 X46.306 Y56.552 E6.93660
G1 X43.394 Y53.140 E7.07540
G1 X40.730 Y49.894 E7.20533
G1 X38.324 Y46.829 E7.32590
G1 X36.184 Y43.959 E7.43666
G1 X34.320 Y41.297 E7.53722
G1 X32.738 Y38.857 E7.62720
G1 X31.444 Y36.653 E7.70628
G1 X30.444 Y34.700 E7.77416
G1 X29.742 Y33.018 E7.83057
G1 X29.338 Y31.633 E7.87521
G1 X29.217 Y30.585 E7.90783
G1 X29.320 Y29.912 E7.92889
G1 X29.546 Y29.546 E7.94221
G1 X29.912 Y29.320 E7.95553
G1 X30.585 Y29.217 E7.97660
G1 X31.633 Y29.338 E8.00922
G1 X33.018 Y29.742 E8.05386
G1 X34.700 Y30.444 E8.11026
G1 X36.653 Y31.444 E8.17814
G1 X38.857 Y32.738 E8.25722
G1 X41.297 Y34.320 E8.34720
G1 X43.959 Y36.184 E8.44776
G1 X46.829 Y38.324 E8.55853
G1 X49.894 Y40.730 E8.67909
G1 X53.140 Y43.394 E8.80902
G1 X56.552 Y46.306 E8.94782
G1 X60.118 Y49.454 E9.09498
G1 X63.858 Y52.860 E9.25151
G1 X67.648 Y56.407 E9.41212
G1 X71.585 Y60.183 E9.58090
G1 X75.616 Y64.137 E9.75562
G1 X79.727 Y68.253 E9.93562
G1 X83.903 Y72.513 E10.12020
G1 X88.130 Y76.898 E10.30863
G1 X92.392 Y81.388 E10.50020
G1 X96.676 Y85.964 E10.69413
G1 X100.965 Y90.605 E10.88968
G1 X105.278 Y95.325 E11.08750
G1 X109.505 Y100.000 E11.28252
G1 X113.725 Y104.713 E11.47825
G1 X117.892 Y109.408 E11.67248
G1 X126.012 Y118.665 E12.05349
G1 X129.934 Y123.184 E12.23865
G1 X137.437 Y131.915 E12.59483
G1 X140.990 Y136.086 E12.76434
G1 X147.635 Y143.955 E13.08303
G1 X153.589 Y151.079 E13.37031
G1 X158.766 Y157.336 E13.62159
G1 X164.148 Y163.908 E13.88442
G1 X163.961 Y164.095 E13.89261
G1 E11.89261 F2400.00000
G92 E0
G1 X168.167 Y168.405 F7800.000
G1 E2.00000 F2400.00000
G1 F1800.000
G1 X164.466 Y165.413 E2.14726
G1 X156.924 Y159.237 E2.44886
G1 X147.200 Y151.168 E2.83986
G1 X139.683 Y144.854 E3.14359
G1 X131.487 Y137.894 E3.47630
G1 X122.753 Y130.388 E3.83262
G1 X113.653 Y122.462 E4.20600
G1 X108.994 Y118.361 E4.39805
G1 X104.297 Y114.191 E4.59238
G1 X99.582 Y109.969 E4.78821
G1 X94.870 Y105.709 E4.98476
G1 X90.180 Y101.424 E5.18134
G1 X85.538 Y97.133 E5.37691
G1 X80.959 Y92.847 E5.57098
G1 X76.466 Y88.581 E5.76268
G1 X72.078 Y84.351 E5.95128
G1 X67.814 Y80.171 E6.13603
G1 X63.693 Y76.056 E6.31621
G1 X59.734 Y72.020 E6.49114
G1 X55.953 Y68.078 E6.66015
G1 X52.367 Y64.245 E6.82257
G1 X48.983 Y60.528 E6.97808
G1 X45.834 Y56.962 E7.12529
G1 X42.915 Y53.541 E7.26443
G1 X40.243 Y50.285 E7.39476
G1 X37.827 Y47.209 E7.51578
G1 X35.678 Y44.325 E7.62707
G1 X33.802 Y41.647 E7.72826
G1 X32.206 Y39.185 E7.81902
G1 X30.896 Y36.954 E7.89909
G1 X29.877 Y34.963 E7.96828
G1 X29.152 Y33.226 E8.02651
G1 X28.724 Y31.757 E8.07387
G1 X28.587 Y30.574 E8.11072
G1 X28.722 Y29.693 E8.13829
G1 X29.092 Y29.092 E8.16014
G1 X29.693 Y28.722 E8.18198
G1 X30.574 Y28.587 E8.20956
G1 X31.757 Y28.724 E8.24641
G1 X33.226 Y29.152 E8.29376
G1 X34.963 Y29.877 E8.35200
G1 X36.954 Y30.896 E8.42119
G1 X39.185 Y32.206 E8.50125
G1 X41.647 Y33.802 E8.59201
G1 X44.325 Y35.678 E8.69320
G1 X47.209 Y37.827 E8.80450
G1 X50.285 Y40.243 E8.92552
G1 X53.541 Y42.915 E9.05584
G1 X56.962 Y45.834 E9.19499
G1 X60.535 Y48.989 E9.34246
G1 X64.282 Y52.401 E9.49927
G1 X68.078 Y55.953 E9.66013
G1 X72.020 Y59.734 E9.82913
G1 X76.056 Y63.693 E10.00406
G1 X80.171 Y67.814 E10.18425
G1 X84.351 Y72.078 E10.36900
G1 X88.581 Y76.466 E10.55759
G1 X92.847 Y80.959 E10.74929
G1 X97.133 Y85.538 E10.94336
G1 X101.426 Y90.182 E11.13902
G1 X105.740 Y94.905 E11.33695
G1 X109.969 Y99.582 E11.53206
G1 X114.191 Y104.297 E11.72789
G1 X118.360 Y108.994 E11.92221
G1 X126.483 Y118.254 E12.30333
G1 X130.407 Y122.776 E12.48858
G1 X137.912 Y131.509 E12.84486
G1 X141.466 Y135.681 E13.01446
G1 X148.113 Y143.553 E13.33324
G1 X154.069 Y150.680 E13.62061
G1 X159.249 Y156.939 E13.87198
G1 X165.413 Y164.466 E14.17301
G1 X168.405 Y168.167 E14.32027
G1 X168.220 Y168.352 E14.32839
G1 X167.809 Y168.056 F7800.000
G1 X168.286 Y168.286 F7800.000
G1 F1800.000
G1 X168.485 Y168.485 E14.33945
G1 F1800.000
G1 X168.882 Y168.882 E14.35896
G1 F1800.000
G1 X169.279 Y169.279 E14.37585
G1 F1800.000
G1 X169.676 Y169.676 E14.39014
G1 F1800.000
G1 X170.073 Y170.073 E14.40182
G1 F1800.000
G1 X170.471 Y170.471 E14.41089
G1 F1800.000
G1 X170.868 Y170.868 E14.41735
G1 F1800.000
G1 X171.265 Y171.265 E14.42120
G1 E12.42120 F2400.00000
G92 E0
G1 X167.061 Y167.061 F7800.000
G1 E2.00000 F2400.00000
G1 F1800.000
G1 X166.727 Y166.727 E2.00135
G1 F1800.000
G1 X166.393 Y166.393 E2.00500
G1 F1800.000
G1 X166.059 Y166.059 E2.01093
G1 F1800.000
G1 X165.725 Y165.725 E2.01916
G1 F1800.000
G1 X165.392 Y165.392 E2.02967
G1 F1800.000
G1 X165.058 Y165.058 E2.04248
G1 F1800.000
G1 X164.570 Y164.570 E2.06453
G1 F1800.000
G1 X164.249 Y164.249 E2.08125
G1 E0.08125 F2400.00000
G92 E0
G1 X162.734 Y162.734 F7800.000
G1 E2.00000 F2400.00000
G1 F1800.000
G1 X162.342 Y162.342 E2.00159
G1 F1800.000
G1 X161.949 Y161.949 E2.00588
G1 F1800.000
G1 X161.557 Y161.557 E2.01286
G1 F1800.000
G1 X161.164 Y161.164 E2.02253
G1 F1800.000
G1 X160.772 Y160.772 E2.03491
G1 F1800.000
G1 X160.380 Y160.379 E2.04997
G1 F1800.000
G1 X159.987 Y159.987 E2.06773
G1 F1800.000
G1 X159.791 Y159.791 E2.07796
G1 E0.07796 F2400.00000
G92 E0
G1 X158.276 Y158.276 F7800.000
G1 E2.00000 F2400.00000
G1 F1800.000
G1 X157.969 Y157.969 E2.00099
G1 F1800.000
G1 X157.566 Y157.566 E2.00477
G1 F1800.000
G1 X157.163 Y157.162 E2.01126
G1 F1800.000
G1 X156.759 Y156.758 E2.02044
G1 F1800.000
G1 X156.356 Y156.354 E2.03232
G1 F1800.000
G1 X155.953 Y155.950 E2.04689
G1 F1800.000
G1 X155.550 Y155.546 E2.06416
G1 F1800.000
G1 X155.146 Y155.143 E2.08412
G1 X154.491 Y154.914 F7800.000
G1 F1800.000
G1 X155.086 Y154.319 E2.11036
G1 X154.684 Y153.831 E2.13007
G1 X153.839 Y154.676 E2.16731
G1 X153.352 Y154.273 E2.18702
G1 X154.281 Y153.344 E2.22798
G1 X153.878 Y152.856 E2.24769
G1 X152.865 Y153.870 E2.29236
G1 X152.378 Y153.466 E2.31207
G1 X153.476 Y152.368 E2.36046
G1 X153.073 Y151.881 E2.38017
G1 X151.891 Y153.063 E2.43227
G1 X151.404 Y152.660 E2.45198
G1 X152.669 Y151.395 E2.50775
G1 X152.264 Y150.910 E2.52744
G1 X150.917 Y152.256 E2.58681
G1 X150.430 Y151.853 E2.60652
G1 X151.859 Y150.425 E2.66948
G1 X151.453 Y149.940 E2.68918
G1 X149.943 Y151.450 E2.75575
G1 X149.456 Y151.047 E2.77546
G1 X151.048 Y149.455 E2.84562
G1 X150.643 Y148.970 E2.86532
G1 X148.969 Y150.643 E2.93909
G1 X148.482 Y150.240 E2.95879
G1 X150.238 Y148.485 E3.03616
G1 X149.832 Y148.000 E3.05586
G1 X147.997 Y149.836 E3.13678
G1 X147.513 Y149.429 E3.15648
G1 X149.427 Y147.515 E3.24086
G1 X149.022 Y147.030 E3.26056
G1 X147.029 Y149.023 E3.34840
G1 X146.545 Y148.617 E3.36810
G1 X148.617 Y146.545 E3.45941
G1 X148.211 Y146.060 E3.47910
G1 X146.061 Y148.210 E3.57387
G1 X145.577 Y147.804 E3.59357
G1 X147.806 Y145.575 E3.69180
G1 X147.401 Y145.090 E3.71150
