; Gcode updated with 'stl_info' on 2019-12-03 19:10:02.893734

; stl_min_x = 0.0
; stl_max_x = 100.0
; stl_min_y = 0.0
; stl_max_y = 35.0
; stl_min_z = 0.0

; generated by Slic3r 1.3.1-dev (Build adea0d9) on 2019-12-03 at 19:10:02

; external perimeters extrusion width = 0.55mm (1.90mm^3/s)
; perimeters extrusion width = 0.70mm (2.71mm^3/s)
; infill extrusion width = 0.62mm (2.41mm^3/s)
; solid infill extrusion width = 0.70mm (2.04mm^3/s)
; top infill extrusion width = 0.70mm (2.04mm^3/s)

M107
G92 E0
;D3D:START:START
T0
M104 S215 T0

G21
G90
M107
T0
G28
G29
M109 T0 S215 T0
G0 F3000
M107
T0
G92 E0
G0 X0 Y149 Z0.1 F3600
G1 Y49 E6.5 F1200
G0 Z1
G92 E0
; Filament gcode

G21 ; set units to millimeters
G90 ; use absolute coordinates
M82 ; use absolute distances for extrusion
G92 E0
G1 Z0.090 F7800.000
G1 E-2.00000 F2400.00000
G92 E0
G1 X22.187 Y52.110 F7800.000
G1 E2.00000 F2400.00000
G1 F1800.000
G1 X25.000 Y51.420 E2.00864
G1 X125.000 Y51.420 E2.30680
G1 X127.160 Y51.817 E2.31335
G1 X129.038 Y52.955 E2.31990
G1 X130.390 Y54.687 E2.32645
G1 X131.080 Y57.500 E2.33508
G1 X131.080 Y92.500 E2.43944
G1 X130.683 Y94.660 E2.44599
G1 X129.545 Y96.538 E2.45254
G1 X127.813 Y97.890 E2.45909
G1 X125.000 Y98.580 E2.46773
G1 X25.000 Y98.580 E2.76589
G1 X22.840 Y98.183 E2.77244
G1 X20.962 Y97.045 E2.77899
G1 X19.610 Y95.313 E2.78554
G1 X18.920 Y92.500 E2.79417
G1 X18.920 Y57.500 E2.89853
G1 X19.317 Y55.340 E2.90508
G1 X20.455 Y53.462 E2.91163
G1 X22.128 Y52.156 E2.91795
G1 E0.91795 F2400.00000
G92 E0
G1 X112.298 Y86.736 F7800.000
G1 E2.00000 F2400.00000
G1 F1800.000
G1 X111.897 Y85.500 E2.00388
G1 X112.298 Y84.264 E2.00775
G1 X113.350 Y83.500 E2.01163
G1 X114.650 Y83.500 E2.01550
G1 X115.702 Y84.264 E2.01938
G1 X116.103 Y85.500 E2.02326
G1 X115.702 Y86.736 E2.02713
G1 X114.650 Y87.500 E2.03101
G1 X113.350 Y87.500 E2.03488
G1 X112.359 Y86.780 E2.03854
G1 X112.366 Y86.687 F7800.000
G1 F1800.000
G1 X111.980 Y85.500 E2.04226
G1 X112.366 Y84.313 E2.04598
G1 X113.376 Y83.579 E2.04970
G1 X114.624 Y83.579 E2.05342
G1 X115.634 Y84.313 E2.05715
G1 X116.020 Y85.500 E2.06087
G1 X115.634 Y86.687 E2.06459
G1 X114.624 Y87.421 E2.06831
G1 X113.376 Y87.421 E2.07203
G1 X112.427 Y86.731 E2.07553
G1 X112.434 Y86.638 F7800.000
G1 F1800.000
G1 X112.064 Y85.500 E2.07910
G1 X112.434 Y84.362 E2.08266
G1 X113.402 Y83.659 E2.08623
G1 X114.598 Y83.659 E2.08980
G1 X115.566 Y84.362 E2.09337
G1 X115.936 Y85.500 E2.09693
G1 X115.566 Y86.638 E2.10050
G1 X114.598 Y87.341 E2.10407
G1 X113.402 Y87.341 E2.10764
G1 X112.495 Y86.682 E2.11098
G1 X112.502 Y86.589 F7800.000
G1 F1800.000
G1 X112.148 Y85.500 E2.11439
G1 X112.502 Y84.411 E2.11780
G1 X113.428 Y83.739 E2.12122
G1 X114.572 Y83.739 E2.12463
G1 X115.498 Y84.411 E2.12804
G1 X115.852 Y85.500 E2.13146
G1 X115.498 Y86.589 E2.13487
G1 X114.572 Y87.261 E2.13828
G1 X113.428 Y87.261 E2.14169
G1 X112.562 Y86.633 E2.14488
G1 X112.502 Y86.589 F7800.000
G1 E0.14488 F2400.00000
G92 E0
G1 X95.702 Y70.736 F7800.000
G1 E2.00000 F2400.00000
G1 F1800.000
G1 X94.650 Y71.500 E2.00388
G1 X93.350 Y71.500 E2.00775
G1 X92.298 Y70.736 E2.01163
G1 X91.897 Y69.500 E2.01550
G1 X92.298 Y68.264 E2.01938
G1 X93.350 Y67.500 E2.02326
G1 X94.650 Y67.500 E2.02713
G1 X95.702 Y68.264 E2.03101
G1 X96.103 Y69.500 E2.03488
G1 X95.725 Y70.665 E2.03854
G1 X95.634 Y70.687 F7800.000
G1 F1800.000
G1 X94.624 Y71.421 E2.04226
G1 X93.376 Y71.421 E2.04598
G1 X92.366 Y70.687 E2.04970
G1 X91.980 Y69.500 E2.05342
G1 X92.366 Y68.313 E2.05715
G1 X93.376 Y67.579 E2.06087
G1 X94.624 Y67.579 E2.06459
G1 X95.634 Y68.313 E2.06831
G1 X96.020 Y69.500 E2.07203
G1 X95.657 Y70.616 E2.07553
G1 X95.566 Y70.638 F7800.000
G1 F1800.000
G1 X94.598 Y71.341 E2.07910
G1 X93.402 Y71.341 E2.08266
G1 X92.434 Y70.638 E2.08623
G1 X92.064 Y69.500 E2.08980
G1 X92.434 Y68.362 E2.09337
G1 X93.402 Y67.659 E2.09693
G1 X94.598 Y67.659 E2.10050
G1 X95.566 Y68.362 E2.10407
G1 X95.936 Y69.500 E2.10764
G1 X95.589 Y70.567 E2.11098
G1 X95.498 Y70.589 F7800.000
G1 F1800.000
G1 X94.572 Y71.261 E2.11439
G1 X93.428 Y71.261 E2.11780
G1 X92.502 Y70.589 E2.12122
G1 X92.148 Y69.500 E2.12463
G1 X92.502 Y68.411 E2.12804
G1 X93.428 Y67.739 E2.13146
G1 X94.572 Y67.739 E2.13487
G1 X95.498 Y68.411 E2.13828
G1 X95.852 Y69.500 E2.14169
G1 X95.521 Y70.517 E2.14488
G1 X95.498 Y70.589 F7800.000
G1 E0.14488 F2400.00000
G92 E0
G1 X78.843 Y67.496 F7800.000
G1 E2.00000 F2400.00000
G1 F1800.000
G1 X78.843 Y77.728 E2.03051
G1 X77.917 Y77.824 E2.03329
G1 X76.972 Y77.872 E2.03611
G1 X75.719 Y77.895 E2.03984
G1 X75.077 Y77.871 E2.04176
G1 X74.477 Y77.801 E2.04356
G1 X73.920 Y77.683 E2.04526
G1 X73.409 Y77.515 E2.04686
G1 X72.943 Y77.304 E2.04839
G1 X72.521 Y77.052 E2.04985
G1 X72.143 Y76.759 E2.05128
G1 X71.811 Y76.426 E2.05268
G1 X71.524 Y76.058 E2.05407
G1 X71.280 Y75.659 E2.05547
G1 X71.077 Y75.227 E2.05689
G1 X70.917 Y74.767 E2.05834
G1 X70.796 Y74.282 E2.05983
G1 X70.710 Y73.777 E2.06136
G1 X70.658 Y73.251 E2.06294
G1 X70.641 Y72.704 E2.06457
G1 X70.657 Y72.198 E2.06608
G1 X70.706 Y71.701 E2.06757
G1 X70.787 Y71.211 E2.06905
G1 X70.902 Y70.729 E2.07053
G1 X71.056 Y70.259 E2.07200
G1 X71.256 Y69.813 E2.07346
G1 X71.501 Y69.394 E2.07491
G1 X71.792 Y69.002 E2.07636
G1 X72.130 Y68.641 E2.07783
G1 X72.516 Y68.318 E2.07934
G1 X72.950 Y68.034 E2.08088
G1 X73.431 Y67.787 E2.08250
G1 X73.967 Y67.587 E2.08420
G1 X74.559 Y67.445 E2.08602
G1 X75.204 Y67.361 E2.08795
G1 X75.899 Y67.333 E2.09003
G1 X78.032 Y67.424 E2.09640
G1 X78.769 Y67.489 E2.09860
G1 X78.764 Y67.569 F7800.000
G1 F1800.000
G1 X78.764 Y77.656 E2.12868
G1 X77.911 Y77.744 E2.13123
G1 X76.969 Y77.793 E2.13404
G1 X75.720 Y77.815 E2.13777
G1 X75.083 Y77.792 E2.13967
G1 X74.490 Y77.722 E2.14145
G1 X73.941 Y77.605 E2.14312
G1 X73.438 Y77.441 E2.14470
G1 X72.980 Y77.233 E2.14620
G1 X72.566 Y76.986 E2.14764
G1 X72.196 Y76.699 E2.14904
G1 X71.871 Y76.373 E2.15041
G1 X71.590 Y76.013 E2.15177
G1 X71.350 Y75.621 E2.15314
G1 X71.151 Y75.197 E2.15454
G1 X70.993 Y74.744 E2.15597
G1 X70.874 Y74.266 E2.15744
G1 X70.789 Y73.767 E2.15895
G1 X70.738 Y73.246 E2.16051
G1 X70.721 Y72.704 E2.16212
G1 X70.737 Y72.203 E2.16362
G1 X70.785 Y71.711 E2.16509
G1 X70.865 Y71.227 E2.16656
G1 X70.979 Y70.750 E2.16802
G1 X71.131 Y70.287 E2.16947
G1 X71.327 Y69.849 E2.17090
G1 X71.568 Y69.438 E2.17232
G1 X71.853 Y69.053 E2.17375
G1 X72.184 Y68.699 E2.17520
G1 X72.564 Y68.382 E2.17667
G1 X72.990 Y68.103 E2.17819
G1 X73.463 Y67.860 E2.17978
G1 X73.991 Y67.663 E2.18145
G1 X74.574 Y67.524 E2.18324
G1 X75.211 Y67.440 E2.18516
G1 X75.899 Y67.413 E2.18721
G1 X78.027 Y67.504 E2.19356
G1 X78.689 Y67.562 E2.19554
G1 X78.684 Y67.642 F7800.000
G1 F1800.000
G1 X78.684 Y77.585 E2.22519
G1 X77.905 Y77.665 E2.22752
G1 X76.966 Y77.713 E2.23033
G1 X75.721 Y77.735 E2.23404
G1 X75.089 Y77.712 E2.23592
G1 X74.503 Y77.644 E2.23769
G1 X73.962 Y77.528 E2.23933
G1 X73.467 Y77.367 E2.24089
G1 X73.017 Y77.162 E2.24236
G1 X72.611 Y76.920 E2.24377
G1 X72.248 Y76.639 E2.24514
G1 X71.931 Y76.321 E2.24648
G1 X71.655 Y75.968 E2.24781
G1 X71.420 Y75.583 E2.24916
G1 X71.225 Y75.167 E2.25053
G1 X71.070 Y74.721 E2.25194
G1 X70.952 Y74.249 E2.25339
G1 X70.868 Y73.756 E2.25488
G1 X70.817 Y73.241 E2.25642
G1 X70.800 Y72.704 E2.25802
G1 X70.816 Y72.208 E2.25950
G1 X70.864 Y71.721 E2.26096
G1 X70.944 Y71.243 E2.26241
G1 X71.055 Y70.772 E2.26385
G1 X71.205 Y70.316 E2.26528
G1 X71.398 Y69.886 E2.26669
G1 X71.635 Y69.482 E2.26808
G1 X71.914 Y69.104 E2.26948
G1 X72.239 Y68.757 E2.27090
G1 X72.612 Y68.446 E2.27235
G1 X73.030 Y68.172 E2.27384
G1 X73.495 Y67.933 E2.27540
G1 X74.014 Y67.739 E2.27705
G1 X74.588 Y67.602 E2.27881
G1 X75.217 Y67.520 E2.28070
G1 X75.900 Y67.493 E2.28274
G1 X78.022 Y67.583 E2.28907
G1 X78.609 Y67.635 E2.29083
G1 X78.604 Y67.715 F7800.000
G1 F1800.000
G1 X78.604 Y77.513 E2.32004
G1 X77.899 Y77.585 E2.32216
G1 X76.964 Y77.633 E2.32495
G1 X75.721 Y77.656 E2.32865
G1 X75.095 Y77.633 E2.33052
G1 X74.516 Y77.565 E2.33226
G1 X73.982 Y77.451 E2.33389
G1 X73.496 Y77.292 E2.33541
G1 X73.054 Y77.092 E2.33686
G1 X72.656 Y76.854 E2.33824
G1 X72.301 Y76.579 E2.33958
G1 X71.991 Y76.268 E2.34089
G1 X71.721 Y75.922 E2.34220
G1 X71.491 Y75.545 E2.34352
G1 X71.299 Y75.137 E2.34486
G1 X71.146 Y74.698 E2.34625
G1 X71.030 Y74.233 E2.34768
G1 X70.947 Y73.746 E2.34915
G1 X70.897 Y73.236 E2.35068
G1 X70.880 Y72.704 E2.35227
G1 X70.896 Y72.214 E2.35373
G1 X70.943 Y71.732 E2.35517
G1 X71.022 Y71.259 E2.35660
G1 X71.132 Y70.794 E2.35803
G1 X71.279 Y70.345 E2.35943
G1 X71.469 Y69.922 E2.36082
G1 X71.701 Y69.526 E2.36219
G1 X71.976 Y69.155 E2.36356
G1 X72.294 Y68.815 E2.36495
G1 X72.659 Y68.510 E2.36637
G1 X73.070 Y68.240 E2.36783
G1 X73.528 Y68.006 E2.36937
G1 X74.037 Y67.816 E2.37099
G1 X74.603 Y67.681 E2.37272
G1 X75.224 Y67.599 E2.37459
G1 X75.901 Y67.572 E2.37661
G1 X78.016 Y67.663 E2.38292
G1 X78.529 Y67.708 E2.38446
G1 X79.104 Y67.724 F7800.000
G1 E0.38446 F2400.00000
G92 E0
G1 X74.650 Y83.500 F7800.000
G1 E2.00000 F2400.00000
G1 F1800.000
G1 X75.702 Y84.264 E2.00388
G1 X76.103 Y85.500 E2.00775
G1 X75.702 Y86.736 E2.01163
G1 X74.650 Y87.500 E2.01550
G1 X73.350 Y87.500 E2.01938
G1 X72.298 Y86.736 E2.02326
G1 X71.897 Y85.500 E2.02713
G1 X72.298 Y84.264 E2.03101
G1 X73.350 Y83.500 E2.03488
G1 X74.575 Y83.500 E2.03854
G1 X74.624 Y83.579 F7800.000
G1 F1800.000
G1 X75.634 Y84.313 E2.04226
G1 X76.020 Y85.500 E2.04598
G1 X75.634 Y86.687 E2.04970
G1 X74.624 Y87.421 E2.05342
G1 X73.376 Y87.421 E2.05715
G1 X72.366 Y86.687 E2.06087
G1 X71.980 Y85.500 E2.06459
G1 X72.366 Y84.313 E2.06831
G1 X73.376 Y83.579 E2.07203
G1 X74.549 Y83.579 E2.07553
G1 X74.598 Y83.659 F7800.000
G1 F1800.000
G1 X75.566 Y84.362 E2.07910
G1 X75.936 Y85.500 E2.08266
G1 X75.566 Y86.638 E2.08623
G1 X74.598 Y87.341 E2.08980
G1 X73.402 Y87.341 E2.09337
G1 X72.434 Y86.638 E2.09693
G1 X72.064 Y85.500 E2.10050
G1 X72.434 Y84.362 E2.10407
G1 X73.402 Y83.659 E2.10764
G1 X74.523 Y83.659 E2.11098
G1 X74.572 Y83.739 F7800.000
G1 F1800.000
G1 X75.498 Y84.411 E2.11439
G1 X75.852 Y85.500 E2.11780
G1 X75.498 Y86.589 E2.12122
G1 X74.572 Y87.261 E2.12463
G1 X73.428 Y87.261 E2.12804
G1 X72.502 Y86.589 E2.13146
G1 X72.148 Y85.500 E2.13487
G1 X72.502 Y84.411 E2.13828
G1 X73.428 Y83.739 E2.14169
G1 X74.497 Y83.739 E2.14488
G1 X74.572 Y83.739 F7800.000
G1 E0.14488 F2400.00000
G92 E0
G1 X68.032 Y79.836 F7800.000
G1 E2.00000 F2400.00000
G1 F1800.000
G1 X66.068 Y85.342 E2.01743
G1 X64.957 Y85.342 E2.02074
G1 X63.762 Y81.991 E2.03135
G1 X63.720 Y82.001 E2.03148
G1 X63.754 Y82.563 E2.03316
G1 X63.691 Y83.366 E2.03556
G1 X63.494 Y84.061 E2.03771
G1 X63.155 Y84.637 E2.03970
G1 X62.677 Y85.067 E2.04162
G1 X62.084 Y85.325 E2.04355
G1 X61.402 Y85.407 E2.04560
G1 X61.022 Y85.384 E2.04673
G1 X60.676 Y85.314 E2.04778
G1 X60.359 Y85.197 E2.04879
G1 X60.072 Y85.034 E2.04978
G1 X59.819 Y84.831 E2.05074
G1 X59.602 Y84.590 E2.05171
G1 X59.422 Y84.315 E2.05269
G1 X59.277 Y84.011 E2.05369
G1 X59.169 Y83.681 E2.05473
G1 X59.093 Y83.327 E2.05581
G1 X59.048 Y82.953 E2.05694
G1 X59.033 Y82.551 E2.05813
G1 X59.081 Y81.936 E2.05997
G1 X59.040 Y81.928 E2.06010
G1 X57.822 Y85.342 E2.07090
G1 X56.710 Y85.342 E2.07422
G1 X54.748 Y79.836 E2.09165
G1 X56.364 Y79.836 E2.09646
G1 X56.755 Y80.924 E2.09991
G1 X57.845 Y80.924 E2.10316
G1 X58.214 Y79.836 E2.10659
G1 X59.786 Y79.836 E2.11128
G1 X59.515 Y80.596 E2.11368
G1 X59.555 Y80.614 E2.11381
G1 X59.637 Y80.476 E2.11429
G1 X60.115 Y80.046 E2.11620
G1 X60.707 Y79.789 E2.11813
G1 X61.385 Y79.707 E2.12017
G1 X61.768 Y79.730 E2.12131
G1 X62.117 Y79.800 E2.12237
G1 X62.436 Y79.917 E2.12339
G1 X62.723 Y80.080 E2.12437
G1 X62.975 Y80.283 E2.12533
G1 X63.203 Y80.538 E2.12635
G1 X63.237 Y80.518 E2.12647
G1 X62.994 Y79.836 E2.12863
G1 X64.610 Y79.836 E2.13345
G1 X65.001 Y80.924 E2.13690
G1 X66.091 Y80.924 E2.14015
G1 X66.460 Y79.836 E2.14357
G1 X67.957 Y79.836 E2.14804
G1 E0.14804 F2400.00000
G92 E0
G1 X63.500 Y81.325 F7800.000
G1 E2.00000 F2400.00000
G1 F1800.000
G1 X63.616 Y81.801 E2.00146
G1 X63.660 Y82.168 E2.00256
G1 X63.675 Y82.561 E2.00374
G1 X63.612 Y83.352 E2.00610
G1 X63.420 Y84.029 E2.00820
G1 X63.092 Y84.586 E2.01012
G1 X62.634 Y84.999 E2.01197
G1 X62.063 Y85.247 E2.01382
G1 X61.400 Y85.327 E2.01581
G1 X61.033 Y85.304 E2.01691
G1 X60.698 Y85.237 E2.01793
G1 X60.392 Y85.124 E2.01890
G1 X60.117 Y84.968 E2.01984
G1 X59.874 Y84.773 E2.02077
G1 X59.666 Y84.541 E2.02170
G1 X59.491 Y84.276 E2.02265
G1 X59.351 Y83.982 E2.02362
G1 X59.246 Y83.660 E2.02463
G1 X59.171 Y83.314 E2.02568
G1 X59.127 Y82.946 E2.02679
G1 X59.112 Y82.553 E2.02796
G1 X59.175 Y81.762 E2.03033
G1 X59.368 Y81.084 E2.03243
G1 X59.699 Y80.527 E2.03436
G1 X60.158 Y80.114 E2.03620
G1 X60.728 Y79.867 E2.03805
G1 X61.387 Y79.787 E2.04003
G1 X61.758 Y79.810 E2.04114
G1 X62.095 Y79.877 E2.04217
G1 X62.403 Y79.990 E2.04314
G1 X62.678 Y80.146 E2.04409
G1 X62.920 Y80.340 E2.04501
G1 X63.127 Y80.573 E2.04594
G1 X63.299 Y80.839 E2.04688
G1 X63.477 Y81.254 E2.04823
G1 X63.424 Y81.350 F7800.000
G1 F1800.000
G1 X63.537 Y81.814 E2.04965
G1 X63.580 Y82.174 E2.05074
G1 X63.595 Y82.560 E2.05189
G1 X63.534 Y83.338 E2.05421
G1 X63.347 Y83.998 E2.05626
G1 X63.030 Y84.535 E2.05812
G1 X62.590 Y84.932 E2.05988
G1 X62.042 Y85.169 E2.06167
G1 X61.397 Y85.247 E2.06360
G1 X61.043 Y85.225 E2.06466
G1 X60.720 Y85.160 E2.06564
G1 X60.426 Y85.052 E2.06658
G1 X60.162 Y84.902 E2.06748
G1 X59.929 Y84.715 E2.06837
G1 X59.729 Y84.492 E2.06927
G1 X59.561 Y84.237 E2.07018
G1 X59.426 Y83.952 E2.07112
G1 X59.323 Y83.639 E2.07210
G1 X59.250 Y83.301 E2.07313
G1 X59.207 Y82.940 E2.07421
G1 X59.192 Y82.554 E2.07536
G1 X59.254 Y81.776 E2.07769
G1 X59.442 Y81.116 E2.07974
G1 X59.761 Y80.578 E2.08160
G1 X60.202 Y80.182 E2.08337
G1 X60.749 Y79.945 E2.08515
G1 X61.390 Y79.867 E2.08707
G1 X61.748 Y79.889 E2.08814
G1 X62.073 Y79.954 E2.08913
G1 X62.369 Y80.062 E2.09007
G1 X62.633 Y80.212 E2.09098
G1 X62.865 Y80.398 E2.09186
G1 X63.064 Y80.621 E2.09275
G1 X63.229 Y80.877 E2.09366
G1 X63.401 Y81.279 E2.09497
G1 X63.349 Y81.375 F7800.000
G1 F1800.000
G1 X63.459 Y81.827 E2.09635
G1 X63.501 Y82.180 E2.09741
G1 X63.515 Y82.558 E2.09854
G1 X63.455 Y83.323 E2.10083
G1 X63.273 Y83.966 E2.10282
G1 X62.967 Y84.484 E2.10461
G1 X62.546 Y84.864 E2.10630
G1 X62.021 Y85.091 E2.10801
G1 X61.395 Y85.167 E2.10989
G1 X61.053 Y85.146 E2.11091
G1 X60.742 Y85.083 E2.11186
G1 X60.460 Y84.979 E2.11276
G1 X60.207 Y84.836 E2.11362
G1 X59.984 Y84.657 E2.11447
G1 X59.792 Y84.443 E2.11533
G1 X59.630 Y84.198 E2.11621
G1 X59.500 Y83.923 E2.11712
G1 X59.400 Y83.618 E2.11807
G1 X59.329 Y83.287 E2.11908
G1 X59.286 Y82.934 E2.12014
G1 X59.272 Y82.556 E2.12127
G1 X59.333 Y81.790 E2.12356
G1 X59.516 Y81.147 E2.12555
G1 X59.824 Y80.629 E2.12735
G1 X60.245 Y80.250 E2.12904
G1 X60.770 Y80.023 E2.13074
G1 X61.392 Y79.947 E2.13261
G1 X61.738 Y79.968 E2.13365
G1 X62.052 Y80.031 E2.13460
G1 X62.335 Y80.135 E2.13550
G1 X62.588 Y80.278 E2.13637
G1 X62.810 Y80.456 E2.13722
G1 X63.000 Y80.670 E2.13807
G1 X63.159 Y80.916 E2.13894
G1 X63.325 Y81.304 E2.14020
G1 X63.474 Y81.398 F7800.000
G1 X63.107 Y79.916 F7800.000
G1 F1800.000
G1 X64.554 Y79.916 E2.14452
G1 X64.945 Y81.004 E2.14796
G1 X66.148 Y81.004 E2.15155
G1 X66.517 Y79.916 E2.15498
G1 X67.919 Y79.916 E2.15916
G1 X66.012 Y85.262 E2.17608
G1 X65.013 Y85.262 E2.17906
G1 X63.132 Y79.987 E2.19576
G1 X63.220 Y79.996 F7800.000
G1 F1800.000
G1 X64.498 Y79.996 E2.19957
G1 X64.889 Y81.084 E2.20302
G1 X66.205 Y81.084 E2.20694
G1 X66.574 Y79.996 E2.21037
G1 X67.806 Y79.996 E2.21404
G1 X65.956 Y85.182 E2.23046
G1 X65.069 Y85.182 E2.23310
G1 X63.245 Y80.066 E2.24930
G1 X63.333 Y80.076 F7800.000
G1 F1800.000
G1 X64.442 Y80.076 E2.25260
G1 X64.833 Y81.163 E2.25605
G1 X66.263 Y81.163 E2.26031
G1 X66.632 Y80.076 E2.26374
G1 X67.693 Y80.076 E2.26691
G1 X65.900 Y85.102 E2.28282
G1 X65.125 Y85.102 E2.28513
G1 X63.358 Y80.146 E2.30082
G1 X63.254 Y79.582 F7800.000
G1 E0.30082 F2400.00000
G92 E0
G1 X59.673 Y79.916 F7800.000
G1 E2.00000 F2400.00000
G1 F1800.000
G1 X57.766 Y85.262 E2.01692
G1 X56.767 Y85.262 E2.01990
G1 X54.861 Y79.916 E2.03683
G1 X56.308 Y79.916 E2.04114
G1 X56.699 Y81.004 E2.04459
G1 X57.902 Y81.004 E2.04817
G1 X58.271 Y79.916 E2.05160
G1 X59.598 Y79.916 E2.05556
