; Gcode updated with 'stl_info' on 2019-12-03 19:07:49.008658

; stl_min_x = -0.6032350063323975
; stl_max_x = 142.80299377441406
; stl_min_y = -0.6032350063323975
; stl_max_y = 142.80299377441406
; stl_min_z = -10.0

; generated by Slic3r 1.3.1-dev (Build adea0d9) on 2019-12-03 at 19:07:48

; external perimeters extrusion width = 0.55mm (1.90mm^3/s)
; perimeters extrusion width = 0.70mm (2.71mm^3/s)
; infill extrusion width = 0.62mm (2.41mm^3/s)
; solid infill extrusion width = 0.70mm (2.04mm^3/s)
; top infill extrusion width = 0.70mm (2.04mm^3/s)

M107
G92 E0
;D3D:START:START
T0
M104 S215 T0

G21
G90
M107
T0
G28
G29
M109 T0 S215 T0
G0 F3000
M107
T0
G92 E0
G0 X0 Y149 Z0.1 F3600
G1 Y49 E6.5 F1200
G0 Z1
G92 E0
; Filament gcode

G21 ; set units to millimeters
G90 ; use absolute coordinates
M82 ; use absolute distances for extrusion
G92 E0
G1 Z0.090 F7800.000
G1 X0.652 Y-1.341 F7800.000
G1 F1800.000
G1 X1.384 Y-1.792 E0.00257
G1 X3.651 Y-2.624 E0.00976
G1 X4.649 Y-2.776 E0.01277
G1 X6.265 Y-2.806 E0.01759
G1 X7.524 Y-2.660 E0.02137
G1 X8.529 Y-2.457 E0.02443
G1 X10.045 Y-2.015 E0.02914
G1 X10.684 Y-1.789 E0.03116
G1 X12.451 Y-1.052 E0.03687
G1 X12.881 Y-0.853 E0.03828
G1 X15.199 Y0.346 E0.04606
G1 X17.677 Y1.807 E0.05464
G1 X20.150 Y3.410 E0.06343
G1 X23.164 Y5.519 E0.07439
G1 X26.177 Y7.768 E0.08560
G1 X29.362 Y10.271 E0.09768
G1 X32.623 Y12.948 E0.11026
G1 X36.216 Y16.013 E0.12434
G1 X39.861 Y19.233 E0.13884
G1 X43.636 Y22.670 E0.15407
G1 X47.473 Y26.260 E0.16973
G1 X51.521 Y30.143 E0.18646
G1 X55.604 Y34.148 E0.20351
G1 X59.761 Y38.311 E0.22106
G1 X63.979 Y42.614 E0.23902
G1 X68.244 Y47.038 E0.25734
G1 X72.540 Y51.564 E0.27595
G1 X76.854 Y56.173 E0.29477
G1 X81.148 Y60.819 E0.31363
G1 X85.456 Y65.534 E0.33268
G1 X89.759 Y70.292 E0.35181
G1 X94.000 Y75.028 E0.37076
G1 X98.170 Y79.727 E0.38949
G1 X102.289 Y84.405 E0.40808
G1 X106.338 Y89.039 E0.42643
G1 X114.092 Y98.003 E0.46177
G1 X117.807 Y102.339 E0.47879
G1 X124.789 Y110.561 E0.51095
G1 X131.112 Y118.089 E0.54027
G1 X136.718 Y124.831 E0.56641
G1 X143.558 Y133.149 E0.59852
G1 X148.367 Y139.064 E0.62125
G1 X151.506 Y142.959 E0.63617
G1 X152.550 Y144.892 E0.64271
G1 X152.838 Y147.069 E0.64926
G1 X152.335 Y149.207 E0.65581
G1 X151.104 Y151.026 E0.66236
G1 X149.308 Y152.289 E0.66891
G1 X147.179 Y152.832 E0.67546
G1 X144.997 Y152.583 E0.68201
G1 X142.959 Y151.506 E0.68888
G1 X139.057 Y148.361 E0.70382
G1 X133.146 Y143.555 E0.72654
G1 X124.816 Y136.706 E0.75869
G1 X118.073 Y131.098 E0.78484
G1 X110.531 Y124.763 E0.81421
G1 X102.320 Y117.790 E0.84633
G1 X93.557 Y110.259 E0.88078
G1 X89.003 Y106.307 E0.89876
G1 X79.745 Y98.186 E0.93548
G1 X75.028 Y94.000 E0.95428
G1 X70.271 Y89.739 E0.97332
G1 X65.558 Y85.478 E0.99227
G1 X60.844 Y81.172 E1.01130
G1 X56.173 Y76.854 E1.03027
G1 X51.564 Y72.540 E1.04909
G1 X47.038 Y68.244 E1.06770
G1 X42.577 Y63.944 E1.08618
G1 X38.311 Y59.761 E1.10399
G1 X34.105 Y55.560 E1.12172
G1 X30.143 Y51.521 E1.13858
G1 X26.312 Y47.527 E1.15509
G1 X22.614 Y43.575 E1.17122
G1 X19.233 Y39.861 E1.18620
G1 X16.013 Y36.216 E1.20070
G1 X13.022 Y32.712 E1.21444
G1 X10.188 Y29.259 E1.22775
G1 X7.768 Y26.177 E1.23944
G1 X5.519 Y23.164 E1.25065
G1 X3.532 Y20.330 E1.26097
G1 X1.664 Y17.447 E1.27121
G1 X0.346 Y15.199 E1.27898
G1 X-0.853 Y12.881 E1.28676
G1 X-1.052 Y12.451 E1.28818
G1 X-1.789 Y10.684 E1.29389
G1 X-2.015 Y10.045 E1.29590
G1 X-2.457 Y8.529 E1.30061
G1 X-2.660 Y7.524 E1.30367
G1 X-2.806 Y6.265 E1.30745
G1 X-2.776 Y4.649 E1.31227
G1 X-2.624 Y3.651 E1.31528
G1 X-1.792 Y1.384 E1.32248
G1 X-1.341 Y0.652 E1.32504
G1 X0.599 Y-1.288 E1.33322
G1 E-0.66678 F2400.00000
G92 E0
G1 X97.283 Y97.002 F7800.000
G1 E2.00000 F2400.00000
G1 F1800.000
G1 X97.627 Y96.798 E2.00119
G1 X98.001 Y96.690 E2.00235
G1 X98.218 Y96.669 E2.00300
G1 X98.606 Y96.706 E2.00416
G1 X98.972 Y96.838 E2.00532
G1 X99.160 Y96.949 E2.00597
G1 X99.445 Y97.200 E2.00711
G1 X99.578 Y97.373 E2.00776
G1 X99.751 Y97.711 E2.00889
G1 X99.812 Y97.921 E2.00954
G1 X99.848 Y98.299 E2.01067
G1 X99.828 Y98.507 E2.01130
G1 X99.783 Y98.711 E2.01192
G1 X99.628 Y99.068 E2.01308
G1 X99.383 Y99.383 E2.01427
G1 X99.068 Y99.628 E2.01546
G1 X98.711 Y99.783 E2.01662
G1 X98.507 Y99.828 E2.01724
G1 X98.299 Y99.848 E2.01787
G1 X97.921 Y99.812 E2.01900
G1 X97.711 Y99.751 E2.01965
G1 X97.373 Y99.578 E2.02078
G1 X97.200 Y99.445 E2.02143
G1 X96.949 Y99.160 E2.02257
G1 X96.838 Y98.972 E2.02322
G1 X96.706 Y98.606 E2.02438
G1 X96.669 Y98.218 E2.02554
G1 X96.690 Y98.001 E2.02619
G1 X96.796 Y97.635 E2.02732
G1 X96.891 Y97.450 E2.02795
G1 X97.008 Y97.277 E2.02857
G1 X97.230 Y97.055 E2.02951
G1 X97.333 Y97.065 F7800.000
G1 F1800.000
G1 X97.659 Y96.872 E2.03063
G1 X98.016 Y96.768 E2.03174
G1 X98.218 Y96.749 E2.03235
G1 X98.588 Y96.784 E2.03346
G1 X98.938 Y96.910 E2.03457
G1 X99.113 Y97.014 E2.03517
G1 X99.387 Y97.255 E2.03626
G1 X99.511 Y97.415 E2.03687
G1 X99.677 Y97.741 E2.03795
G1 X99.733 Y97.936 E2.03856
G1 X99.768 Y98.299 E2.03965
G1 X99.706 Y98.686 E2.04082
G1 X99.559 Y99.028 E2.04193
G1 X99.327 Y99.327 E2.04305
G1 X99.028 Y99.559 E2.04418
G1 X98.686 Y99.706 E2.04529
G1 X98.299 Y99.768 E2.04646
G1 X97.936 Y99.733 E2.04755
G1 X97.741 Y99.677 E2.04815
G1 X97.415 Y99.511 E2.04924
G1 X97.255 Y99.387 E2.04985
G1 X97.014 Y99.113 E2.05094
G1 X96.910 Y98.938 E2.05154
G1 X96.784 Y98.588 E2.05265
G1 X96.749 Y98.218 E2.05376
G1 X96.768 Y98.016 E2.05436
G1 X96.870 Y97.665 E2.05545
G1 X97.070 Y97.328 E2.05662
G1 X97.280 Y97.118 E2.05751
G1 X97.382 Y97.128 F7800.000
G1 F1800.000
G1 X97.690 Y96.946 E2.05858
G1 X98.031 Y96.847 E2.05963
G1 X98.218 Y96.829 E2.06019
G1 X98.571 Y96.863 E2.06125
G1 X98.904 Y96.983 E2.06231
G1 X99.065 Y97.078 E2.06286
G1 X99.328 Y97.310 E2.06391
G1 X99.443 Y97.458 E2.06447
G1 X99.602 Y97.770 E2.06551
G1 X99.655 Y97.951 E2.06607
G1 X99.688 Y98.299 E2.06712
G1 X99.630 Y98.661 E2.06821
G1 X99.490 Y98.987 E2.06927
G1 X99.270 Y99.270 E2.07034
G1 X98.987 Y99.490 E2.07140
G1 X98.661 Y99.630 E2.07246
G1 X98.299 Y99.688 E2.07355
G1 X97.951 Y99.655 E2.07460
G1 X97.770 Y99.602 E2.07516
G1 X97.458 Y99.443 E2.07620
G1 X97.310 Y99.328 E2.07676
G1 X97.078 Y99.065 E2.07781
G1 X96.983 Y98.904 E2.07837
G1 X96.863 Y98.571 E2.07942
G1 X96.829 Y98.218 E2.08048
G1 X96.847 Y98.031 E2.08104
G1 X96.945 Y97.694 E2.08208
G1 X97.131 Y97.379 E2.08318
G1 X97.329 Y97.181 E2.08401
G1 X97.431 Y97.192 F7800.000
G1 F1800.000
G1 X97.722 Y97.020 E2.08502
G1 X98.046 Y96.926 E2.08602
G1 X98.218 Y96.909 E2.08654
G1 X98.553 Y96.941 E2.08754
G1 X98.870 Y97.055 E2.08855
G1 X99.018 Y97.143 E2.08906
G1 X99.270 Y97.365 E2.09006
G1 X99.376 Y97.501 E2.09057
G1 X99.528 Y97.800 E2.09157
G1 X99.576 Y97.966 E2.09209
G1 X99.608 Y98.299 E2.09309
G1 X99.554 Y98.637 E2.09411
G1 X99.420 Y98.946 E2.09511
G1 X99.213 Y99.213 E2.09612
G1 X98.946 Y99.420 E2.09713
G1 X98.637 Y99.554 E2.09813
G1 X98.299 Y99.608 E2.09915
G1 X97.966 Y99.576 E2.10015
G1 X97.800 Y99.528 E2.10067
G1 X97.501 Y99.376 E2.10166
G1 X97.365 Y99.270 E2.10218
G1 X97.143 Y99.018 E2.10318
G1 X97.055 Y98.870 E2.10369
G1 X96.941 Y98.553 E2.10470
G1 X96.909 Y98.218 E2.10570
G1 X96.926 Y98.046 E2.10622
G1 X97.019 Y97.724 E2.10722
G1 X97.193 Y97.430 E2.10823
G1 X97.378 Y97.245 E2.10901
G1 X97.431 Y97.192 F7800.000
G1 E0.10901 F2400.00000
G92 E0
G1 X144.668 Y144.698 F7800.000
G1 E2.00000 F2400.00000
G1 F1800.000
G1 X139.417 Y140.452 E2.02013
G1 X131.886 Y134.285 E2.04916
G1 X122.162 Y126.216 E2.08683
G1 X114.645 Y119.902 E2.11610
G1 X106.449 Y112.942 E2.14816
G1 X97.716 Y105.436 E2.18250
G1 X88.613 Y97.509 E2.21849
G1 X83.954 Y93.407 E2.23700
G1 X79.256 Y89.237 E2.25573
G1 X74.541 Y85.015 E2.27460
G1 X69.829 Y80.755 E2.29354
G1 X65.141 Y76.471 E2.31248
G1 X60.496 Y72.178 E2.33133
G1 X55.917 Y67.892 E2.35003
G1 X51.423 Y63.626 E2.36851
G1 X47.035 Y59.395 E2.38668
G1 X42.771 Y55.215 E2.40449
G1 X38.650 Y51.099 E2.42185
G1 X34.690 Y47.063 E2.43871
G1 X30.909 Y43.120 E2.45500
G1 X27.321 Y39.287 E2.47066
G1 X23.943 Y35.576 E2.48562
G1 X20.788 Y32.002 E2.49983
G1 X17.868 Y28.581 E2.51325
G1 X15.195 Y25.324 E2.52581
G1 X12.779 Y22.247 E2.53747
G1 X10.628 Y19.361 E2.54820
G1 X8.751 Y16.681 E2.55796
G1 X7.153 Y14.218 E2.56671
G1 X5.842 Y11.983 E2.57444
G1 X4.821 Y9.989 E2.58112
G1 X4.094 Y8.247 E2.58675
G1 X3.663 Y6.769 E2.59134
G1 X3.525 Y5.573 E2.59493
G1 X3.663 Y4.671 E2.59765
G1 X4.047 Y4.047 E2.59983
G1 X4.671 Y3.663 E2.60202
G1 X5.573 Y3.525 E2.60474
G1 X6.769 Y3.663 E2.60833
G1 X8.247 Y4.094 E2.61292
G1 X9.989 Y4.821 E2.61855
G1 X11.983 Y5.842 E2.62523
G1 X14.218 Y7.153 E2.63295
G1 X16.681 Y8.751 E2.64171
G1 X19.361 Y10.628 E2.65146
G1 X22.247 Y12.779 E2.66219
G1 X25.324 Y15.195 E2.67386
G1 X28.581 Y17.868 E2.68642
G1 X32.002 Y20.788 E2.69983
G1 X35.576 Y23.943 E2.71405
G1 X39.287 Y27.321 E2.72901
G1 X43.120 Y30.909 E2.74466
G1 X47.063 Y34.690 E2.76095
G1 X51.099 Y38.650 E2.77781
G1 X55.215 Y42.771 E2.79518
G1 X59.395 Y47.035 E2.81298
G1 X63.626 Y51.423 E2.83116
G1 X67.892 Y55.917 E2.84963
G1 X72.178 Y60.496 E2.86833
G1 X76.471 Y65.141 E2.88719
G1 X80.755 Y69.829 E2.90613
G1 X85.015 Y74.541 E2.92507
G1 X89.237 Y79.256 E2.94394
G1 X93.407 Y83.953 E2.96267
G1 X101.529 Y93.214 E2.99939
G1 X105.454 Y97.736 E3.01725
G1 X112.959 Y106.469 E3.05158
G1 X116.513 Y110.642 E3.06792
G1 X123.160 Y118.514 E3.09864
G1 X129.116 Y125.641 E3.12634
G1 X134.296 Y131.900 E3.15056
G1 X140.460 Y139.427 E3.17957
G1 X144.678 Y144.643 E3.19957
G1 X145.203 Y145.234 F7800.000
G1 F1800.000
G1 X139.367 Y140.514 E3.22195
G1 X131.835 Y134.347 E3.25098
G1 X122.110 Y126.277 E3.28865
G1 X114.594 Y119.963 E3.31792
G1 X106.397 Y113.003 E3.34999
G1 X97.663 Y105.496 E3.38432
G1 X88.560 Y97.569 E3.42032
G1 X83.901 Y93.466 E3.43883
G1 X79.203 Y89.297 E3.45756
G1 X74.488 Y85.074 E3.47643
G1 X69.775 Y80.814 E3.49537
G1 X65.087 Y76.529 E3.51431
G1 X60.442 Y72.237 E3.53317
G1 X55.863 Y67.950 E3.55187
G1 X51.368 Y63.683 E3.57035
G1 X46.979 Y59.452 E3.58852
G1 X42.715 Y55.271 E3.60633
G1 X38.593 Y51.155 E3.62370
G1 X34.633 Y47.118 E3.64056
G1 X30.851 Y43.175 E3.65685
G1 X27.263 Y39.341 E3.67251
G1 X23.884 Y35.629 E3.68747
G1 X20.728 Y32.055 E3.70169
G1 X17.807 Y28.632 E3.71511
G1 X15.133 Y25.374 E3.72768
G1 X12.715 Y22.295 E3.73935
G1 X10.563 Y19.408 E3.75008
G1 X8.685 Y16.726 E3.75985
G1 X7.086 Y14.260 E3.76861
G1 X5.772 Y12.022 E3.77635
G1 X4.749 Y10.023 E3.78304
G1 X4.019 Y8.273 E3.78870
G1 X3.585 Y6.785 E3.79332
G1 X3.445 Y5.571 E3.79696
G1 X3.586 Y4.643 E3.79976
G1 X3.989 Y3.989 E3.80205
G1 X4.643 Y3.586 E3.80434
G1 X5.571 Y3.445 E3.80714
G1 X6.785 Y3.585 E3.81078
G1 X8.273 Y4.019 E3.81541
G1 X10.023 Y4.749 E3.82106
G1 X12.022 Y5.772 E3.82775
G1 X14.260 Y7.086 E3.83549
G1 X16.726 Y8.685 E3.84425
G1 X19.408 Y10.563 E3.85402
G1 X22.295 Y12.715 E3.86476
G1 X25.374 Y15.133 E3.87643
G1 X28.632 Y17.807 E3.88899
G1 X32.055 Y20.728 E3.90241
G1 X35.629 Y23.884 E3.91663
G1 X39.341 Y27.263 E3.93159
G1 X43.175 Y30.851 E3.94725
G1 X47.118 Y34.633 E3.96354
G1 X51.155 Y38.593 E3.98041
G1 X55.271 Y42.715 E3.99777
G1 X59.452 Y46.979 E4.01558
G1 X63.683 Y51.368 E4.03376
G1 X67.950 Y55.863 E4.05223
G1 X72.237 Y60.442 E4.07094
G1 X76.529 Y65.087 E4.08980
G1 X80.814 Y69.775 E4.10873
G1 X85.074 Y74.488 E4.12768
G1 X89.297 Y79.203 E4.14655
G1 X93.466 Y83.901 E4.16528
G1 X101.589 Y93.161 E4.20201
G1 X105.514 Y97.684 E4.21986
G1 X113.019 Y106.417 E4.25419
G1 X116.574 Y110.590 E4.27054
G1 X123.221 Y118.462 E4.30126
G1 X129.178 Y125.590 E4.32895
G1 X134.358 Y131.849 E4.35318
G1 X140.522 Y139.377 E4.38219
G1 X145.213 Y145.178 E4.40444
G1 X145.739 Y145.769 F7800.000
G1 F1800.000
G1 X139.317 Y140.576 E4.42906
G1 X131.785 Y134.408 E4.45809
G1 X122.059 Y126.338 E4.49577
G1 X114.542 Y120.024 E4.52504
G1 X106.346 Y113.063 E4.55710
G1 X97.611 Y105.557 E4.59144
G1 X88.508 Y97.629 E4.62744
G1 X83.848 Y93.526 E4.64595
G1 X79.150 Y89.356 E4.66468
G1 X74.435 Y85.133 E4.68355
G1 X69.722 Y80.873 E4.70250
G1 X65.033 Y76.588 E4.72143
G1 X60.388 Y72.295 E4.74029
G1 X55.808 Y68.008 E4.75900
G1 X51.313 Y63.741 E4.77748
G1 X46.924 Y59.509 E4.79566
G1 X42.658 Y55.328 E4.81347
G1 X38.536 Y51.211 E4.83084
G1 X34.576 Y47.174 E4.84770
G1 X30.793 Y43.230 E4.86399
G1 X27.204 Y39.395 E4.87965
G1 X23.825 Y35.682 E4.89462
G1 X20.668 Y32.107 E4.90885
G1 X17.746 Y28.683 E4.92227
G1 X15.071 Y25.424 E4.93484
G1 X12.652 Y22.343 E4.94652
G1 X10.499 Y19.455 E4.95726
G1 X8.618 Y16.770 E4.96703
G1 X7.018 Y14.301 E4.97580
G1 X5.702 Y12.060 E4.98355
G1 X4.676 Y10.056 E4.99027
G1 X3.944 Y8.300 E4.99594
G1 X3.506 Y6.801 E5.00060
G1 X3.364 Y5.570 E5.00429
G1 X3.510 Y4.615 E5.00717
G1 X3.931 Y3.931 E5.00956
G1 X4.615 Y3.510 E5.01196
G1 X5.570 Y3.364 E5.01484
G1 X6.801 Y3.506 E5.01853
G1 X8.300 Y3.944 E5.02319
G1 X10.056 Y4.676 E5.02886
G1 X12.060 Y5.702 E5.03558
G1 X14.301 Y7.018 E5.04333
G1 X16.770 Y8.618 E5.05210
G1 X19.455 Y10.499 E5.06187
G1 X22.343 Y12.652 E5.07261
G1 X25.424 Y15.071 E5.08429
G1 X28.683 Y17.746 E5.09686
G1 X32.107 Y20.668 E5.11028
G1 X35.682 Y23.825 E5.12450
G1 X39.395 Y27.204 E5.13947
G1 X43.230 Y30.793 E5.15514
G1 X47.174 Y34.576 E5.17143
G1 X51.211 Y38.536 E5.18829
G1 X55.328 Y42.658 E5.20566
G1 X59.509 Y46.924 E5.22347
G1 X63.741 Y51.313 E5.24165
G1 X68.008 Y55.808 E5.26013
G1 X72.295 Y60.388 E5.27884
G1 X76.588 Y65.033 E5.29769
G1 X80.873 Y69.722 E5.31663
G1 X85.133 Y74.435 E5.33558
G1 X89.356 Y79.150 E5.35445
G1 X93.526 Y83.848 E5.37318
G1 X101.649 Y93.109 E5.40991
G1 X105.574 Y97.632 E5.42777
G1 X113.080 Y106.365 E5.46210
G1 X116.635 Y110.539 E5.47845
G1 X123.282 Y118.411 E5.50917
G1 X129.239 Y125.539 E5.53687
G1 X134.419 Y131.798 E5.56109
G1 X140.584 Y139.327 E5.59010
G1 X145.749 Y145.714 E5.61460
G1 X146.274 Y146.305 F7800.000
G1 F1800.000
G1 X139.266 Y140.637 E5.64147
G1 X131.734 Y134.470 E5.67050
G1 X122.008 Y126.399 E5.70818
G1 X114.491 Y120.085 E5.73745
G1 X106.294 Y113.124 E5.76952
G1 X97.559 Y105.617 E5.80386
G1 X88.455 Y97.688 E5.83985
G1 X83.795 Y93.586 E5.85837
G1 X79.097 Y89.416 E5.87710
G1 X74.381 Y85.193 E5.89597
G1 X69.668 Y80.931 E5.91492
G1 X64.979 Y76.647 E5.93386
G1 X60.334 Y72.353 E5.95272
G1 X55.753 Y68.066 E5.97142
G1 X51.258 Y63.798 E5.98990
G1 X46.868 Y59.567 E6.00808
G1 X42.602 Y55.385 E6.02590
G1 X38.480 Y51.267 E6.04327
G1 X34.518 Y47.229 E6.06013
G1 X30.735 Y43.285 E6.07643
G1 X27.146 Y39.449 E6.09210
G1 X23.765 Y35.735 E6.10707
G1 X20.607 Y32.159 E6.12129
G1 X17.685 Y28.734 E6.13472
G1 X15.009 Y25.474 E6.14730
G1 X12.589 Y22.392 E6.15898
G1 X10.434 Y19.501 E6.16973
G1 X8.552 Y16.815 E6.17951
G1 X6.950 Y14.343 E6.18829
G1 X5.632 Y12.098 E6.19605
G1 X4.604 Y10.090 E6.20278
G1 X3.868 Y8.326 E6.20848
G1 X3.428 Y6.817 E6.21317
G1 X3.284 Y5.568 E6.21691
G1 X3.434 Y4.587 E6.21987
G1 X3.873 Y3.873 E6.22237
G1 X4.587 Y3.434 E6.22487
G1 X5.568 Y3.284 E6.22783
G1 X6.817 Y3.428 E6.23158
G1 X8.326 Y3.868 E6.23627
G1 X10.090 Y4.604 E6.24196
G1 X12.098 Y5.632 E6.24869
G1 X14.343 Y6.950 E6.25645
G1 X16.815 Y8.552 E6.26524
G1 X19.501 Y10.434 E6.27502
G1 X22.392 Y12.589 E6.28576
G1 X25.474 Y15.009 E6.29745
G1 X28.734 Y17.685 E6.31002
G1 X32.159 Y20.607 E6.32345
G1 X35.735 Y23.765 E6.33768
G1 X39.449 Y27.146 E6.35265
G1 X43.285 Y30.735 E6.36831
G1 X47.229 Y34.518 E6.38461
G1 X51.267 Y38.480 E6.40147
G1 X55.385 Y42.602 E6.41885
G1 X59.567 Y46.868 E6.43666
G1 X63.798 Y51.258 E6.45484
G1 X68.066 Y55.753 E6.47332
G1 X72.353 Y60.334 E6.49203
G1 X76.647 Y64.979 E6.51089
G1 X80.931 Y69.668 E6.52983
G1 X85.193 Y74.381 E6.54877
G1 X89.416 Y79.097 E6.56765
G1 X93.586 Y83.795 E6.58638
G1 X101.709 Y93.056 E6.62311
G1 X105.635 Y97.579 E6.64097
G1 X113.141 Y106.313 E6.67530
G1 X116.695 Y110.487 E6.69165
G1 X123.343 Y118.360 E6.72237
G1 X129.300 Y125.488 E6.75007
G1 X134.481 Y131.748 E6.77430
G1 X140.646 Y139.276 E6.80331
G1 X146.285 Y146.250 E6.83005
G1 X145.909 Y145.964 F7800.000
G1 X146.130 Y146.130 F7800.000
G1 F1800.000
G1 X145.782 Y145.782 E6.83075
G1 X145.594 Y145.594 F7800.000
G1 F1800.000
G1 X145.247 Y145.247 E6.83146
G1 X145.059 Y145.059 F7800.000
G1 F1800.000
G1 X144.711 Y144.711 E6.83216
G1 X144.523 Y144.523 F7800.000
G1 F1800.000
G1 X144.175 Y144.175 E6.83286
G1 X144.070 Y144.168 F7800.000
G1 F1800.000
G1 X144.168 Y144.070 E6.83328
G1 X144.118 Y144.007 E6.83352
