; generated by Slic3r 1.3.1-dev (Build 2ef957d) on 2019-11-25 at 09:24:30

; external perimeters extrusion width = 0.55mm (4.37mm^3/s)
; perimeters extrusion width = 0.70mm (11.44mm^3/s)
; infill extrusion width = 0.62mm (13.45mm^3/s)
; solid infill extrusion width = 0.70mm (3.81mm^3/s)
; top infill extrusion width = 0.70mm (2.86mm^3/s)

M107
G92 E0
M104 S200 ; set temperature
G28 ; home all axes
G1 Z5 F5000 ; lift nozzle

; Filament gcode

M109 S200 ; set temperature and wait for it to be reached
G21 ; set units to millimeters
G90 ; use absolute coordinates
M82 ; use absolute distances for extrusion
G92 E0
G1 Z0.350 F7800.000
G1 E-2.00000 F2400.00000
G92 E0
G1 X59.275 Y72.257 F7800.000
G1 E2.00000 F2400.00000
G1 F1800.000
G1 X61.427 Y71.464 E2.07096
G1 X62.607 Y71.358 E2.10761
G1 X137.248 Y71.358 E4.41711
G1 X139.507 Y71.755 E4.48807
G1 X141.495 Y72.899 E4.55904
G1 X142.974 Y74.651 E4.63000
G1 X143.767 Y76.803 E4.70096
G1 X143.779 Y79.097 E4.77192
G1 X143.003 Y81.266 E4.84320
G1 X141.770 Y83.421 E4.92002
G1 X140.368 Y85.708 E5.00303
G1 X138.666 Y88.299 E5.09894
G1 X137.001 Y90.662 E5.18839
G1 X135.390 Y92.808 E5.27141
G1 X133.585 Y95.066 E5.36086
G1 X131.710 Y97.267 E5.45032
G1 X129.767 Y99.408 E5.53978
G1 X127.757 Y101.486 E5.62923
G1 X125.683 Y103.500 E5.71869
G1 X123.547 Y105.449 E5.80814
G1 X121.190 Y107.461 E5.90404
G1 X119.096 Y109.139 E5.98706
G1 X116.786 Y110.877 E6.07651
G1 X114.423 Y112.542 E6.16597
G1 X112.008 Y114.133 E6.25543
G1 X109.544 Y115.646 E6.34489
G1 X106.853 Y117.181 E6.44077
G1 X104.296 Y118.532 E6.53023
G1 X101.698 Y119.800 E6.61969
G1 X99.253 Y120.905 E6.70270
G1 X96.583 Y122.014 E6.79216
G1 X94.994 Y122.604 E6.84460
G1 X84.494 Y125.851 E7.18467
G1 X82.581 Y126.321 E7.24561
G1 X79.750 Y126.904 E7.33506
G1 X76.901 Y127.398 E7.42452
G1 X74.039 Y127.802 E7.51397
G1 X71.372 Y128.097 E7.59699
G1 X68.490 Y128.327 E7.68645
G1 X65.602 Y128.466 E7.77590
G1 X62.711 Y128.515 E7.86536
G1 X60.446 Y128.154 E7.93632
G1 X58.440 Y127.042 E8.00728
G1 X56.934 Y125.312 E8.07825
G1 X56.107 Y123.173 E8.14921
G1 X55.982 Y121.891 E8.18906
G1 X55.982 Y77.983 E9.54763
G1 X56.379 Y75.724 E9.61859
G1 X57.522 Y73.736 E9.68956
G1 X59.218 Y72.305 E9.75820
G1 E7.75820 F2400.00000
G92 E0
G1 X94.637 Y112.910 F7800.000
G1 E2.00000 F2400.00000
G1 F1800.000
G1 X90.663 Y114.411 E2.13144
G1 X88.201 Y115.254 E2.21195
G1 X85.714 Y116.019 E2.29246
G1 X83.205 Y116.706 E2.37296
G1 X82.487 Y116.878 E2.39581
G1 X82.487 Y114.367 E2.47351
G1 X85.032 Y113.671 E2.55515
G1 X87.445 Y112.928 E2.63328
G1 X89.834 Y112.110 E2.71141
G1 X92.196 Y111.218 E2.78954
G1 X94.529 Y110.251 E2.86767
G1 X96.831 Y109.212 E2.94580
G1 X99.098 Y108.101 E3.02393
G1 X101.330 Y106.920 E3.10206
G1 X103.523 Y105.669 E3.18019
G1 X105.676 Y104.349 E3.25832
G1 X107.787 Y102.963 E3.33645
G1 X109.853 Y101.511 E3.41457
G1 X111.872 Y99.995 E3.49270
G1 X113.843 Y98.416 E3.57083
G1 X115.763 Y96.776 E3.64896
G1 X117.630 Y95.077 E3.72709
G1 X119.444 Y93.320 E3.80522
G1 X121.201 Y91.506 E3.88335
G1 X122.900 Y89.639 E3.96148
G1 X124.540 Y87.719 E4.03961
G1 X126.119 Y85.748 E4.11774
G1 X127.635 Y83.729 E4.19587
G1 X129.087 Y81.663 E4.27399
G1 X130.453 Y79.583 E4.35099
G1 X134.475 Y79.583 E4.47545
G1 X133.368 Y81.390 E4.54101
G1 X131.923 Y83.590 E4.62247
G1 X130.409 Y85.744 E4.70393
G1 X128.828 Y87.850 E4.78540
G1 X127.182 Y89.904 E4.86686
G1 X125.472 Y91.906 E4.94832
G1 X123.700 Y93.854 E5.02978
G1 X121.868 Y95.744 E5.11124
G1 X119.977 Y97.576 E5.19271
G1 X118.030 Y99.348 E5.27417
G1 X116.028 Y101.058 E5.35563
G1 X113.973 Y102.704 E5.43709
G1 X111.868 Y104.285 E5.51855
G1 X109.714 Y105.799 E5.60002
G1 X107.514 Y107.245 E5.68148
G1 X105.269 Y108.620 E5.76294
G1 X102.982 Y109.925 E5.84440
G1 X100.655 Y111.157 E5.92587
G1 X98.291 Y112.315 E6.00733
G1 X95.891 Y113.398 E6.08879
G1 X94.637 Y113.918 E6.13080
G1 X94.637 Y112.985 E6.15967
G1 X94.012 Y113.814 F7800.000
G1 F1800.000
G1 X90.875 Y114.999 E6.26344
G1 X88.394 Y115.849 E6.34456
G1 X85.889 Y116.619 E6.42567
G1 X83.360 Y117.311 E6.50678
G1 X81.862 Y117.671 E6.55446
G1 X81.862 Y113.871 E6.67204
G1 X82.441 Y113.732 E6.69047
G1 X84.858 Y113.070 E6.76799
G1 X87.252 Y112.334 E6.84551
G1 X89.623 Y111.522 E6.92303
G1 X91.966 Y110.637 E7.00055
G1 X94.281 Y109.678 E7.07807
G1 X96.565 Y108.647 E7.15560
G1 X98.815 Y107.545 E7.23312
G1 X101.029 Y106.372 E7.31064
G1 X103.205 Y105.131 E7.38816
G1 X105.341 Y103.822 E7.46568
G1 X107.435 Y102.446 E7.54321
G1 X109.485 Y101.006 E7.62073
G1 X111.489 Y99.501 E7.69825
G1 X113.444 Y97.935 E7.77577
G1 X115.349 Y96.308 E7.85329
G1 X117.202 Y94.621 E7.93081
G1 X119.002 Y92.878 E8.00834
G1 X120.745 Y91.079 E8.08586
G1 X122.431 Y89.225 E8.16338
G1 X124.059 Y87.320 E8.24090
G1 X125.625 Y85.365 E8.31842
G1 X127.129 Y83.361 E8.39594
G1 X128.570 Y81.312 E8.47346
G1 X130.116 Y78.958 E8.56059
G1 X135.570 Y78.958 E8.72934
G1 X135.282 Y79.463 E8.74733
G1 X133.896 Y81.725 E8.82940
G1 X132.440 Y83.941 E8.91146
G1 X130.915 Y86.112 E8.99353
G1 X129.322 Y88.233 E9.07560
G1 X127.664 Y90.303 E9.15767
G1 X125.941 Y92.320 E9.23974
G1 X124.156 Y94.281 E9.32181
G1 X122.310 Y96.186 E9.40388
G1 X120.405 Y98.032 E9.48595
G1 X118.443 Y99.817 E9.56802
G1 X116.427 Y101.540 E9.65009
G1 X114.356 Y103.198 E9.73216
G1 X112.235 Y104.791 E9.81423
G1 X110.065 Y106.316 E9.89630
G1 X107.848 Y107.772 E9.97837
G1 X105.587 Y109.158 E10.06044
G1 X103.283 Y110.472 E10.14251
G1 X100.939 Y111.713 E10.22458
G1 X98.557 Y112.880 E10.30665
G1 X96.139 Y113.972 E10.38872
G1 X94.012 Y114.853 E10.45997
G1 X94.012 Y113.889 E10.48980
G1 X93.387 Y114.718 F7800.000
G1 F1800.000
G1 X91.086 Y115.587 E10.56590
G1 X88.587 Y116.443 E10.64762
G1 X86.063 Y117.220 E10.72934
G1 X83.516 Y117.916 E10.81106
G1 X82.187 Y118.235 E10.85334
G1 X82.187 Y119.246 E10.88462
G1 X81.237 Y119.475 E10.91485
G1 X81.237 Y113.378 E11.10348
G1 X82.286 Y113.126 E11.13685
G1 X84.683 Y112.470 E11.21376
G1 X87.059 Y111.739 E11.29067
G1 X89.411 Y110.934 E11.36759
G1 X91.736 Y110.056 E11.44450
G1 X94.033 Y109.104 E11.52142
G1 X96.299 Y108.081 E11.59833
G1 X98.531 Y106.988 E11.67525
G1 X100.728 Y105.825 E11.75216
G1 X102.887 Y104.593 E11.82907
G1 X105.006 Y103.294 E11.90599
G1 X107.084 Y101.929 E11.98290
G1 X109.118 Y100.500 E12.05982
G1 X111.106 Y99.007 E12.13673
G1 X113.046 Y97.453 E12.21365
G1 X114.936 Y95.839 E12.29056
G1 X116.775 Y94.166 E12.36747
G1 X118.560 Y92.436 E12.44439
G1 X120.290 Y90.651 E12.52130
G1 X121.963 Y88.812 E12.59822
G1 X123.577 Y86.922 E12.67513
G1 X125.131 Y84.982 E12.75205
G1 X126.624 Y82.994 E12.82896
G1 X128.053 Y80.960 E12.90587
G1 X129.779 Y78.333 E13.00313
G1 X136.646 Y78.333 E13.21560
G1 X135.820 Y79.781 E13.26717
G1 X134.424 Y82.059 E13.34985
G1 X132.957 Y84.293 E13.43253
G1 X131.420 Y86.479 E13.51521
G1 X129.816 Y88.616 E13.59788
G1 X128.145 Y90.701 E13.68056
G1 X126.410 Y92.733 E13.76324
G1 X124.611 Y94.709 E13.84591
G1 X122.752 Y96.628 E13.92859
G1 X120.833 Y98.488 E14.01127
G1 X118.857 Y100.286 E14.09394
G1 X116.825 Y102.021 E14.17662
G1 X114.739 Y103.692 E14.25930
G1 X112.603 Y105.296 E14.34198
G1 X110.417 Y106.833 E14.42465
G1 X108.183 Y108.300 E14.50733
G1 X105.905 Y109.696 E14.59001
G1 X103.584 Y111.020 E14.67268
G1 X101.222 Y112.270 E14.75536
G1 X98.823 Y113.446 E14.83804
G1 X96.388 Y114.545 E14.92071
G1 X93.919 Y115.568 E15.00339
G1 X93.387 Y115.769 E15.02098
G1 X93.387 Y114.793 E15.05118
G1 X93.180 Y114.263 F7800.000
G1 E13.05118 F2400.00000
G92 E0
G1 X129.746 Y78.383 F7800.000
G1 E2.00000 F2400.00000
G1 F1800.000
G1 X62.607 Y78.383 E4.40981
G1 E2.40981 F2400.00000
G92 E0
G1 X63.007 Y115.256 F7800.000
G1 E2.00000 F2400.00000
G1 F1800.000
G1 X63.007 Y120.895 E2.20241
G1 F1800.000
G1 X63.050 Y121.048 E2.20878
G1 F1800.000
G1 X63.094 Y121.200 E2.21583
G1 F1800.000
G1 X63.137 Y121.352 E2.22356
G1 X63.276 Y121.369 E2.23038
G1 F1800.000
G1 X63.415 Y121.387 E2.23666
G1 X65.274 Y121.358 E2.32027
G1 X67.939 Y121.232 E2.44020
G1 X70.598 Y121.023 E2.56013
G1 X73.242 Y120.731 E2.67971
G1 X75.891 Y120.354 E2.79999
G1 X78.511 Y119.897 E2.91957
G1 X81.237 Y119.332 E3.04472
G1 X81.712 Y119.039 F7800.000
G1 F1800.000
G1 X81.712 Y118.028 E3.05724
G1 E1.05724 F2400.00000
G92 E0
G1 X82.869 Y115.087 F7800.000
G1 E2.00000 F2400.00000
G1 F1800.000
G1 X83.355 Y114.601 E2.02151
G1 X84.586 Y114.264 E2.06145
G1 X82.869 Y115.981 E2.13744
G1 X82.869 Y116.326 E2.14826
G1 X83.624 Y116.120 E2.17276
G1 X85.834 Y113.909 E2.27060
G1 X87.125 Y113.512 E2.31289
G1 X84.854 Y115.783 E2.41341
G1 X86.124 Y115.408 E2.45484
G1 X88.445 Y113.087 E2.55758
G1 X89.804 Y112.621 E2.60255
G1 X87.415 Y115.011 E2.70831
G1 X88.756 Y114.564 E2.75255
G1 X91.213 Y112.106 E2.86134
G1 X92.650 Y111.563 E2.90942
G1 X90.115 Y114.098 E3.02164
G1 X90.208 Y114.066 E3.02472
G1 X91.547 Y113.561 E3.06951
G1 X94.175 Y110.932 E3.18585
G1 X95.021 Y110.582 E3.21449
G1 X95.747 Y110.254 E3.23946
G1 X92.984 Y113.018 E3.36180
G1 X94.420 Y112.475 E3.40988
G1 X97.380 Y109.515 E3.54088
G1 X99.133 Y108.657 E3.60196
G1 X95.019 Y112.770 E3.78405
G1 X95.019 Y113.226 E3.79830
G1 X95.400 Y113.068 E3.81122
G1 X95.793 Y112.890 E3.82470
G1 X100.991 Y107.692 E4.05480
G1 X101.874 Y107.224 E4.08608
G1 X102.988 Y106.589 E4.12621
G1 X97.422 Y112.154 E4.37255
G1 X97.782 Y111.992 E4.38488
G1 X99.148 Y111.323 E4.43251
G1 X105.176 Y105.294 E4.69935
G1 X106.254 Y104.634 E4.73891
G1 X107.643 Y103.721 E4.79093
G1 X100.965 Y110.399 E5.08653
G1 X102.438 Y109.620 E5.13867
G1 X102.906 Y109.353 E5.15555
G1 X110.552 Y101.707 E5.49397
G1 X112.498 Y100.246 E5.57014
G1 X114.580 Y98.572 E5.65376
G1 X105.017 Y108.135 E6.07704
G1 X106.936 Y106.960 E6.14745
G1 X107.376 Y106.671 E6.16395
G1 X132.794 Y81.252 E7.28905
G1 X131.649 Y82.996 E7.35434
G1 X130.950 Y83.991 E7.39241
G1 X110.115 Y104.826 E8.31464
G1 X111.258 Y104.023 E8.35836
G1 X113.516 Y102.318 E8.44692
G1 X128.442 Y87.393 E9.10759
G1 X126.944 Y89.263 E9.18261
G1 X125.246 Y91.250 E9.26440
G1 X123.488 Y93.183 E9.34619
G1 X121.179 Y95.550 E9.44969
G1 E7.44969 F2400.00000
G92 E0
G1 X124.696 Y88.456 F7800.000
G1 E2.00000 F2400.00000
G1 F1800.000
G1 X133.188 Y79.965 E2.37587
G1 X132.294 Y79.965 E2.40385
G1 X127.831 Y84.428 E2.60140
G1 X129.361 Y82.257 E2.68452
G1 X129.845 Y81.520 E2.71214
G1 X131.400 Y79.965 E2.78096
G1 Z0.650 F7800.000
G1 E0.78096 F2400.00000
G92 E0
G1 X94.508 Y112.847 F7800.000
G1 E2.00000 F2400.00000
G1 F3600.000
G1 X90.627 Y114.313 E2.11191
G1 X88.169 Y115.155 E2.18202
G1 X85.685 Y115.919 E2.25212
G1 X83.179 Y116.605 E2.32222
G1 X82.358 Y116.802 E2.34498
G1 X82.358 Y114.025 E2.41988
G1 X84.932 Y113.326 E2.49182
G1 X87.335 Y112.587 E2.55964
G1 X89.713 Y111.773 E2.62745
G1 X92.064 Y110.884 E2.69526
G1 X94.387 Y109.922 E2.76308
G1 X96.678 Y108.888 E2.83089
G1 X98.936 Y107.782 E2.89871
G1 X101.157 Y106.606 E2.96652
G1 X103.341 Y105.360 E3.03433
G1 X105.484 Y104.047 E3.10215
G1 X107.585 Y102.666 E3.16996
G1 X109.642 Y101.221 E3.23777
G1 X111.652 Y99.712 E3.30559
G1 X113.614 Y98.140 E3.37340
G1 X115.525 Y96.507 E3.44122
G1 X117.385 Y94.816 E3.50903
G1 X119.190 Y93.066 E3.57684
G1 X120.939 Y91.261 E3.64466
G1 X122.631 Y89.402 E3.71247
G1 X124.264 Y87.490 E3.78029
G1 X125.836 Y85.528 E3.84810
G1 X127.345 Y83.518 E3.91591
G1 X128.790 Y81.461 E3.98373
G1 X130.109 Y79.454 E4.04850
G1 X134.431 Y79.454 E4.16511
G1 X133.280 Y81.333 E4.22456
G1 X131.836 Y83.531 E4.29549
G1 X130.324 Y85.683 E4.36643
G1 X128.745 Y87.785 E4.43736
G1 X127.101 Y89.837 E4.50830
G1 X125.393 Y91.837 E4.57923
G1 X123.624 Y93.782 E4.65016
G1 X121.794 Y95.670 E4.72110
G1 X119.906 Y97.500 E4.79203
G1 X117.961 Y99.270 E4.86297
G1 X115.961 Y100.977 E4.93390
G1 X113.909 Y102.621 E5.00484
G1 X111.806 Y104.200 E5.07577
G1 X109.655 Y105.712 E5.14671
G1 X107.457 Y107.156 E5.21764
G1 X105.215 Y108.530 E5.28858
G1 X102.931 Y109.833 E5.35951
G1 X100.607 Y111.063 E5.43045
G1 X98.246 Y112.220 E5.50138
G1 X95.849 Y113.302 E5.57231
G1 X94.508 Y113.857 E5.61148
G1 X94.508 Y112.922 E5.63672
G1 X93.873 Y113.766 F7800.000
G1 F3600.000
G1 X90.843 Y114.911 E5.72409
G1 X88.365 Y115.759 E5.79473
G1 X85.863 Y116.529 E5.86537
G1 X83.337 Y117.220 E5.93601
G1 X81.723 Y117.608 E5.98080
G1 X81.723 Y113.524 E6.09096
G1 X82.349 Y113.374 E6.10834
G1 X84.755 Y112.716 E6.17562
G1 X87.138 Y111.983 E6.24289
G1 X89.498 Y111.175 E6.31017
G1 X91.830 Y110.293 E6.37744
G1 X94.134 Y109.339 E6.44472
G1 X96.407 Y108.313 E6.51199
G1 X98.647 Y107.215 E6.57927
G1 X100.851 Y106.049 E6.64654
G1 X103.017 Y104.813 E6.71382
G1 X105.143 Y103.510 E6.78109
G1 X107.228 Y102.141 E6.84837
G1 X109.268 Y100.707 E6.91564
G1 X111.262 Y99.209 E6.98292
G1 X113.209 Y97.650 E7.05019
G1 X115.105 Y96.031 E7.11747
G1 X116.950 Y94.352 E7.18474
G1 X118.740 Y92.617 E7.25202
G1 X120.476 Y90.826 E7.31929
G1 X122.154 Y88.981 E7.38657
G1 X123.774 Y87.085 E7.45384
G1 X125.333 Y85.139 E7.52112
G1 X126.831 Y83.144 E7.58839
G1 X128.265 Y81.104 E7.65567
G1 X129.766 Y78.819 E7.72943
G1 X135.541 Y78.819 E7.88522
G1 X135.201 Y79.415 E7.90373
G1 X133.816 Y81.674 E7.97521
G1 X132.362 Y83.888 E8.04668
G1 X130.838 Y86.056 E8.11816
G1 X129.248 Y88.175 E8.18963
G1 X127.591 Y90.243 E8.26110
G1 X125.870 Y92.257 E8.33257
G1 X124.087 Y94.217 E8.40405
G1 X122.243 Y96.120 E8.47552
G1 X120.341 Y97.963 E8.54699
G1 X118.381 Y99.746 E8.61847
G1 X116.366 Y101.467 E8.68994
G1 X114.299 Y103.124 E8.76142
G1 X112.180 Y104.715 E8.83289
G1 X110.012 Y106.238 E8.90436
G1 X107.798 Y107.693 E8.97583
G1 X105.539 Y109.077 E9.04731
G1 X103.237 Y110.390 E9.11878
G1 X100.896 Y111.629 E9.19026
G1 X98.517 Y112.795 E9.26173
G1 X96.102 Y113.885 E9.33320
G1 X93.873 Y114.809 E9.39829
G1 X93.873 Y113.841 E9.42439
G1 X93.312 Y114.578 F7800.000
G1 F1800.000
G1 X91.033 Y115.439 E9.47461
G1 X88.539 Y116.293 E9.52894
G1 X86.019 Y117.068 E9.58327
G1 X83.476 Y117.763 E9.63761
G1 X82.262 Y118.055 E9.66334
G1 X82.262 Y119.065 E9.68417
G1 X81.127 Y119.338 E9.70822
G1 X78.516 Y119.879 E9.76319
G1 X75.888 Y120.337 E9.81816
G1 X73.248 Y120.713 E9.87313
G1 X70.597 Y121.006 E9.92810
G1 X67.938 Y121.215 E9.98307
G1 X65.274 Y121.341 E10.03804
G1 X62.882 Y121.378 E10.08734
G1 X62.882 Y120.946 E10.09625
G1 X65.260 Y120.908 E10.14527
G1 X67.911 Y120.783 E10.19996
G1 X70.556 Y120.575 E10.25465
G1 X73.193 Y120.284 E10.30934
G1 X75.820 Y119.910 E10.36403
G1 X78.434 Y119.454 E10.41872
G1 X81.162 Y118.889 E10.47613
G1 X81.162 Y113.082 E10.59580
G1 X82.210 Y112.831 E10.61801
G1 X84.598 Y112.177 E10.66905
G1 X86.965 Y111.449 E10.72008
G1 X89.308 Y110.647 E10.77112
G1 X91.624 Y109.772 E10.82215
G1 X93.912 Y108.824 E10.87319
G1 X96.169 Y107.805 E10.92422
G1 X98.392 Y106.716 E10.97526
G1 X100.581 Y105.557 E11.02630
G1 X102.732 Y104.330 E11.07733
G1 X104.843 Y103.037 E11.12837
G1 X106.913 Y101.677 E11.17940
G1 X108.939 Y100.253 E11.23044
G1 X110.919 Y98.766 E11.28147
G1 X112.851 Y97.218 E11.33251
G1 X114.734 Y95.610 E11.38355
G1 X116.566 Y93.943 E11.43458
G1 X118.344 Y92.220 E11.48562
G1 X120.067 Y90.442 E11.53665
G1 X121.734 Y88.610 E11.58769
G1 X123.342 Y86.728 E11.63873
G1 X124.890 Y84.795 E11.68976
G1 X126.377 Y82.815 E11.74080
G1 X127.801 Y80.789 E11.79183
G1 X129.463 Y78.258 E11.85424
G1 X136.506 Y78.258 E11.99939
G1 X135.683 Y79.700 E12.03361
G1 X134.290 Y81.975 E12.08858
G1 X132.826 Y84.204 E12.14355
G1 X131.292 Y86.386 E12.19852
G1 X129.691 Y88.519 E12.25349
G1 X128.023 Y90.600 E12.30846
G1 X126.291 Y92.628 E12.36343
G1 X124.496 Y94.601 E12.41840
G1 X122.640 Y96.516 E12.47337
G1 X120.725 Y98.372 E12.52834
G1 X118.752 Y100.167 E12.58331
G1 X116.724 Y101.899 E12.63828
G1 X114.642 Y103.567 E12.69325
G1 X112.510 Y105.168 E12.74821
G1 X110.327 Y106.702 E12.80318
G1 X108.098 Y108.166 E12.85815
G1 X105.824 Y109.560 E12.91312
G1 X103.508 Y110.881 E12.96809
G1 X101.150 Y112.129 E13.02306
G1 X98.755 Y113.302 E13.07803
G1 X96.325 Y114.400 E13.13300
G1 X93.860 Y115.421 E13.18797
G1 X93.312 Y115.628 E13.20005
G1 X93.312 Y114.653 E13.22016
G1 X93.102 Y114.124 F7800.000
G1 E11.22016 F2400.00000
G92 E0
G1 X129.381 Y78.383 F7800.000
G1 E2.00000 F2400.00000
G1 F1800.000
G1 X62.607 Y78.383 E4.08473
G1 E2.08473 F2400.00000
G92 E0
G1 X63.007 Y115.026 F7800.000
G1 E2.00000 F2400.00000
G1 F1800.000
G1 X63.007 Y120.944 E2.18476
G1 E0.18476 F2400.00000
G92 E0
