; generated by Slic3r 1.3.1-dev (Build 2ef957d) on 2019-11-25 at 09:24:51

; external perimeters extrusion width = 0.55mm (4.37mm^3/s)
; perimeters extrusion width = 0.70mm (11.44mm^3/s)
; infill extrusion width = 0.62mm (13.45mm^3/s)
; solid infill extrusion width = 0.70mm (3.81mm^3/s)
; top infill extrusion width = 0.70mm (2.86mm^3/s)

M107
G92 E0
M104 S200 ; set temperature
G28 ; home all axes
G1 Z5 F5000 ; lift nozzle

; Filament gcode

M109 S200 ; set temperature and wait for it to be reached
G21 ; set units to millimeters
G90 ; use absolute coordinates
M82 ; use absolute distances for extrusion
G92 E0
G1 Z0.350 F7800.000
G1 E-2.00000 F2400.00000
G92 E0
G1 X-15.000 Y92.038 F7800.000
G1 E2.00000 F2400.00000
G1 F1800.000
G1 X215.000 Y92.038 E9.11650
G1 X217.259 Y92.435 E9.18746
G1 X219.247 Y93.578 E9.25843
G1 X220.726 Y95.331 E9.32939
G1 X221.519 Y97.483 E9.40035
G1 X221.625 Y98.663 E9.43700
G1 X221.625 Y101.337 E9.51976
G1 X221.228 Y103.596 E9.59073
G1 X220.085 Y105.584 E9.66169
G1 X218.332 Y107.063 E9.73265
G1 X216.180 Y107.856 E9.80361
G1 X215.000 Y107.962 E9.84026
G1 X-15.000 Y107.962 E16.95677
G1 X-17.259 Y107.565 E17.02773
G1 X-19.247 Y106.422 E17.09869
G1 X-20.726 Y104.669 E17.16965
G1 X-21.519 Y102.517 E17.24061
G1 X-21.625 Y101.337 E17.27727
G1 X-21.625 Y98.663 E17.36003
G1 X-21.228 Y96.404 E17.43099
G1 X-20.085 Y94.416 E17.50195
G1 X-18.332 Y92.937 E17.57291
G1 X-16.180 Y92.144 E17.64388
G1 X-15.075 Y92.044 E17.67821
G1 E15.67821 F2400.00000
G92 E0
G1 X-14.025 Y100.362 F7800.000
G1 E2.00000 F2400.00000
G1 F1800.000
G1 X-14.025 Y99.638 E2.02243
G1 X-10.566 Y99.638 E2.12946
G1 X-10.566 Y100.362 E2.15189
G1 X-13.950 Y100.362 E2.25660
G1 X-14.650 Y100.987 F7800.000
G1 F1800.000
G1 X-14.650 Y99.013 E2.31771
G1 X-9.686 Y99.013 E2.47131
G1 X-9.857 Y99.397 E2.48433
G1 X-9.941 Y99.796 E2.49695
G1 X-9.941 Y100.204 E2.50956
G1 X-9.857 Y100.603 E2.52218
G1 X-9.686 Y100.987 E2.53520
G1 X-14.575 Y100.987 E2.68648
G1 X-14.412 Y100.548 F7800.000
G1 X-13.713 Y100.000 F7800.000
G1 F1800.000
G1 X-10.878 Y100.000 E2.68998
G1 E0.68998 F2400.00000
G92 E0
G1 X-5.434 Y100.362 F7800.000
G1 E2.00000 F2400.00000
G1 F1800.000
G1 X-5.434 Y99.638 E2.02243
G1 X97.434 Y99.638 E5.20530
G1 X97.434 Y100.362 E5.22773
G1 X-5.359 Y100.362 E8.40828
G1 X-6.314 Y100.987 F7800.000
G1 F1800.000
G1 X-6.143 Y100.603 E8.42129
G1 X-6.059 Y100.204 E8.43392
G1 X-6.059 Y99.796 E8.44653
G1 X-6.143 Y99.397 E8.45915
G1 X-6.314 Y99.013 E8.47217
G1 X98.315 Y99.013 E11.70952
G1 X98.144 Y99.397 E11.72253
G1 X98.059 Y99.796 E11.73516
G1 X98.059 Y100.204 E11.74778
G1 X98.144 Y100.603 E11.76041
G1 X98.315 Y100.987 E11.77342
G1 X-6.239 Y100.987 E15.00846
G1 X-6.012 Y100.695 F7800.000
G1 X-5.122 Y100.000 F7800.000
G1 F1800.000
G1 X97.121 Y100.000 E15.13420
G1 E13.13420 F2400.00000
G92 E0
G1 X102.566 Y100.362 F7800.000
G1 E2.00000 F2400.00000
G1 F1800.000
G1 X102.566 Y99.638 E2.02243
G1 X205.434 Y99.638 E5.20530
G1 X205.434 Y100.362 E5.22773
G1 X102.641 Y100.362 E8.40828
G1 X101.685 Y100.987 F7800.000
G1 F1800.000
G1 X101.856 Y100.603 E8.42129
G1 X101.941 Y100.204 E8.43391
G1 X101.941 Y99.796 E8.44654
G1 X101.856 Y99.397 E8.45916
G1 X101.685 Y99.013 E8.47217
G1 X206.314 Y99.013 E11.70953
G1 X206.143 Y99.397 E11.72255
G1 X206.059 Y99.796 E11.73517
G1 X206.059 Y100.204 E11.74778
G1 X206.143 Y100.603 E11.76040
G1 X206.314 Y100.987 E11.77342
G1 X101.760 Y100.987 E15.00846
G1 X101.987 Y100.695 F7800.000
G1 X102.879 Y100.000 F7800.000
G1 F1800.000
G1 X205.122 Y100.000 E15.13420
G1 E13.13420 F2400.00000
G92 E0
G1 X210.566 Y100.362 F7800.000
G1 E2.00000 F2400.00000
G1 F1800.000
G1 X210.566 Y99.638 E2.02243
G1 X214.025 Y99.638 E2.12946
G1 X214.025 Y100.362 E2.15189
G1 X210.641 Y100.362 E2.25660
G1 X209.686 Y100.987 F7800.000
G1 F1800.000
G1 X209.857 Y100.603 E2.26962
G1 X209.941 Y100.204 E2.28225
G1 X209.941 Y99.796 E2.29485
G1 X209.857 Y99.397 E2.30748
G1 X209.686 Y99.013 E2.32050
G1 X214.650 Y99.013 E2.47410
G1 X214.650 Y100.987 E2.53520
G1 X209.761 Y100.987 E2.68648
G1 X209.949 Y100.659 F7800.000
G1 X210.878 Y100.000 F7800.000
G1 F1800.000
G1 X213.713 Y100.000 E2.68998
G1 Z0.650 F7800.000
G1 X210.967 Y100.771 F7800.000
G1 F900.000
G1 X211.062 Y100.321 E2.70239
G1 X211.062 Y99.679 E2.71969
G1 X210.967 Y99.229 E2.73210
G1 X213.529 Y99.229 E2.80120
G1 X213.529 Y100.771 E2.84279
G1 X211.042 Y100.771 E2.90986
G1 X210.031 Y101.406 F7800.000
G1 F900.000
G1 X210.321 Y100.753 E2.92915
G1 X210.427 Y100.254 E2.94290
G1 X210.427 Y99.746 E2.95663
G1 X210.321 Y99.247 E2.97039
G1 X210.031 Y98.594 E2.98967
G1 X214.164 Y98.594 E3.10118
G1 X214.164 Y101.406 E3.17706
G1 X210.106 Y101.406 E3.28655
G1 X208.758 Y101.967 F7800.000

G1 F3600.000
G1 X208.700 Y101.751 E3.29276
G1 X208.983 Y101.587 E3.30185

G1 F1800.000
G1 X209.103 Y101.518 E3.30470
G1 X209.394 Y101.256 E3.31278
G1 X209.625 Y100.938 E3.32088
G1 X209.785 Y100.580 E3.32897
G1 X209.866 Y100.196 E3.33705
G1 X209.866 Y99.804 E3.34513
G1 X209.785 Y99.420 E3.35321
G1 X209.625 Y99.062 E3.36130
G1 X209.394 Y98.744 E3.36940
G1 X209.103 Y98.482 E3.37748
G1 X208.983 Y98.413 E3.38033

G1 F3600.000
G1 X208.700 Y98.249 E3.38942
G1 X208.758 Y98.033 E3.39563
G1 X214.725 Y98.033 E3.56139
G1 X214.725 Y98.413 E3.57194

G1 F1800.000
G1 X214.725 Y101.587 E3.63737

G1 F3600.000
G1 X214.725 Y101.967 E3.64792
G1 X208.833 Y101.967 E3.81160

G1 E1.81160 F2400.00000
G92 E0
G1 X208.735 Y98.117 F7800.000
G1 E2.00000 F2400.00000
G1 F1800.000
G1 X208.034 Y98.080 E2.01755
G1 X207.265 Y98.117 E2.03677
G1 E0.03677 F2400.00000
G92 E0
G1 X205.033 Y100.771 F7800.000
G1 E2.00000 F2400.00000
G1 F3600.000
G1 X102.967 Y100.771 E4.75338
G1 X103.062 Y100.322 E4.76576
G1 X103.062 Y99.678 E4.78312
G1 X102.967 Y99.229 E4.79551
G1 X205.033 Y99.229 E7.54888
G1 X204.938 Y99.679 E7.56129
G1 X204.938 Y100.321 E7.57860
G1 X205.017 Y100.697 E7.58898
G1 X205.969 Y101.406 F7800.000
G1 F3600.000
G1 X102.030 Y101.406 E10.39289
G1 X102.321 Y100.754 E10.41216
G1 X102.427 Y100.255 E10.42592
G1 X102.427 Y99.745 E10.43968
G1 X102.321 Y99.246 E10.45344
G1 X102.030 Y98.594 E10.47271
G1 X205.969 Y98.594 E13.27662
G1 X205.679 Y99.247 E13.29590
G1 X205.573 Y99.746 E13.30966
G1 X205.573 Y100.254 E13.32339
G1 X205.679 Y100.753 E13.33714
G1 X205.939 Y101.338 E13.35440
G1 X207.242 Y101.967 F7800.000

G1 F3600.000
G1 X100.757 Y101.967 E16.31232
G1 X100.699 Y101.751 E16.31853
G1 X100.983 Y101.587 E16.32763

G1 F1800.000
G1 X101.103 Y101.518 E16.33048
G1 X101.395 Y101.256 E16.33857
G1 X101.625 Y100.938 E16.34665
G1 X101.785 Y100.580 E16.35474
G1 X101.866 Y100.196 E16.36283
G1 X101.866 Y99.804 E16.37091
G1 X101.785 Y99.420 E16.37900
G1 X101.625 Y99.062 E16.38708
G1 X101.395 Y98.744 E16.39517
G1 X101.103 Y98.482 E16.40325
G1 X100.983 Y98.413 E16.40610

G1 F3600.000
G1 X100.699 Y98.249 E16.41520
G1 X100.757 Y98.033 E16.42141
G1 X207.242 Y98.033 E19.37933
G1 X207.300 Y98.249 E19.38554
G1 X207.017 Y98.413 E19.39463

G1 F1800.000
G1 X206.897 Y98.482 E19.39748
G1 X206.606 Y98.744 E19.40557
G1 X206.375 Y99.062 E19.41366
G1 X206.215 Y99.420 E19.42175
G1 X206.134 Y99.804 E19.42983
G1 X206.134 Y100.196 E19.43791
G1 X206.215 Y100.580 E19.44599
G1 X206.375 Y100.938 E19.45409
G1 X206.606 Y101.256 E19.46218
G1 X206.897 Y101.518 E19.47026
G1 X207.017 Y101.587 E19.47311

G1 F3600.000
G1 X207.300 Y101.751 E19.48220
G1 X207.262 Y101.895 E19.48633

G1 X207.265 Y101.883 F7800.000
G1 F1800.000
G1 X208.034 Y101.920 E19.50555
G1 X208.735 Y101.883 E19.52310
G1 E17.52310 F2400.00000
G92 E0
G1 X100.735 Y101.883 F7800.000
G1 E2.00000 F2400.00000
G1 F1800.000
G1 X100.034 Y101.920 E2.01754
G1 X99.265 Y101.883 E2.03676
G1 E0.03676 F2400.00000
G92 E0
G1 X99.265 Y98.117 F7800.000
G1 E2.00000 F2400.00000
G1 F1800.000
G1 X100.034 Y98.080 E2.01922
G1 X100.735 Y98.117 E2.03676
G1 E0.03676 F2400.00000
G92 E0
G1 X97.033 Y100.771 F7800.000
G1 E2.00000 F2400.00000
G1 F3600.000
G1 X-5.033 Y100.771 E4.75338
G1 X-4.938 Y100.321 E4.76579
G1 X-4.938 Y99.679 E4.78309
G1 X-5.033 Y99.229 E4.79550
G1 X97.033 Y99.229 E7.54888
G1 X96.938 Y99.678 E7.56126
G1 X96.938 Y100.322 E7.57862
G1 X97.017 Y100.697 E7.58898
G1 X97.970 Y101.406 F7800.000
G1 F3600.000
G1 X-5.969 Y101.406 E10.39289
G1 X-5.679 Y100.753 E10.41218
G1 X-5.573 Y100.254 E10.42593
G1 X-5.573 Y99.746 E10.43966
G1 X-5.679 Y99.247 E10.45342
G1 X-5.969 Y98.594 E10.47270
G1 X97.970 Y98.594 E13.27661
G1 X97.679 Y99.246 E13.29588
G1 X97.573 Y99.745 E13.30964
G1 X97.573 Y100.255 E13.32340
G1 X97.679 Y100.754 E13.33716
G1 X97.939 Y101.338 E13.35440
G1 X99.243 Y101.967 F7800.000

G1 F3600.000
G1 X-7.242 Y101.967 E16.31232
G1 X-7.300 Y101.751 E16.31853
G1 X-7.017 Y101.587 E16.32762

G1 F1800.000
G1 X-6.897 Y101.518 E16.33047
G1 X-6.606 Y101.256 E16.33855
G1 X-6.375 Y100.938 E16.34665
G1 X-6.215 Y100.580 E16.35474
G1 X-6.134 Y100.196 E16.36282
G1 X-6.134 Y99.804 E16.37090
G1 X-6.215 Y99.420 E16.37898
G1 X-6.375 Y99.062 E16.38707
G1 X-6.606 Y98.744 E16.39517
G1 X-6.897 Y98.482 E16.40325
G1 X-7.017 Y98.413 E16.40610

G1 F3600.000
G1 X-7.300 Y98.249 E16.41519
G1 X-7.242 Y98.033 E16.42140
G1 X99.243 Y98.033 E19.37932
G1 X99.301 Y98.249 E19.38553
G1 X99.017 Y98.413 E19.39463

G1 F1800.000
G1 X98.897 Y98.482 E19.39748
G1 X98.605 Y98.744 E19.40557
G1 X98.375 Y99.062 E19.41365
G1 X98.215 Y99.420 E19.42174
G1 X98.134 Y99.804 E19.42982
G1 X98.134 Y100.196 E19.43791
G1 X98.215 Y100.580 E19.44599
G1 X98.375 Y100.938 E19.45408
G1 X98.605 Y101.256 E19.46216
G1 X98.897 Y101.518 E19.47025
G1 X99.017 Y101.587 E19.47310

G1 F3600.000
G1 X99.301 Y101.751 E19.48220
G1 X99.262 Y101.895 E19.48633

G1 E17.48633 F2400.00000
G92 E0
G1 X-7.265 Y101.883 F7800.000
G1 E2.00000 F2400.00000
G1 F1800.000
G1 X-7.966 Y101.920 E2.01755
G1 X-8.735 Y101.883 E2.03677
G1 E0.03677 F2400.00000
G92 E0
G1 X-8.735 Y98.117 F7800.000
G1 E2.00000 F2400.00000
G1 F1800.000
G1 X-7.966 Y98.080 E2.01923
G1 X-7.265 Y98.117 E2.03677
G1 E0.03677 F2400.00000
G92 E0
G1 X-10.967 Y100.771 F7800.000
G1 E2.00000 F2400.00000
G1 F900.000
G1 X-13.529 Y100.771 E2.06910
G1 X-13.529 Y99.229 E2.11069
G1 X-10.967 Y99.229 E2.17979
G1 X-11.062 Y99.679 E2.19220
G1 X-11.062 Y100.321 E2.20950
G1 X-10.983 Y100.697 E2.21989
G1 X-10.031 Y101.406 F7800.000
G1 F900.000
G1 X-14.164 Y101.406 E2.33140
G1 X-14.164 Y98.594 E2.40728
G1 X-10.031 Y98.594 E2.51879
G1 X-10.321 Y99.247 E2.53807
G1 X-10.427 Y99.746 E2.55183
G1 X-10.427 Y100.254 E2.56556
G1 X-10.321 Y100.753 E2.57931
G1 X-10.061 Y101.338 E2.59657
G1 X-8.758 Y101.967 F7800.000

G1 F3600.000
G1 X-14.725 Y101.967 E2.76233
G1 X-14.725 Y101.587 E2.77288

G1 F1800.000
G1 X-14.725 Y98.413 E2.83831

G1 F3600.000
G1 X-14.725 Y98.033 E2.84886
G1 X-8.758 Y98.033 E3.01462
G1 X-8.700 Y98.249 E3.02083
G1 X-8.983 Y98.413 E3.02992

G1 F1800.000
G1 X-9.103 Y98.482 E3.03277
G1 X-9.394 Y98.744 E3.04086
G1 X-9.625 Y99.062 E3.04895
G1 X-9.785 Y99.420 E3.05704
G1 X-9.866 Y99.804 E3.06512
G1 X-9.866 Y100.196 E3.07320
G1 X-9.785 Y100.580 E3.08128
G1 X-9.625 Y100.938 E3.08938
G1 X-9.394 Y101.256 E3.09747
G1 X-9.103 Y101.518 E3.10555
G1 X-8.983 Y101.587 E3.10840

G1 F3600.000
G1 X-8.700 Y101.751 E3.11749
G1 X-8.738 Y101.895 E3.12162

G1 X-9.503 Y101.687 F7800.000
G1 F1200.000
G1 X-9.690 Y101.389 E3.12213
G1 E1.12213 F2400.00000
G92 E0
G1 X-11.380 Y100.000 F7800.000
G1 E2.00000 F2400.00000
G1 F1200.000
G1 X-13.211 Y100.000 E2.06540
G1 E0.06540 F2400.00000
G92 E0
G1 X-9.690 Y98.611 F7800.000
G1 E2.00000 F2400.00000
G1 F1200.000
G1 X-9.503 Y98.313 E2.00051
G1 X-6.497 Y98.313 F7800.000
G1 F1200.000
G1 X-6.310 Y98.611 E2.00098
G1 E0.00098 F2400.00000
G92 E0
G1 X-4.620 Y100.000 F7800.000
G1 E2.00000 F2400.00000
G1 F1200.000
G1 X96.620 Y100.000 E5.61635
G1 E3.61635 F2400.00000
G92 E0
G1 X98.311 Y98.609 F7800.000
G1 E2.00000 F2400.00000
G1 F1200.000
G1 X98.497 Y98.313 E2.00050
G1 X101.503 Y98.313 F7800.000
G1 F1200.000
G1 X101.689 Y98.609 E2.00095
G1 E0.00095 F2400.00000
G92 E0
G1 X103.380 Y100.000 F7800.000
G1 E2.00000 F2400.00000
G1 F1200.000
G1 X204.620 Y100.000 E5.61635
G1 E3.61635 F2400.00000
G92 E0
G1 X206.310 Y101.389 F7800.000
G1 E2.00000 F2400.00000
G1 F1200.000
G1 X206.497 Y101.687 E2.00051
G1 E0.00051 F2400.00000
G92 E0
G1 X209.503 Y101.687 F7800.000
G1 E2.00000 F2400.00000
G1 F1200.000
G1 X209.690 Y101.389 E2.00046
G1 E0.00046 F2400.00000
G92 E0
G1 X211.380 Y100.000 F7800.000
G1 E2.00000 F2400.00000
G1 F1200.000
G1 X213.211 Y100.000 E2.06540
G1 E0.06540 F2400.00000
G92 E0
G1 X209.690 Y98.611 F7800.000
G1 E2.00000 F2400.00000
G1 F1200.000
G1 X209.503 Y98.313 E2.00046
G1 X206.497 Y98.313 F7800.000
G1 F1200.000
G1 X206.310 Y98.611 E2.00098
G1 E0.00098 F2400.00000
G92 E0
G1 X101.689 Y101.391 F7800.000
G1 E2.00000 F2400.00000
G1 F1200.000
G1 X101.503 Y101.687 E2.00045
G1 E0.00045 F2400.00000
G92 E0
G1 X98.497 Y101.687 F7800.000
G1 E2.00000 F2400.00000
G1 F1200.000
G1 X98.311 Y101.391 E2.00050
G1 E0.00050 F2400.00000
G92 E0
G1 X-6.310 Y101.389 F7800.000
G1 E2.00000 F2400.00000
G1 F1200.000
G1 X-6.497 Y101.687 E2.00046
G1 Z0.950 F7800.000
G1 X98.134 Y100.196 F7800.000
G1 F900.000
G1 X98.134 Y99.804 E2.00855
G1 X98.215 Y99.420 E2.01663
G1 X98.375 Y99.062 E2.02472
G1 X98.605 Y98.744 E2.03281
G1 X98.897 Y98.482 E2.04089
G1 X99.237 Y98.286 E2.04898
G1 X99.610 Y98.164 E2.05706
G1 X100.000 Y98.123 E2.06515
G1 X100.390 Y98.164 E2.07323
G1 X100.763 Y98.286 E2.08132
G1 X101.103 Y98.482 E2.08940
G1 X101.395 Y98.744 E2.09749
G1 X101.625 Y99.062 E2.10557
G1 X101.785 Y99.420 E2.11366
G1 X101.866 Y99.804 E2.12174
G1 X101.866 Y100.196 E2.12983
G1 X101.785 Y100.580 E2.13792
G1 X101.625 Y100.938 E2.14600
G1 X101.395 Y101.256 E2.15409
G1 X101.103 Y101.518 E2.16217
G1 X100.763 Y101.714 E2.17026
G1 X100.390 Y101.836 E2.17834
G1 X100.000 Y101.877 E2.18643
G1 X99.610 Y101.836 E2.19451
G1 X99.237 Y101.714 E2.20260
G1 X98.897 Y101.518 E2.21068
G1 X98.605 Y101.256 E2.21877
G1 X98.375 Y100.938 E2.22685
G1 X98.215 Y100.580 E2.23494
G1 X98.149 Y100.270 E2.24148
G1 X98.134 Y100.196 F7800.000
G1 X97.234 Y101.316 F7800.000
G1 F3600.000
G1 X-5.233 Y101.316 E5.00569
G1 X-5.071 Y100.950 E5.01649
G1 X-4.938 Y100.321 E5.03385
G1 X-4.938 Y99.679 E5.05115
G1 X-5.071 Y99.050 E5.06851
G1 X-5.233 Y98.684 E5.07931
G1 X97.234 Y98.684 E7.84351
G1 X97.071 Y99.048 E7.85428
G1 X96.938 Y99.678 E7.87165
G1 X96.938 Y100.322 E7.88901
G1 X97.071 Y100.952 E7.90638
G1 X97.203 Y101.248 E7.91512
G1 X98.418 Y101.952 F7800.000
G1 F3600.000
G1 X-6.419 Y101.952 E10.74327
G1 X-5.886 Y101.220 E10.76767
G1 X-5.679 Y100.753 E10.78146
G1 X-5.573 Y100.254 E10.79522
G1 X-5.573 Y99.746 E10.80894
G1 X-5.679 Y99.247 E10.82270
G1 X-5.886 Y98.780 E10.83649
G1 X-6.419 Y98.048 E10.86089
G1 X98.418 Y98.048 E13.68904
G1 X97.887 Y98.780 E13.71343
G1 X97.679 Y99.246 E13.72720
G1 X97.573 Y99.745 E13.74096
G1 X97.573 Y100.255 E13.75472
G1 X97.679 Y100.754 E13.76848
G1 X97.887 Y101.220 E13.78224
G1 X98.374 Y101.891 E13.80462
G1 X-6.134 Y100.196 F7800.000
G1 F900.000
G1 X-6.215 Y100.580 E13.81270
G1 X-6.375 Y100.938 E13.82079
G1 X-6.606 Y101.256 E13.82889
G1 X-6.897 Y101.518 E13.83697
G1 X-7.236 Y101.714 E13.84504
G1 X-7.610 Y101.836 E13.85313
G1 X-8.000 Y101.877 E13.86122
G1 X-8.390 Y101.836 E13.86931
G1 X-8.764 Y101.714 E13.87740
G1 X-9.103 Y101.518 E13.88547
G1 X-9.394 Y101.256 E13.89356
G1 X-9.625 Y100.938 E13.90165
G1 X-9.785 Y100.580 E13.90974
G1 X-9.866 Y100.196 E13.91782
G1 X-9.866 Y99.804 E13.92590
G1 X-9.785 Y99.420 E13.93398
G1 X-9.625 Y99.062 E13.94208
G1 X-9.394 Y98.744 E13.95017
G1 X-9.103 Y98.482 E13.95826
G1 X-8.764 Y98.286 E13.96633
G1 X-8.390 Y98.164 E13.97441
G1 X-8.000 Y98.123 E13.98250
G1 X-7.610 Y98.164 E13.99060
G1 X-7.236 Y98.286 E13.99868
G1 X-6.897 Y98.482 E14.00675
G1 X-6.606 Y98.744 E14.01484
G1 X-6.375 Y99.062 E14.02293
G1 X-6.215 Y99.420 E14.03103
G1 X-6.134 Y99.804 E14.03911
G1 X-6.134 Y100.121 E14.04564
G1 X-6.134 Y100.196 F7800.000
G1 E12.04564 F2400.00000
G92 E0
G1 X-10.767 Y101.316 F7800.000
G1 E2.00000 F2400.00000
G1 F900.000
G1 X-13.529 Y101.316 E2.07451
G1 X-13.529 Y98.684 E2.14552
G1 X-10.767 Y98.684 E2.22004
G1 X-10.929 Y99.050 E2.23084
G1 X-11.062 Y99.679 E2.24820
G1 X-11.062 Y100.321 E2.26550
G1 X-10.929 Y100.950 E2.28286
G1 X-10.797 Y101.248 E2.29164
