; Gcode updated with 'stl_info' on 2019-12-05 15:38:04.285307

; stl_min_x = 0.0
; stl_max_x = 100.0
; stl_min_y = 0.0
; stl_max_y = 75.0
; stl_min_z = 0.0

; generated by Slic3r 1.3.1-dev (Build adea0d9) on 2019-12-05 at 15:38:04

; external perimeters extrusion width = 0.44mm (2.86mm^3/s)
; perimeters extrusion width = 0.56mm (4.14mm^3/s)
; infill extrusion width = 0.50mm (3.66mm^3/s)
; solid infill extrusion width = 0.56mm (3.10mm^3/s)
; top infill extrusion width = 0.56mm (3.10mm^3/s)

M107
G92 E0
;D3D:START:START
T0
M104 S215 T0

G21
G90
M107
T0
G28
G29
M109 T0 S215 T0
G0 F3000
M107
T0
G92 E0
G0 X0 Y149 Z0.1 F3600
G1 Y49 E6.5 F1200
G0 Z1
G92 E0
; Filament gcode

G21 ; set units to millimeters
G90 ; use absolute coordinates
M82 ; use absolute distances for extrusion
G92 E0
G1 Z0.300 F7800.000
G1 E-2.00000 F2400.00000
G92 E0
G1 X53.218 Y100.092 F7800.000
G1 E2.00000 F2400.00000
G1 F1800.000
G1 X54.782 Y100.092 E2.05184
G1 X56.048 Y101.012 E2.10369
G1 X56.532 Y102.500 E2.15553
G1 X56.048 Y103.988 E2.20738
G1 X54.782 Y104.908 E2.25922
G1 X53.218 Y104.908 E2.31106
G1 X51.952 Y103.988 E2.36291
G1 X51.468 Y102.500 E2.41475
G1 X51.952 Y101.012 E2.46660
G1 X53.169 Y100.127 E2.51645
G1 X53.304 Y100.357 F7800.000
G1 F1800.000
G1 X54.696 Y100.357 E2.56258
G1 X55.822 Y101.176 E2.60870
G1 X56.253 Y102.500 E2.65483
G1 X55.822 Y103.824 E2.70096
G1 X54.696 Y104.643 E2.74708
G1 X53.304 Y104.643 E2.79321
G1 X52.177 Y103.824 E2.83933
G1 X51.747 Y102.500 E2.88546
G1 X52.177 Y101.176 E2.93158
G1 X53.255 Y100.393 E2.97572
G1 X53.390 Y100.623 F7800.000
G1 F1800.000
G1 X54.610 Y100.623 E3.01613
G1 X55.597 Y101.340 E3.05654
G1 X55.973 Y102.500 E3.09694
G1 X55.597 Y103.660 E3.13735
G1 X54.610 Y104.377 E3.17776
G1 X53.390 Y104.377 E3.21816
G1 X52.403 Y103.660 E3.25857
G1 X52.027 Y102.500 E3.29898
G1 X52.403 Y101.340 E3.33939
G1 X53.342 Y100.658 E3.37781
G1 X53.473 Y100.232 F7800.000
G1 E1.37781 F2400.00000
G92 E0
G1 X53.349 Y90.571 F7800.000
G1 E2.00000 F2400.00000
G1 F1800.000
G1 X52.958 Y89.483 E2.03830
G1 X52.447 Y89.483 E2.05524
G1 X52.078 Y90.571 E2.09330
G1 X49.635 Y90.571 E2.17423
G1 X49.663 Y90.495 E2.17692
G1 X49.401 Y90.608 E2.18636
G1 X48.628 Y90.702 E2.21217
G1 X48.179 Y90.675 E2.22705
G1 X47.711 Y90.571 E2.24295
G1 X45.103 Y90.571 E2.32933
G1 X44.712 Y89.483 E2.36763
G1 X44.201 Y89.483 E2.38457
G1 X43.832 Y90.571 E2.42263
G1 X41.389 Y90.571 E2.50356
G1 X43.644 Y84.251 E2.72588
G1 X45.331 Y84.251 E2.78176
G1 X45.952 Y85.992 E2.84301
G1 X46.068 Y85.988 E2.84686
G1 X46.128 Y85.777 E2.85412
G1 X46.526 Y85.103 E2.88008
G1 X47.099 Y84.585 E2.90566
G1 X47.809 Y84.278 E2.93128
G1 X48.586 Y84.184 E2.95721
G1 X49.030 Y84.211 E2.97196
G1 X49.435 Y84.292 E2.98565
G1 X49.814 Y84.433 E2.99902
G1 X50.157 Y84.627 E3.01210
G1 X50.462 Y84.872 E3.02504
G1 X50.721 Y85.161 E3.03791
G1 X50.934 Y85.484 E3.05074
G1 X51.102 Y85.837 E3.06368
G1 X51.154 Y85.994 E3.06917
G1 X51.268 Y85.996 E3.07295
G1 X51.890 Y84.251 E3.13433
G1 X53.577 Y84.251 E3.19021
G1 X54.579 Y87.060 E3.28903
G1 X54.717 Y87.028 E3.29372
G1 X54.702 Y86.895 E3.29818
G1 X54.738 Y86.574 E3.30887
G1 X54.859 Y86.262 E3.31996
G1 X55.069 Y85.993 E3.33127
G1 X55.342 Y85.798 E3.34240
G1 X55.648 Y85.687 E3.35316
G1 X55.959 Y85.655 E3.36352
G1 X56.276 Y85.686 E3.37408
G1 X56.586 Y85.795 E3.38497
G1 X56.863 Y85.991 E3.39622
G1 X57.075 Y86.260 E3.40755
G1 X57.197 Y86.573 E3.41868
G1 X57.233 Y86.895 E3.42941
G1 X57.198 Y87.216 E3.44013
G1 X57.077 Y87.528 E3.45120
G1 X56.868 Y87.799 E3.46253
G1 X56.592 Y87.999 E3.47385
G1 X56.335 Y88.091 E3.48286
G1 X56.336 Y88.203 E3.48660
G1 X56.586 Y88.291 E3.49540
G1 X56.863 Y88.487 E3.50664
G1 X57.075 Y88.756 E3.51798
G1 X57.197 Y89.069 E3.52910
G1 X57.233 Y89.391 E3.53983
G1 X57.198 Y89.712 E3.55056
G1 X57.077 Y90.024 E3.56162
G1 X56.868 Y90.295 E3.57295
G1 X56.591 Y90.495 E3.58428
G1 X56.279 Y90.607 E3.59527
G1 X55.959 Y90.639 E3.60593
G1 X55.645 Y90.606 E3.61639
G1 X55.551 Y90.571 E3.61970
G1 X53.409 Y90.571 E3.69065
G1 X53.536 Y90.306 F7800.000
G1 F1800.000
G1 X53.145 Y89.218 E3.72895
G1 X52.257 Y89.218 E3.75839
G1 X51.888 Y90.306 E3.79645
G1 X50.012 Y90.306 E3.85858
G1 X50.118 Y90.008 E3.86906
G1 X49.331 Y90.349 E3.89750
G1 X48.620 Y90.435 E3.92124
G1 X48.213 Y90.411 E3.93472
G1 X47.845 Y90.337 E3.94718
G1 X47.504 Y90.212 E3.95921
G1 X47.091 Y89.978 E3.97493
G1 X47.208 Y90.306 E3.98645
G1 X45.290 Y90.306 E4.04998
G1 X44.899 Y89.218 E4.08828
G1 X44.011 Y89.218 E4.11772
G1 X43.642 Y90.306 E4.15578
G1 X41.766 Y90.306 E4.21791
G1 X43.831 Y84.516 E4.42155
G1 X45.144 Y84.516 E4.46502
G1 X46.014 Y86.958 E4.55091
G1 X46.142 Y86.941 E4.55518
G1 X46.168 Y86.609 E4.56623
G1 X46.374 Y85.883 E4.59123
G1 X46.734 Y85.272 E4.61471
G1 X47.245 Y84.812 E4.63750
G1 X47.879 Y84.537 E4.66039
G1 X48.594 Y84.451 E4.68425
G1 X48.996 Y84.475 E4.69760
G1 X49.363 Y84.549 E4.70999
G1 X49.701 Y84.674 E4.72196
G1 X50.008 Y84.848 E4.73362
G1 X50.279 Y85.065 E4.74513
G1 X50.510 Y85.323 E4.75662
G1 X50.702 Y85.615 E4.76818
G1 X50.855 Y85.936 E4.77996
G1 X50.969 Y86.282 E4.79204
G1 X51.048 Y86.650 E4.80449
G1 X51.083 Y86.940 E4.81417
G1 X51.208 Y86.954 E4.81835
G1 X52.078 Y84.516 E4.90409
G1 X53.390 Y84.516 E4.94756
G1 X55.018 Y89.083 E5.10816
G1 X55.092 Y88.891 E5.11498
G1 X55.255 Y88.683 E5.12372
G1 X55.467 Y88.531 E5.13236
G1 X55.707 Y88.444 E5.14083
G1 X55.960 Y88.418 E5.14923
G1 X56.218 Y88.444 E5.15785
G1 X56.463 Y88.529 E5.16645
G1 X56.678 Y88.682 E5.17518
G1 X56.842 Y88.889 E5.18394
G1 X56.937 Y89.133 E5.19260
G1 X56.966 Y89.391 E5.20120
G1 X56.937 Y89.649 E5.20980
G1 X56.843 Y89.892 E5.21844
G1 X56.682 Y90.102 E5.22722
G1 X56.467 Y90.258 E5.23602
G1 X56.220 Y90.346 E5.24468
G1 X55.960 Y90.372 E5.25336
G1 X55.706 Y90.345 E5.26182
G1 X55.432 Y90.244 E5.27148
G1 X55.454 Y90.306 E5.27363
G1 X53.596 Y90.306 E5.33517
G1 E3.33517 F2400.00000
G92 E0
G1 X50.591 Y88.899 F7800.000
G1 E2.00000 F2400.00000
G1 F1800.000
G1 X50.267 Y89.445 E2.02105
G1 X49.818 Y89.849 E2.04104
G1 X49.261 Y90.090 E2.06116
G1 X48.611 Y90.169 E2.08282
G1 X48.247 Y90.147 E2.09491
G1 X47.917 Y90.081 E2.10607
G1 X47.616 Y89.970 E2.11670
G1 X47.347 Y89.818 E2.12694
G1 X47.111 Y89.628 E2.13699
G1 X46.908 Y89.400 E2.14708
G1 X46.740 Y89.140 E2.15734
G1 X46.604 Y88.851 E2.16792
G1 X46.500 Y88.534 E2.17898
G1 X46.427 Y88.192 E2.19055
G1 X46.384 Y87.829 E2.20268
G1 X46.369 Y87.440 E2.21558
G1 X46.431 Y86.656 E2.24162
G1 X46.620 Y85.988 E2.26462
G1 X46.942 Y85.442 E2.28561
G1 X47.390 Y85.038 E2.30561
G1 X47.949 Y84.796 E2.32578
G1 X48.602 Y84.717 E2.34756
G1 X48.962 Y84.739 E2.35951
G1 X49.290 Y84.805 E2.37060
G1 X49.589 Y84.916 E2.38117
G1 X49.858 Y85.068 E2.39142
G1 X50.096 Y85.259 E2.40150
G1 X50.300 Y85.486 E2.41161
G1 X50.470 Y85.745 E2.42191
G1 X50.608 Y86.035 E2.43251
G1 X50.712 Y86.352 E2.44358
G1 X50.785 Y86.694 E2.45516
G1 X50.829 Y87.057 E2.46729
G1 X50.844 Y87.446 E2.48019
G1 X50.782 Y88.230 E2.50624
G1 X50.607 Y88.841 E2.52728
G1 X50.827 Y89.221 F7800.000
G1 E0.52728 F2400.00000
G92 E0
G1 X46.831 Y90.040 F7800.000
G1 E2.00000 F2400.00000
G1 F1800.000
G1 X45.477 Y90.040 E2.04486
G1 X45.086 Y88.952 E2.08316
G1 X43.820 Y88.952 E2.12509
G1 X43.451 Y90.040 E2.16315
G1 X42.143 Y90.040 E2.20650
G1 X44.019 Y84.782 E2.39145
G1 X44.956 Y84.782 E2.42251
G1 X46.811 Y89.983 E2.60546
G1 X46.896 Y90.435 F7800.000
G1 E0.60546 F2400.00000
G92 E0
G1 X50.389 Y90.040 F7800.000
G1 E2.00000 F2400.00000
G1 F1800.000
G1 X52.265 Y84.782 E2.18495
G1 X53.202 Y84.782 E2.21601
G1 X55.077 Y90.040 E2.40095
G1 X53.723 Y90.040 E2.44580
G1 X53.332 Y88.952 E2.48410
G1 X52.066 Y88.952 E2.52604
G1 X51.697 Y90.040 E2.56410
G1 X50.449 Y90.040 E2.60546
G1 X49.989 Y90.025 F7800.000
G1 E0.60546 F2400.00000
G92 E0
G1 X56.609 Y89.023 F7800.000
G1 E2.00000 F2400.00000
G1 F1800.000
G1 X56.677 Y89.197 E2.00620
G1 X56.699 Y89.391 E2.01266
G1 X56.677 Y89.585 E2.01914
G1 X56.609 Y89.761 E2.02537
G1 X56.495 Y89.910 E2.03160
G1 X56.342 Y90.020 E2.03785
G1 X56.161 Y90.085 E2.04420
G1 X55.960 Y90.105 E2.05089
G1 X55.766 Y90.084 E2.05735
G1 X55.590 Y90.020 E2.06356
G1 X55.439 Y89.909 E2.06977
G1 X55.325 Y89.760 E2.07598
G1 X55.258 Y89.585 E2.08220
G1 X55.237 Y89.391 E2.08867
G1 X55.258 Y89.197 E2.09512
G1 X55.326 Y89.023 E2.10131
G1 X55.440 Y88.877 E2.10748
G1 X55.592 Y88.768 E2.11364
G1 X55.767 Y88.705 E2.11982
G1 X55.960 Y88.685 E2.12625
G1 X56.161 Y88.705 E2.13292
G1 X56.340 Y88.768 E2.13924
G1 X56.493 Y88.876 E2.14545
G1 X56.572 Y88.976 E2.14964
G1 X56.796 Y89.024 F7800.000
G1 X56.220 Y87.850 F7800.000
G1 F1800.000
G1 X55.960 Y87.876 E2.15832
G1 X55.706 Y87.849 E2.16678
G1 X55.464 Y87.760 E2.17532
G1 X55.251 Y87.605 E2.18402
G1 X55.091 Y87.395 E2.19278
G1 X54.998 Y87.152 E2.20140
G1 X54.969 Y86.895 E2.20998
G1 X54.998 Y86.638 E2.21855
G1 X55.092 Y86.395 E2.22719
G1 X55.255 Y86.187 E2.23593
G1 X55.467 Y86.035 E2.24457
G1 X55.707 Y85.948 E2.25304
G1 X55.960 Y85.922 E2.26144
G1 X56.218 Y85.948 E2.27006
G1 X56.463 Y86.033 E2.27866
G1 X56.678 Y86.186 E2.28739
G1 X56.842 Y86.393 E2.29615
G1 X56.937 Y86.637 E2.30481
G1 X56.966 Y86.895 E2.31341
G1 X56.937 Y87.153 E2.32201
G1 X56.843 Y87.396 E2.33065
G1 X56.682 Y87.606 E2.33943
G1 X56.467 Y87.762 E2.34822
G1 X56.277 Y87.830 E2.35491
G1 X56.609 Y86.527 F7800.000
G1 F1800.000
G1 X56.677 Y86.701 E2.36111
G1 X56.699 Y86.895 E2.36757
G1 X56.677 Y87.089 E2.37405
G1 X56.609 Y87.265 E2.38028
G1 X56.495 Y87.414 E2.38650
G1 X56.342 Y87.524 E2.39276
G1 X56.161 Y87.589 E2.39910
G1 X55.960 Y87.609 E2.40580
G1 X55.766 Y87.588 E2.41226
G1 X55.590 Y87.524 E2.41847
G1 X55.439 Y87.413 E2.42468
G1 X55.325 Y87.264 E2.43089
G1 X55.258 Y87.089 E2.43710
G1 X55.237 Y86.895 E2.44358
G1 X55.258 Y86.701 E2.45003
G1 X55.326 Y86.527 E2.45622
G1 X55.440 Y86.381 E2.46238
G1 X55.592 Y86.272 E2.46855
G1 X55.767 Y86.209 E2.47472
G1 X55.960 Y86.189 E2.48116
G1 X56.161 Y86.209 E2.48783
G1 X56.340 Y86.272 E2.49415
G1 X56.493 Y86.380 E2.50036
G1 X56.572 Y86.480 E2.50455
G1 X56.796 Y86.528 F7800.000
G1 X57.746 Y86.031 F7800.000
G1 F1800.000
G1 X60.051 Y84.187 E2.60236
G1 X61.501 Y84.187 E2.65038
G1 X61.501 Y88.411 E2.79032
G1 X62.179 Y88.411 E2.81279
G1 X62.343 Y88.294 E2.81946
G1 X62.649 Y88.183 E2.83022
G1 X62.960 Y88.151 E2.84058
G1 X63.277 Y88.182 E2.85114
G1 X63.587 Y88.291 E2.86204
G1 X63.924 Y88.530 E2.87570
G1 X63.992 Y88.312 E2.88325
G1 X63.912 Y88.315 E2.88592
G1 X63.912 Y84.315 E3.01845
G1 X67.705 Y84.315 E3.14410
G1 X67.705 Y86.539 E3.21779
G1 X67.024 Y86.539 E3.24033
G1 X67.261 Y86.747 E3.25076
G1 X67.447 Y86.965 E3.26026
G1 X67.600 Y87.210 E3.26981
G1 X67.717 Y87.473 E3.27937
G1 X67.801 Y87.753 E3.28904
G1 X67.850 Y88.044 E3.29883
G1 X67.866 Y88.346 E3.30885
G1 X67.845 Y88.694 E3.32038
G1 X67.780 Y89.031 E3.33176
G1 X67.667 Y89.348 E3.34291
G1 X67.513 Y89.636 E3.35372
G1 X67.321 Y89.895 E3.36439
G1 X67.093 Y90.119 E3.37501
G1 X66.838 Y90.305 E3.38545
G1 X66.562 Y90.453 E3.39584
G1 X66.268 Y90.564 E3.40625
G1 X65.963 Y90.641 E3.41666
G1 X65.638 Y90.687 E3.42753
G1 X65.082 Y90.694 E3.44596
G1 X64.597 Y90.633 E3.46215
G1 X64.169 Y90.519 E3.47684
G1 X63.781 Y90.358 E3.49073
G1 X63.592 Y90.495 E3.49846
G1 X63.280 Y90.607 E3.50946
G1 X62.960 Y90.639 E3.52012
G1 X62.646 Y90.606 E3.53058
G1 X62.450 Y90.534 E3.53749
G1 X62.450 Y90.571 E3.53873
G1 X58.274 Y90.571 E3.67706
G1 X58.274 Y88.411 E3.74864
G1 X59.243 Y88.411 E3.78074
G1 X59.243 Y87.412 E3.81384
G1 X58.927 Y87.627 E3.82652
G1 X57.782 Y86.079 E3.89029
G1 X58.112 Y86.079 F7800.000
G1 F1800.000
G1 X60.145 Y84.452 E3.97654
G1 X61.235 Y84.452 E4.01267
G1 X61.235 Y88.676 E4.15261
G1 X62.264 Y88.676 E4.18671
G1 X62.468 Y88.531 E4.19499
G1 X62.708 Y88.444 E4.20346
G1 X62.960 Y88.418 E4.21185
G1 X63.219 Y88.444 E4.22047
G1 X63.464 Y88.529 E4.22908
G1 X63.679 Y88.682 E4.23780
G1 X63.843 Y88.889 E4.24656
G1 X63.917 Y89.079 E4.25332
G1 X64.030 Y89.076 E4.25705
G1 X64.215 Y88.488 E4.27747
G1 X64.938 Y88.710 E4.30251
G1 X65.156 Y88.735 E4.30979
G1 X65.522 Y88.719 E4.32192
G1 X65.647 Y88.681 E4.32625
G1 X65.728 Y88.628 E4.32947
G1 X65.779 Y88.567 E4.33210
G1 X65.813 Y88.484 E4.33506
G1 X65.827 Y88.360 E4.33920
G1 X65.811 Y88.234 E4.34341
G1 X65.780 Y88.170 E4.34578
G1 X65.727 Y88.119 E4.34819
G1 X65.613 Y88.064 E4.35241
G1 X65.422 Y88.020 E4.35889
G1 X65.154 Y88.002 E4.36781
G1 X64.178 Y88.039 E4.40017
G1 X64.178 Y84.580 E4.51476
G1 X67.439 Y84.580 E4.62280
G1 X67.439 Y86.274 E4.67890
G1 X66.056 Y86.274 E4.72472
G1 X66.045 Y86.422 E4.72963
G1 X66.201 Y86.444 E4.73484
G1 X66.454 Y86.528 E4.74366
G1 X66.679 Y86.636 E4.75195
G1 X66.886 Y86.771 E4.76014
G1 X67.071 Y86.934 E4.76830
G1 X67.232 Y87.123 E4.77652
G1 X67.365 Y87.335 E4.78481
G1 X67.468 Y87.566 E4.79319
G1 X67.542 Y87.813 E4.80174
G1 X67.585 Y88.073 E4.81047
G1 X67.600 Y88.345 E4.81951
G1 X67.581 Y88.660 E4.82996
G1 X67.523 Y88.961 E4.84010
G1 X67.423 Y89.240 E4.84993
G1 X67.288 Y89.493 E4.85943
G1 X67.120 Y89.720 E4.86877
G1 X66.921 Y89.916 E4.87805
G1 X66.697 Y90.080 E4.88724
G1 X66.452 Y90.211 E4.89644
G1 X66.188 Y90.311 E4.90577
G1 X65.912 Y90.380 E4.91521
G1 X65.618 Y90.422 E4.92504
G1 X65.097 Y90.428 E4.94230
G1 X64.648 Y90.372 E4.95730
G1 X64.254 Y90.267 E4.97080
G1 X63.725 Y90.047 E4.98979
G1 X63.682 Y90.102 E4.99209
G1 X63.467 Y90.258 E5.00088
G1 X63.221 Y90.346 E5.00955
G1 X62.960 Y90.372 E5.01823
G1 X62.706 Y90.345 E5.02669
G1 X62.465 Y90.256 E5.03522
G1 X62.184 Y90.051 E5.04672
G1 X62.184 Y90.306 E5.05514
G1 X58.540 Y90.306 E5.17587
G1 X58.540 Y88.676 E5.22985
G1 X59.509 Y88.676 E5.26195
G1 X59.509 Y86.910 E5.32047
G1 X58.988 Y87.264 E5.34132
G1 X58.147 Y86.127 E5.38816
G1 E3.38816 F2400.00000
G92 E0
G1 X64.443 Y84.846 F7800.000
G1 E2.00000 F2400.00000
G1 F1800.000
G1 X67.173 Y84.846 E2.09044
G1 X67.173 Y86.008 E2.12894
G1 X65.554 Y86.008 E2.18258
G1 X65.554 Y86.649 E2.20381
G1 X65.679 Y86.637 E2.20797
G1 X66.140 Y86.704 E2.22338
G1 X66.354 Y86.775 E2.23087
G1 X66.549 Y86.868 E2.23801
G1 X66.725 Y86.983 E2.24499
G1 X66.881 Y87.121 E2.25190
G1 X67.017 Y87.280 E2.25884
G1 X67.130 Y87.460 E2.26587
G1 X67.218 Y87.658 E2.27306
G1 X67.283 Y87.873 E2.28049
G1 X67.321 Y88.102 E2.28818
G1 X67.334 Y88.345 E2.29622
G1 X67.317 Y88.627 E2.30560
G1 X67.266 Y88.891 E2.31449
G1 X67.180 Y89.133 E2.32301
G1 X67.063 Y89.351 E2.33120
G1 X66.919 Y89.545 E2.33920
G1 X66.748 Y89.713 E2.34715
G1 X66.555 Y89.854 E2.35508
G1 X66.341 Y89.969 E2.36310
G1 X66.109 Y90.057 E2.37134
G1 X65.861 Y90.119 E2.37981
G1 X65.598 Y90.156 E2.38862
G1 X65.112 Y90.162 E2.40471
G1 X64.699 Y90.110 E2.41851
G1 X64.339 Y90.015 E2.43082
G1 X64.049 Y89.894 E2.44123
G1 X64.389 Y88.819 E2.47858
G1 X64.883 Y88.971 E2.49570
G1 X65.147 Y89.001 E2.50449
G1 X65.568 Y88.983 E2.51845
G1 X65.760 Y88.924 E2.52512
G1 X65.907 Y88.829 E2.53090
G1 X66.010 Y88.705 E2.53624
G1 X66.073 Y88.551 E2.54176
G1 X66.095 Y88.358 E2.54819
G1 X66.069 Y88.158 E2.55488
G1 X65.999 Y88.010 E2.56029
G1 X65.880 Y87.898 E2.56569
G1 X65.702 Y87.812 E2.57225
G1 X65.461 Y87.756 E2.58045
G1 X65.157 Y87.736 E2.59055
G1 X64.443 Y87.763 E2.61421
G1 X64.443 Y84.906 E2.70888
G1 X64.411 Y84.447 F7800.000
G1 E0.70888 F2400.00000
G92 E0
G1 X63.610 Y89.023 F7800.000
G1 E2.00000 F2400.00000
G1 F1800.000
G1 X63.678 Y89.197 E2.00620
G1 X63.699 Y89.391 E2.01266
G1 X63.678 Y89.585 E2.01914
G1 X63.610 Y89.761 E2.02537
G1 X63.495 Y89.910 E2.03160
G1 X63.343 Y90.020 E2.03785
G1 X63.162 Y90.085 E2.04419
G1 X62.961 Y90.105 E2.05089
G1 X62.767 Y90.084 E2.05735
G1 X62.591 Y90.020 E2.06356
G1 X62.440 Y89.909 E2.06976
G1 X62.326 Y89.760 E2.07598
G1 X62.259 Y89.585 E2.08220
G1 X62.237 Y89.391 E2.08867
G1 X62.259 Y89.197 E2.09512
G1 X62.326 Y89.023 E2.10131
G1 X62.441 Y88.877 E2.10748
G1 X62.592 Y88.768 E2.11364
G1 X62.768 Y88.705 E2.11982
G1 X62.961 Y88.685 E2.12625
G1 X63.161 Y88.705 E2.13292
G1 X63.341 Y88.768 E2.13924
G1 X63.494 Y88.876 E2.14545
G1 X63.573 Y88.976 E2.14964
G1 X63.797 Y89.024 F7800.000
G1 X61.919 Y88.942 F7800.000
G1 F1800.000
G1 X61.919 Y90.040 E2.18602
G1 X58.806 Y90.040 E2.28915
G1 X58.806 Y88.942 E2.32553
G1 X59.775 Y88.942 E2.35763
G1 X59.775 Y86.408 E2.44157
G1 X59.050 Y86.901 E2.47058
G1 X58.477 Y86.126 E2.50249
G1 X60.238 Y84.718 E2.57717
G1 X60.970 Y84.718 E2.60142
G1 X60.970 Y88.942 E2.74136
