; generated by Slic3r 1.3.1-dev (Build 2ef957d) on 2019-11-25 at 09:24:53

; external perimeters extrusion width = 0.55mm (4.37mm^3/s)
; perimeters extrusion width = 0.70mm (11.44mm^3/s)
; infill extrusion width = 0.62mm (13.45mm^3/s)
; solid infill extrusion width = 0.70mm (3.81mm^3/s)
; top infill extrusion width = 0.70mm (2.86mm^3/s)

M107
G92 E0
M104 S200 ; set temperature
G28 ; home all axes
G1 Z5 F5000 ; lift nozzle

; Filament gcode

M109 S200 ; set temperature and wait for it to be reached
G21 ; set units to millimeters
G90 ; use absolute coordinates
M82 ; use absolute distances for extrusion
G92 E0
G1 Z0.350 F7800.000
G1 E-2.00000 F2400.00000
G92 E0
G1 X37.312 Y89.948 F7800.000
G1 E2.00000 F2400.00000
G1 F1800.000
G1 X37.797 Y89.770 E2.01597
G1 X39.948 Y89.076 E2.08589
G1 X43.124 Y88.245 E2.18747
G1 X46.237 Y87.585 E2.28595
G1 X49.470 Y87.015 E2.38751
G1 X53.396 Y86.442 E2.51028
G1 X57.430 Y85.958 E2.63601
G1 X61.635 Y85.544 E2.76675
G1 X66.356 Y85.170 E2.91327
G1 X71.225 Y84.868 E3.06421
G1 X76.242 Y84.633 E3.21961
G1 X81.666 Y84.453 E3.38753
G1 X87.240 Y84.338 E3.56004
G1 X98.819 Y84.288 E3.91831
G1 X104.849 Y84.348 E4.10489
G1 X110.997 Y84.461 E4.29515
G1 X117.239 Y84.623 E4.48837
G1 X123.552 Y84.832 E4.68380
G1 X129.873 Y85.081 E4.87953
G1 X136.257 Y85.368 E5.07726
G1 X142.638 Y85.690 E5.27494
G1 X148.991 Y86.040 E5.47179
G1 X155.290 Y86.415 E5.66706
G1 X165.559 Y87.083 E5.98547
G1 X167.787 Y87.631 E6.05644
G1 X169.693 Y88.905 E6.12740
G1 X171.051 Y90.753 E6.19836
G1 X171.739 Y93.693 E6.29178
G1 X171.739 Y106.307 E6.68208
G1 X171.342 Y108.566 E6.75304
G1 X170.199 Y110.554 E6.82401
G1 X168.446 Y112.033 E6.89497
G1 X165.559 Y112.917 E6.98838
G1 X155.276 Y113.586 E7.30725
G1 X148.976 Y113.961 E7.50252
G1 X142.655 Y114.309 E7.69840
G1 X136.277 Y114.631 E7.89598
G1 X129.897 Y114.918 E8.09361
G1 X123.496 Y115.170 E8.29181
G1 X117.218 Y115.377 E8.48616
G1 X110.990 Y115.539 E8.67893
G1 X104.842 Y115.653 E8.86918
G1 X98.812 Y115.713 E9.05576
G1 X92.924 Y115.716 E9.23796
G1 X87.199 Y115.662 E9.41510
G1 X81.578 Y115.545 E9.58907
G1 X76.324 Y115.370 E9.75172
G1 X71.119 Y115.126 E9.91295
G1 X66.356 Y114.830 E10.06061
G1 X61.755 Y114.466 E10.20341
G1 X57.430 Y114.042 E10.33786
G1 X53.396 Y113.558 E10.46358
G1 X49.469 Y112.985 E10.58637
G1 X46.235 Y112.415 E10.68798
G1 X43.122 Y111.755 E10.78643
G1 X39.948 Y110.924 E10.88797
G1 X37.797 Y110.230 E10.95789
G1 X37.312 Y110.052 E10.97387
G1 X35.541 Y109.324 E11.03313
G1 X34.876 Y109.006 E11.05595
G1 X33.490 Y108.246 E11.10482
G1 X32.560 Y107.629 E11.13938
G1 X31.567 Y106.841 E11.17860
G1 X30.344 Y105.573 E11.23311
G1 X29.746 Y104.760 E11.26433
G1 X28.640 Y102.372 E11.34574
G1 X28.441 Y101.536 E11.37236
G1 X28.441 Y98.464 E11.46738
G1 X28.640 Y97.628 E11.49400
G1 X29.746 Y95.240 E11.57542
G1 X30.344 Y94.427 E11.60664
G1 X31.567 Y93.159 E11.66115
G1 X32.560 Y92.371 E11.70037
G1 X33.490 Y91.754 E11.73492
G1 X34.876 Y90.994 E11.78380
G1 X35.541 Y90.676 E11.80662
G1 X37.243 Y89.976 E11.86356
G1 E9.86356 F2400.00000
G92 E0
G1 X36.530 Y100.000 F7800.000
G1 E2.00000 F2400.00000
G1 F1800.000
G1 X36.566 Y99.849 E2.00480
G1 X36.844 Y99.470 E2.01935
G1 X37.563 Y98.900 E2.04774
G1 X38.752 Y98.249 E2.08966
G1 X40.383 Y97.578 E2.14424
G1 X42.430 Y96.917 E2.21081
G1 X44.874 Y96.281 E2.28894
G1 X47.692 Y95.680 E2.37811
G1 X50.874 Y95.119 E2.47805
G1 X54.398 Y94.605 E2.58827
G1 X58.253 Y94.141 E2.70839
G1 X62.425 Y93.731 E2.83811
G1 X66.880 Y93.378 E2.97638
G1 X71.623 Y93.084 E3.12341
G1 X76.617 Y92.849 E3.27810
G1 X81.847 Y92.676 E3.44003
G1 X87.289 Y92.562 E3.60845
G1 X98.749 Y92.512 E3.96304
G1 X104.705 Y92.571 E4.14732
G1 X110.789 Y92.683 E4.33561
G1 X116.974 Y92.844 E4.52703
G1 X123.234 Y93.050 E4.72084
G1 X129.545 Y93.299 E4.91627
G1 X135.883 Y93.585 E5.11256
G1 X142.221 Y93.904 E5.30891
G1 X148.534 Y94.252 E5.50456
G1 X154.797 Y94.625 E5.69869
G1 X161.238 Y95.044 E5.89838
G1 X160.763 Y95.792 E5.92580
G1 X160.296 Y96.784 E5.95974
G1 X159.957 Y97.827 E5.99367
G1 X159.751 Y98.905 E6.02762
G1 X159.683 Y100.000 E6.06156
G1 X159.751 Y101.095 E6.09550
G1 X159.957 Y102.173 E6.12946
G1 X160.296 Y103.216 E6.16339
G1 X160.763 Y104.208 E6.19732
G1 X161.238 Y104.956 E6.22474
G1 X154.783 Y105.376 E6.42488
G1 X148.520 Y105.749 E6.61902
G1 X142.206 Y106.097 E6.81467
G1 X135.868 Y106.416 E7.01102
G1 X129.531 Y106.702 E7.20730
G1 X123.219 Y106.950 E7.40273
G1 X116.952 Y107.157 E7.59676
G1 X110.782 Y107.317 E7.78774
G1 X104.698 Y107.429 E7.97602
G1 X98.738 Y107.488 E8.16043
G1 X92.927 Y107.492 E8.34024
G1 X87.287 Y107.438 E8.51475
G1 X81.841 Y107.324 E8.68330
G1 X76.608 Y107.150 E8.84530
G1 X71.617 Y106.916 E8.99990
G1 X66.879 Y106.622 E9.14677
G1 X62.419 Y106.269 E9.28521
G1 X58.253 Y105.859 E9.41474
G1 X54.398 Y105.395 E9.53486
G1 X50.873 Y104.881 E9.64509
G1 X47.691 Y104.320 E9.74508
G1 X44.873 Y103.719 E9.83423
G1 X42.430 Y103.083 E9.91232
G1 X40.383 Y102.422 E9.97889
G1 X38.752 Y101.751 E10.03346
G1 X37.563 Y101.100 E10.07539
G1 X36.844 Y100.530 E10.10378
G1 X36.566 Y100.151 E10.11833
G1 X36.547 Y100.073 E10.12081
G1 X35.888 Y100.000 F7800.000
G1 F1800.000
G1 X35.987 Y99.581 E10.13413
G1 X36.391 Y99.033 E10.15519
G1 X37.217 Y98.378 E10.18781
G1 X38.482 Y97.684 E10.23245
G1 X40.168 Y96.991 E10.28886
G1 X42.255 Y96.317 E10.35674
G1 X44.730 Y95.673 E10.43586
G1 X47.573 Y95.066 E10.52580
G1 X50.774 Y94.502 E10.62637
G1 X54.316 Y93.985 E10.73712
G1 X58.185 Y93.520 E10.85769
G1 X62.370 Y93.108 E10.98781
G1 X66.836 Y92.755 E11.12642
G1 X71.589 Y92.460 E11.27376
G1 X76.592 Y92.225 E11.42873
G1 X81.830 Y92.051 E11.59091
G1 X87.281 Y91.937 E11.75962
G1 X98.751 Y91.887 E12.11450
G1 X104.714 Y91.946 E12.29901
G1 X110.803 Y92.058 E12.48745
G1 X116.992 Y92.219 E12.67901
G1 X123.257 Y92.426 E12.87295
G1 X129.572 Y92.674 E13.06850
G1 X135.912 Y92.960 E13.26489
G1 X142.254 Y93.280 E13.46134
G1 X148.570 Y93.628 E13.65708
G1 X154.836 Y94.001 E13.85130
G1 X162.466 Y94.497 E14.08789
G1 X161.857 Y95.234 E14.11745
G1 X161.311 Y96.094 E14.14896
G1 X160.878 Y97.015 E14.18047
G1 X160.563 Y97.983 E14.21197
G1 X160.372 Y98.984 E14.24349
G1 X160.309 Y100.000 E14.27499
G1 X160.372 Y101.016 E14.30650
G1 X160.563 Y102.017 E14.33802
G1 X160.878 Y102.985 E14.36952
G1 X161.311 Y103.906 E14.40102
G1 X161.857 Y104.766 E14.43254
G1 X162.466 Y105.503 E14.46210
G1 X154.822 Y106.000 E14.69914
G1 X148.555 Y106.373 E14.89337
G1 X142.239 Y106.721 E15.08911
G1 X135.898 Y107.040 E15.28556
G1 X129.557 Y107.326 E15.48194
G1 X123.242 Y107.575 E15.67749
G1 X116.971 Y107.781 E15.87164
G1 X110.796 Y107.942 E16.06276
G1 X104.707 Y108.054 E16.25120
G1 X98.741 Y108.113 E16.43578
G1 X92.924 Y108.117 E16.61578
G1 X87.277 Y108.063 E16.79050
G1 X81.824 Y107.949 E16.95927
G1 X76.583 Y107.775 E17.12153
G1 X71.583 Y107.540 E17.27641
G1 X66.835 Y107.245 E17.42359
G1 X62.364 Y106.891 E17.56237
G1 X58.185 Y106.480 E17.69230
G1 X54.316 Y106.015 E17.81287
G1 X50.774 Y105.498 E17.92363
G1 X47.571 Y104.933 E18.02425
G1 X44.729 Y104.327 E18.11417
G1 X42.255 Y103.683 E18.19325
G1 X40.168 Y103.009 E18.26114
G1 X38.482 Y102.316 E18.31754
G1 X37.217 Y101.622 E18.36218
G1 X36.391 Y100.967 E18.39480
G1 X35.987 Y100.419 E18.41586
G1 X35.905 Y100.073 E18.42686
G1 E16.42686 F2400.00000
G92 E0
G1 X163.933 Y106.033 F7800.000
G1 E2.00000 F2400.00000
G1 F1800.000
G1 X154.860 Y106.623 E2.28131
G1 X148.591 Y106.997 E2.47564
G1 X142.272 Y107.345 E2.67146
G1 X135.927 Y107.664 E2.86801
G1 X129.583 Y107.951 E3.06450
G1 X123.265 Y108.199 E3.26017
G1 X116.989 Y108.406 E3.45445
G1 X110.810 Y108.567 E3.64571
G1 X104.715 Y108.679 E3.83430
G1 X98.745 Y108.738 E4.01905
G1 X92.921 Y108.742 E4.19924
G1 X87.268 Y108.687 E4.37417
G1 X81.807 Y108.574 E4.54317
G1 X76.558 Y108.399 E4.70568
G1 X71.549 Y108.164 E4.86084
G1 X66.791 Y107.868 E5.00833
G1 X62.309 Y107.514 E5.14746
G1 X58.117 Y107.101 E5.27778
G1 X54.234 Y106.634 E5.39880
G1 X50.674 Y106.115 E5.51010
G1 X47.452 Y105.547 E5.61134
G1 X44.585 Y104.935 E5.70204
G1 X42.081 Y104.283 E5.78211
G1 X39.953 Y103.597 E5.85130
G1 X38.212 Y102.881 E5.90954
G1 X36.870 Y102.145 E5.95689
G1 X35.937 Y101.405 E5.99374
G1 X35.409 Y100.687 E6.02132
G1 X35.245 Y100.000 E6.04316
G1 X35.409 Y99.313 E6.06501
G1 X35.937 Y98.595 E6.09258
G1 X36.870 Y97.855 E6.12943
G1 X38.212 Y97.119 E6.17679
G1 X39.953 Y96.403 E6.23503
G1 X42.081 Y95.717 E6.30421
G1 X44.586 Y95.064 E6.38432
G1 X47.454 Y94.453 E6.47504
G1 X50.675 Y93.885 E6.57625
G1 X54.234 Y93.366 E6.68752
G1 X58.117 Y92.899 E6.80854
G1 X62.315 Y92.486 E6.93906
G1 X66.792 Y92.131 E7.07802
G1 X71.555 Y91.836 E7.22567
G1 X76.567 Y91.600 E7.38091
G1 X81.813 Y91.426 E7.54335
G1 X87.274 Y91.313 E7.71233
G1 X98.753 Y91.262 E8.06751
G1 X104.723 Y91.321 E8.25224
G1 X110.817 Y91.433 E8.44084
G1 X117.011 Y91.595 E8.63254
G1 X123.279 Y91.801 E8.82661
G1 X129.598 Y92.050 E9.02227
G1 X135.942 Y92.336 E9.21877
G1 X142.286 Y92.656 E9.41532
G1 X148.606 Y93.004 E9.61114
G1 X154.875 Y93.377 E9.80546
G1 X163.933 Y93.967 E10.08632
G1 X162.963 Y94.878 E10.12750
G1 X162.364 Y95.602 E10.15657
G1 X161.860 Y96.395 E10.18565
G1 X161.460 Y97.245 E10.21472
G1 X161.170 Y98.139 E10.24380
G1 X160.994 Y99.062 E10.27288
G1 X160.935 Y100.000 E10.30195
G1 X160.994 Y100.938 E10.33103
G1 X161.170 Y101.861 E10.36011
G1 X161.460 Y102.755 E10.38918
G1 X161.860 Y103.605 E10.41825
G1 X162.364 Y104.398 E10.44733
G1 X162.963 Y105.122 E10.47641
G1 X163.878 Y105.982 E10.51526
G1 X163.446 Y105.922 F7800.000
G1 E8.51526 F2400.00000
G92 E0
G1 X159.919 Y104.643 F7800.000
G1 E2.00000 F2400.00000
G1 F1800.000
G1 X160.405 Y104.157 E2.02129
G1 X160.123 Y103.555 E2.04187
G1 X158.973 Y104.705 E2.09220
G1 X158.027 Y104.766 E2.12156
G1 X159.867 Y102.926 E2.20212
G1 X159.650 Y102.259 E2.22385
G1 X157.081 Y104.828 E2.33633
G1 X156.135 Y104.889 E2.36569
G1 X159.489 Y101.536 E2.51253
G1 X159.373 Y100.930 E2.53163
G1 X159.363 Y100.777 E2.53638
G1 X155.190 Y104.951 E2.71916
G1 X154.245 Y105.011 E2.74847
G1 X159.311 Y99.945 E2.97032
G1 X159.300 Y99.757 E2.97614
G1 X159.345 Y99.026 E2.99882
G1 X153.305 Y105.067 E3.26335
G1 X152.364 Y105.123 E3.29252
G1 X159.484 Y98.003 E3.60430
G1 X159.594 Y97.428 E3.62241
G1 X159.796 Y96.807 E3.64265
G1 X151.424 Y105.179 E4.00927
G1 X150.484 Y105.235 E4.03844
G1 X160.364 Y95.354 E4.47112
G1 X159.533 Y95.300 E4.49689
G1 X149.543 Y105.291 E4.93438
G1 X148.603 Y105.347 E4.96355
G1 X158.703 Y95.246 E5.40586
G1 X157.873 Y95.192 E5.43163
G1 X147.665 Y105.400 E5.87864
G1 X146.729 Y105.451 E5.90767
G1 X157.042 Y95.138 E6.35931
G1 X156.212 Y95.084 E6.38507
G1 X145.793 Y105.503 E6.84133
G1 X144.857 Y105.555 E6.87036
G1 X155.382 Y95.030 E7.33125
G1 X154.549 Y94.978 E7.35709
G1 X143.921 Y105.606 E7.82250
G1 X142.985 Y105.658 E7.85152
G1 X153.714 Y94.929 E8.32137
G1 X152.879 Y94.879 E8.34726
G1 X142.049 Y105.709 E8.82155
G1 X141.117 Y105.757 E8.85044
G1 X152.045 Y94.829 E9.32898
G1 X151.210 Y94.780 E9.35487
G1 X140.186 Y105.804 E9.83764
G1 X139.254 Y105.851 E9.86652
G1 X150.375 Y94.730 E10.35351
G1 X149.540 Y94.680 E10.37941
G1 X138.323 Y105.898 E10.87063
G1 X137.392 Y105.945 E10.89951
G1 X148.706 Y94.631 E11.39496
G1 X147.867 Y94.585 E11.42095
G1 X136.461 Y105.991 E11.92048
G1 X135.530 Y106.038 E11.94934
G1 X147.029 Y94.538 E12.45293
G1 X146.191 Y94.492 E12.47893
G1 X134.603 Y106.080 E12.98637
G1 X133.677 Y106.121 E13.01508
G1 X145.353 Y94.446 E13.52637
G1 X144.515 Y94.400 E13.55237
G1 X132.751 Y106.163 E14.06751
G1 X131.825 Y106.205 E14.09622
G1 X143.676 Y94.353 E14.61522
G1 X142.838 Y94.307 E14.64122
G1 X130.899 Y106.247 E15.16407
G1 X129.972 Y106.289 E15.19278
G1 X141.998 Y94.263 E15.71940
G1 X141.156 Y94.221 E15.74551
G1 X129.048 Y106.329 E16.27576
G1 X128.127 Y106.365 E16.30429
G1 X140.314 Y94.178 E16.83798
G1 X139.472 Y94.136 E16.86409
G1 X127.206 Y106.401 E17.40122
G1 X126.286 Y106.438 E17.42975
G1 X138.630 Y94.093 E17.97033
G1 X137.788 Y94.051 E17.99644
G1 X125.365 Y106.474 E18.54046
G1 X124.444 Y106.510 E18.56899
G1 X136.946 Y94.009 E19.11645
G1 X136.104 Y93.966 E19.14256
G1 X123.524 Y106.546 E19.69346
G1 X122.606 Y106.580 E19.72192
G1 X135.258 Y93.928 E20.27598
G1 X134.412 Y93.890 E20.30221
G1 X121.691 Y106.610 E20.85927
G1 X120.776 Y106.640 E20.88760
G1 X133.565 Y93.852 E21.44765
G1 X132.719 Y93.813 E21.47388
G1 X119.862 Y106.671 E22.03692
G1 X118.947 Y106.701 E22.06526
G1 X131.873 Y93.775 E22.63129
G1 X131.027 Y93.737 E22.65752
G1 X118.033 Y106.731 E23.22655
G1 X117.118 Y106.761 E23.25488
G1 X130.180 Y93.699 E23.82690
G1 X129.762 Y93.680 E23.83987
G1 X129.332 Y93.663 E23.85321
G1 X116.207 Y106.788 E24.42796
G1 X115.299 Y106.811 E24.45609
G1 X128.481 Y93.630 E25.03335
G1 X127.630 Y93.596 E25.05972
G1 X114.391 Y106.835 E25.63947
G1 X113.483 Y106.859 E25.66760
G1 X126.779 Y93.563 E26.24986
G1 X125.928 Y93.529 E26.27623
G1 X112.575 Y106.882 E26.86099
G1 X111.667 Y106.906 E26.88912
G1 X125.077 Y93.496 E27.47638
G1 X124.226 Y93.462 E27.50275
G1 X110.759 Y106.930 E28.09251
G1 X109.856 Y106.948 E28.12047
G1 X123.375 Y93.429 E28.71248
G1 X122.518 Y93.401 E28.73901
G1 X108.955 Y106.965 E29.33298
G1 X108.054 Y106.981 E29.36088
G1 X121.662 Y93.373 E29.95681
G1 X120.806 Y93.344 E29.98334
G1 X107.153 Y106.998 E30.58124
G1 X106.252 Y107.014 E30.60914
G1 X119.950 Y93.316 E31.20900
G1 X119.094 Y93.288 E31.23552
G1 X105.351 Y107.031 E31.83734
G1 X104.450 Y107.047 E31.86524
G1 X118.238 Y93.260 E32.46903
G1 X117.382 Y93.231 E32.49555
G1 X103.557 Y107.056 E33.10096
G1 X102.664 Y107.065 E33.12862
G1 X116.521 Y93.208 E33.73545
G1 X115.659 Y93.185 E33.76215
G1 X101.770 Y107.074 E34.37036
G1 X100.877 Y107.083 E34.39802
G1 X114.797 Y93.163 E35.00759
G1 X113.935 Y93.140 E35.03429
G1 X99.984 Y107.092 E35.64524
G1 X99.090 Y107.100 E35.67290
G1 X113.073 Y93.118 E36.28522
G1 X112.211 Y93.096 E36.31192
G1 X98.200 Y107.107 E36.92548
G1 X97.315 Y107.107 E36.95289
G1 X111.349 Y93.073 E37.56746
G1 X110.483 Y93.055 E37.59428
G1 X96.430 Y107.108 E38.20969
G1 X95.545 Y107.108 E38.23709
G1 X109.615 Y93.039 E38.85322
G1 X108.746 Y93.023 E38.88011
G1 X94.660 Y107.109 E39.49696
G1 X93.775 Y107.109 E39.52437
G1 X107.878 Y93.007 E40.14194
G1 X107.009 Y92.991 E40.16884
G1 X92.890 Y107.110 E40.78714
G1 X92.012 Y107.104 E40.81433
G1 X106.141 Y92.975 E41.43304
G1 X105.272 Y92.959 E41.45994
G1 X91.136 Y107.095 E42.07899
G1 X90.260 Y107.087 E42.10611
G1 X104.399 Y92.947 E42.72530
G1 X103.524 Y92.939 E42.75242
G1 X89.384 Y107.078 E43.37161
G1 X88.508 Y107.070 E43.39874
G1 X102.648 Y92.930 E44.01794
G1 X101.772 Y92.921 E44.04506
G1 X87.632 Y107.062 E44.66428
G1 X86.759 Y107.050 E44.69131
G1 X100.896 Y92.913 E45.31040
G1 X100.021 Y92.904 E45.33752
G1 X85.893 Y107.032 E45.95620
G1 X85.026 Y107.014 E45.98303
G1 X99.145 Y92.895 E46.60130
G1 X98.259 Y92.897 E46.62874
G1 X84.160 Y106.996 E47.24615
G1 X83.294 Y106.978 E47.27298
G1 X97.371 Y92.901 E47.88942
G1 X96.482 Y92.905 E47.91693
G1 X82.427 Y106.960 E48.53242
G1 X81.562 Y106.941 E48.55923
G1 X95.594 Y92.909 E49.17372
G1 X94.706 Y92.913 E49.20123
G1 X80.706 Y106.912 E49.81431
G1 X79.850 Y106.884 E49.84083
G1 X93.817 Y92.917 E50.45249
G1 X92.929 Y92.920 E50.48000
G1 X78.994 Y106.856 E51.09024
G1 X78.138 Y106.827 E51.11676
G1 X92.041 Y92.924 E51.72559
G1 X91.152 Y92.928 E51.75310
G1 X77.282 Y106.799 E52.36051
G1 X76.426 Y106.770 E52.38703
G1 X90.264 Y92.932 E52.99302
G1 X89.376 Y92.936 E53.02053
G1 X75.581 Y106.731 E53.62464
G1 X74.736 Y106.691 E53.65083
G1 X88.487 Y92.940 E54.25303
G1 X87.599 Y92.944 E54.28054
G1 X73.891 Y106.652 E54.88083
G1 X73.046 Y106.612 E54.90702
G1 X86.697 Y92.962 E55.50480
G1 X85.794 Y92.980 E55.53277
G1 X72.202 Y106.572 E56.12799
G1 X71.357 Y106.532 E56.15416
G1 X84.890 Y92.999 E56.74678
G1 X83.987 Y93.018 E56.77476
G1 X70.525 Y106.480 E57.36430
G1 X69.692 Y106.429 E57.39013
G1 X83.084 Y93.037 E57.97658
G1 X82.181 Y93.056 E58.00455
G1 X68.859 Y106.377 E58.58791
G1 X68.027 Y106.325 E58.61374
G1 X81.267 Y93.085 E59.19355
G1 X80.352 Y93.115 E59.22189
G1 X67.194 Y106.273 E59.79809
G1 X66.367 Y106.217 E59.82378
G1 X79.437 Y93.146 E60.39617
G1 X78.522 Y93.176 E60.42451
G1 X65.547 Y106.152 E60.99273
G1 X64.727 Y106.087 E61.01819
G1 X77.608 Y93.207 E61.58224
G1 X76.690 Y93.240 E61.61067
