; generated by Slic3r 1.3.1-dev (Build 2ef957d) on 2019-11-25 at 09:24:55

; external perimeters extrusion width = 0.55mm (4.37mm^3/s)
; perimeters extrusion width = 0.70mm (11.44mm^3/s)
; infill extrusion width = 0.62mm (13.45mm^3/s)
; solid infill extrusion width = 0.70mm (3.81mm^3/s)
; top infill extrusion width = 0.70mm (2.86mm^3/s)

M107
G92 E0
M104 S200 ; set temperature
G28 ; home all axes
G1 Z5 F5000 ; lift nozzle

; Filament gcode

M109 S200 ; set temperature and wait for it to be reached
G21 ; set units to millimeters
G90 ; use absolute coordinates
M82 ; use absolute distances for extrusion
G92 E0
G1 Z0.350 F7800.000
G1 E-2.00000 F2400.00000
G92 E0
G1 X75.649 Y75.720 F7800.000
G1 E2.00000 F2400.00000
G1 F1800.000
G1 X77.933 Y73.502 E2.09850
G1 X80.286 Y71.357 E2.19699
G1 X82.704 Y69.288 E2.29549
G1 X85.186 Y67.295 E2.39398
G1 X87.730 Y65.381 E2.49247
G1 X90.332 Y63.548 E2.59097
G1 X93.167 Y61.686 E2.69590
G1 X95.883 Y60.025 E2.79439
G1 X98.650 Y58.451 E2.89289
G1 X101.464 Y56.965 E2.99138
G1 X104.324 Y55.567 E3.08987
G1 X107.227 Y54.260 E3.18837
G1 X110.169 Y53.045 E3.28686
G1 X113.148 Y51.923 E3.38535
G1 X116.161 Y50.895 E3.48385
G1 X119.204 Y49.962 E3.58234
G1 X122.275 Y49.125 E3.68084
G1 X125.371 Y48.385 E3.77933
G1 X128.489 Y47.743 E3.87782
G1 X131.625 Y47.199 E3.97631
G1 X134.777 Y46.753 E4.07481
G1 X137.942 Y46.407 E4.17330
G1 X140.908 Y46.174 E4.26536
G1 X141.812 Y46.128 E4.29337
G1 X142.977 Y46.176 E4.32944
G1 X148.227 Y46.857 E4.49325
G1 X150.416 Y47.541 E4.56421
G1 X152.240 Y48.931 E4.63517
G1 X153.481 Y50.860 E4.70613
G1 X153.999 Y53.427 E4.78716
G1 X153.999 Y57.563 E4.91514
G1 X153.602 Y59.822 E4.98610
G1 X152.059 Y62.247 E5.07506
G1 X62.324 Y151.982 E9.00162
G1 X60.446 Y153.298 E9.07258
G1 X57.640 Y153.922 E9.16154
G1 X52.668 Y153.922 E9.31536
G1 X50.410 Y153.525 E9.38632
G1 X48.422 Y152.382 E9.45728
G1 X46.942 Y150.629 E9.52825
G1 X46.149 Y148.477 E9.59921
G1 X46.044 Y147.193 E9.63907
G1 X46.091 Y144.218 E9.73112
G1 X46.238 Y141.038 E9.82961
G1 X46.504 Y137.658 E9.93454
G1 X46.830 Y134.700 E10.02660
G1 X47.276 Y131.548 E10.12509
G1 X47.820 Y128.412 E10.22359
G1 X48.311 Y126.024 E10.29903
G1 X48.413 Y125.601 E10.31249
G1 X51.435 Y114.721 E10.66186
G1 X52.070 Y112.875 E10.72228
G1 X53.198 Y109.899 E10.82077
G1 X54.420 Y106.959 E10.91927
G1 X55.733 Y104.059 E11.01776
G1 X57.136 Y101.202 E11.11625
G1 X58.628 Y98.390 E11.21474
G1 X60.102 Y95.806 E11.30680
G1 X61.763 Y93.090 E11.40529
G1 X63.625 Y90.255 E11.51023
G1 X65.458 Y87.653 E11.60872
G1 X67.372 Y85.109 E11.70722
G1 X69.232 Y82.787 E11.79927
G1 X71.297 Y80.365 E11.89776
G1 X73.437 Y78.008 E11.99626
G1 X75.597 Y75.774 E12.09242
G1 E10.09242 F2400.00000
G92 E0
G1 X60.824 Y115.267 F7800.000
G1 E2.00000 F2400.00000
G1 F1800.000
G1 X59.958 Y115.267 E2.02678
G1 X60.807 Y113.023 E2.10103
G1 X61.926 Y110.320 E2.19152
G1 X63.130 Y107.655 E2.28202
G1 X64.416 Y105.028 E2.37252
G1 X65.785 Y102.443 E2.46302
G1 X67.234 Y99.902 E2.55352
G1 X68.762 Y97.409 E2.64402
G1 X70.368 Y94.964 E2.73452
G1 X72.050 Y92.571 E2.82502
G1 X73.806 Y90.232 E2.91552
G1 X75.635 Y87.949 E3.00602
G1 X77.535 Y85.725 E3.09652
G1 X79.503 Y83.562 E3.18702
G1 X81.538 Y81.461 E3.27752
G1 X83.639 Y79.426 E3.36802
G1 X85.802 Y77.458 E3.45852
G1 X88.026 Y75.558 E3.54902
G1 X90.309 Y73.729 E3.63952
G1 X92.648 Y71.973 E3.73002
G1 X95.041 Y70.291 E3.82052
G1 X97.486 Y68.685 E3.91102
G1 X99.979 Y67.157 E4.00152
G1 X102.520 Y65.708 E4.09202
G1 X105.105 Y64.339 E4.18252
G1 X107.732 Y63.053 E4.27302
G1 X110.397 Y61.849 E4.36352
G1 X113.100 Y60.730 E4.45401
G1 X115.836 Y59.696 E4.54452
G1 X118.603 Y58.748 E4.63502
G1 X121.399 Y57.888 E4.72552
G1 X124.220 Y57.117 E4.81602
G1 X127.064 Y56.434 E4.90651
G1 X129.928 Y55.841 E4.99701
G1 X132.809 Y55.338 E5.08751
G1 X135.705 Y54.926 E5.17801
G1 X138.612 Y54.605 E5.26851
G1 X140.524 Y54.454 E5.32786
G1 X140.524 Y55.259 E5.35276
G1 X144.476 Y55.072 E5.47516
G1 X145.774 Y55.052 E5.51534
G1 X145.774 Y55.988 E5.54430
G1 X144.505 Y56.008 E5.58358
G1 X141.639 Y56.143 E5.67235
G1 X138.779 Y56.368 E5.76113
G1 X135.927 Y56.683 E5.84991
G1 X133.086 Y57.087 E5.93869
G1 X130.260 Y57.581 E6.02746
G1 X127.450 Y58.163 E6.11624
G1 X124.660 Y58.832 E6.20502
G1 X121.893 Y59.589 E6.29380
G1 X119.150 Y60.433 E6.38258
G1 X116.436 Y61.363 E6.47135
G1 X113.752 Y62.377 E6.56013
G1 X111.101 Y63.475 E6.64891
G1 X108.486 Y64.655 E6.73769
G1 X105.909 Y65.918 E6.82646
G1 X103.373 Y67.260 E6.91524
G1 X100.881 Y68.682 E7.00402
G1 X98.435 Y70.181 E7.09280
G1 X96.037 Y71.756 E7.18158
G1 X93.689 Y73.406 E7.27036
G1 X91.395 Y75.129 E7.35913
G1 X89.155 Y76.923 E7.44791
G1 X86.974 Y78.786 E7.53669
G1 X84.852 Y80.717 E7.62547
G1 X82.791 Y82.714 E7.71424
G1 X80.794 Y84.775 E7.80302
G1 X78.863 Y86.897 E7.89180
G1 X77.000 Y89.078 E7.98058
G1 X75.206 Y91.318 E8.06936
G1 X73.483 Y93.612 E8.15813
G1 X71.833 Y95.960 E8.24691
G1 X70.258 Y98.358 E8.33569
G1 X68.759 Y100.804 E8.42447
G1 X67.337 Y103.296 E8.51324
G1 X65.995 Y105.832 E8.60202
G1 X64.732 Y108.409 E8.69080
G1 X63.552 Y111.024 E8.77958
G1 X62.454 Y113.675 E8.86835
G1 X61.440 Y116.359 E8.95713
G1 X60.510 Y119.073 E9.04591
G1 X59.666 Y121.816 E9.13469
G1 X58.909 Y124.583 E9.22347
G1 X58.229 Y127.417 E9.31365
G1 X57.275 Y127.417 E9.34318
G1 X58.003 Y124.350 E9.44071
G1 X58.768 Y121.555 E9.53040
G1 X59.620 Y118.784 E9.62009
G1 X60.800 Y115.338 E9.73278
G1 X59.949 Y115.892 F7800.000
G1 F1800.000
G1 X59.067 Y115.892 E9.76009
G1 X60.226 Y112.793 E9.86249
G1 X61.352 Y110.072 E9.95359
G1 X62.564 Y107.389 E10.04470
G1 X63.860 Y104.744 E10.13581
G1 X65.237 Y102.142 E10.22692
G1 X66.696 Y99.584 E10.31802
G1 X68.235 Y97.074 E10.40913
G1 X69.851 Y94.613 E10.50024
G1 X71.544 Y92.204 E10.59134
G1 X73.312 Y89.849 E10.68245
G1 X75.153 Y87.551 E10.77356
G1 X77.066 Y85.312 E10.86467
G1 X79.047 Y83.134 E10.95577
G1 X81.097 Y81.020 E11.04688
G1 X83.211 Y78.970 E11.13799
G1 X85.389 Y76.989 E11.22909
G1 X87.628 Y75.076 E11.32020
G1 X89.926 Y73.235 E11.41131
G1 X92.281 Y71.467 E11.50242
G1 X94.690 Y69.774 E11.59352
G1 X97.151 Y68.158 E11.68463
G1 X99.661 Y66.619 E11.77574
G1 X102.219 Y65.160 E11.86685
G1 X104.821 Y63.783 E11.95795
G1 X107.466 Y62.487 E12.04906
G1 X110.149 Y61.275 E12.14017
G1 X112.870 Y60.149 E12.23127
G1 X115.624 Y59.108 E12.32238
G1 X118.410 Y58.154 E12.41349
G1 X121.224 Y57.288 E12.50460
G1 X124.064 Y56.511 E12.59570
G1 X126.927 Y55.824 E12.68681
G1 X129.811 Y55.227 E12.77791
G1 X132.711 Y54.720 E12.86902
G1 X135.627 Y54.306 E12.96013
G1 X138.553 Y53.982 E13.05124
G1 X141.149 Y53.778 E13.13181
G1 X141.149 Y54.604 E13.15735
G1 X144.456 Y54.448 E13.25978
G1 X146.399 Y54.417 E13.31991
G1 X146.399 Y56.603 E13.38755
G1 X144.525 Y56.633 E13.44555
G1 X141.678 Y56.767 E13.53372
G1 X138.838 Y56.990 E13.62189
G1 X136.005 Y57.303 E13.71007
G1 X133.184 Y57.705 E13.79823
G1 X130.377 Y58.195 E13.88640
G1 X127.587 Y58.772 E13.97458
G1 X124.816 Y59.438 E14.06275
G1 X122.067 Y60.190 E14.15092
G1 X119.343 Y61.028 E14.23909
G1 X116.647 Y61.951 E14.32726
G1 X113.982 Y62.958 E14.41543
G1 X111.349 Y64.048 E14.50360
G1 X108.752 Y65.221 E14.59177
G1 X106.193 Y66.475 E14.67994
G1 X103.675 Y67.808 E14.76811
G1 X101.199 Y69.220 E14.85628
G1 X98.770 Y70.709 E14.94445
G1 X96.388 Y72.273 E15.03262
G1 X94.057 Y73.912 E15.12079
G1 X91.778 Y75.623 E15.20896
G1 X89.554 Y77.404 E15.29713
G1 X87.387 Y79.255 E15.38530
G1 X85.279 Y81.173 E15.47347
G1 X83.233 Y83.156 E15.56164
G1 X81.250 Y85.202 E15.64981
G1 X79.332 Y87.310 E15.73798
G1 X77.481 Y89.477 E15.82615
G1 X75.700 Y91.701 E15.91432
G1 X73.989 Y93.980 E16.00249
G1 X72.350 Y96.311 E16.09066
G1 X70.786 Y98.693 E16.17883
G1 X69.297 Y101.122 E16.26700
G1 X67.885 Y103.598 E16.35517
G1 X66.552 Y106.116 E16.44334
G1 X65.298 Y108.675 E16.53151
G1 X64.125 Y111.272 E16.61968
G1 X63.035 Y113.905 E16.70786
G1 X62.028 Y116.570 E16.79603
G1 X61.105 Y119.266 E16.88420
G1 X60.267 Y121.990 E16.97237
G1 X59.515 Y124.739 E17.06054
G1 X58.849 Y127.510 E17.14871
G1 X58.739 Y128.042 E17.16554
G1 X56.507 Y128.042 E17.23461
G1 X56.716 Y127.033 E17.26651
G1 X57.397 Y124.195 E17.35680
G1 X58.167 Y121.380 E17.44710
G1 X59.025 Y118.591 E17.53739
G1 X59.925 Y115.963 E17.62333
G1 X59.075 Y116.517 F7800.000
G1 F1800.000
G1 X58.192 Y116.517 E17.65065
G1 X58.597 Y115.335 E17.68930
G1 X59.645 Y112.563 E17.78101
G1 X60.779 Y109.824 E17.87273
G1 X61.999 Y107.122 E17.96444
G1 X63.303 Y104.461 E18.05616
G1 X64.690 Y101.841 E18.14787
G1 X66.158 Y99.266 E18.23959
G1 X67.707 Y96.739 E18.33130
G1 X69.334 Y94.261 E18.42301
G1 X71.039 Y91.836 E18.51473
G1 X72.819 Y89.466 E18.60644
G1 X74.672 Y87.153 E18.69816
G1 X76.597 Y84.899 E18.78988
G1 X78.592 Y82.706 E18.88159
G1 X80.655 Y80.578 E18.97330
G1 X82.783 Y78.515 E19.06502
G1 X84.976 Y76.520 E19.15673
G1 X87.230 Y74.595 E19.24845
G1 X89.543 Y72.742 E19.34016
G1 X91.913 Y70.962 E19.43188
G1 X94.338 Y69.257 E19.52359
G1 X96.816 Y67.630 E19.61530
G1 X99.343 Y66.081 E19.70702
G1 X101.918 Y64.613 E19.79874
G1 X104.538 Y63.226 E19.89045
G1 X107.199 Y61.922 E19.98216
G1 X109.901 Y60.702 E20.07388
G1 X112.639 Y59.568 E20.16559
G1 X115.412 Y58.520 E20.25731
G1 X118.217 Y57.560 E20.34902
G1 X121.050 Y56.688 E20.44074
G1 X123.909 Y55.906 E20.53245
G1 X126.791 Y55.214 E20.62417
G1 X129.694 Y54.613 E20.71588
G1 X132.614 Y54.103 E20.80760
G1 X135.548 Y53.686 E20.89931
G1 X138.494 Y53.360 E20.99102
G1 X141.774 Y53.112 E21.09279
G1 X141.774 Y53.949 E21.11866
G1 X144.437 Y53.823 E21.20113
G1 X147.024 Y53.782 E21.28121
G1 X147.024 Y57.218 E21.38752
G1 X144.545 Y57.257 E21.46425
G1 X141.718 Y57.391 E21.55181
G1 X138.896 Y57.613 E21.63938
G1 X136.084 Y57.923 E21.72694
G1 X133.282 Y58.322 E21.81450
G1 X130.494 Y58.808 E21.90207
G1 X127.723 Y59.382 E21.98963
G1 X124.971 Y60.043 E22.07719
G1 X122.241 Y60.790 E22.16475
G1 X119.537 Y61.622 E22.25232
G1 X116.859 Y62.539 E22.33988
G1 X114.212 Y63.539 E22.42744
G1 X111.597 Y64.622 E22.51501
G1 X109.018 Y65.786 E22.60257
G1 X106.477 Y67.031 E22.69013
G1 X103.976 Y68.356 E22.77770
G1 X101.518 Y69.758 E22.86526
G1 X99.105 Y71.236 E22.95282
G1 X96.739 Y72.790 E23.04038
G1 X94.424 Y74.417 E23.12795
G1 X92.161 Y76.117 E23.21551
G1 X89.952 Y77.886 E23.30307
G1 X87.800 Y79.724 E23.39063
G1 X85.707 Y81.629 E23.47820
G1 X83.675 Y83.598 E23.56576
G1 X81.706 Y85.630 E23.65332
G1 X79.801 Y87.723 E23.74089
G1 X77.963 Y89.875 E23.82845
G1 X76.194 Y92.084 E23.91601
G1 X74.494 Y94.347 E24.00357
G1 X72.867 Y96.662 E24.09114
G1 X71.313 Y99.028 E24.17870
G1 X69.835 Y101.441 E24.26626
G1 X68.433 Y103.899 E24.35383
G1 X67.108 Y106.400 E24.44139
G1 X65.863 Y108.941 E24.52895
G1 X64.699 Y111.520 E24.61651
G1 X63.616 Y114.135 E24.70408
G1 X62.616 Y116.782 E24.79164
G1 X61.699 Y119.460 E24.87920
G1 X60.867 Y122.164 E24.96677
G1 X60.120 Y124.894 E25.05433
G1 X59.459 Y127.646 E25.14189
G1 X59.248 Y128.667 E25.17416
G1 X54.886 Y128.667 E25.30911
G1 X55.083 Y127.717 E25.33913
G1 X55.936 Y127.717 E25.36552
G1 X56.106 Y126.896 E25.39145
G1 X56.792 Y124.040 E25.48236
G1 X57.567 Y121.206 E25.57326
G1 X58.431 Y118.398 E25.66416
G1 X59.051 Y116.588 E25.72335
G1 X59.127 Y116.020 F7800.000
G1 E23.72335 F2400.00000
G92 E0
G1 X54.956 Y128.667 F7800.000
G1 E2.00000 F2400.00000
G1 F1800.000
G1 X54.756 Y129.629 E2.03698
G1 X54.247 Y132.547 E2.14846
G1 X53.830 Y135.480 E2.25994
G1 X53.505 Y138.424 E2.37142
G1 X53.272 Y141.383 E2.48314
G1 X53.133 Y144.335 E2.59438
G1 X53.099 Y146.491 E2.67549
G1 X53.118 Y146.599 E2.67965
G1 F1800.000
G1 X53.157 Y146.816 E2.68887
G1 X53.426 Y146.877 E2.70042
G1 F1800.000
G1 X53.516 Y146.897 E2.70391
G1 X57.646 Y146.897 E2.86040
G1 E0.86040 F2400.00000
G92 E0
G1 X56.157 Y128.192 F7800.000
G1 E2.00000 F2400.00000
G1 F1800.000
G1 X55.304 Y128.192 E2.01056
G1 E0.01056 F2400.00000
G92 E0
G1 X57.823 Y127.105 F7800.000
G1 E2.00000 F2400.00000
G1 F1800.000
G1 X58.456 Y124.467 E2.03650
G1 X59.217 Y121.685 E2.07530
G1 X60.065 Y118.929 E2.11411
G1 X60.998 Y116.203 E2.15287
G1 X61.447 Y114.955 E2.17072
G1 X61.057 Y114.481 F7800.000
G1 F1800.000
G1 X61.982 Y113.555 E2.21179
G1 X62.594 Y112.047 E2.26288
G1 X61.144 Y113.496 E2.32722
G1 X61.778 Y111.966 E2.37920
G1 X63.229 Y110.515 E2.44360
G1 X63.967 Y108.881 E2.49988
G1 X62.438 Y110.410 E2.56776
G1 X63.176 Y108.776 E2.62405
G1 X64.754 Y107.198 E2.69411
G1 X65.615 Y105.440 E2.75552
G1 X63.990 Y107.065 E2.82762
G1 X64.730 Y105.555 E2.88039
G1 X64.872 Y105.287 E2.88992
G1 X66.612 Y103.547 E2.96715
G1 X67.033 Y102.752 E2.99536
G1 X67.727 Y101.536 E3.03933
G1 X65.881 Y103.381 E3.12126
G1 X66.090 Y102.987 E3.13525
G1 X67.034 Y101.332 E3.19505
G1 X69.004 Y99.362 E3.28251
G1 X69.973 Y97.780 E3.34074
G1 X70.517 Y96.953 E3.37181
G1 X68.357 Y99.112 E3.46768
G1 X69.047 Y97.986 E3.50913
G1 X69.929 Y96.645 E3.55952
G1 X72.392 Y94.182 E3.66884
G1 X73.221 Y93.002 E3.71410
G1 X74.865 Y90.811 E3.80007
G1 X71.881 Y93.796 E3.93256
G1 X72.313 Y93.181 E3.95614
G1 X74.057 Y90.858 E4.04732
G1 X74.600 Y90.180 E4.07459
G1 X79.625 Y85.155 E4.29762
G1 E2.29762 F2400.00000
G92 E0
G1 X81.742 Y82.142 F7800.000
G1 E2.00000 F2400.00000
G1 F1800.000
G1 X81.733 Y82.151 E2.00043
G1 X84.310 Y79.639 E2.11339
G1 X86.459 Y77.683 E2.20458
G1 X88.668 Y75.796 E2.29576
G1 X90.257 Y74.523 E2.35968
G1 X85.232 Y79.548 E2.58270
G1 X86.317 Y78.561 E2.62875
G1 X88.514 Y76.684 E2.71942
G1 X90.888 Y74.788 E2.81478
G1 X93.873 Y71.804 E2.94727
G1 X95.635 Y70.565 E3.01487
G1 X96.722 Y69.852 E3.05566
G1 X94.259 Y72.315 E3.16498
G1 X95.442 Y71.483 E3.21039
G1 X97.030 Y70.440 E3.26999
G1 X99.189 Y68.280 E3.36586
G1 X100.541 Y67.452 E3.41560
G1 X101.409 Y66.957 E3.44699
G1 X99.439 Y68.927 E3.53446
G1 X100.320 Y68.387 E3.56690
G1 X101.613 Y67.650 E3.61360
G1 X103.459 Y65.804 E3.69554
G1 X105.364 Y64.795 E3.76319
G1 X103.624 Y66.535 E3.84042
G1 X105.517 Y65.538 E3.90760
G1 X107.142 Y63.913 E3.97970
G1 X108.241 Y63.375 E4.01811
G1 X108.853 Y63.099 E4.03920
G1 X107.275 Y64.677 E4.10926
G1 X107.977 Y64.333 E4.13380
G1 X108.958 Y63.890 E4.16759
G1 X110.487 Y62.361 E4.23547
G1 X112.043 Y61.701 E4.28851
G1 X110.593 Y63.152 E4.35290
G1 X112.124 Y62.517 E4.40493
G1 X113.573 Y61.067 E4.46927
G1 X115.014 Y60.523 E4.51762
G1 X113.632 Y61.905 E4.57896
G1 X115.073 Y61.361 E4.62731
G1 X116.446 Y59.987 E4.68826
G1 X117.809 Y59.521 E4.73348
G1 X116.485 Y60.845 E4.79226
G1 X117.848 Y60.378 E4.83748
G1 X119.166 Y59.061 E4.89596
G1 X120.461 Y58.662 E4.93848
G1 X119.187 Y59.936 E4.99503
G1 X120.481 Y59.538 E5.03755
G1 X121.755 Y58.264 E5.09410
G1 X122.992 Y57.924 E5.13436
G1 X121.762 Y59.154 E5.18897
G1 X122.996 Y58.816 E5.22913
G1 X124.226 Y57.586 E5.28374
G1 X125.423 Y57.286 E5.32247
G1 X124.230 Y58.479 E5.37543
G1 X125.411 Y58.194 E5.41356
G1 X126.603 Y57.002 E5.46645
G1 X127.443 Y56.801 E5.49358
G1 X127.768 Y56.733 E5.50400
G1 X126.591 Y57.911 E5.55627
G1 X127.741 Y57.657 E5.59325
G1 X128.899 Y56.499 E5.64464
G1 X130.029 Y56.265 E5.68087
G1 X128.872 Y57.423 E5.73226
G1 X129.998 Y57.193 E5.76834
G1 X131.126 Y56.065 E5.81838
G1 X132.212 Y55.876 E5.85298
G1 X131.084 Y57.003 E5.90302
G1 X132.170 Y56.814 E5.93762
G1 X133.292 Y55.692 E5.98741
G1 X134.337 Y55.543 E6.02055
G1 X133.237 Y56.643 E6.06938
G1 X134.282 Y56.494 E6.10252
G1 X135.382 Y55.394 E6.15135
G1 X136.026 Y55.303 E6.17177
G1 X136.413 Y55.260 E6.18398
G1 X135.327 Y56.346 E6.23218
G1 X136.345 Y56.224 E6.26434
G1 X137.421 Y55.149 E6.31209
G1 X138.428 Y55.037 E6.34391
G1 X137.353 Y56.113 E6.39166
G1 X138.360 Y56.002 E6.42348
G1 X139.418 Y54.944 E6.47044
G1 X139.791 Y54.915 E6.48217
G1 X139.823 Y55.435 E6.49853
G1 X139.337 Y55.921 E6.52011
G1 X140.212 Y55.764 F7800.000
G1 F1800.000
G1 X141.612 Y55.676 E6.53651
G1 X144.488 Y55.540 E6.57015
G1 X145.462 Y55.525 E6.58153
G1 Z0.650 F7800.000
G1 E4.58153 F2400.00000
G92 E0
G1 X60.727 Y115.396 F7800.000
G1 E2.00000 F2400.00000
G1 F3600.000
G1 X59.857 Y115.396 E2.02348
G1 X60.761 Y113.004 E2.09244
G1 X61.881 Y110.301 E2.17139
G1 X63.085 Y107.634 E2.25033
G1 X64.372 Y105.006 E2.32928
G1 X65.742 Y102.419 E2.40822
G1 X67.192 Y99.877 E2.48717
G1 X68.721 Y97.382 E2.56611
G1 X70.327 Y94.936 E2.64506
G1 X72.010 Y92.542 E2.72400
G1 X73.767 Y90.202 E2.80295
G1 X75.597 Y87.918 E2.88189
G1 X77.497 Y85.693 E2.96084
