; Gcode updated with 'stl_info' on 2019-12-03 19:07:19.269306

; stl_min_x = 0.0
; stl_max_x = 100.0
; stl_min_y = -35.0
; stl_max_y = 0.0
; stl_min_z = -12.0

; generated by Slic3r 1.3.1-dev (Build adea0d9) on 2019-12-03 at 19:07:19

; external perimeters extrusion width = 0.55mm (1.90mm^3/s)
; perimeters extrusion width = 0.70mm (2.71mm^3/s)
; infill extrusion width = 0.62mm (2.41mm^3/s)
; solid infill extrusion width = 0.70mm (2.04mm^3/s)
; top infill extrusion width = 0.70mm (2.04mm^3/s)

M107
G92 E0
;D3D:START:START
T0
M104 S215 T0

G21
G90
M107
T0
G28
G29
M109 T0 S215 T0
G0 F3000
M107
T0
G92 E0
G0 X0 Y149 Z0.1 F3600
G1 Y49 E6.5 F1200
G0 Z1
G92 E0
; Filament gcode

G21 ; set units to millimeters
G90 ; use absolute coordinates
M82 ; use absolute distances for extrusion
G92 E0
G1 Z0.090 F7800.000
G1 E-2.00000 F2400.00000
G92 E0
G1 X22.187 Y52.110 F7800.000
G1 E2.00000 F2400.00000
G1 F1800.000
G1 X25.000 Y51.420 E2.00864
G1 X125.000 Y51.420 E2.30680
G1 X127.160 Y51.817 E2.31335
G1 X129.038 Y52.955 E2.31990
G1 X130.390 Y54.687 E2.32645
G1 X131.080 Y57.500 E2.33508
G1 X131.080 Y92.500 E2.43944
G1 X130.683 Y94.660 E2.44599
G1 X129.545 Y96.538 E2.45254
G1 X127.813 Y97.890 E2.45909
G1 X125.000 Y98.580 E2.46773
G1 X25.000 Y98.580 E2.76589
G1 X22.840 Y98.183 E2.77244
G1 X20.962 Y97.045 E2.77899
G1 X19.610 Y95.313 E2.78554
G1 X18.920 Y92.500 E2.79417
G1 X18.920 Y57.500 E2.89853
G1 X19.317 Y55.340 E2.90508
G1 X20.455 Y53.462 E2.91163
G1 X22.128 Y52.156 E2.91795
G1 E0.91795 F2400.00000
G92 E0
G1 X53.350 Y84.500 F7800.000
G1 E2.00000 F2400.00000
G1 F1800.000
G1 X52.298 Y83.736 E2.00388
G1 X51.897 Y82.500 E2.00775
G1 X52.298 Y81.264 E2.01163
G1 X53.350 Y80.500 E2.01550
G1 X54.650 Y80.500 E2.01938
G1 X55.702 Y81.264 E2.02326
G1 X56.103 Y82.500 E2.02713
G1 X55.702 Y83.736 E2.03101
G1 X54.650 Y84.500 E2.03488
G1 X53.425 Y84.500 E2.03854
G1 X53.376 Y84.421 F7800.000
G1 F1800.000
G1 X52.366 Y83.687 E2.04226
G1 X51.980 Y82.500 E2.04598
G1 X52.366 Y81.313 E2.04970
G1 X53.376 Y80.579 E2.05342
G1 X54.624 Y80.579 E2.05715
G1 X55.634 Y81.313 E2.06087
G1 X56.020 Y82.500 E2.06459
G1 X55.634 Y83.687 E2.06831
G1 X54.624 Y84.421 E2.07203
G1 X53.451 Y84.421 E2.07553
G1 X53.402 Y84.341 F7800.000
G1 F1800.000
G1 X52.434 Y83.638 E2.07910
G1 X52.064 Y82.500 E2.08266
G1 X52.434 Y81.362 E2.08623
G1 X53.402 Y80.659 E2.08980
G1 X54.598 Y80.659 E2.09337
G1 X55.566 Y81.362 E2.09693
G1 X55.936 Y82.500 E2.10050
G1 X55.566 Y83.638 E2.10407
G1 X54.598 Y84.341 E2.10764
G1 X53.477 Y84.341 E2.11098
G1 X53.428 Y84.261 F7800.000
G1 F1800.000
G1 X52.502 Y83.589 E2.11439
G1 X52.148 Y82.500 E2.11780
G1 X52.502 Y81.411 E2.12122
G1 X53.428 Y80.739 E2.12463
G1 X54.572 Y80.739 E2.12804
G1 X55.498 Y81.411 E2.13146
G1 X55.852 Y82.500 E2.13487
G1 X55.498 Y83.589 E2.13828
G1 X54.572 Y84.261 E2.14169
G1 X53.503 Y84.261 E2.14488
G1 X53.428 Y84.261 F7800.000
G1 E0.14488 F2400.00000
G92 E0
G1 X55.738 Y70.206 F7800.000
G1 E2.00000 F2400.00000
G1 F1800.000
G1 X55.532 Y70.130 E2.00066
G1 X55.352 Y69.998 E2.00132
G1 X55.216 Y69.821 E2.00198
G1 X55.137 Y69.615 E2.00265
G1 X55.112 Y69.391 E2.00332
G1 X55.137 Y69.168 E2.00399
G1 X55.217 Y68.962 E2.00465
G1 X55.354 Y68.786 E2.00531
G1 X55.534 Y68.658 E2.00597
G1 X55.739 Y68.584 E2.00662
G1 X55.960 Y68.561 E2.00728
G1 X56.187 Y68.583 E2.00796
G1 X56.398 Y68.657 E2.00863
G1 X56.580 Y68.786 E2.00929
G1 X56.717 Y68.961 E2.00995
G1 X56.798 Y69.167 E2.01062
G1 X56.823 Y69.391 E2.01129
G1 X56.798 Y69.615 E2.01196
G1 X56.718 Y69.822 E2.01262
G1 X56.582 Y69.999 E2.01329
G1 X56.400 Y70.131 E2.01396
G1 X56.189 Y70.206 E2.01462
G1 X55.960 Y70.229 E2.01531
G1 X55.813 Y70.213 E2.01575
G1 X56.171 Y70.128 F7800.000
G1 F1800.000
G1 X55.960 Y70.149 E2.01638
G1 X55.756 Y70.127 E2.01699
G1 X55.569 Y70.059 E2.01759
G1 X55.408 Y69.941 E2.01818
G1 X55.286 Y69.782 E2.01878
G1 X55.215 Y69.596 E2.01938
G1 X55.192 Y69.391 E2.01999
G1 X55.215 Y69.187 E2.02060
G1 X55.287 Y69.001 E2.02120
G1 X55.410 Y68.845 E2.02179
G1 X55.571 Y68.729 E2.02238
G1 X55.757 Y68.662 E2.02297
G1 X55.960 Y68.641 E2.02358
G1 X56.170 Y68.662 E2.02421
G1 X56.361 Y68.728 E2.02481
G1 X56.524 Y68.844 E2.02541
G1 X56.647 Y69.001 E2.02600
G1 X56.720 Y69.187 E2.02660
G1 X56.743 Y69.391 E2.02721
G1 X56.720 Y69.596 E2.02782
G1 X56.648 Y69.782 E2.02842
G1 X56.526 Y69.941 E2.02902
G1 X56.362 Y70.060 E2.02962
G1 X56.242 Y70.103 E2.03000
G1 X56.325 Y69.988 F7800.000
G1 F1800.000
G1 X56.153 Y70.049 E2.03054
G1 X55.960 Y70.069 E2.03112
G1 X55.774 Y70.049 E2.03168
G1 X55.607 Y69.988 E2.03221
G1 X55.464 Y69.883 E2.03274
G1 X55.357 Y69.743 E2.03327
G1 X55.293 Y69.577 E2.03380
G1 X55.273 Y69.391 E2.03435
G1 X55.293 Y69.206 E2.03491
G1 X55.357 Y69.041 E2.03544
G1 X55.465 Y68.903 E2.03596
G1 X55.608 Y68.800 E2.03648
G1 X55.775 Y68.740 E2.03701
G1 X55.960 Y68.721 E2.03757
G1 X56.153 Y68.740 E2.03815
G1 X56.324 Y68.800 E2.03869
G1 X56.469 Y68.902 E2.03921
G1 X56.577 Y69.041 E2.03974
G1 X56.642 Y69.206 E2.04027
G1 X56.663 Y69.391 E2.04082
G1 X56.642 Y69.577 E2.04138
G1 X56.578 Y69.743 E2.04191
G1 X56.469 Y69.884 E2.04244
G1 X56.386 Y69.944 E2.04275
G1 X56.287 Y69.917 F7800.000
G1 F1800.000
G1 X56.136 Y69.971 E2.04323
G1 X55.960 Y69.989 E2.04375
G1 X55.793 Y69.971 E2.04426
G1 X55.645 Y69.917 E2.04473
G1 X55.521 Y69.826 E2.04519
G1 X55.427 Y69.703 E2.04565
G1 X55.371 Y69.558 E2.04611
G1 X55.353 Y69.391 E2.04661
G1 X55.371 Y69.225 E2.04711
G1 X55.427 Y69.081 E2.04757
G1 X55.521 Y68.961 E2.04802
G1 X55.646 Y68.872 E2.04848
G1 X55.793 Y68.819 E2.04895
G1 X55.960 Y68.801 E2.04945
G1 X56.136 Y68.819 E2.04997
G1 X56.287 Y68.871 E2.05045
G1 X56.413 Y68.961 E2.05091
G1 X56.508 Y69.081 E2.05137
G1 X56.564 Y69.225 E2.05183
G1 X56.582 Y69.391 E2.05233
G1 X56.564 Y69.558 E2.05283
G1 X56.508 Y69.704 E2.05330
G1 X56.413 Y69.826 E2.05376
G1 X56.348 Y69.873 E2.05400
G1 X56.281 Y70.078 F7800.000
G1 E0.05400 F2400.00000
G92 E0
G1 X56.067 Y67.722 F7800.000
G1 E2.00000 F2400.00000
G1 F1800.000
G1 X55.960 Y67.733 E2.00032
G1 X55.738 Y67.710 E2.00099
G1 X55.531 Y67.634 E2.00164
G1 X55.352 Y67.502 E2.00231
G1 X55.216 Y67.325 E2.00297
G1 X55.137 Y67.119 E2.00363
G1 X55.112 Y66.895 E2.00430
G1 X55.137 Y66.672 E2.00497
G1 X55.217 Y66.466 E2.00563
G1 X55.354 Y66.290 E2.00629
G1 X55.534 Y66.162 E2.00695
G1 X55.739 Y66.088 E2.00760
G1 X55.960 Y66.065 E2.00827
G1 X56.187 Y66.087 E2.00895
G1 X56.398 Y66.161 E2.00961
G1 X56.580 Y66.290 E2.01028
G1 X56.717 Y66.465 E2.01094
G1 X56.798 Y66.671 E2.01160
G1 X56.823 Y66.895 E2.01227
G1 X56.798 Y67.119 E2.01294
G1 X56.718 Y67.326 E2.01361
G1 X56.582 Y67.503 E2.01427
G1 X56.400 Y67.635 E2.01494
G1 X56.141 Y67.715 E2.01575
G1 X56.171 Y67.632 F7800.000
G1 F1800.000
G1 X55.960 Y67.653 E2.01638
G1 X55.756 Y67.631 E2.01699
G1 X55.569 Y67.563 E2.01759
G1 X55.408 Y67.445 E2.01818
G1 X55.286 Y67.286 E2.01878
G1 X55.215 Y67.100 E2.01937
G1 X55.192 Y66.895 E2.01999
G1 X55.215 Y66.691 E2.02060
G1 X55.287 Y66.505 E2.02119
G1 X55.410 Y66.349 E2.02179
G1 X55.571 Y66.233 E2.02238
G1 X55.757 Y66.166 E2.02297
G1 X55.960 Y66.145 E2.02358
G1 X56.170 Y66.166 E2.02420
G1 X56.361 Y66.232 E2.02481
G1 X56.524 Y66.348 E2.02540
G1 X56.647 Y66.505 E2.02600
G1 X56.720 Y66.691 E2.02659
G1 X56.743 Y66.895 E2.02721
G1 X56.720 Y67.100 E2.02782
G1 X56.648 Y67.287 E2.02842
G1 X56.526 Y67.445 E2.02902
G1 X56.362 Y67.564 E2.02962
G1 X56.242 Y67.607 E2.03000
G1 X56.325 Y67.492 F7800.000
G1 F1800.000
G1 X56.153 Y67.553 E2.03054
G1 X55.960 Y67.573 E2.03112
G1 X55.774 Y67.553 E2.03168
G1 X55.607 Y67.492 E2.03221
G1 X55.464 Y67.387 E2.03274
G1 X55.357 Y67.247 E2.03326
G1 X55.293 Y67.081 E2.03379
G1 X55.273 Y66.895 E2.03435
G1 X55.293 Y66.710 E2.03491
G1 X55.357 Y66.545 E2.03543
G1 X55.465 Y66.407 E2.03596
G1 X55.608 Y66.304 E2.03648
G1 X55.775 Y66.244 E2.03701
G1 X55.960 Y66.225 E2.03757
G1 X56.153 Y66.244 E2.03814
G1 X56.324 Y66.304 E2.03868
G1 X56.469 Y66.406 E2.03921
G1 X56.577 Y66.545 E2.03974
G1 X56.642 Y66.710 E2.04026
G1 X56.663 Y66.895 E2.04082
G1 X56.642 Y67.081 E2.04138
G1 X56.578 Y67.247 E2.04191
G1 X56.469 Y67.388 E2.04244
G1 X56.386 Y67.448 E2.04275
G1 X56.287 Y67.421 F7800.000
G1 F1800.000
G1 X56.136 Y67.475 E2.04323
G1 X55.960 Y67.493 E2.04375
G1 X55.793 Y67.475 E2.04425
G1 X55.645 Y67.421 E2.04472
G1 X55.521 Y67.330 E2.04518
G1 X55.427 Y67.207 E2.04564
G1 X55.371 Y67.062 E2.04611
G1 X55.353 Y66.895 E2.04661
G1 X55.371 Y66.729 E2.04711
G1 X55.427 Y66.585 E2.04757
G1 X55.521 Y66.465 E2.04802
G1 X55.646 Y66.376 E2.04848
G1 X55.793 Y66.323 E2.04895
G1 X55.960 Y66.305 E2.04945
G1 X56.136 Y66.323 E2.04997
G1 X56.287 Y66.375 E2.05045
G1 X56.413 Y66.465 E2.05091
G1 X56.508 Y66.585 E2.05137
G1 X56.564 Y66.729 E2.05183
G1 X56.582 Y66.895 E2.05233
G1 X56.564 Y67.062 E2.05283
G1 X56.508 Y67.208 E2.05329
G1 X56.413 Y67.330 E2.05375
G1 X56.348 Y67.377 E2.05399
G1 X56.281 Y67.582 F7800.000
G1 E0.05399 F2400.00000
G92 E0
G1 X58.307 Y66.104 F7800.000
G1 E2.00000 F2400.00000
G1 F1800.000
G1 X60.194 Y64.594 E2.00721
G1 X61.093 Y64.594 E2.00989
G1 X61.093 Y68.818 E2.02248
G1 X62.042 Y68.818 E2.02531
G1 X62.042 Y70.164 E2.02932
G1 X58.682 Y70.164 E2.03934
G1 X58.682 Y68.818 E2.04335
G1 X59.651 Y68.818 E2.04624
G1 X59.651 Y66.642 E2.05273
G1 X59.022 Y67.069 E2.05500
G1 X58.352 Y66.165 E2.05836
G1 X58.417 Y66.119 F7800.000
G1 F1800.000
G1 X60.222 Y64.674 E2.06525
G1 X61.013 Y64.674 E2.06761
G1 X61.013 Y68.898 E2.08020
G1 X61.962 Y68.898 E2.08303
G1 X61.962 Y70.084 E2.08657
G1 X58.762 Y70.084 E2.09611
G1 X58.762 Y68.898 E2.09965
G1 X59.731 Y68.898 E2.10254
G1 X59.731 Y66.491 E2.10971
G1 X59.040 Y66.961 E2.11220
G1 X58.462 Y66.179 E2.11510
G1 X58.527 Y66.133 F7800.000
G1 F1800.000
G1 X60.250 Y64.754 E2.12168
G1 X60.934 Y64.754 E2.12372
G1 X60.934 Y68.978 E2.13632
G1 X61.883 Y68.978 E2.13914
G1 X61.883 Y70.004 E2.14221
G1 X58.841 Y70.004 E2.15127
G1 X58.841 Y68.978 E2.15433
G1 X59.810 Y68.978 E2.15722
G1 X59.810 Y66.341 E2.16509
G1 X59.059 Y66.852 E2.16780
G1 X58.571 Y66.193 E2.17024
G1 X58.636 Y66.147 F7800.000
G1 F1800.000
G1 X60.278 Y64.833 E2.17651
G1 X60.854 Y64.833 E2.17823
G1 X60.854 Y69.058 E2.19082
G1 X61.803 Y69.058 E2.19365
G1 X61.803 Y69.924 E2.19623
G1 X58.921 Y69.924 E2.20483
G1 X58.921 Y69.058 E2.20741
G1 X59.890 Y69.058 E2.21030
G1 X59.890 Y66.319 E2.21847
G1 X59.935 Y66.114 E2.21909
G1 X59.901 Y66.098 E2.21920
G1 X59.743 Y66.290 E2.21994
G1 X59.077 Y66.743 E2.22235
G1 X58.681 Y66.207 E2.22433
G1 X58.235 Y65.848 F7800.000
G1 E0.22433 F2400.00000
G92 E0
G1 X64.320 Y64.722 F7800.000
G1 E2.00000 F2400.00000
G1 F1800.000
G1 X67.297 Y64.722 E2.00888
G1 X67.297 Y66.132 E2.01308
G1 X65.678 Y66.132 E2.01791
G1 X65.678 Y66.512 E2.01904
G1 X66.168 Y66.583 E2.02052
G1 X66.400 Y66.660 E2.02125
G1 X66.609 Y66.760 E2.02194
G1 X66.800 Y66.885 E2.02262
G1 X66.969 Y67.034 E2.02329
G1 X67.117 Y67.207 E2.02397
G1 X67.239 Y67.402 E2.02465
G1 X67.334 Y67.615 E2.02535
G1 X67.403 Y67.845 E2.02607
G1 X67.444 Y68.089 E2.02680
G1 X67.457 Y68.345 E2.02757
G1 X67.440 Y68.643 E2.02846
G1 X67.385 Y68.923 E2.02931
G1 X67.293 Y69.183 E2.03013
G1 X67.168 Y69.417 E2.03092
G1 X67.013 Y69.626 E2.03170
G1 X66.829 Y69.808 E2.03247
G1 X66.621 Y69.959 E2.03324
G1 X66.393 Y70.081 E2.03401
G1 X66.146 Y70.175 E2.03479
G1 X65.885 Y70.240 E2.03560
G1 X65.607 Y70.280 E2.03643
G1 X65.069 Y70.285 E2.03804
G1 X64.479 Y70.188 E2.03982
G1 X63.893 Y69.978 E2.04167
G1 X64.308 Y68.665 E2.04578
G1 X64.909 Y68.849 E2.04765
G1 X65.151 Y68.878 E2.04838
G1 X65.546 Y68.860 E2.04956
G1 X65.708 Y68.811 E2.05006
G1 X65.824 Y68.736 E2.05047
G1 X65.903 Y68.641 E2.05084
G1 X65.952 Y68.520 E2.05123
G1 X65.971 Y68.359 E2.05171
G1 X65.949 Y68.193 E2.05221
G1 X65.897 Y68.084 E2.05257
G1 X65.809 Y68.001 E2.05293
G1 X65.661 Y67.929 E2.05343
G1 X65.443 Y67.879 E2.05409
G1 X65.155 Y67.860 E2.05495
G1 X64.320 Y67.892 E2.05744
G1 X64.320 Y64.797 E2.06667
G1 X64.399 Y64.802 F7800.000
G1 F1800.000
G1 X67.217 Y64.802 E2.07507
G1 X67.217 Y66.052 E2.07880
G1 X65.598 Y66.052 E2.08363
G1 X65.598 Y66.601 E2.08526
G1 X65.680 Y66.593 E2.08551
G1 X66.150 Y66.661 E2.08692
G1 X66.371 Y66.734 E2.08762
G1 X66.570 Y66.829 E2.08828
G1 X66.751 Y66.948 E2.08892
G1 X66.912 Y67.090 E2.08956
G1 X67.053 Y67.254 E2.09021
G1 X67.169 Y67.439 E2.09086
G1 X67.260 Y67.643 E2.09152
G1 X67.325 Y67.863 E2.09221
G1 X67.365 Y68.097 E2.09291
G1 X67.377 Y68.345 E2.09365
G1 X67.360 Y68.633 E2.09451
G1 X67.308 Y68.902 E2.09533
G1 X67.220 Y69.151 E2.09612
G1 X67.100 Y69.375 E2.09688
G1 X66.953 Y69.574 E2.09761
G1 X66.777 Y69.747 E2.09835
G1 X66.578 Y69.891 E2.09908
G1 X66.360 Y70.009 E2.09982
G1 X66.122 Y70.099 E2.10058
G1 X65.869 Y70.162 E2.10136
G1 X65.601 Y70.200 E2.10217
G1 X65.075 Y70.205 E2.10373
G1 X64.499 Y70.111 E2.10547
G1 X63.993 Y69.929 E2.10708
G1 X64.361 Y68.765 E2.11072
G1 X64.892 Y68.928 E2.11238
G1 X65.148 Y68.957 E2.11315
G1 X65.560 Y68.939 E2.11437
G1 X65.742 Y68.883 E2.11494
G1 X65.877 Y68.796 E2.11542
G1 X65.972 Y68.682 E2.11586
G1 X66.030 Y68.540 E2.11632
G1 X66.051 Y68.358 E2.11687
G1 X66.027 Y68.170 E2.11743
G1 X65.963 Y68.037 E2.11787
G1 X65.855 Y67.935 E2.11831
G1 X65.687 Y67.854 E2.11887
G1 X65.455 Y67.799 E2.11958
G1 X65.157 Y67.780 E2.12047
G1 X64.399 Y67.809 E2.12273
G1 X64.399 Y64.877 E2.13147
G1 X64.479 Y64.882 F7800.000
G1 F1800.000
G1 X67.137 Y64.882 E2.13940
G1 X67.137 Y65.972 E2.14265
G1 X65.518 Y65.972 E2.14748
G1 X65.518 Y66.689 E2.14962
G1 X65.678 Y66.673 E2.15009
G1 X66.131 Y66.739 E2.15146
G1 X66.341 Y66.808 E2.15212
G1 X66.531 Y66.899 E2.15274
G1 X66.703 Y67.012 E2.15336
G1 X66.856 Y67.146 E2.15396
G1 X66.988 Y67.302 E2.15457
G1 X67.098 Y67.477 E2.15519
G1 X67.185 Y67.671 E2.15582
G1 X67.248 Y67.881 E2.15648
G1 X67.285 Y68.106 E2.15716
G1 X67.298 Y68.344 E2.15787
G1 X67.281 Y68.623 E2.15870
G1 X67.231 Y68.881 E2.15949
G1 X67.147 Y69.118 E2.16024
G1 X67.033 Y69.332 E2.16096
G1 X66.892 Y69.521 E2.16166
G1 X66.725 Y69.686 E2.16236
G1 X66.536 Y69.824 E2.16306
G1 X66.327 Y69.936 E2.16377
G1 X66.098 Y70.022 E2.16450
G1 X65.854 Y70.084 E2.16525
G1 X65.595 Y70.120 E2.16603
G1 X65.082 Y70.125 E2.16756
G1 X64.519 Y70.033 E2.16926
G1 X64.092 Y69.880 E2.17061
G1 X64.413 Y68.864 E2.17379
G1 X64.876 Y69.006 E2.17523
G1 X65.146 Y69.037 E2.17604
G1 X65.574 Y69.019 E2.17732
G1 X65.775 Y68.956 E2.17795
G1 X65.931 Y68.856 E2.17850
G1 X66.041 Y68.724 E2.17901
G1 X66.108 Y68.560 E2.17954
G1 X66.131 Y68.358 E2.18015
G1 X66.104 Y68.147 E2.18078
G1 X66.028 Y67.989 E2.18130
G1 X65.901 Y67.869 E2.18183
G1 X65.714 Y67.778 E2.18244
G1 X65.467 Y67.720 E2.18320
G1 X65.158 Y67.700 E2.18413
G1 X64.479 Y67.726 E2.18615
G1 X64.479 Y64.957 E2.19441
G1 X64.559 Y64.961 F7800.000
G1 F1800.000
G1 X67.058 Y64.961 E2.20186
G1 X67.058 Y65.892 E2.20463
G1 X65.439 Y65.892 E2.20946
G1 X65.439 Y66.776 E2.21210
G1 X65.676 Y66.753 E2.21281
G1 X66.113 Y66.816 E2.21412
G1 X66.311 Y66.882 E2.21475
G1 X66.492 Y66.968 E2.21534
G1 X66.654 Y67.075 E2.21592
G1 X66.799 Y67.202 E2.21650
G1 X66.924 Y67.349 E2.21707
G1 X67.028 Y67.515 E2.21766
G1 X67.110 Y67.699 E2.21826
G1 X67.170 Y67.899 E2.21888
G1 X67.206 Y68.115 E2.21953
G1 X67.218 Y68.344 E2.22022
G1 X67.202 Y68.613 E2.22102
G1 X67.154 Y68.860 E2.22177
G1 X67.074 Y69.086 E2.22249
G1 X66.965 Y69.289 E2.22317
G1 X66.832 Y69.469 E2.22384
G1 X66.673 Y69.625 E2.22450
G1 X66.493 Y69.756 E2.22517
G1 X66.293 Y69.863 E2.22584
G1 X66.074 Y69.946 E2.22654
G1 X65.839 Y70.005 E2.22727
G1 X65.589 Y70.041 E2.22802
G1 X65.088 Y70.046 E2.22951
G1 X64.539 Y69.956 E2.23117
G1 X64.191 Y69.831 E2.23227
G1 X64.465 Y68.963 E2.23499
G1 X64.859 Y69.084 E2.23622
G1 X65.143 Y69.117 E2.23707
G1 X65.587 Y69.098 E2.23839
G1 X65.809 Y69.029 E2.23909
G1 X65.984 Y68.917 E2.23971
G1 X66.110 Y68.765 E2.24029
G1 X66.186 Y68.580 E2.24089
G1 X66.211 Y68.357 E2.24156
G1 X66.181 Y68.125 E2.24226
G1 X66.094 Y67.941 E2.24286
G1 X65.947 Y67.802 E2.24347
G1 X65.741 Y67.702 E2.24415
G1 X65.478 Y67.641 E2.24495
G1 X65.159 Y67.621 E2.24591
G1 X64.559 Y67.643 E2.24770
G1 X64.559 Y65.036 E2.25547
G1 X64.522 Y64.463 F7800.000
G1 E0.25547 F2400.00000
G92 E0
G1 X63.281 Y68.616 F7800.000
G1 E2.00000 F2400.00000
G1 F1800.000
G1 X63.399 Y68.657 E2.00037
G1 X63.580 Y68.786 E2.00103
G1 X63.718 Y68.961 E2.00170
G1 X63.799 Y69.167 E2.00236
