; Gcode updated with 'stl_info' on 2019-12-05 15:40:25.157265

; stl_min_x = -44.65010070800781
; stl_max_x = 35.277801513671875
; stl_min_y = -35.10029983520508
; stl_max_y = 35.10029983520508
; stl_min_z = -70.69999694824219

; generated by Slic3r 1.3.1-dev (Build adea0d9) on 2019-12-05 at 15:40:24

; external perimeters extrusion width = 0.44mm (2.86mm^3/s)
; perimeters extrusion width = 0.56mm (4.14mm^3/s)
; infill extrusion width = 0.50mm (3.66mm^3/s)
; solid infill extrusion width = 0.56mm (3.10mm^3/s)
; top infill extrusion width = 0.56mm (3.10mm^3/s)

M107
G92 E0
;D3D:START:START
T0
M104 S215 T0

G21
G90
M107
T0
G28
G29
M109 T0 S215 T0
G0 F3000
M107
T0
G92 E0
G0 X0 Y149 Z0.1 F3600
G1 Y49 E6.5 F1200
G0 Z1
G92 E0
; Filament gcode

G21 ; set units to millimeters
G90 ; use absolute coordinates
M82 ; use absolute distances for extrusion
G92 E0
G1 Z0.300 F7800.000
G1 E-2.00000 F2400.00000
G92 E0
G1 X102.707 Y98.063 F7800.000
G1 E2.00000 F2400.00000
G1 F1800.000
G1 X103.238 Y97.546 E2.02457
G1 X103.830 Y97.099 E2.04914
G1 X104.474 Y96.731 E2.07372
G1 X105.160 Y96.448 E2.09832
G1 X105.877 Y96.252 E2.12294
G1 X106.614 Y96.149 E2.14757
G1 X107.358 Y96.139 E2.17223
G1 X108.098 Y96.221 E2.19691
G1 X108.823 Y96.396 E2.22161
G1 X109.521 Y96.660 E2.24633
G1 X110.181 Y97.009 E2.27105
G1 X110.793 Y97.437 E2.29579
G1 X111.347 Y97.937 E2.32053
G1 X111.834 Y98.503 E2.34527
G1 X112.248 Y99.124 E2.37000
G1 X112.581 Y99.792 E2.39472
G1 X112.828 Y100.495 E2.41942
G1 X112.986 Y101.223 E2.44410
G1 X113.051 Y101.965 E2.46876
G1 X113.022 Y102.708 E2.49340
G1 X112.901 Y103.441 E2.51802
G1 X112.688 Y104.153 E2.54262
G1 X112.387 Y104.831 E2.56721
G1 X112.003 Y105.466 E2.59178
G1 X111.542 Y106.047 E2.61635
G1 X111.011 Y106.564 E2.64092
G1 X110.419 Y107.011 E2.66549
G1 X109.775 Y107.379 E2.69007
G1 X109.088 Y107.662 E2.71467
G1 X108.371 Y107.858 E2.73929
G1 X107.635 Y107.961 E2.76393
G1 X106.891 Y107.971 E2.78858
G1 X106.151 Y107.889 E2.81326
G1 X105.426 Y107.714 E2.83796
G1 X104.728 Y107.450 E2.86268
G1 X104.068 Y107.101 E2.88740
G1 X103.456 Y106.673 E2.91214
G1 X102.902 Y106.173 E2.93688
G1 X102.414 Y105.607 E2.96162
G1 X102.001 Y104.986 E2.98635
G1 X101.668 Y104.318 E3.01107
G1 X101.421 Y103.615 E3.03577
G1 X101.263 Y102.887 E3.06045
G1 X101.198 Y102.145 E3.08511
G1 X101.227 Y101.402 E3.10975
G1 X101.348 Y100.669 E3.13437
G1 X101.561 Y99.957 E3.15897
G1 X101.861 Y99.279 E3.18356
G1 X102.245 Y98.644 E3.20813
G1 X102.669 Y98.110 E3.23071
G1 X102.904 Y98.242 F7800.000
G1 F1800.000
G1 X103.411 Y97.748 E3.25416
G1 X103.976 Y97.322 E3.27762
G1 X104.591 Y96.970 E3.30108
G1 X105.246 Y96.699 E3.32457
G1 X105.931 Y96.513 E3.34807
G1 X106.634 Y96.414 E3.37160
G1 X107.345 Y96.404 E3.39515
G1 X108.052 Y96.484 E3.41872
G1 X108.745 Y96.650 E3.44232
G1 X109.411 Y96.903 E3.46594
G1 X110.042 Y97.236 E3.48957
G1 X110.627 Y97.645 E3.51321
G1 X111.156 Y98.123 E3.53686
G1 X111.622 Y98.664 E3.56050
G1 X112.018 Y99.258 E3.58413
G1 X112.336 Y99.896 E3.60775
G1 X112.572 Y100.568 E3.63135
G1 X112.723 Y101.263 E3.65493
G1 X112.785 Y101.971 E3.67848
G1 X112.758 Y102.681 E3.70202
G1 X112.642 Y103.381 E3.72552
G1 X112.439 Y104.060 E3.74901
G1 X112.151 Y104.708 E3.77248
G1 X111.785 Y105.314 E3.79593
G1 X111.345 Y105.868 E3.81938
G1 X110.838 Y106.362 E3.84283
G1 X110.273 Y106.788 E3.86629
G1 X109.658 Y107.140 E3.88975
G1 X109.002 Y107.411 E3.91324
G1 X108.318 Y107.597 E3.93674
G1 X107.615 Y107.696 E3.96027
G1 X106.904 Y107.706 E3.98382
G1 X106.197 Y107.626 E4.00739
G1 X105.504 Y107.460 E4.03099
G1 X104.837 Y107.207 E4.05461
G1 X104.207 Y106.874 E4.07824
G1 X103.622 Y106.465 E4.10188
G1 X103.092 Y105.987 E4.12552
G1 X102.626 Y105.446 E4.14916
G1 X102.231 Y104.852 E4.17280
G1 X101.913 Y104.214 E4.19642
G1 X101.677 Y103.542 E4.22002
G1 X101.526 Y102.847 E4.24360
G1 X101.464 Y102.139 E4.26715
G1 X101.491 Y101.429 E4.29068
G1 X101.607 Y100.729 E4.31419
G1 X101.810 Y100.050 E4.33768
G1 X102.097 Y99.402 E4.36114
G1 X102.464 Y98.796 E4.38460
G1 X102.867 Y98.289 E4.40606
G1 X103.102 Y98.420 F7800.000
G1 F1800.000
G1 X103.584 Y97.950 E4.42839
G1 X104.123 Y97.544 E4.45073
G1 X104.709 Y97.209 E4.47308
G1 X105.332 Y96.951 E4.49545
G1 X105.985 Y96.774 E4.51784
G1 X106.655 Y96.680 E4.54025
G1 X107.332 Y96.670 E4.56270
G1 X108.006 Y96.746 E4.58517
G1 X108.666 Y96.905 E4.60767
G1 X109.302 Y97.145 E4.63019
G1 X109.903 Y97.463 E4.65272
G1 X110.461 Y97.853 E4.67527
G1 X110.966 Y98.309 E4.69782
G1 X111.411 Y98.825 E4.72036
G1 X111.788 Y99.391 E4.74290
G1 X112.091 Y99.999 E4.76542
G1 X112.316 Y100.640 E4.78792
G1 X112.460 Y101.303 E4.81039
G1 X112.519 Y101.978 E4.83284
G1 X112.493 Y102.654 E4.85526
G1 X112.382 Y103.321 E4.87766
G1 X112.189 Y103.968 E4.90003
G1 X111.915 Y104.585 E4.92238
G1 X111.566 Y105.162 E4.94472
G1 X111.147 Y105.690 E4.96705
G1 X110.665 Y106.160 E4.98938
G1 X110.126 Y106.566 E5.01172
G1 X109.540 Y106.901 E5.03407
G1 X108.916 Y107.159 E5.05644
G1 X108.264 Y107.336 E5.07883
G1 X107.594 Y107.430 E5.10124
G1 X106.917 Y107.440 E5.12369
G1 X106.243 Y107.364 E5.14616
G1 X105.583 Y107.205 E5.16866
G1 X104.947 Y106.965 E5.19117
G1 X104.346 Y106.647 E5.21371
G1 X103.788 Y106.257 E5.23625
G1 X103.283 Y105.801 E5.25880
G1 X102.838 Y105.285 E5.28135
G1 X102.461 Y104.719 E5.30389
G1 X102.158 Y104.111 E5.32641
G1 X101.933 Y103.470 E5.34891
G1 X101.789 Y102.807 E5.37138
G1 X101.730 Y102.132 E5.39383
G1 X101.756 Y101.456 E5.41625
G1 X101.867 Y100.789 E5.43864
G1 X102.060 Y100.142 E5.46102
G1 X102.333 Y99.525 E5.48337
G1 X102.683 Y98.948 E5.50571
G1 X103.064 Y98.467 E5.52605
G1 X102.979 Y98.040 F7800.000
G1 E3.52605 F2400.00000
G92 E0
G1 X106.614 Y53.851 F7800.000
G1 E2.00000 F2400.00000
G1 F1800.000
G1 X105.877 Y53.748 E2.02463
G1 X105.160 Y53.552 E2.04925
G1 X104.474 Y53.269 E2.07385
G1 X103.830 Y52.901 E2.09843
G1 X103.238 Y52.454 E2.12300
G1 X102.707 Y51.937 E2.14757
G1 X102.245 Y51.356 E2.17214
G1 X101.861 Y50.721 E2.19672
G1 X101.561 Y50.043 E2.22130
G1 X101.348 Y49.331 E2.24590
G1 X101.227 Y48.598 E2.27052
G1 X101.198 Y47.855 E2.29516
G1 X101.263 Y47.113 E2.31982
G1 X101.421 Y46.385 E2.34450
G1 X101.668 Y45.682 E2.36920
G1 X102.001 Y45.014 E2.39392
G1 X102.414 Y44.393 E2.41865
G1 X102.901 Y43.828 E2.44335
G1 X103.439 Y43.338 E2.46745
G1 X104.068 Y42.899 E2.49287
G1 X104.728 Y42.550 E2.51760
G1 X105.426 Y42.286 E2.54232
G1 X106.151 Y42.111 E2.56702
G1 X106.891 Y42.029 E2.59170
G1 X107.635 Y42.039 E2.61636
G1 X108.371 Y42.142 E2.64099
G1 X109.088 Y42.338 E2.66560
G1 X109.775 Y42.621 E2.69021
G1 X110.419 Y42.989 E2.71479
G1 X111.011 Y43.436 E2.73936
G1 X111.542 Y43.953 E2.76393
G1 X112.003 Y44.534 E2.78850
G1 X112.387 Y45.169 E2.81307
G1 X112.688 Y45.847 E2.83766
G1 X112.901 Y46.559 E2.86226
G1 X113.022 Y47.292 E2.88688
G1 X113.051 Y48.035 E2.91152
G1 X112.986 Y48.777 E2.93618
G1 X112.828 Y49.505 E2.96086
G1 X112.581 Y50.208 E2.98556
G1 X112.248 Y50.876 E3.01028
G1 X111.834 Y51.497 E3.03501
G1 X111.347 Y52.063 E3.05975
G1 X110.793 Y52.563 E3.08449
G1 X110.181 Y52.991 E3.10923
G1 X109.521 Y53.340 E3.13395
G1 X108.823 Y53.604 E3.15867
G1 X108.098 Y53.779 E3.18337
G1 X107.358 Y53.861 E3.20805
G1 X106.674 Y53.852 E3.23072
G1 X106.634 Y53.586 F7800.000
G1 F1800.000
G1 X105.931 Y53.487 E3.25424
G1 X105.246 Y53.301 E3.27775
G1 X104.591 Y53.030 E3.30123
G1 X103.976 Y52.678 E3.32470
G1 X103.411 Y52.252 E3.34815
G1 X102.904 Y51.758 E3.37160
G1 X102.464 Y51.204 E3.39505
G1 X102.097 Y50.598 E3.41851
G1 X101.810 Y49.950 E3.44197
G1 X101.607 Y49.271 E3.46546
G1 X101.491 Y48.571 E3.48897
G1 X101.464 Y47.861 E3.51250
G1 X101.526 Y47.153 E3.53605
G1 X101.677 Y46.458 E3.55963
G1 X101.913 Y45.786 E3.58323
G1 X102.231 Y45.148 E3.60685
G1 X102.626 Y44.554 E3.63049
G1 X103.092 Y44.014 E3.65410
G1 X103.606 Y43.546 E3.67711
G1 X104.207 Y43.126 E3.70142
G1 X104.837 Y42.793 E3.72505
G1 X105.504 Y42.540 E3.74867
G1 X106.197 Y42.374 E3.77226
G1 X106.904 Y42.294 E3.79584
G1 X107.615 Y42.304 E3.81939
G1 X108.318 Y42.403 E3.84292
G1 X109.002 Y42.589 E3.86642
G1 X109.658 Y42.860 E3.88990
G1 X110.273 Y43.212 E3.91337
G1 X110.838 Y43.638 E3.93682
G1 X111.345 Y44.132 E3.96027
G1 X111.785 Y44.686 E3.98372
G1 X112.151 Y45.292 E4.00718
G1 X112.439 Y45.940 E4.03065
G1 X112.642 Y46.619 E4.05414
G1 X112.758 Y47.319 E4.07764
G1 X112.785 Y48.029 E4.10117
G1 X112.723 Y48.737 E4.12473
G1 X112.572 Y49.432 E4.14831
G1 X112.336 Y50.104 E4.17191
G1 X112.018 Y50.742 E4.19552
G1 X111.622 Y51.336 E4.21916
G1 X111.156 Y51.877 E4.24280
G1 X110.627 Y52.355 E4.26645
G1 X110.042 Y52.764 E4.29009
G1 X109.411 Y53.097 E4.31372
G1 X108.745 Y53.350 E4.33733
G1 X108.052 Y53.516 E4.36093
G1 X107.345 Y53.596 E4.38451
G1 X106.694 Y53.587 E4.40607
G1 X106.655 Y53.320 F7800.000
G1 F1800.000
G1 X105.985 Y53.226 E4.42849
G1 X105.332 Y53.049 E4.45088
G1 X104.709 Y52.791 E4.47325
G1 X104.123 Y52.456 E4.49560
G1 X103.584 Y52.050 E4.51793
G1 X103.102 Y51.580 E4.54026
G1 X102.683 Y51.052 E4.56259
G1 X102.333 Y50.475 E4.58493
G1 X102.060 Y49.858 E4.60728
G1 X101.867 Y49.211 E4.62966
G1 X101.756 Y48.544 E4.65205
G1 X101.730 Y47.868 E4.67447
G1 X101.789 Y47.193 E4.69692
G1 X101.933 Y46.530 E4.71940
G1 X102.158 Y45.889 E4.74189
G1 X102.461 Y45.281 E4.76442
G1 X102.838 Y44.715 E4.78695
G1 X103.283 Y44.199 E4.80949
G1 X103.772 Y43.754 E4.83140
G1 X104.346 Y43.353 E4.85460
G1 X104.947 Y43.035 E4.87713
G1 X105.583 Y42.795 E4.89965
G1 X106.243 Y42.636 E4.92215
G1 X106.917 Y42.560 E4.94462
G1 X107.594 Y42.570 E4.96707
G1 X108.264 Y42.664 E4.98948
G1 X108.916 Y42.841 E5.01187
G1 X109.540 Y43.099 E5.03424
G1 X110.126 Y43.434 E5.05659
G1 X110.665 Y43.840 E5.07893
G1 X111.147 Y44.310 E5.10126
G1 X111.566 Y44.838 E5.12359
G1 X111.915 Y45.415 E5.14593
G1 X112.189 Y46.032 E5.16828
G1 X112.382 Y46.679 E5.19065
G1 X112.493 Y47.346 E5.21304
G1 X112.519 Y48.022 E5.23546
G1 X112.460 Y48.697 E5.25791
G1 X112.316 Y49.360 E5.28039
G1 X112.091 Y50.001 E5.30289
G1 X111.788 Y50.609 E5.32541
G1 X111.411 Y51.175 E5.34795
G1 X110.966 Y51.691 E5.37049
G1 X110.461 Y52.147 E5.39304
G1 X109.903 Y52.537 E5.41559
G1 X109.302 Y52.855 E5.43812
G1 X108.666 Y53.095 E5.46064
G1 X108.006 Y53.254 E5.48313
G1 X107.332 Y53.330 E5.50561
G1 X106.715 Y53.321 E5.52606
G1 X106.429 Y53.650 F7800.000
G1 E3.52606 F2400.00000
G92 E0
G1 X98.161 Y54.304 F7800.000
G1 E2.00000 F2400.00000
G1 F1800.000
G1 X98.161 Y95.696 E3.37131
G1 X56.769 Y95.696 E4.74263
G1 X56.769 Y54.304 E6.11394
G1 X98.101 Y54.304 E7.48326
G1 X97.895 Y54.569 F7800.000
G1 F1800.000
G1 X97.895 Y95.431 E8.83698
G1 X57.034 Y95.431 E10.19069
G1 X57.034 Y54.569 E11.54440
G1 X97.835 Y54.569 E12.89613
G1 X97.630 Y54.835 F7800.000
G1 F1800.000
G1 X97.630 Y95.165 E14.23224
G1 X57.300 Y95.165 E15.56836
G1 X57.300 Y54.835 E16.90447
G1 X97.570 Y54.835 E18.23860
G1 X98.016 Y54.731 F7800.000
G1 E16.23860 F2400.00000
G92 E0
G1 X48.368 Y72.828 F7800.000
G1 E2.00000 F2400.00000
G1 F1800.000
G1 X48.598 Y73.533 E2.02456
G1 X48.737 Y74.260 E2.04911
G1 X48.784 Y75.000 E2.07366
G1 X48.737 Y75.740 E2.09821
G1 X48.598 Y76.467 E2.12276
G1 X48.368 Y77.172 E2.14731
G1 X48.051 Y77.842 E2.17187
G1 X47.652 Y78.468 E2.19644
G1 X47.178 Y79.038 E2.22102
G1 X46.636 Y79.545 E2.24561
G1 X46.035 Y79.980 E2.27020
G1 X45.383 Y80.337 E2.29481
G1 X44.692 Y80.609 E2.31941
G1 X43.972 Y80.793 E2.34403
G1 X43.235 Y80.886 E2.36865
G1 X42.492 Y80.886 E2.39326
G1 X41.755 Y80.793 E2.41788
G1 X41.035 Y80.609 E2.44250
G1 X40.344 Y80.337 E2.46710
G1 X39.692 Y79.980 E2.49171
G1 X39.091 Y79.545 E2.51630
G1 X38.549 Y79.038 E2.54089
G1 X38.075 Y78.468 E2.56547
G1 X37.676 Y77.842 E2.59004
G1 X37.359 Y77.172 E2.61460
G1 X37.129 Y76.467 E2.63915
G1 X36.990 Y75.740 E2.66370
G1 X36.943 Y75.000 E2.68825
G1 X36.990 Y74.260 E2.71280
G1 X37.129 Y73.533 E2.73735
G1 X37.359 Y72.828 E2.76191
G1 X37.676 Y72.158 E2.78647
G1 X38.075 Y71.532 E2.81104
G1 X38.549 Y70.962 E2.83562
G1 X39.091 Y70.455 E2.86021
G1 X39.692 Y70.020 E2.88480
G1 X40.344 Y69.663 E2.90940
G1 X41.035 Y69.391 E2.93401
G1 X41.755 Y69.207 E2.95863
G1 X42.492 Y69.114 E2.98325
G1 X43.235 Y69.114 E3.00786
G1 X43.972 Y69.207 E3.03248
G1 X44.692 Y69.391 E3.05709
G1 X45.383 Y69.663 E3.08170
G1 X46.035 Y70.020 E3.10631
G1 X46.636 Y70.455 E3.13090
G1 X47.178 Y70.962 E3.15549
G1 X47.652 Y71.532 E3.18007
G1 X48.051 Y72.158 E3.20463
G1 X48.342 Y72.774 E3.22721
G1 X48.121 Y72.926 F7800.000
G1 F1800.000
G1 X48.340 Y73.599 E3.25065
G1 X48.473 Y74.294 E3.27409
G1 X48.518 Y75.000 E3.29753
G1 X48.473 Y75.706 E3.32097
G1 X48.340 Y76.401 E3.34441
G1 X48.121 Y77.074 E3.36785
G1 X47.818 Y77.714 E3.39130
G1 X47.437 Y78.311 E3.41476
G1 X46.985 Y78.856 E3.43823
G1 X46.467 Y79.340 E3.46171
G1 X45.893 Y79.755 E3.48520
G1 X45.270 Y80.096 E3.50870
G1 X44.610 Y80.356 E3.53221
G1 X43.923 Y80.532 E3.55572
G1 X43.218 Y80.620 E3.57923
G1 X42.509 Y80.620 E3.60275
G1 X41.804 Y80.532 E3.62626
G1 X41.117 Y80.356 E3.64977
G1 X40.457 Y80.096 E3.67328
G1 X39.835 Y79.755 E3.69678
G1 X39.260 Y79.340 E3.72027
G1 X38.742 Y78.856 E3.74374
G1 X38.290 Y78.311 E3.76721
G1 X37.909 Y77.714 E3.79067
G1 X37.607 Y77.074 E3.81413
G1 X37.387 Y76.401 E3.83757
G1 X37.254 Y75.706 E3.86101
G1 X37.209 Y75.000 E3.88445
G1 X37.254 Y74.294 E3.90788
G1 X37.387 Y73.599 E3.93132
G1 X37.607 Y72.926 E3.95477
G1 X37.909 Y72.286 E3.97822
G1 X38.290 Y71.689 E4.00168
G1 X38.742 Y71.144 E4.02515
G1 X39.260 Y70.660 E4.04863
G1 X39.835 Y70.245 E4.07212
G1 X40.457 Y69.904 E4.09562
G1 X41.117 Y69.644 E4.11912
G1 X41.804 Y69.468 E4.14263
G1 X42.509 Y69.380 E4.16615
G1 X43.218 Y69.380 E4.18966
G1 X43.923 Y69.468 E4.21318
G1 X44.610 Y69.644 E4.23669
G1 X45.270 Y69.904 E4.26019
G1 X45.893 Y70.245 E4.28369
G1 X46.467 Y70.660 E4.30718
G1 X46.985 Y71.144 E4.33066
G1 X47.437 Y71.689 E4.35413
G1 X47.818 Y72.286 E4.37759
G1 X48.095 Y72.872 E4.39906
G1 X47.873 Y73.025 F7800.000
G1 F1800.000
G1 X48.082 Y73.666 E4.42139
G1 X48.209 Y74.327 E4.44372
G1 X48.252 Y75.000 E4.46604
G1 X48.209 Y75.673 E4.48837
G1 X48.082 Y76.334 E4.51070
G1 X47.873 Y76.975 E4.53303
G1 X47.585 Y77.585 E4.55537
G1 X47.222 Y78.154 E4.57772
G1 X46.791 Y78.673 E4.60008
G1 X46.298 Y79.134 E4.62245
G1 X45.750 Y79.530 E4.64484
G1 X45.157 Y79.855 E4.66723
G1 X44.528 Y80.103 E4.68963
G1 X43.873 Y80.270 E4.71204
G1 X43.202 Y80.355 E4.73445
G1 X42.525 Y80.355 E4.75686
G1 X41.854 Y80.270 E4.77928
G1 X41.199 Y80.103 E4.80169
G1 X40.570 Y79.855 E4.82409
G1 X39.977 Y79.530 E4.84648
G1 X39.429 Y79.134 E4.86886
G1 X38.936 Y78.673 E4.89124
G1 X38.505 Y78.154 E4.91360
G1 X38.142 Y77.585 E4.93595
G1 X37.854 Y76.975 E4.95829
G1 X37.645 Y76.334 E4.98062
G1 X37.518 Y75.673 E5.00295
G1 X37.476 Y75.000 E5.02528
G1 X37.518 Y74.327 E5.04760
G1 X37.645 Y73.666 E5.06993
G1 X37.854 Y73.025 E5.09226
G1 X38.142 Y72.415 E5.11460
G1 X38.505 Y71.846 E5.13695
G1 X38.936 Y71.327 E5.15932
G1 X39.429 Y70.866 E5.18169
G1 X39.977 Y70.470 E5.20407
G1 X40.570 Y70.145 E5.22647
G1 X41.199 Y69.897 E5.24887
G1 X41.854 Y69.730 E5.27128
G1 X42.525 Y69.645 E5.29369
G1 X43.202 Y69.645 E5.31610
G1 X43.873 Y69.730 E5.33851
G1 X44.528 Y69.897 E5.36092
G1 X45.157 Y70.145 E5.38332
G1 X45.750 Y70.470 E5.40572
G1 X46.298 Y70.866 E5.42810
G1 X46.791 Y71.327 E5.45047
G1 X47.222 Y71.846 E5.47283
G1 X47.585 Y72.415 E5.49518
G1 X47.848 Y72.970 E5.51554
G1 X48.269 Y73.083 F7800.000
G1 E3.51554 F2400.00000
G92 E0
G1 X37.116 Y70.448 F7800.000
G1 E2.00000 F2400.00000
G1 F1800.000
G1 X57.822 Y43.973 E3.11349
G1 X106.365 Y40.630 E4.72551
G1 X107.780 Y40.625 E4.77239
G1 X108.686 Y40.753 E4.80271
G1 X109.574 Y40.994 E4.83317
G1 X110.422 Y41.345 E4.86360
G1 X111.219 Y41.800 E4.89399
G1 X111.951 Y42.352 E4.92435
G1 X112.607 Y42.991 E4.95470
G1 X113.177 Y43.709 E4.98505
G1 X113.651 Y44.493 E5.01542
G1 X114.023 Y45.332 E5.04581
G1 X114.286 Y46.212 E5.07624
G1 X114.436 Y47.119 E5.10672
G1 X114.473 Y48.070 E5.13826
G1 X114.473 Y101.930 E6.92259
G1 X114.436 Y102.881 E6.95412
G1 X114.286 Y103.788 E6.98460
G1 X114.023 Y104.668 E7.01503
G1 X113.651 Y105.507 E7.04542
G1 X113.177 Y106.291 E7.07579
G1 X112.607 Y107.009 E7.10614
G1 X111.951 Y107.648 E7.13649
G1 X111.219 Y108.200 E7.16686
G1 X110.422 Y108.655 E7.19724
G1 X109.574 Y109.006 E7.22767
G1 X108.686 Y109.247 E7.25814
G1 X107.774 Y109.376 E7.28866
