; Gcode updated with 'stl_info' on 2019-12-03 19:09:17.155099

; stl_min_x = -15.0
; stl_max_x = 15.0
; stl_min_y = -15.0
; stl_max_y = 15.0
; stl_min_z = -5.0

; generated by Slic3r 1.3.1-dev (Build adea0d9) on 2019-12-03 at 19:09:16

; external perimeters extrusion width = 0.55mm (1.90mm^3/s)
; perimeters extrusion width = 0.70mm (2.71mm^3/s)
; infill extrusion width = 0.62mm (2.41mm^3/s)
; solid infill extrusion width = 0.70mm (2.04mm^3/s)
; top infill extrusion width = 0.70mm (2.04mm^3/s)

M107
G92 E0
;D3D:START:START
T0
M104 S215 T0

G21
G90
M107
T0
G28
G29
M109 T0 S215 T0
G0 F3000
M107
T0
G92 E0
G0 X0 Y149 Z0.1 F3600
G1 Y49 E6.5 F1200
G0 Z1
G92 E0
; Filament gcode

G21 ; set units to millimeters
G90 ; use absolute coordinates
M82 ; use absolute distances for extrusion
G92 E0
G1 Z0.090 F7800.000
G1 E-2.00000 F2400.00000
G92 E0
G1 X55.455 Y55.962 F7800.000
G1 E2.00000 F2400.00000
G1 F1800.000
G1 X57.187 Y54.610 E2.00655
G1 X60.000 Y53.920 E2.01519
G1 X90.000 Y53.920 E2.10463
G1 X92.160 Y54.317 E2.11118
G1 X94.038 Y55.455 E2.11773
G1 X95.390 Y57.187 E2.12428
G1 X96.080 Y60.000 E2.13292
G1 X96.080 Y90.000 E2.22237
G1 X95.683 Y92.160 E2.22892
G1 X94.545 Y94.038 E2.23546
G1 X92.813 Y95.390 E2.24201
G1 X90.000 Y96.080 E2.25065
G1 X60.000 Y96.080 E2.34010
G1 X57.840 Y95.683 E2.34665
G1 X55.962 Y94.545 E2.35320
G1 X54.610 Y92.813 E2.35974
G1 X53.920 Y90.000 E2.36838
G1 X53.920 Y60.000 E2.45783
G1 X54.317 Y57.840 E2.46438
G1 X55.417 Y56.026 E2.47070
G1 E0.47070 F2400.00000
G92 E0
G1 X89.711 Y89.711 F7800.000
G1 E2.00000 F2400.00000
G1 F1800.000
G1 X60.289 Y89.711 E2.08773
G1 X60.289 Y60.289 E2.17546
G1 X89.711 Y60.289 E2.26319
G1 X89.711 Y89.636 E2.35069
G1 X89.791 Y89.791 F7800.000
G1 F1800.000
G1 X60.209 Y89.791 E2.43890
G1 X60.209 Y60.209 E2.52710
G1 X89.791 Y60.209 E2.61530
G1 X89.791 Y89.716 E2.70329
G1 X89.871 Y89.871 F7800.000
G1 F1800.000
G1 X60.129 Y89.871 E2.79196
G1 X60.129 Y60.129 E2.88064
G1 X89.871 Y60.129 E2.96932
G1 X89.871 Y89.796 E3.05778
G1 X89.951 Y89.951 F7800.000
G1 F1800.000
G1 X60.050 Y89.951 E3.14693
G1 X60.050 Y60.050 E3.23609
G1 X89.951 Y60.050 E3.32524
G1 X89.951 Y89.876 E3.41417
G1 X89.468 Y89.821 F7800.000
G1 X89.601 Y89.663 F7800.000
G1 F1800.000
G1 X89.663 Y89.601 E3.41444
G1 X89.663 Y89.488 E3.41477
G1 X89.488 Y89.663 E3.41551
G1 X89.375 Y89.663 E3.41585
G1 X89.663 Y89.375 E3.41706
G1 X89.663 Y89.262 E3.41740
G1 X89.262 Y89.663 E3.41909
G1 X89.150 Y89.663 E3.41942
G1 X89.663 Y89.150 E3.42159
G1 X89.663 Y89.037 E3.42192
G1 X89.037 Y89.663 E3.42457
G1 X88.924 Y89.663 E3.42490
G1 X89.663 Y88.924 E3.42802
G1 X89.663 Y88.811 E3.42836
G1 X88.811 Y89.663 E3.43195
G1 X88.699 Y89.663 E3.43229
G1 X89.663 Y88.699 E3.43635
G1 X89.663 Y88.586 E3.43669
G1 X88.586 Y89.663 E3.44124
G1 X88.473 Y89.663 E3.44157
G1 X89.663 Y88.473 E3.44659
G1 X89.663 Y88.360 E3.44693
G1 X88.360 Y89.663 E3.45242
G1 X88.247 Y89.663 E3.45276
G1 X89.663 Y88.247 E3.45873
G1 X89.663 Y88.135 E3.45907
G1 X88.135 Y89.663 E3.46552
G1 X88.022 Y89.663 E3.46585
G1 X89.663 Y88.022 E3.47278
G1 X89.663 Y87.909 E3.47311
G1 X87.909 Y89.663 E3.48051
G1 X87.796 Y89.663 E3.48085
G1 X89.663 Y87.796 E3.48873
G1 X89.663 Y87.684 E3.48906
G1 X87.684 Y89.663 E3.49741
G1 X87.571 Y89.663 E3.49775
G1 X89.663 Y87.571 E3.50658
G1 X89.663 Y87.458 E3.50691
G1 X87.458 Y89.663 E3.51622
G1 X87.345 Y89.663 E3.51655
G1 X89.663 Y87.345 E3.52633
G1 X89.663 Y87.233 E3.52667
G1 X87.233 Y89.663 E3.53692
G1 X87.120 Y89.663 E3.53726
G1 X89.663 Y87.120 E3.54799
G1 X89.663 Y87.007 E3.54832
G1 X87.007 Y89.663 E3.55953
G1 X86.894 Y89.663 E3.55987
G1 X89.663 Y86.894 E3.57155
G1 X89.663 Y86.781 E3.57189
G1 X86.781 Y89.663 E3.58404
G1 X86.669 Y89.663 E3.58438
G1 X89.663 Y86.669 E3.59701
G1 X89.663 Y86.556 E3.59735
G1 X86.556 Y89.663 E3.61046
G1 X86.443 Y89.663 E3.61080
G1 X89.663 Y86.443 E3.62438
G1 X89.663 Y86.330 E3.62472
G1 X86.330 Y89.663 E3.63878
G1 X86.218 Y89.663 E3.63912
G1 X89.663 Y86.218 E3.65365
G1 X89.663 Y86.105 E3.65399
G1 X86.105 Y89.663 E3.66900
G1 X85.992 Y89.663 E3.66934
G1 X89.663 Y85.992 E3.68483
G1 X89.663 Y85.879 E3.68516
G1 X85.879 Y89.663 E3.70113
G1 X85.767 Y89.663 E3.70146
G1 X89.663 Y85.767 E3.71790
G1 X89.663 Y85.654 E3.71824
G1 X85.654 Y89.663 E3.73516
G1 X85.541 Y89.663 E3.73549
G1 X89.663 Y85.541 E3.75288
G1 X89.663 Y85.428 E3.75322
G1 X85.428 Y89.663 E3.77109
G1 X85.315 Y89.663 E3.77143
G1 X89.663 Y85.315 E3.78977
G1 X89.663 Y85.203 E3.79011
G1 X85.203 Y89.663 E3.80892
G1 X85.090 Y89.663 E3.80926
G1 X89.663 Y85.090 E3.82856
G1 X89.663 Y84.977 E3.82889
G1 X84.977 Y89.663 E3.84866
G1 X84.864 Y89.663 E3.84900
G1 X89.663 Y84.864 E3.86925
G1 X89.663 Y84.752 E3.86958
G1 X84.752 Y89.663 E3.89031
G1 X84.639 Y89.663 E3.89064
G1 X89.663 Y84.639 E3.91184
G1 X89.663 Y84.526 E3.91218
G1 X84.526 Y89.663 E3.93385
G1 X84.413 Y89.663 E3.93419
G1 X89.663 Y84.413 E3.95634
G1 X89.663 Y84.301 E3.95667
G1 X84.301 Y89.663 E3.97930
G1 X84.188 Y89.663 E3.97964
G1 X89.663 Y84.188 E4.00274
G1 X89.663 Y84.075 E4.00308
G1 X84.075 Y89.663 E4.02665
G1 X83.962 Y89.663 E4.02699
G1 X89.663 Y83.962 E4.05104
G1 X89.663 Y83.849 E4.05138
G1 X83.849 Y89.663 E4.07591
G1 X83.737 Y89.663 E4.07624
G1 X89.663 Y83.737 E4.10125
G1 X89.663 Y83.624 E4.10159
G1 X83.624 Y89.663 E4.12707
G1 X83.511 Y89.663 E4.12740
G1 X89.663 Y83.511 E4.15336
G1 X89.663 Y83.398 E4.15370
G1 X83.398 Y89.663 E4.18013
G1 X83.286 Y89.663 E4.18047
G1 X89.663 Y83.286 E4.20737
G1 X89.663 Y83.173 E4.20771
G1 X83.173 Y89.663 E4.23509
G1 X83.060 Y89.663 E4.23543
G1 X89.663 Y83.060 E4.26329
G1 X89.663 Y82.947 E4.26363
G1 X82.947 Y89.663 E4.29196
G1 X82.835 Y89.663 E4.29230
G1 X89.663 Y82.835 E4.32111
G1 X89.663 Y82.722 E4.32145
G1 X82.722 Y89.663 E4.35074
G1 X82.609 Y89.663 E4.35107
G1 X89.663 Y82.609 E4.38084
G1 X89.663 Y82.496 E4.38117
G1 X82.496 Y89.663 E4.41141
G1 X82.383 Y89.663 E4.41175
G1 X89.663 Y82.384 E4.44246
G1 X89.663 Y82.271 E4.44280
G1 X82.271 Y89.663 E4.47399
G1 X82.158 Y89.663 E4.47433
G1 X89.663 Y82.158 E4.50599
G1 X89.663 Y82.045 E4.50633
G1 X82.045 Y89.663 E4.53847
G1 X81.932 Y89.663 E4.53881
G1 X89.663 Y81.932 E4.57143
G1 X89.663 Y81.820 E4.57176
G1 X81.820 Y89.663 E4.60486
G1 X81.707 Y89.663 E4.60519
G1 X89.663 Y81.707 E4.63876
G1 X89.663 Y81.594 E4.63910
G1 X81.594 Y89.663 E4.67315
G1 X81.481 Y89.663 E4.67348
G1 X89.663 Y81.481 E4.70800
G1 X89.663 Y81.369 E4.70834
G1 X81.369 Y89.663 E4.74334
G1 X81.256 Y89.663 E4.74367
G1 X89.663 Y81.256 E4.77915
G1 X89.663 Y81.143 E4.77948
G1 X81.143 Y89.663 E4.81543
G1 X81.030 Y89.663 E4.81577
G1 X89.663 Y81.030 E4.85219
G1 X89.663 Y80.918 E4.85253
G1 X80.918 Y89.663 E4.88943
G1 X80.805 Y89.663 E4.88977
G1 X89.663 Y80.805 E4.92714
G1 X89.663 Y80.692 E4.92748
G1 X80.692 Y89.663 E4.96533
G1 X80.579 Y89.663 E4.96567
G1 X89.663 Y80.579 E5.00400
G1 X89.663 Y80.466 E5.00433
G1 X80.466 Y89.663 E5.04314
G1 X80.354 Y89.663 E5.04347
G1 X89.663 Y80.354 E5.08275
G1 X89.663 Y80.241 E5.08309
G1 X80.241 Y89.663 E5.12285
G1 X80.128 Y89.663 E5.12318
G1 X89.663 Y80.128 E5.16341
G1 X89.663 Y80.015 E5.16375
G1 X80.015 Y89.663 E5.20446
G1 X79.903 Y89.663 E5.20479
G1 X89.663 Y79.903 E5.24598
G1 X89.663 Y79.790 E5.24631
G1 X79.790 Y89.663 E5.28797
G1 X79.677 Y89.663 E5.28831
G1 X89.663 Y79.677 E5.33044
G1 X89.663 Y79.564 E5.33078
G1 X79.564 Y89.663 E5.37339
G1 X79.452 Y89.663 E5.37373
G1 X89.663 Y79.452 E5.41681
G1 X89.663 Y79.339 E5.41715
G1 X79.339 Y89.663 E5.46071
G1 X79.226 Y89.663 E5.46105
G1 X89.663 Y79.226 E5.50509
G1 X89.663 Y79.113 E5.50542
G1 X79.113 Y89.663 E5.54994
G1 X79.000 Y89.663 E5.55027
G1 X89.663 Y79.000 E5.59526
G1 X89.663 Y78.888 E5.59560
G1 X78.888 Y89.663 E5.64107
G1 X78.775 Y89.663 E5.64140
G1 X89.663 Y78.775 E5.68734
G1 X89.663 Y78.662 E5.68768
G1 X78.662 Y89.663 E5.73410
G1 X78.549 Y89.663 E5.73443
G1 X89.663 Y78.549 E5.78133
G1 X89.663 Y78.437 E5.78166
G1 X78.437 Y89.663 E5.82903
G1 X78.324 Y89.663 E5.82937
G1 X89.663 Y78.324 E5.87721
G1 X89.663 Y78.211 E5.87755
G1 X78.211 Y89.663 E5.92587
G1 X78.098 Y89.663 E5.92621
G1 X89.663 Y78.098 E5.97500
G1 X89.663 Y77.986 E5.97534
G1 X77.986 Y89.663 E6.02461
G1 X77.873 Y89.663 E6.02495
G1 X89.663 Y77.873 E6.07470
G1 X89.663 Y77.760 E6.07503
G1 X77.760 Y89.663 E6.12526
G1 X77.647 Y89.663 E6.12559
G1 X89.663 Y77.647 E6.17629
G1 X89.663 Y77.534 E6.17663
G1 X77.534 Y89.663 E6.22781
G1 X77.422 Y89.663 E6.22814
G1 X89.663 Y77.422 E6.27979
G1 X89.663 Y77.309 E6.28013
G1 X77.309 Y89.663 E6.33226
G1 X77.196 Y89.663 E6.33259
G1 X89.663 Y77.196 E6.38520
G1 X89.663 Y77.083 E6.38553
G1 X77.083 Y89.663 E6.43861
G1 X76.971 Y89.663 E6.43895
G1 X89.663 Y76.971 E6.49250
G1 X89.663 Y76.858 E6.49284
G1 X76.858 Y89.663 E6.54687
G1 X76.745 Y89.663 E6.54721
G1 X89.663 Y76.745 E6.60171
G1 X89.663 Y76.632 E6.60205
G1 X76.632 Y89.663 E6.65703
G1 X76.520 Y89.663 E6.65737
G1 X89.663 Y76.520 E6.71283
G1 X89.663 Y76.407 E6.71316
G1 X76.407 Y89.663 E6.76910
G1 X76.294 Y89.663 E6.76943
G1 X89.663 Y76.294 E6.82584
G1 X89.663 Y76.181 E6.82618
G1 X76.181 Y89.663 E6.88306
G1 X76.068 Y89.663 E6.88340
G1 X89.663 Y76.068 E6.94076
G1 X89.663 Y75.956 E6.94110
G1 X75.956 Y89.663 E6.99893
G1 X75.843 Y89.663 E6.99927
G1 X89.663 Y75.843 E7.05758
G1 X89.663 Y75.730 E7.05792
G1 X75.730 Y89.663 E7.11671
G1 X75.617 Y89.663 E7.11705
G1 X89.663 Y75.617 E7.17631
G1 X89.663 Y75.505 E7.17665
G1 X75.505 Y89.663 E7.23639
G1 X75.392 Y89.663 E7.23672
G1 X89.663 Y75.392 E7.29694
G1 X89.663 Y75.279 E7.29728
G1 X75.279 Y89.663 E7.35797
G1 X75.166 Y89.663 E7.35830
G1 X89.663 Y75.166 E7.41947
G1 X89.663 Y75.054 E7.41981
G1 X75.054 Y89.663 E7.48145
G1 X74.941 Y89.663 E7.48179
G1 X89.663 Y74.941 E7.54391
G1 X89.663 Y74.828 E7.54424
G1 X74.828 Y89.663 E7.60684
G1 X74.715 Y89.663 E7.60718
G1 X89.663 Y74.715 E7.67025
G1 X89.663 Y74.603 E7.67058
G1 X74.603 Y89.663 E7.73413
G1 X74.490 Y89.663 E7.73447
G1 X89.663 Y74.490 E7.79849
G1 X89.663 Y74.377 E7.79883
G1 X74.377 Y89.663 E7.86333
G1 X74.264 Y89.663 E7.86366
G1 X89.663 Y74.264 E7.92864
G1 X89.663 Y74.151 E7.92897
G1 X74.151 Y89.663 E7.99442
G1 X74.039 Y89.663 E7.99476
G1 X89.663 Y74.039 E8.06069
G1 X89.663 Y73.926 E8.06102
G1 X73.926 Y89.663 E8.12742
G1 X73.813 Y89.663 E8.12776
G1 X89.663 Y73.813 E8.19464
G1 X89.663 Y73.700 E8.19497
G1 X73.700 Y89.663 E8.26233
G1 X73.588 Y89.663 E8.26266
G1 X89.663 Y73.588 E8.33049
G1 X89.663 Y73.475 E8.33083
G1 X73.475 Y89.663 E8.39914
G1 X73.362 Y89.663 E8.39947
G1 X89.663 Y73.362 E8.46825
G1 X89.663 Y73.249 E8.46859
G1 X73.249 Y89.663 E8.53785
G1 X73.137 Y89.663 E8.53818
G1 X89.663 Y73.137 E8.60792
G1 X89.663 Y73.024 E8.60825
G1 X73.024 Y89.663 E8.67846
G1 X72.911 Y89.663 E8.67880
G1 X89.663 Y72.911 E8.74948
G1 X89.663 Y72.798 E8.74982
G1 X72.798 Y89.663 E8.82098
G1 X72.685 Y89.663 E8.82131
G1 X89.663 Y72.685 E8.89295
G1 X89.663 Y72.573 E8.89329
G1 X72.573 Y89.663 E8.96540
G1 X72.460 Y89.663 E8.96574
G1 X89.663 Y72.460 E9.03832
G1 X89.663 Y72.347 E9.03866
G1 X72.347 Y89.663 E9.11172
G1 X72.234 Y89.663 E9.11206
G1 X89.663 Y72.234 E9.18560
G1 X89.663 Y72.122 E9.18593
G1 X72.122 Y89.663 E9.25995
G1 X72.009 Y89.663 E9.26029
G1 X89.663 Y72.009 E9.33478
G1 X89.663 Y71.896 E9.33511
G1 X71.896 Y89.663 E9.41008
G1 X71.783 Y89.663 E9.41042
G1 X89.663 Y71.783 E9.48586
G1 X89.663 Y71.671 E9.48620
G1 X71.671 Y89.663 E9.56211
G1 X71.558 Y89.663 E9.56245
G1 X89.663 Y71.558 E9.63885
G1 X89.663 Y71.445 E9.63918
G1 X71.445 Y89.663 E9.71605
G1 X71.332 Y89.663 E9.71639
G1 X89.663 Y71.332 E9.79373
G1 X89.663 Y71.219 E9.79407
G1 X71.219 Y89.663 E9.87189
G1 X71.107 Y89.663 E9.87223
G1 X89.663 Y71.107 E9.95053
G1 X89.663 Y70.994 E9.95086
G1 X70.994 Y89.663 E10.02964
G1 X70.881 Y89.663 E10.02997
G1 X89.663 Y70.881 E10.10922
G1 X89.663 Y70.768 E10.10956
G1 X70.768 Y89.663 E10.18928
G1 X70.656 Y89.663 E10.18962
G1 X89.663 Y70.656 E10.26982
G1 X89.663 Y70.543 E10.27016
G1 X70.543 Y89.663 E10.35083
G1 X70.430 Y89.663 E10.35117
G1 X89.663 Y70.430 E10.43232
G1 X89.663 Y70.317 E10.43266
G1 X70.317 Y89.663 E10.51429
G1 X70.205 Y89.663 E10.51462
G1 X89.663 Y70.205 E10.59673
G1 X89.663 Y70.092 E10.59706
G1 X70.092 Y89.663 E10.67964
G1 X69.979 Y89.663 E10.67998
G1 X89.663 Y69.979 E10.76304
G1 X89.663 Y69.866 E10.76337
G1 X69.866 Y89.663 E10.84691
G1 X69.753 Y89.663 E10.84724
G1 X89.663 Y69.753 E10.93125
G1 X89.663 Y69.641 E10.93159
G1 X69.641 Y89.663 E11.01607
G1 X69.528 Y89.663 E11.01641
G1 X89.663 Y69.528 E11.10136
G1 X89.663 Y69.415 E11.10170
G1 X69.415 Y89.663 E11.18714
G1 X69.302 Y89.663 E11.18747
G1 X89.663 Y69.302 E11.27338
G1 X89.663 Y69.190 E11.27372
G1 X69.190 Y89.663 E11.36011
G1 X69.077 Y89.663 E11.36044
G1 X89.663 Y69.077 E11.44731
G1 X89.663 Y68.964 E11.44764
G1 X68.964 Y89.663 E11.53498
G1 X68.851 Y89.663 E11.53532
G1 X89.663 Y68.851 E11.62313
G1 X89.663 Y68.739 E11.62347
G1 X68.739 Y89.663 E11.71176
G1 X68.626 Y89.663 E11.71209
G1 X89.663 Y68.626 E11.80086
G1 X89.663 Y68.513 E11.80120
G1 X68.513 Y89.663 E11.89044
G1 X68.400 Y89.663 E11.89077
G1 X89.663 Y68.400 E11.98049
G1 X89.663 Y68.288 E11.98083
G1 X68.287 Y89.663 E12.07102
G1 X68.175 Y89.663 E12.07136
G1 X89.663 Y68.175 E12.16203
G1 X89.663 Y68.062 E12.16236
G1 X68.062 Y89.663 E12.25351
G1 X67.949 Y89.663 E12.25384
G1 X89.663 Y67.949 E12.34546
G1 X89.663 Y67.836 E12.34580
G1 X67.836 Y89.663 E12.43790
G1 X67.724 Y89.663 E12.43823
G1 X89.663 Y67.724 E12.53081
G1 X89.663 Y67.611 E12.53114
G1 X67.611 Y89.663 E12.62419
G1 X67.498 Y89.663 E12.62453
G1 X89.663 Y67.498 E12.71805
G1 X89.663 Y67.385 E12.71839
G1 X67.385 Y89.663 E12.81239
G1 X67.273 Y89.663 E12.81272
G1 X89.663 Y67.273 E12.90720
G1 X89.663 Y67.160 E12.90754
G1 X67.160 Y89.663 E13.00249
G1 X67.047 Y89.663 E13.00282
G1 X89.663 Y67.047 E13.09825
G1 X89.663 Y66.934 E13.09859
G1 X66.934 Y89.663 E13.19449
G1 X66.822 Y89.663 E13.19483
G1 X89.663 Y66.822 E13.29121
G1 X89.663 Y66.709 E13.29154
G1 X66.709 Y89.663 E13.38840
G1 X66.596 Y89.663 E13.38873
G1 X89.663 Y66.596 E13.48606
G1 X89.663 Y66.483 E13.48640
G1 X66.483 Y89.663 E13.58421
G1 X66.370 Y89.663 E13.58454
G1 X89.663 Y66.370 E13.68283
G1 X89.663 Y66.258 E13.68316
G1 X66.258 Y89.663 E13.78192
G1 X66.145 Y89.663 E13.78226
G1 X89.663 Y66.145 E13.88149
G1 X89.663 Y66.032 E13.88183
G1 X66.032 Y89.663 E13.98154
G1 X65.919 Y89.663 E13.98187
G1 X89.663 Y65.919 E14.08206
G1 X89.663 Y65.807 E14.08240
G1 X65.807 Y89.663 E14.18306
G1 X65.694 Y89.663 E14.18339
G1 X89.663 Y65.694 E14.28453
G1 X89.663 Y65.581 E14.28487
G1 X65.581 Y89.663 E14.38648
G1 X65.468 Y89.663 E14.38682
G1 X89.663 Y65.468 E14.48891
G1 X89.663 Y65.356 E14.48924
G1 X65.356 Y89.663 E14.59181
G1 X65.243 Y89.663 E14.59214
G1 X89.663 Y65.243 E14.69518
G1 X89.663 Y65.130 E14.69552
G1 X65.130 Y89.663 E14.79904
G1 X65.017 Y89.663 E14.79937
G1 X89.663 Y65.017 E14.90337
G1 X89.663 Y64.904 E14.90370
G1 X64.904 Y89.663 E15.00817
G1 X64.792 Y89.663 E15.00851
G1 X89.663 Y64.792 E15.11345
G1 X89.663 Y64.679 E15.11379
G1 X64.679 Y89.663 E15.21921
G1 X64.566 Y89.663 E15.21954
G1 X89.663 Y64.566 E15.32544
G1 X89.663 Y64.453 E15.32577
G1 X64.453 Y89.663 E15.43215
G1 X64.341 Y89.663 E15.43248
G1 X89.663 Y64.341 E15.53933
G1 X89.663 Y64.228 E15.53967
G1 X64.228 Y89.663 E15.64699
G1 X64.115 Y89.663 E15.64733
G1 X89.663 Y64.115 E15.75512
G1 X89.663 Y64.002 E15.75546
G1 X64.002 Y89.663 E15.86373
G1 X63.890 Y89.663 E15.86407
G1 X89.663 Y63.890 E15.97282
G1 X89.663 Y63.777 E15.97316
G1 X63.777 Y89.663 E16.08238
G1 X63.664 Y89.663 E16.08272
G1 X89.663 Y63.664 E16.19242
G1 X89.663 Y63.551 E16.19276
G1 X63.551 Y89.663 E16.30294
G1 X63.438 Y89.663 E16.30327
G1 X89.663 Y63.438 E16.41393
G1 X89.663 Y63.326 E16.41426
G1 X63.326 Y89.663 E16.52539
G1 X63.213 Y89.663 E16.52573
G1 X89.663 Y63.213 E16.63734
G1 X89.663 Y63.100 E16.63767
G1 X63.100 Y89.663 E16.74975
G1 X62.987 Y89.663 E16.75009
G1 X89.663 Y62.987 E16.86265
G1 X89.663 Y62.875 E16.86298
G1 X62.875 Y89.663 E16.97602
G1 X62.762 Y89.663 E16.97635
G1 X89.663 Y62.762 E17.08986
G1 X89.663 Y62.649 E17.09020
G1 X62.649 Y89.663 E17.20418
G1 X62.536 Y89.663 E17.20452
G1 X89.663 Y62.536 E17.31898
G1 X89.663 Y62.424 E17.31932
G1 X62.424 Y89.663 E17.43425
G1 X62.311 Y89.663 E17.43459
G1 X89.663 Y62.311 E17.55000
G1 X89.663 Y62.198 E17.55034
