; generated by Slic3r 1.3.1-dev (Build 2ef957d) on 2019-11-25 at 09:24:28

; external perimeters extrusion width = 0.55mm (4.37mm^3/s)
; perimeters extrusion width = 0.70mm (11.44mm^3/s)
; infill extrusion width = 0.62mm (13.45mm^3/s)
; solid infill extrusion width = 0.70mm (3.81mm^3/s)
; top infill extrusion width = 0.70mm (2.86mm^3/s)

M107
G92 E0
M104 S200 ; set temperature
G28 ; home all axes
G1 Z5 F5000 ; lift nozzle

; Filament gcode

M109 S200 ; set temperature and wait for it to be reached
G21 ; set units to millimeters
G90 ; use absolute coordinates
M82 ; use absolute distances for extrusion
G92 E0
G1 Z0.350 F7800.000
G1 E-2.00000 F2400.00000
G92 E0
G1 X46.668 Y76.774 F7800.000
G1 E2.00000 F2400.00000
G1 F1800.000
G1 X48.820 Y75.981 E2.07096
G1 X50.000 Y75.875 E2.10761
G1 X150.000 Y75.875 E5.20174
G1 X152.259 Y76.272 E5.27271
G1 X154.247 Y77.415 E5.34367
G1 X155.726 Y79.168 E5.41463
G1 X156.519 Y81.320 E5.48559
G1 X156.625 Y82.500 E5.52225
G1 X156.625 Y117.500 E6.60519
G1 X156.228 Y119.759 E6.67615
G1 X155.085 Y121.747 E6.74712
G1 X153.332 Y123.226 E6.81808
G1 X151.180 Y124.019 E6.88904
G1 X150.000 Y124.125 E6.92569
G1 X50.000 Y124.125 E10.01982
G1 X47.741 Y123.728 E10.09079
G1 X45.753 Y122.585 E10.16175
G1 X44.274 Y120.832 E10.23271
G1 X43.481 Y118.680 E10.30367
G1 X43.375 Y117.500 E10.34032
G1 X43.375 Y82.500 E11.42327
G1 X43.772 Y80.241 E11.49423
G1 X44.915 Y78.253 E11.56519
G1 X46.611 Y76.822 E11.63384
G1 E9.63384 F2400.00000
G92 E0
G1 X80.076 Y110.812 F7800.000
G1 E2.00000 F2400.00000
G1 F1800.000
G1 X77.924 Y110.812 E2.06659
G1 X76.183 Y109.547 E2.13317
G1 X75.518 Y107.500 E2.19976
G1 X76.183 Y105.453 E2.26635
G1 X77.924 Y104.188 E2.33294
G1 X80.076 Y104.188 E2.39952
G1 X81.817 Y105.453 E2.46611
G1 X82.482 Y107.500 E2.53270
G1 X81.817 Y109.547 E2.59929
G1 X80.137 Y110.768 E2.66355
G1 X79.873 Y110.187 F7800.000
G1 F1800.000
G1 X78.127 Y110.187 E2.71757
G1 X76.715 Y109.161 E2.77160
G1 X76.175 Y107.500 E2.82562
G1 X76.715 Y105.839 E2.87964
G1 X78.127 Y104.813 E2.93366
G1 X79.873 Y104.813 E2.98769
G1 X81.285 Y105.839 E3.04171
G1 X81.825 Y107.500 E3.09573
G1 X81.285 Y109.161 E3.14976
G1 X79.934 Y110.143 E3.20146
G1 X79.670 Y109.562 F7800.000
G1 F1800.000
G1 X78.330 Y109.562 E3.24291
G1 X77.246 Y108.774 E3.28437
G1 X76.832 Y107.500 E3.32583
G1 X77.246 Y106.226 E3.36729
G1 X78.330 Y105.438 E3.40875
G1 X79.670 Y105.438 E3.45020
G1 X80.754 Y106.226 E3.49166
G1 X81.168 Y107.500 E3.53312
G1 X80.754 Y108.774 E3.57458
G1 X79.731 Y109.518 E3.61372
G1 X79.670 Y109.562 F7800.000
G1 E1.61372 F2400.00000
G92 E0
G1 X82.371 Y96.475 F7800.000
G1 E2.00000 F2400.00000
G1 F1800.000
G1 X82.371 Y96.047 E2.01324
G1 X82.016 Y96.303 E2.02679
G1 X81.479 Y96.495 E2.04444
G1 X80.957 Y96.547 E2.06067
G1 X80.390 Y96.475 E2.07834
G1 X74.674 Y96.475 E2.25521
G1 X73.655 Y96.609 E2.28701
G1 X73.064 Y96.573 E2.30534
G1 X72.569 Y96.475 E2.32094
G1 X65.108 Y96.475 E2.55181
G1 X68.007 Y88.347 E2.81881
G1 X70.968 Y88.347 E2.91042
G1 X71.249 Y89.135 E2.93631
G1 X71.604 Y88.815 E2.95109
G1 X72.570 Y88.396 E2.98368
G1 X73.559 Y88.277 E3.01450
G1 X74.147 Y88.313 E3.03273
G1 X74.682 Y88.420 E3.04962
G1 X75.196 Y88.610 E3.06655
G1 X75.666 Y88.877 E3.08328
G1 X75.976 Y89.125 E3.09557
G1 X76.253 Y88.347 E3.12113
G1 X79.214 Y88.347 E3.21274
G1 X79.813 Y90.028 E3.26795
G1 X80.445 Y89.800 E3.28872
G1 X80.957 Y89.747 E3.30464
G1 X81.472 Y89.798 E3.32067
G1 X82.005 Y89.984 E3.33813
G1 X82.325 Y90.211 E3.35027
G1 X84.734 Y88.283 E3.44574
G1 X87.404 Y88.283 E3.52836
G1 X87.404 Y92.300 E3.65265
G1 X88.009 Y92.238 E3.67144
G1 X88.009 Y88.411 E3.78984
G1 X93.608 Y88.411 E3.96310
G1 X93.608 Y92.298 E4.08336
G1 X93.683 Y92.548 E4.09143
G1 X93.749 Y92.946 E4.10392
G1 X93.771 Y93.349 E4.11642
G1 X93.744 Y93.807 E4.13060
G1 X93.654 Y94.270 E4.14519
G1 X93.496 Y94.714 E4.15977
G1 X93.279 Y95.121 E4.17403
G1 X93.005 Y95.489 E4.18825
G1 X92.679 Y95.810 E4.20240
G1 X92.320 Y96.072 E4.21615
G1 X91.937 Y96.277 E4.22960
G1 X91.539 Y96.428 E4.24276
G1 X91.137 Y96.529 E4.25559
G1 X90.707 Y96.590 E4.26901
G1 X90.031 Y96.598 E4.28994
G1 X89.424 Y96.522 E4.30887
G1 X88.839 Y96.366 E4.32759
G1 X88.479 Y96.495 E4.33941
G1 X87.957 Y96.547 E4.35565
G1 X87.391 Y96.475 E4.37331
G1 X82.446 Y96.475 E4.52632
G1 X82.996 Y95.850 F7800.000
G1 F1800.000
G1 X82.996 Y93.132 E4.61041
G1 X83.954 Y93.132 E4.64006
G1 X82.749 Y91.504 E4.70274
G1 X82.482 Y91.609 E4.71163
G1 X82.513 Y91.895 E4.72054
G1 X82.471 Y92.283 E4.73263
G1 X82.323 Y92.666 E4.74533
G1 X82.065 Y93.001 E4.75842
G1 X81.864 Y93.146 E4.76608
G1 X82.057 Y93.283 E4.77341
G1 X82.319 Y93.616 E4.78652
G1 X82.470 Y94.001 E4.79933
G1 X82.513 Y94.391 E4.81144
G1 X82.471 Y94.779 E4.82353
G1 X82.323 Y95.162 E4.83624
G1 X82.065 Y95.497 E4.84932
G1 X81.722 Y95.744 E4.86238
G1 X81.340 Y95.880 E4.87493
G1 X80.958 Y95.919 E4.88682
G1 X80.581 Y95.879 E4.89855
G1 X80.502 Y95.850 E4.90117
G1 X78.154 Y95.850 E4.97382
G1 X77.840 Y94.976 E5.00255
G1 X77.573 Y94.979 E5.01078
G1 X77.278 Y95.850 E5.03925
G1 X74.544 Y95.850 E5.12383
G1 X74.475 Y95.880 E5.12617
G1 X73.636 Y95.981 E5.15232
G1 X73.144 Y95.952 E5.16757
G1 X72.661 Y95.850 E5.18284
G1 X69.907 Y95.850 E5.26804
G1 X69.593 Y94.976 E5.29676
G1 X69.327 Y94.979 E5.30500
G1 X69.032 Y95.850 E5.33347
G1 X65.994 Y95.850 E5.42745
G1 X68.448 Y88.972 E5.65340
G1 X70.527 Y88.972 E5.71775
G1 X71.033 Y90.390 E5.76432
G1 X71.308 Y89.924 E5.78105
G1 X71.946 Y89.348 E5.80767
G1 X72.735 Y89.006 E5.83427
G1 X73.578 Y88.905 E5.86052
G1 X74.066 Y88.934 E5.87568
G1 X74.511 Y89.023 E5.88972
G1 X74.932 Y89.179 E5.90358
G1 X75.314 Y89.396 E5.91719
G1 X75.654 Y89.669 E5.93068
G1 X75.943 Y89.990 E5.94404
G1 X76.194 Y90.372 E5.95820
G1 X76.694 Y88.972 E6.00419
G1 X78.774 Y88.972 E6.06854
G1 X79.563 Y91.187 E6.14131
G1 X79.874 Y90.790 E6.15693
G1 X80.211 Y90.549 E6.16976
G1 X80.585 Y90.414 E6.18205
G1 X80.958 Y90.375 E6.19366
G1 X81.337 Y90.412 E6.20542
G1 X81.715 Y90.545 E6.21784
G1 X82.057 Y90.787 E6.23080
G1 X82.269 Y91.056 E6.24139
G1 X84.954 Y88.908 E6.34777
G1 X86.779 Y88.908 E6.40427
G1 X86.779 Y93.132 E6.53496
G1 X87.090 Y93.132 E6.54457
G1 X87.212 Y93.045 E6.54922
G1 X87.586 Y92.910 E6.56152
G1 X87.959 Y92.871 E6.57312
G1 X88.337 Y92.908 E6.58488
G1 X88.633 Y93.012 E6.59459
G1 X88.633 Y89.036 E6.71761
G1 X92.983 Y89.036 E6.85219
G1 X92.983 Y91.818 E6.93827
G1 X92.730 Y91.818 E6.94610
G1 X92.979 Y92.376 E6.96501
G1 X93.073 Y92.690 E6.97514
G1 X93.127 Y93.014 E6.98531
G1 X93.145 Y93.347 E6.99564
G1 X93.122 Y93.729 E7.00746
G1 X93.049 Y94.105 E7.01931
G1 X92.923 Y94.461 E7.03101
G1 X92.749 Y94.785 E7.04239
G1 X92.532 Y95.078 E7.05367
G1 X92.274 Y95.332 E7.06489
G1 X91.987 Y95.542 E7.07588
G1 X91.678 Y95.707 E7.08673
G1 X91.352 Y95.831 E7.09752
G1 X91.017 Y95.915 E7.10820
G1 X90.660 Y95.965 E7.11936
G1 X90.066 Y95.973 E7.13771
G1 X89.544 Y95.907 E7.15401
G1 X89.079 Y95.784 E7.16889
G1 X88.819 Y95.676 E7.17762
G1 X88.723 Y95.744 E7.18125
G1 X88.341 Y95.880 E7.19380
G1 X87.959 Y95.919 E7.20570
G1 X87.582 Y95.879 E7.21742
G1 X87.502 Y95.850 E7.22005
G1 X83.071 Y95.850 E7.35717
G1 E5.35717 F2400.00000
G92 E0
G1 X78.593 Y95.225 F7800.000
G1 E2.00000 F2400.00000
G1 F1800.000
G1 X78.202 Y94.137 E2.03577
G1 X77.199 Y94.137 E2.06681
G1 X76.830 Y95.225 E2.10235
G1 X75.127 Y95.225 E2.15506
G1 X75.257 Y94.860 E2.16706
G1 X74.310 Y95.271 E2.19900
G1 X73.617 Y95.354 E2.22059
G1 X73.224 Y95.331 E2.23278
G1 X72.867 Y95.260 E2.24405
G1 X72.538 Y95.139 E2.25489
G1 X71.942 Y94.801 E2.27607
G1 X72.093 Y95.225 E2.28999
G1 X70.347 Y95.225 E2.34403
G1 X69.956 Y94.137 E2.37980
G1 X68.953 Y94.137 E2.41083
G1 X68.584 Y95.225 E2.44638
G1 X66.881 Y95.225 E2.49908
G1 X68.888 Y89.597 E2.68397
G1 X70.087 Y89.597 E2.72106
G1 X70.925 Y91.948 E2.79828
G1 X71.226 Y91.908 E2.80766
G1 X71.248 Y91.623 E2.81650
G1 X71.449 Y90.915 E2.83928
G1 X71.797 Y90.324 E2.86050
G1 X72.289 Y89.880 E2.88100
G1 X72.900 Y89.615 E2.90160
G1 X73.596 Y89.532 E2.92330
G1 X73.986 Y89.555 E2.93537
G1 X74.341 Y89.627 E2.94657
G1 X74.667 Y89.748 E2.95736
G1 X74.962 Y89.915 E2.96784
G1 X75.223 Y90.124 E2.97819
G1 X75.446 Y90.373 E2.98853
G1 X75.632 Y90.654 E2.99897
G1 X75.780 Y90.966 E3.00963
G1 X75.891 Y91.303 E3.02063
G1 X75.968 Y91.663 E3.03201
G1 X75.999 Y91.920 E3.04001
G1 X76.294 Y91.953 E3.04920
G1 X77.134 Y89.597 E3.12658
G1 X78.333 Y89.597 E3.16366
G1 X79.967 Y94.181 E3.31425
G1 X80.311 Y93.742 E3.33152
G1 X80.505 Y93.603 E3.33889
G1 X80.725 Y93.523 E3.34615
G1 X80.960 Y93.499 E3.35343
G1 X81.201 Y93.523 E3.36093
G1 X81.426 Y93.602 E3.36832
G1 X81.622 Y93.741 E3.37575
G1 X81.771 Y93.930 E3.38320
G1 X81.858 Y94.152 E3.39060
G1 X81.885 Y94.391 E3.39802
G1 X81.858 Y94.630 E3.40545
G1 X81.772 Y94.852 E3.41284
G1 X81.625 Y95.044 E3.42032
G1 X81.429 Y95.186 E3.42781
G1 X81.202 Y95.266 E3.43525
G1 X80.960 Y95.291 E3.44279
G1 X80.724 Y95.266 E3.45012
G1 X80.613 Y95.225 E3.45379
G1 X78.668 Y95.225 E3.51396
G1 X78.105 Y95.336 F7800.000
G1 E1.51396 F2400.00000
G92 E0
G1 X80.465 Y92.661 F7800.000
G1 E2.00000 F2400.00000
G1 F1800.000
G1 X80.308 Y92.547 E2.00600
G1 X80.162 Y92.356 E2.01345
G1 X80.077 Y92.133 E2.02083
G1 X80.050 Y91.895 E2.02824
G1 X80.077 Y91.657 E2.03564
G1 X80.163 Y91.435 E2.04302
G1 X80.311 Y91.246 E2.05045
G1 X80.505 Y91.107 E2.05782
G1 X80.725 Y91.027 E2.06508
G1 X80.960 Y91.003 E2.07237
G1 X81.201 Y91.027 E2.07986
G1 X81.426 Y91.106 E2.08725
G1 X81.622 Y91.245 E2.09469
G1 X81.771 Y91.434 E2.10214
G1 X81.858 Y91.656 E2.10953
G1 X81.885 Y91.895 E2.11695
G1 X81.858 Y92.134 E2.12439
G1 X81.772 Y92.356 E2.13178
G1 X81.625 Y92.548 E2.13925
G1 X81.429 Y92.690 E2.14674
G1 X81.202 Y92.770 E2.15418
G1 X80.960 Y92.795 E2.16172
G1 X80.724 Y92.770 E2.16906
G1 X80.529 Y92.698 E2.17548
G1 X80.299 Y92.761 F7800.000
G1 E0.17548 F2400.00000
G92 E0
G1 X83.223 Y91.093 F7800.000
G1 E2.00000 F2400.00000
G1 F1800.000
G1 X85.173 Y89.533 E2.07727
G1 X86.155 Y89.533 E2.10765
G1 X86.155 Y93.757 E2.23835
G1 X87.290 Y93.757 E2.27349
G1 X87.506 Y93.603 E2.28167
G1 X87.726 Y93.523 E2.28893
G1 X87.960 Y93.499 E2.29622
G1 X88.202 Y93.523 E2.30372
G1 X88.427 Y93.602 E2.31111
G1 X88.623 Y93.741 E2.31854
G1 X88.772 Y93.930 E2.32599
G1 X88.842 Y94.108 E2.33191
G1 X89.107 Y94.099 E2.34012
G1 X89.268 Y93.589 E2.35669
G1 X89.921 Y93.789 E2.37783
G1 X90.153 Y93.816 E2.38506
G1 X90.536 Y93.799 E2.39690
G1 X90.681 Y93.754 E2.40161
G1 X90.783 Y93.689 E2.40534
G1 X90.849 Y93.609 E2.40857
G1 X90.892 Y93.504 E2.41206
G1 X90.909 Y93.359 E2.41658
G1 X90.890 Y93.211 E2.42121
G1 X90.847 Y93.121 E2.42428
G1 X90.774 Y93.052 E2.42739
G1 X90.640 Y92.987 E2.43199
G1 X90.434 Y92.940 E2.43853
G1 X90.155 Y92.921 E2.44719
G1 X89.258 Y92.956 E2.47495
G1 X89.258 Y89.661 E2.57689
G1 X92.358 Y89.661 E2.67281
G1 X92.358 Y91.193 E2.72021
G1 X91.189 Y91.193 E2.75639
G1 X91.138 Y91.508 E2.76627
G1 X91.423 Y91.603 E2.77557
G1 X91.640 Y91.706 E2.78298
G1 X91.837 Y91.836 E2.79029
G1 X92.013 Y91.991 E2.79755
G1 X92.167 Y92.171 E2.80487
G1 X92.293 Y92.373 E2.81225
G1 X92.392 Y92.594 E2.81974
G1 X92.463 Y92.831 E2.82741
G1 X92.505 Y93.082 E2.83527
G1 X92.519 Y93.345 E2.84343
G1 X92.501 Y93.650 E2.85288
G1 X92.445 Y93.940 E2.86200
G1 X92.349 Y94.208 E2.87081
G1 X92.220 Y94.450 E2.87931
G1 X92.059 Y94.667 E2.88765
G1 X91.868 Y94.855 E2.89594
G1 X91.654 Y95.011 E2.90417
G1 X91.418 Y95.137 E2.91243
G1 X91.164 Y95.234 E2.92083
G1 X90.896 Y95.301 E2.92938
G1 X90.612 Y95.341 E2.93827
G1 X90.102 Y95.347 E2.95406
G1 X89.663 Y95.292 E2.96773
G1 X89.280 Y95.190 E2.98000
G1 X88.699 Y94.949 E2.99948
G1 X88.626 Y95.044 E3.00318
G1 X88.430 Y95.186 E3.01067
G1 X88.203 Y95.266 E3.01810
G1 X87.960 Y95.291 E3.02565
G1 X87.725 Y95.266 E3.03298
G1 X87.503 Y95.184 E3.04029
G1 X87.104 Y94.893 E3.05559
G1 X87.104 Y95.225 E3.06587
G1 X83.621 Y95.225 E3.17364
G1 X83.621 Y93.757 E3.21906
G1 X84.590 Y93.757 E3.24905
G1 X84.590 Y91.758 E3.31091
G1 X84.007 Y92.153 E3.33269
G1 X83.267 Y91.154 E3.37118
G1 X82.856 Y90.753 F7800.000
G1 E1.37118 F2400.00000
G92 E0
G1 X62.482 Y89.500 F7800.000
G1 E2.00000 F2400.00000
G1 F1800.000
G1 X61.817 Y91.547 E2.06659
G1 X60.076 Y92.812 E2.13317
G1 X57.924 Y92.812 E2.19976
G1 X56.183 Y91.547 E2.26635
G1 X55.518 Y89.500 E2.33294
G1 X56.183 Y87.453 E2.39952
G1 X57.924 Y86.188 E2.46611
G1 X60.076 Y86.188 E2.53270
G1 X61.817 Y87.453 E2.59929
G1 X62.459 Y89.429 E2.66355
G1 X61.825 Y89.500 F7800.000
G1 F1800.000
G1 X61.285 Y91.161 E2.71758
G1 X59.873 Y92.187 E2.77160
G1 X58.127 Y92.187 E2.82562
G1 X56.714 Y91.161 E2.87964
G1 X56.175 Y89.500 E2.93367
G1 X56.714 Y87.839 E2.98769
G1 X58.127 Y86.813 E3.04171
G1 X59.873 Y86.813 E3.09574
G1 X61.285 Y87.839 E3.14976
G1 X61.802 Y89.429 E3.20146
G1 X61.168 Y89.500 F7800.000
G1 F1800.000
G1 X60.754 Y90.774 E3.24292
G1 X59.670 Y91.562 E3.28438
G1 X58.330 Y91.562 E3.32584
G1 X57.246 Y90.774 E3.36729
G1 X56.832 Y89.500 E3.40875
G1 X57.246 Y88.226 E3.45021
G1 X58.330 Y87.438 E3.49167
G1 X59.670 Y87.438 E3.53313
G1 X60.754 Y88.226 E3.57458
G1 X61.145 Y89.429 E3.61372
G1 X61.168 Y89.500 F7800.000
G1 E1.61372 F2400.00000
G92 E0
G1 X94.818 Y95.922 F7800.000
G1 E2.00000 F2400.00000
G1 F1800.000
G1 X105.379 Y95.922 E2.32675
G1 X105.379 Y108.850 E2.72675
G1 X94.818 Y108.850 E3.05350
G1 X94.818 Y95.997 E3.45118
G1 X95.443 Y96.547 F7800.000
G1 F1800.000
G1 X99.296 Y96.547 E3.57039
G1 X99.296 Y100.515 E3.69316
G1 X100.901 Y100.515 E3.74283
G1 X100.901 Y96.547 E3.86560
G1 X104.754 Y96.547 E3.98481
G1 X104.754 Y108.225 E4.34614
G1 X100.901 Y108.225 E4.46535
G1 X100.901 Y104.129 E4.59209
G1 X99.296 Y104.129 E4.64175
G1 X99.296 Y108.225 E4.76849
G1 X95.443 Y108.225 E4.88770
G1 X95.443 Y96.622 E5.24670
G1 X96.068 Y97.172 F7800.000
G1 F1800.000
G1 X98.671 Y97.172 E5.32724
G1 X98.671 Y101.140 E5.45002
G1 X101.526 Y101.140 E5.53835
G1 X101.526 Y97.172 E5.66113
G1 X104.129 Y97.172 E5.74167
G1 X104.129 Y107.600 E6.06432
G1 X101.526 Y107.600 E6.14486
G1 X101.526 Y103.504 E6.27160
G1 X98.671 Y103.504 E6.35993
G1 X98.671 Y107.600 E6.48667
G1 X96.068 Y107.600 E6.56721
G1 X96.068 Y97.247 E6.88754
G1 X96.027 Y96.674 F7800.000
G1 E4.88754 F2400.00000
G92 E0
G1 X97.924 Y92.812 F7800.000
G1 E2.00000 F2400.00000
G1 F1800.000
G1 X96.183 Y91.547 E2.06659
G1 X95.518 Y89.500 E2.13317
G1 X96.183 Y87.453 E2.19976
G1 X97.924 Y86.188 E2.26635
G1 X100.076 Y86.188 E2.33294
G1 X101.817 Y87.453 E2.39952
G1 X102.482 Y89.500 E2.46611
G1 X101.817 Y91.547 E2.53270
G1 X100.076 Y92.812 E2.59929
G1 X97.999 Y92.812 E2.66355
G1 X98.127 Y92.187 F7800.000
G1 F1800.000
G1 X96.715 Y91.161 E2.71757
G1 X96.175 Y89.500 E2.77160
G1 X96.715 Y87.839 E2.82562
G1 X98.127 Y86.813 E2.87964
G1 X99.873 Y86.813 E2.93366
G1 X101.285 Y87.839 E2.98769
G1 X101.825 Y89.500 E3.04171
G1 X101.285 Y91.161 E3.09573
G1 X99.873 Y92.187 E3.14976
G1 X98.202 Y92.187 E3.20146
G1 X98.330 Y91.562 F7800.000
G1 F1800.000
G1 X97.246 Y90.774 E3.24292
G1 X96.832 Y89.500 E3.28437
G1 X97.246 Y88.226 E3.32583
G1 X98.330 Y87.438 E3.36729
G1 X99.670 Y87.438 E3.40875
G1 X100.754 Y88.226 E3.45021
G1 X101.168 Y89.500 E3.49166
G1 X100.754 Y90.774 E3.53312
G1 X99.670 Y91.562 E3.57458
G1 X98.405 Y91.562 E3.61372
G1 X98.330 Y91.562 F7800.000
G1 E1.61372 F2400.00000
G92 E0
G1 X116.183 Y103.453 F7800.000
G1 E2.00000 F2400.00000
G1 F1800.000
G1 X117.924 Y102.188 E2.06659
G1 X120.076 Y102.188 E2.13317
G1 X121.817 Y103.453 E2.19976
G1 X122.482 Y105.500 E2.26635
G1 X121.817 Y107.547 E2.33294
G1 X120.076 Y108.812 E2.39952
G1 X117.924 Y108.812 E2.46611
G1 X116.183 Y107.547 E2.53270
G1 X115.518 Y105.500 E2.59928
G1 X116.160 Y103.525 E2.66355
G1 X116.715 Y103.839 F7800.000
G1 F1800.000
G1 X118.127 Y102.813 E2.71757
G1 X119.873 Y102.813 E2.77160
G1 X121.285 Y103.839 E2.82562
G1 X121.825 Y105.500 E2.87964
G1 X121.285 Y107.161 E2.93366
G1 X119.873 Y108.187 E2.98769
G1 X118.127 Y108.187 E3.04171
G1 X116.715 Y107.161 E3.09573
G1 X116.175 Y105.500 E3.14975
G1 X116.691 Y103.911 E3.20146
G1 X117.246 Y104.226 F7800.000
G1 F1800.000
G1 X118.330 Y103.438 E3.24292
G1 X119.670 Y103.438 E3.28437
G1 X120.754 Y104.226 E3.32583
G1 X121.168 Y105.500 E3.36729
G1 X120.754 Y106.774 E3.40875
G1 X119.670 Y107.562 E3.45021
G1 X118.330 Y107.562 E3.49166
G1 X117.246 Y106.774 E3.53312
G1 X116.832 Y105.500 E3.57458
