; Gcode updated with 'stl_info' on 2019-12-05 15:36:29.164245

; stl_min_x = -0.6032350063323975
; stl_max_x = 142.80299377441406
; stl_min_y = -0.6032350063323975
; stl_max_y = 142.80299377441406
; stl_min_z = -10.0

; generated by Slic3r 1.3.1-dev (Build adea0d9) on 2019-12-05 at 15:36:28

; external perimeters extrusion width = 0.44mm (2.86mm^3/s)
; perimeters extrusion width = 0.56mm (4.14mm^3/s)
; infill extrusion width = 0.50mm (3.66mm^3/s)
; solid infill extrusion width = 0.56mm (3.10mm^3/s)
; top infill extrusion width = 0.56mm (3.10mm^3/s)

M107
G92 E0
;D3D:START:START
T0
M104 S215 T0

G21
G90
M107
T0
G28
G29
M109 T0 S215 T0
G0 F3000
M107
T0
G92 E0
G0 X0 Y149 Z0.1 F3600
G1 Y49 E6.5 F1200
G0 Z1
G92 E0
; Filament gcode

G21 ; set units to millimeters
G90 ; use absolute coordinates
M82 ; use absolute distances for extrusion
G92 E0
G1 Z0.300 F7800.000
G1 E-2.00000 F2400.00000
G92 E0
G1 X96.692 Y97.016 F7800.000
G1 E2.00000 F2400.00000
G1 F1800.000
G1 X97.032 Y96.677 E2.01589
G1 X97.463 Y96.421 E2.03251
G1 X97.924 Y96.288 E2.04840
G1 X98.218 Y96.260 E2.05817
G1 X98.695 Y96.305 E2.07407
G1 X99.146 Y96.467 E2.08995
G1 X99.400 Y96.618 E2.09972
G1 X99.744 Y96.920 E2.11488
G1 X99.924 Y97.153 E2.12465
G1 X100.132 Y97.561 E2.13981
G1 X100.214 Y97.844 E2.14958
G1 X100.257 Y98.299 E2.16473
G1 X100.232 Y98.571 E2.17378
G1 X100.172 Y98.837 E2.18281
G1 X99.982 Y99.278 E2.19871
G1 X99.674 Y99.674 E2.21533
G1 X99.278 Y99.982 E2.23195
G1 X98.837 Y100.172 E2.24784
G1 X98.571 Y100.232 E2.25688
G1 X98.299 Y100.257 E2.26592
G1 X97.844 Y100.214 E2.28108
G1 X97.561 Y100.132 E2.29085
G1 X97.153 Y99.924 E2.30600
G1 X96.920 Y99.744 E2.31577
G1 X96.618 Y99.400 E2.33093
G1 X96.467 Y99.146 E2.34070
G1 X96.305 Y98.695 E2.35659
G1 X96.260 Y98.218 E2.37248
G1 X96.286 Y97.946 E2.38152
G1 X96.345 Y97.680 E2.39056
G1 X96.527 Y97.260 E2.40572
G1 X96.659 Y97.066 E2.41350
G1 X96.898 Y97.186 F7800.000
G1 F1800.000
G1 X97.196 Y96.888 E2.42744
G1 X97.570 Y96.667 E2.44184
G1 X97.974 Y96.550 E2.45579
G1 X98.218 Y96.527 E2.46390
G1 X98.637 Y96.566 E2.47785
G1 X99.033 Y96.709 E2.49179
G1 X99.243 Y96.833 E2.49990
G1 X99.549 Y97.103 E2.51339
G1 X99.699 Y97.296 E2.52150
G1 X99.884 Y97.659 E2.53499
G1 X99.952 Y97.894 E2.54310
G1 X99.990 Y98.299 E2.55659
G1 X99.969 Y98.529 E2.56425
G1 X99.918 Y98.755 E2.57190
G1 X99.751 Y99.141 E2.58585
G1 X99.485 Y99.485 E2.60024
G1 X99.141 Y99.751 E2.61464
G1 X98.755 Y99.918 E2.62859
G1 X98.529 Y99.969 E2.63624
G1 X98.299 Y99.990 E2.64390
G1 X97.894 Y99.952 E2.65739
G1 X97.659 Y99.884 E2.66550
G1 X97.296 Y99.699 E2.67899
G1 X97.103 Y99.549 E2.68710
G1 X96.833 Y99.243 E2.70059
G1 X96.709 Y99.033 E2.70870
G1 X96.566 Y98.637 E2.72264
G1 X96.527 Y98.218 E2.73659
G1 X96.548 Y97.988 E2.74425
G1 X96.599 Y97.762 E2.75190
G1 X96.760 Y97.388 E2.76539
G1 X96.864 Y97.236 E2.77151
G1 X97.104 Y97.356 F7800.000
G1 F1800.000
G1 X97.360 Y97.100 E2.78351
G1 X97.676 Y96.913 E2.79569
G1 X98.024 Y96.812 E2.80769
G1 X98.218 Y96.793 E2.81414
G1 X98.578 Y96.828 E2.82614
G1 X98.919 Y96.950 E2.83814
G1 X99.087 Y97.049 E2.84459
G1 X99.355 Y97.285 E2.85642
G1 X99.474 Y97.439 E2.86286
G1 X99.636 Y97.757 E2.87469
G1 X99.690 Y97.944 E2.88113
G1 X99.724 Y98.299 E2.89296
G1 X99.706 Y98.488 E2.89923
G1 X99.665 Y98.672 E2.90550
G1 X99.521 Y99.005 E2.91750
G1 X99.295 Y99.295 E2.92968
G1 X99.005 Y99.521 E2.94185
G1 X98.672 Y99.665 E2.95386
G1 X98.299 Y99.724 E2.96637
G1 X97.944 Y99.690 E2.97820
G1 X97.757 Y99.636 E2.98464
G1 X97.439 Y99.474 E2.99647
G1 X97.285 Y99.355 E3.00291
G1 X97.049 Y99.087 E3.01474
G1 X96.950 Y98.919 E3.02119
G1 X96.828 Y98.578 E3.03319
G1 X96.793 Y98.218 E3.04519
G1 X96.811 Y98.029 E3.05146
G1 X96.852 Y97.845 E3.05773
G1 X96.994 Y97.517 E3.06956
G1 X97.070 Y97.406 E3.07402
G1 X96.974 Y97.018 F7800.000
G1 E1.07402 F2400.00000
G92 E0
G1 X141.556 Y141.657 F7800.000
G1 E2.00000 F2400.00000
G1 F1800.000
G1 X132.159 Y133.982 E2.40196
G1 X122.439 Y125.917 E2.82039
G1 X114.926 Y119.606 E3.14544
G1 X106.733 Y112.649 E3.50154
G1 X98.003 Y105.146 E3.88292
G1 X88.881 Y97.202 E4.28364
G1 X84.224 Y93.101 E4.48923
G1 X79.528 Y88.933 E4.69725
G1 X74.814 Y84.712 E4.90687
G1 X70.103 Y80.453 E5.11726
G1 X65.416 Y76.171 E5.32759
G1 X60.774 Y71.880 E5.53702
G1 X56.197 Y67.595 E5.74474
G1 X51.705 Y63.331 E5.94992
G1 X47.319 Y59.103 E6.15175
G1 X43.057 Y54.925 E6.34947
G1 X38.939 Y50.812 E6.54229
G1 X34.983 Y46.779 E6.72946
G1 X31.205 Y42.840 E6.91028
G1 X27.621 Y39.010 E7.08405
G1 X24.247 Y35.304 E7.25010
G1 X21.096 Y31.735 E7.40782
G1 X18.181 Y28.319 E7.55660
G1 X15.513 Y25.069 E7.69591
G1 X13.102 Y21.999 E7.82522
G1 X10.958 Y19.122 E7.94407
G1 X9.089 Y16.453 E8.05204
G1 X7.500 Y14.004 E8.14876
G1 X6.200 Y11.787 E8.23390
G1 X5.191 Y9.817 E8.30721
G1 X4.479 Y8.111 E8.36848
G1 X4.064 Y6.688 E8.41757
G1 X3.936 Y5.580 E8.45452
G1 X4.053 Y4.815 E8.48018
G1 X4.343 Y4.343 E8.49851
G1 X4.815 Y4.053 E8.51684
G1 X5.580 Y3.936 E8.54250
G1 X6.688 Y4.064 E8.57945
G1 X8.111 Y4.479 E8.62854
G1 X9.817 Y5.191 E8.68981
G1 X11.787 Y6.200 E8.76312
G1 X14.004 Y7.500 E8.84826
G1 X16.453 Y9.089 E8.94498
G1 X19.122 Y10.958 E9.05295
G1 X21.999 Y13.102 E9.17180
G1 X25.069 Y15.513 E9.30111
G1 X28.319 Y18.181 E9.44042
G1 X31.735 Y21.096 E9.58920
G1 X35.304 Y24.247 E9.74692
G1 X39.010 Y27.621 E9.91297
G1 X42.840 Y31.205 E10.08674
G1 X46.779 Y34.983 E10.26755
G1 X50.812 Y38.939 E10.45473
G1 X54.925 Y43.057 E10.64755
G1 X59.103 Y47.319 E10.84527
G1 X63.331 Y51.705 E11.04710
G1 X67.595 Y56.197 E11.25228
G1 X71.880 Y60.774 E11.46000
G1 X76.171 Y65.416 E11.66943
G1 X80.453 Y70.103 E11.87975
G1 X84.712 Y74.814 E12.09015
G1 X88.933 Y79.528 E12.29977
G1 X93.101 Y84.223 E12.50777
G1 X101.222 Y93.482 E12.91578
G1 X105.145 Y98.002 E13.11408
G1 X112.649 Y106.734 E13.49550
G1 X116.202 Y110.905 E13.67704
G1 X122.848 Y118.776 E14.01831
G1 X128.803 Y125.901 E14.32595
G1 X133.982 Y132.159 E14.59504
G1 X141.657 Y141.556 E14.99702
G1 X141.598 Y141.615 E14.99978
G1 E12.99978 F2400.00000
G92 E0
G1 X143.341 Y143.443 F7800.000
G1 E2.00000 F2400.00000
G1 F1800.000
G1 X139.483 Y140.323 E2.16438
G1 X131.990 Y134.187 E2.48524
G1 X122.269 Y126.121 E2.90372
G1 X114.755 Y119.809 E3.22883
G1 X106.561 Y112.851 E3.58497
G1 X97.829 Y105.346 E3.96641
G1 X88.706 Y97.402 E4.36718
G1 X84.048 Y93.300 E4.57281
G1 X79.351 Y89.131 E4.78087
G1 X74.636 Y84.909 E4.99053
G1 X69.925 Y80.649 E5.20097
G1 X65.237 Y76.366 E5.41134
G1 X60.593 Y72.074 E5.62083
G1 X56.015 Y67.788 E5.82860
G1 X51.522 Y63.523 E6.03384
G1 X47.134 Y59.293 E6.23575
G1 X42.870 Y55.114 E6.43354
G1 X38.751 Y50.999 E6.62645
G1 X34.792 Y46.964 E6.81372
G1 X31.012 Y43.023 E6.99464
G1 X27.426 Y39.190 E7.16852
G1 X24.049 Y35.481 E7.33470
G1 X20.895 Y31.909 E7.49256
G1 X17.977 Y28.489 E7.64150
G1 X15.306 Y25.235 E7.78099
G1 X12.891 Y22.160 E7.91050
G1 X10.743 Y19.278 E8.02960
G1 X8.868 Y16.602 E8.13785
G1 X7.274 Y14.143 E8.23492
G1 X5.967 Y11.915 E8.32052
G1 X4.950 Y9.929 E8.39442
G1 X4.228 Y8.199 E8.45652
G1 X3.803 Y6.741 E8.50685
G1 X3.668 Y5.575 E8.54572
G1 X3.799 Y4.721 E8.57435
G1 X4.150 Y4.150 E8.59656
G1 X4.721 Y3.799 E8.61877
G1 X5.575 Y3.668 E8.64740
G1 X6.741 Y3.803 E8.68627
G1 X8.199 Y4.228 E8.73660
G1 X9.929 Y4.950 E8.79870
G1 X11.915 Y5.967 E8.87260
G1 X14.143 Y7.274 E8.95819
G1 X16.602 Y8.868 E9.05527
G1 X19.278 Y10.743 E9.16352
G1 X22.160 Y12.891 E9.28261
G1 X25.235 Y15.306 E9.41213
G1 X28.489 Y17.977 E9.55162
G1 X31.909 Y20.895 E9.70056
G1 X35.481 Y24.049 E9.85841
G1 X39.190 Y27.426 E10.02459
G1 X43.023 Y31.012 E10.19848
G1 X46.964 Y34.792 E10.37940
G1 X50.999 Y38.751 E10.56667
G1 X55.114 Y42.870 E10.75958
G1 X59.293 Y47.134 E10.95737
G1 X63.523 Y51.522 E11.15928
G1 X67.788 Y56.015 E11.36452
G1 X72.074 Y60.593 E11.57229
G1 X76.366 Y65.237 E11.78178
G1 X80.649 Y69.925 E11.99215
G1 X84.909 Y74.636 E12.20259
G1 X89.131 Y79.351 E12.41225
G1 X93.300 Y84.047 E12.62030
G1 X101.422 Y93.307 E13.02836
G1 X105.346 Y97.829 E13.22670
G1 X112.851 Y106.561 E13.60816
G1 X116.405 Y110.734 E13.78974
G1 X123.051 Y118.605 E14.13105
G1 X129.007 Y125.731 E14.43873
G1 X134.187 Y131.990 E14.70787
G1 X140.350 Y139.517 E15.03017
G1 X143.443 Y143.341 E15.19312
G1 X143.384 Y143.400 E15.19588
G1 E13.19588 F2400.00000
G92 E0
G1 X145.127 Y145.228 F7800.000
G1 E2.00000 F2400.00000
G1 F1800.000
G1 X139.316 Y140.529 E2.24761
G1 X131.821 Y134.392 E2.56852
G1 X122.099 Y126.324 E2.98706
G1 X114.584 Y120.012 E3.31221
G1 X106.388 Y113.053 E3.66840
G1 X97.655 Y105.547 E4.04989
G1 X88.531 Y97.602 E4.45072
G1 X83.872 Y93.499 E4.65639
G1 X79.174 Y89.329 E4.86449
G1 X74.459 Y85.107 E5.07419
G1 X69.746 Y80.846 E5.28467
G1 X65.057 Y76.562 E5.49509
G1 X60.412 Y72.269 E5.70463
G1 X55.832 Y67.982 E5.91246
G1 X51.338 Y63.715 E6.11777
G1 X46.949 Y59.484 E6.31975
G1 X42.684 Y55.303 E6.51762
G1 X38.562 Y51.186 E6.71061
G1 X34.601 Y47.149 E6.89797
G1 X30.819 Y43.205 E7.07900
G1 X27.231 Y39.370 E7.25300
G1 X23.851 Y35.658 E7.41930
G1 X20.695 Y32.083 E7.57730
G1 X17.773 Y28.660 E7.72640
G1 X15.099 Y25.401 E7.86607
G1 X12.680 Y22.322 E7.99579
G1 X10.528 Y19.434 E8.11512
G1 X8.648 Y16.750 E8.22367
G1 X7.048 Y14.283 E8.32109
G1 X5.734 Y12.043 E8.40713
G1 X4.709 Y10.041 E8.48163
G1 X3.978 Y8.288 E8.54457
G1 X3.542 Y6.794 E8.59613
G1 X3.400 Y5.570 E8.63693
G1 X3.544 Y4.628 E8.66851
G1 X3.957 Y3.957 E8.69461
G1 X4.628 Y3.544 E8.72070
G1 X5.570 Y3.400 E8.75229
G1 X6.794 Y3.542 E8.79309
G1 X8.288 Y3.978 E8.84465
G1 X10.041 Y4.709 E8.90758
G1 X12.043 Y5.734 E8.98208
G1 X14.283 Y7.048 E9.06813
G1 X16.750 Y8.648 E9.16555
G1 X19.434 Y10.528 E9.27409
G1 X22.322 Y12.680 E9.39343
G1 X25.401 Y15.099 E9.52315
G1 X28.660 Y17.773 E9.66281
G1 X32.083 Y20.695 E9.81191
G1 X35.658 Y23.851 E9.96991
G1 X39.370 Y27.231 E10.13622
G1 X43.205 Y30.819 E10.31022
G1 X47.149 Y34.601 E10.49124
G1 X51.186 Y38.562 E10.67861
G1 X55.303 Y42.684 E10.87160
G1 X59.484 Y46.949 E11.06947
G1 X63.715 Y51.338 E11.27145
G1 X67.982 Y55.832 E11.47676
G1 X72.269 Y60.412 E11.68459
G1 X76.562 Y65.057 E11.89412
G1 X80.846 Y69.746 E12.10455
G1 X85.107 Y74.459 E12.31503
G1 X89.329 Y79.174 E12.52473
G1 X93.499 Y83.872 E12.73283
G1 X101.622 Y93.132 E13.14093
G1 X105.547 Y97.655 E13.33932
G1 X113.053 Y106.388 E13.72082
G1 X116.607 Y110.562 E13.90244
G1 X123.255 Y118.434 E14.24379
G1 X129.211 Y125.562 E14.55152
G1 X134.392 Y131.821 E14.82070
G1 X140.556 Y139.349 E15.14305
G1 X145.228 Y145.127 E15.38922
G1 X145.169 Y145.186 E15.39198
G1 X144.836 Y144.954 F7800.000
G1 X145.178 Y145.178 F7800.000
G1 F1800.000
G1 X145.573 Y145.573 E15.41209
G1 F1800.000
G1 X145.969 Y145.969 E15.42608
G1 F1800.000
G1 X146.365 Y146.365 E15.43395
G1 E13.43395 F2400.00000
G92 E0
G1 X144.645 Y144.645 F7800.000
G1 E2.00000 F2400.00000
G1 F1800.000
G1 X144.314 Y144.314 E2.00109
G1 F1800.000
G1 X143.983 Y143.983 E2.00727
G1 F1800.000
G1 X143.652 Y143.652 E2.01853
G1 F1800.000
G1 X143.486 Y143.486 E2.02669
G1 X142.860 Y142.859 F7800.000
G1 F1800.000
G1 X142.528 Y142.528 E2.02779
G1 F1800.000
G1 X142.197 Y142.197 E2.03396
G1 F1800.000
G1 X141.866 Y141.866 E2.04522
G1 F1800.000
G1 X141.700 Y141.700 E2.05339
G1 X141.074 Y141.074 F7800.000
G1 F1800.000
G1 X140.741 Y140.741 E2.05450
G1 F1800.000
G1 X140.408 Y140.408 E2.06076
G1 F1800.000
G1 X140.075 Y140.075 E2.07216
G1 F1800.000
G1 X139.908 Y139.908 E2.08043
G1 X139.565 Y139.876 F7800.000
G1 F1800.000
G1 X139.884 Y139.557 E2.09540
G1 X139.715 Y139.350 E2.10426
G1 X139.358 Y139.707 E2.12099
G1 X139.151 Y139.537 E2.12985
G1 X139.545 Y139.143 E2.14835
G1 X139.376 Y138.936 E2.15722
G1 X138.944 Y139.368 E2.17748
G1 X138.737 Y139.199 E2.18635
G1 X139.207 Y138.730 E2.20838
G1 X139.037 Y138.523 E2.21724
G1 X138.530 Y139.030 E2.24105
G1 X138.323 Y138.861 E2.24991
G1 X138.868 Y138.316 E2.27548
G1 X138.699 Y138.109 E2.28434
G1 X138.116 Y138.692 E2.31168
G1 X137.909 Y138.523 E2.32054
G1 X138.530 Y137.903 E2.34965
G1 X138.360 Y137.696 E2.35851
G1 X137.702 Y138.354 E2.38938
G1 X137.495 Y138.185 E2.39824
G1 X138.191 Y137.489 E2.43088
G1 X138.022 Y137.282 E2.43975
G1 X137.288 Y138.016 E2.47415
G1 X137.081 Y137.847 E2.48302
G1 X137.852 Y137.076 E2.51919
G1 X137.683 Y136.869 E2.52805
G1 X136.874 Y137.678 E2.56600
G1 X136.667 Y137.509 E2.57486
G1 X137.514 Y136.662 E2.61457
G1 X137.345 Y136.455 E2.62343
G1 X136.460 Y137.340 E2.66491
G1 X136.253 Y137.171 E2.67378
G1 X137.175 Y136.249 E2.71702
G1 X137.006 Y136.042 E2.72588
G1 X136.046 Y137.002 E2.77090
G1 X135.839 Y136.833 E2.77976
G1 X136.837 Y135.835 E2.82654
G1 X136.667 Y135.628 E2.83540
G1 X135.632 Y136.664 E2.88395
G1 X135.425 Y136.494 E2.89281
G1 X136.498 Y135.422 E2.94313
G1 X136.329 Y135.215 E2.95199
G1 X135.218 Y136.325 E3.00408
G1 X135.011 Y136.156 E3.01294
G1 X136.160 Y135.008 E3.06679
G1 X135.990 Y134.801 E3.07565
G1 X134.804 Y135.987 E3.13127
G1 X134.597 Y135.818 E3.14014
G1 X135.821 Y134.595 E3.19752
G1 X135.652 Y134.388 E3.20638
G1 X134.390 Y135.649 E3.26554
G1 X134.183 Y135.480 E3.27440
G1 X135.482 Y134.181 E3.33532
G1 X135.313 Y133.974 E3.34418
G1 X133.976 Y135.311 E3.40687
G1 X133.769 Y135.142 E3.41574
G1 X135.144 Y133.768 E3.48019
G1 X134.974 Y133.561 E3.48906
G1 X133.562 Y134.973 E3.55528
G1 X133.355 Y134.804 E3.56414
G1 X134.805 Y133.354 E3.63214
G1 X134.636 Y133.147 E3.64100
G1 X133.149 Y134.635 E3.71076
G1 X132.942 Y134.466 E3.71962
G1 X134.467 Y132.941 E3.79115
G1 X134.297 Y132.734 E3.80001
G1 X132.735 Y134.297 E3.87330
G1 X132.528 Y134.128 E3.88217
G1 X134.128 Y132.527 E3.95723
G1 X133.959 Y132.321 E3.96609
G1 X132.321 Y133.959 E4.04292
G1 X132.114 Y133.789 E4.05178
G1 X133.789 Y132.114 E4.13032
G1 X133.619 Y131.909 E4.13917
G1 X131.909 Y133.618 E4.21936
G1 X131.703 Y133.448 E4.22822
G1 X133.448 Y131.703 E4.31006
G1 X133.278 Y131.497 E4.31892
G1 X131.498 Y133.277 E4.40241
G1 X131.292 Y133.107 E4.41126
G1 X133.108 Y131.291 E4.49641
G1 X132.938 Y131.086 E4.50527
G1 X131.087 Y132.936 E4.59206
G1 X130.881 Y132.766 E4.60092
G1 X132.767 Y130.880 E4.68936
G1 X132.597 Y130.674 E4.69822
G1 X130.676 Y132.595 E4.78832
G1 X130.470 Y132.425 E4.79718
G1 X132.427 Y130.468 E4.88893
G1 X132.256 Y130.263 E4.89779
G1 X130.265 Y132.254 E4.99119
G1 X130.059 Y132.084 E5.00005
G1 X132.086 Y130.057 E5.09510
G1 X131.916 Y129.851 E5.10396
G1 X129.854 Y131.913 E5.20066
G1 X129.648 Y131.742 E5.20952
G1 X131.746 Y129.645 E5.30788
G1 X131.575 Y129.440 E5.31674
G1 X129.443 Y131.572 E5.41675
G1 X129.237 Y131.401 E5.42560
G1 X131.405 Y129.234 E5.52727
G1 X131.235 Y129.028 E5.53612
G1 X129.032 Y131.231 E5.63944
G1 X128.826 Y131.060 E5.64830
G1 X131.064 Y128.822 E5.75326
G1 X130.894 Y128.617 E5.76212
G1 X128.621 Y130.890 E5.86874
G1 X128.415 Y130.719 E5.87759
G1 X130.724 Y128.411 E5.98586
G1 X130.554 Y128.205 E5.99472
G1 X128.210 Y130.549 E6.10464
G1 X128.004 Y130.378 E6.11350
G1 X130.383 Y127.999 E6.22508
G1 X130.213 Y127.794 E6.23393
G1 X127.799 Y130.208 E6.34716
G1 X127.593 Y130.037 E6.35601
G1 X130.043 Y127.588 E6.47089
G1 X129.872 Y127.382 E6.47975
G1 X127.388 Y129.867 E6.59628
G1 X127.182 Y129.696 E6.60514
G1 X129.702 Y127.176 E6.72332
G1 X129.532 Y126.971 E6.73218
G1 X126.977 Y129.526 E6.85201
G1 X126.771 Y129.355 E6.86087
G1 X129.362 Y126.765 E6.98235
G1 X129.191 Y126.559 E6.99121
G1 X126.566 Y129.185 E7.11435
G1 X126.360 Y129.014 E7.12320
G1 X129.021 Y126.353 E7.24799
G1 X128.851 Y126.148 E7.25685
G1 X126.155 Y128.844 E7.38329
G1 X125.949 Y128.673 E7.39215
G1 X128.680 Y125.942 E7.52024
G1 X128.509 Y125.737 E7.52909
G1 X125.744 Y128.502 E7.65879
G1 X125.538 Y128.332 E7.66764
G1 X128.338 Y125.532 E7.79895
G1 X128.167 Y125.327 E7.80780
G1 X125.333 Y128.161 E7.94072
G1 X125.127 Y127.991 E7.94958
G1 X127.996 Y125.123 E8.08410
G1 X127.824 Y124.918 E8.09296
G1 X124.922 Y127.820 E8.22909
G1 X124.716 Y127.650 E8.23795
G1 X127.653 Y124.713 E8.37569
G1 X127.482 Y124.508 E8.38455
G1 X124.511 Y127.479 E8.52390
G1 X124.305 Y127.309 E8.53276
G1 X127.311 Y124.303 E8.67372
G1 X127.140 Y124.098 E8.68257
G1 X124.100 Y127.138 E8.82515
G1 X123.894 Y126.968 E8.83400
G1 X126.968 Y123.894 E8.97819
G1 X126.797 Y123.689 E8.98704
G1 X123.689 Y126.797 E9.13283
G1 X123.483 Y126.627 E9.14169
G1 X126.626 Y123.484 E9.28909
G1 X126.455 Y123.279 E9.29794
G1 X123.278 Y126.456 E9.44695
G1 X123.072 Y126.286 E9.45581
