; Gcode updated with 'stl_info' on 2019-12-05 15:43:10.957901

; stl_min_x = -12.5
; stl_max_x = 12.5
; stl_min_y = -12.5
; stl_max_y = 12.5
; stl_min_z = -5.0

; generated by Slic3r 1.3.1-dev (Build adea0d9) on 2019-12-05 at 15:43:10

; external perimeters extrusion width = 0.44mm (2.86mm^3/s)
; perimeters extrusion width = 0.56mm (4.14mm^3/s)
; infill extrusion width = 0.50mm (3.66mm^3/s)
; solid infill extrusion width = 0.56mm (3.10mm^3/s)
; top infill extrusion width = 0.56mm (3.10mm^3/s)

M107
G92 E0
;D3D:START:START
T0
M104 S215 T0

G21
G90
M107
T0
G28
G29
M109 T0 S215 T0
G0 F3000
M107
T0
G92 E0
G0 X0 Y149 Z0.1 F3600
G1 Y49 E6.5 F1200
G0 Z1
G92 E0
; Filament gcode

G21 ; set units to millimeters
G90 ; use absolute coordinates
M82 ; use absolute distances for extrusion
G92 E0
G1 Z0.300 F7800.000
G1 E-2.00000 F2400.00000
G92 E0
G1 X63.196 Y63.196 F7800.000
G1 E2.00000 F2400.00000
G1 F1800.000
G1 X86.804 Y63.196 E2.78211
G1 X86.804 Y86.804 E3.56421
G1 X63.196 Y86.804 E4.34632
G1 X63.196 Y63.256 E5.12644
G1 X62.931 Y62.931 F7800.000
G1 F1800.000
G1 X87.069 Y62.931 E5.92614
G1 X87.069 Y87.069 E6.72585
G1 X62.931 Y87.069 E7.52555
G1 X62.931 Y62.991 E8.32327
G1 X62.665 Y62.665 F7800.000
G1 F1800.000
G1 X87.335 Y62.665 E9.14058
G1 X87.335 Y87.335 E9.95788
G1 X62.665 Y87.335 E10.77519
G1 X62.665 Y62.725 E11.59050
G1 X63.051 Y62.769 F7800.000
G1 X63.565 Y63.359 F7800.000
G1 F1800.000
G1 X63.359 Y63.565 E11.60026
G1 X63.359 Y63.944 E11.61288
G1 X63.944 Y63.359 E11.64049
G1 X64.322 Y63.359 E11.65311
G1 X63.359 Y64.322 E11.69856
G1 X63.359 Y64.700 E11.71119
G1 X64.700 Y63.359 E11.77449
G1 X65.079 Y63.359 E11.78711
G1 X63.359 Y65.079 E11.86827
G1 X63.359 Y65.457 E11.88089
G1 X65.457 Y63.359 E11.97989
G1 X65.835 Y63.359 E11.99251
G1 X63.359 Y65.835 E12.10936
G1 X63.359 Y66.213 E12.12199
G1 X66.213 Y63.359 E12.25669
G1 X66.592 Y63.359 E12.26931
G1 X63.359 Y66.592 E12.42186
G1 X63.359 Y66.970 E12.43448
G1 X66.970 Y63.359 E12.60488
G1 X67.348 Y63.359 E12.61750
G1 X63.359 Y67.348 E12.80575
G1 X63.359 Y67.727 E12.81838
G1 X67.727 Y63.359 E13.02448
G1 X68.105 Y63.359 E13.03710
G1 X63.359 Y68.105 E13.26105
G1 X63.359 Y68.483 E13.27367
G1 X68.483 Y63.359 E13.51547
G1 X68.861 Y63.359 E13.52809
G1 X63.359 Y68.861 E13.78773
G1 X63.359 Y69.240 E13.80036
G1 X69.240 Y63.359 E14.07785
G1 X69.618 Y63.359 E14.09047
G1 X63.359 Y69.618 E14.38582
G1 X63.359 Y69.996 E14.39844
G1 X69.996 Y63.359 E14.71164
G1 X70.375 Y63.359 E14.72426
G1 X63.359 Y70.375 E15.05530
G1 X63.359 Y70.753 E15.06793
G1 X70.753 Y63.359 E15.41682
G1 X71.131 Y63.359 E15.42944
G1 X63.359 Y71.131 E15.79619
G1 X63.359 Y71.510 E15.80881
G1 X71.510 Y63.359 E16.19340
G1 X71.888 Y63.359 E16.20602
G1 X63.359 Y71.888 E16.60846
G1 X63.359 Y72.266 E16.62109
G1 X72.266 Y63.359 E17.04138
G1 X72.644 Y63.359 E17.05400
G1 X63.359 Y72.644 E17.49214
G1 X63.359 Y73.023 E17.50476
G1 X73.023 Y63.359 E17.96075
G1 X73.401 Y63.359 E17.97337
G1 X63.359 Y73.401 E18.44721
G1 X63.359 Y73.779 E18.45984
G1 X73.779 Y63.359 E18.95153
G1 X74.158 Y63.359 E18.96415
G1 X63.359 Y74.158 E19.47369
G1 X63.359 Y74.536 E19.48631
G1 X74.536 Y63.359 E20.01370
G1 X74.914 Y63.359 E20.02632
G1 X63.359 Y74.914 E20.57155
G1 X63.359 Y75.293 E20.58418
G1 X75.293 Y63.359 E21.14726
G1 X75.671 Y63.359 E21.15988
G1 X63.359 Y75.671 E21.74082
G1 X63.359 Y76.049 E21.75344
G1 X76.049 Y63.359 E22.35223
G1 X76.427 Y63.359 E22.36485
G1 X63.359 Y76.427 E22.98149
G1 X63.359 Y76.806 E22.99411
G1 X76.806 Y63.359 E23.62859
G1 X77.184 Y63.359 E23.64121
G1 X63.359 Y77.184 E24.29355
G1 X63.359 Y77.562 E24.30617
G1 X77.562 Y63.359 E24.97635
G1 X77.941 Y63.359 E24.98897
G1 X63.359 Y77.941 E25.67701
G1 X63.359 Y78.319 E25.68963
G1 X78.319 Y63.359 E26.39551
G1 X78.697 Y63.359 E26.40813
G1 X63.359 Y78.697 E27.13186
G1 X63.359 Y79.076 E27.14448
G1 X79.076 Y63.359 E27.88606
G1 X79.454 Y63.359 E27.89869
G1 X63.359 Y79.454 E28.65812
G1 X63.359 Y79.832 E28.67074
G1 X79.832 Y63.359 E29.44802
G1 X80.210 Y63.359 E29.46064
G1 X63.359 Y80.210 E30.25577
G1 X63.359 Y80.589 E30.26839
G1 X80.589 Y63.359 E31.08137
G1 X80.967 Y63.359 E31.09399
G1 X63.359 Y80.967 E31.92482
G1 X63.359 Y81.345 E31.93744
G1 X81.345 Y63.359 E32.78612
G1 X81.724 Y63.359 E32.79874
G1 X63.359 Y81.724 E33.66526
G1 X63.359 Y82.102 E33.67788
G1 X82.102 Y63.359 E34.56226
G1 X82.480 Y63.359 E34.57488
G1 X63.359 Y82.480 E35.47711
G1 X63.359 Y82.858 E35.48973
G1 X82.859 Y63.359 E36.40980
G1 X83.237 Y63.359 E36.42242
G1 X63.359 Y83.237 E37.36035
G1 X63.359 Y83.615 E37.37297
G1 X83.615 Y63.359 E38.32874
G1 X83.993 Y63.359 E38.34137
G1 X63.359 Y83.993 E39.31499
G1 X63.359 Y84.372 E39.32761
G1 X84.372 Y63.359 E40.31908
G1 X84.750 Y63.359 E40.33170
G1 X63.359 Y84.750 E41.34102
G1 X63.359 Y85.128 E41.35365
G1 X85.128 Y63.359 E42.38082
G1 X85.507 Y63.359 E42.39344
G1 X63.359 Y85.507 E43.43846
G1 X63.359 Y85.885 E43.45108
G1 X85.885 Y63.359 E44.51395
G1 X86.263 Y63.359 E44.52657
G1 X63.359 Y86.263 E45.60729
G1 X63.359 Y86.641 E45.61991
G1 X86.641 Y63.359 E46.71848
G1 X86.641 Y63.737 E46.73110
G1 X63.737 Y86.641 E47.81182
G1 X64.115 Y86.641 E47.82444
G1 X86.641 Y64.115 E48.88731
G1 X86.641 Y64.493 E48.89993
G1 X64.493 Y86.641 E49.94495
G1 X64.872 Y86.641 E49.95757
G1 X86.641 Y64.872 E50.98474
G1 X86.641 Y65.250 E50.99736
G1 X65.250 Y86.641 E52.00668
G1 X65.628 Y86.641 E52.01930
G1 X86.641 Y65.628 E53.01077
G1 X86.641 Y66.007 E53.02339
G1 X66.007 Y86.641 E53.99702
G1 X66.385 Y86.641 E54.00964
G1 X86.641 Y66.385 E54.96541
G1 X86.641 Y66.763 E54.97803
G1 X66.763 Y86.641 E55.91595
G1 X67.142 Y86.641 E55.92857
G1 X86.641 Y67.142 E56.84865
G1 X86.641 Y67.520 E56.86127
G1 X67.520 Y86.641 E57.76349
G1 X67.898 Y86.641 E57.77611
G1 X86.641 Y67.898 E58.66049
G1 X86.641 Y68.276 E58.67311
G1 X68.276 Y86.641 E59.53963
G1 X68.655 Y86.641 E59.55226
G1 X86.641 Y68.655 E60.40093
G1 X86.641 Y69.033 E60.41355
G1 X69.033 Y86.641 E61.24438
G1 X69.411 Y86.641 E61.25700
G1 X86.641 Y69.411 E62.06998
G1 X86.641 Y69.790 E62.08260
G1 X69.790 Y86.641 E62.87773
G1 X70.168 Y86.641 E62.89035
G1 X86.641 Y70.168 E63.66763
G1 X86.641 Y70.546 E63.68025
G1 X70.546 Y86.641 E64.43968
G1 X70.925 Y86.641 E64.45230
G1 X86.641 Y70.925 E65.19388
G1 X86.641 Y71.303 E65.20650
G1 X71.303 Y86.641 E65.93023
G1 X71.681 Y86.641 E65.94285
G1 X86.641 Y71.681 E66.64873
G1 X86.641 Y72.059 E66.66135
G1 X72.059 Y86.641 E67.34938
G1 X72.438 Y86.641 E67.36200
G1 X86.641 Y72.438 E68.03219
G1 X86.641 Y72.816 E68.04481
G1 X72.816 Y86.641 E68.69714
G1 X73.194 Y86.641 E68.70976
G1 X86.641 Y73.194 E69.34424
G1 X86.641 Y73.573 E69.35687
G1 X73.573 Y86.641 E69.97350
G1 X73.951 Y86.641 E69.98612
G1 X86.641 Y73.951 E70.58491
G1 X86.641 Y74.329 E70.59753
G1 X74.329 Y86.641 E71.17846
G1 X74.707 Y86.641 E71.19108
G1 X86.641 Y74.707 E71.75417
G1 X86.641 Y75.086 E71.76679
G1 X75.086 Y86.641 E72.31203
G1 X75.464 Y86.641 E72.32465
G1 X86.641 Y75.464 E72.85204
G1 X86.641 Y75.842 E72.86466
G1 X75.842 Y86.641 E73.37419
G1 X76.221 Y86.641 E73.38682
G1 X86.641 Y76.221 E73.87850
G1 X86.641 Y76.599 E73.89112
G1 X76.599 Y86.641 E74.36496
G1 X76.977 Y86.641 E74.37759
G1 X86.641 Y76.977 E74.83357
G1 X86.641 Y77.356 E74.84620
G1 X77.356 Y86.641 E75.28434
G1 X77.734 Y86.641 E75.29696
G1 X86.641 Y77.734 E75.71725
G1 X86.641 Y78.112 E75.72987
G1 X78.112 Y86.641 E76.13231
G1 X78.490 Y86.641 E76.14493
G1 X86.641 Y78.490 E76.52952
G1 X86.641 Y78.869 E76.54214
G1 X78.869 Y86.641 E76.90889
G1 X79.247 Y86.641 E76.92151
G1 X86.641 Y79.247 E77.27040
G1 X86.641 Y79.625 E77.28302
G1 X79.625 Y86.641 E77.61407
G1 X80.004 Y86.641 E77.62669
G1 X86.641 Y80.004 E77.93988
G1 X86.641 Y80.382 E77.95250
G1 X80.382 Y86.641 E78.24785
G1 X80.760 Y86.641 E78.26047
G1 X86.641 Y80.760 E78.53797
G1 X86.641 Y81.139 E78.55059
G1 X81.139 Y86.641 E78.81023
G1 X81.517 Y86.641 E78.82285
G1 X86.641 Y81.517 E79.06465
G1 X86.641 Y81.895 E79.07727
G1 X81.895 Y86.641 E79.30122
G1 X82.273 Y86.641 E79.31384
G1 X86.641 Y82.273 E79.51994
G1 X86.641 Y82.652 E79.53256
G1 X82.652 Y86.641 E79.72081
G1 X83.030 Y86.641 E79.73343
G1 X86.641 Y83.030 E79.90383
G1 X86.641 Y83.408 E79.91645
G1 X83.408 Y86.641 E80.06900
G1 X83.787 Y86.641 E80.08162
G1 X86.641 Y83.787 E80.21632
G1 X86.641 Y84.165 E80.22895
G1 X84.165 Y86.641 E80.34580
G1 X84.543 Y86.641 E80.35842
G1 X86.641 Y84.543 E80.45742
G1 X86.641 Y84.922 E80.47004
G1 X84.922 Y86.641 E80.55119
G1 X85.300 Y86.641 E80.56381
G1 X86.641 Y85.300 E80.62712
G1 X86.641 Y85.678 E80.63974
G1 X85.678 Y86.641 E80.68519
G1 X86.056 Y86.641 E80.69781
G1 X86.641 Y86.056 E80.72542
G1 X86.641 Y86.435 E80.73804
G1 X86.435 Y86.641 E80.74779
G1 Z0.500 F7800.000
G1 X63.177 Y63.177 F7800.000
G1 F2400.000
G1 X86.823 Y63.177 E81.76446
G1 X86.823 Y86.823 E82.78112
G1 X63.177 Y86.823 E83.79778
G1 X63.177 Y63.237 E84.81186
G1 X62.720 Y62.720 F7800.000
G1 F2160.000
G1 X87.280 Y62.720 E85.62277
G1 X87.280 Y87.280 E86.43367
G1 X62.720 Y87.280 E87.24458
G1 X62.720 Y62.780 E88.05350
G1 X63.106 Y62.824 F7800.000
G1 X63.895 Y86.507 F7800.000
G1 F1800.000
G1 X63.493 Y86.105 E88.07829
G1 X63.493 Y85.363 E88.11061
G1 X64.637 Y86.507 E88.18111
G1 X65.378 Y86.507 E88.21343
G1 X63.493 Y84.622 E88.32963
G1 X63.493 Y83.881 E88.36195
G1 X66.119 Y86.507 E88.52385
G1 X66.861 Y86.507 E88.55617
G1 X63.493 Y83.139 E88.76377
G1 X63.493 Y82.398 E88.79609
G1 X67.602 Y86.507 E89.04940
G1 X68.344 Y86.507 E89.08171
G1 X63.493 Y81.656 E89.38072
G1 X63.493 Y80.915 E89.41304
G1 X69.085 Y86.507 E89.75775
G1 X69.826 Y86.507 E89.79006
G1 X63.493 Y80.174 E90.18047
G1 X63.493 Y79.432 E90.21279
G1 X70.568 Y86.507 E90.64890
G1 X71.309 Y86.507 E90.68122
G1 X63.493 Y78.691 E91.16303
G1 X63.493 Y77.950 E91.19535
G1 X72.050 Y86.507 E91.72286
G1 X72.792 Y86.507 E91.75518
G1 X63.493 Y77.208 E92.32839
G1 X63.493 Y76.467 E92.36071
G1 X73.533 Y86.507 E92.97962
G1 X74.274 Y86.507 E93.01194
G1 X63.493 Y75.726 E93.67655
G1 X63.493 Y74.984 E93.70887
G1 X75.016 Y86.507 E94.41919
G1 X75.757 Y86.507 E94.45150
G1 X63.493 Y74.243 E95.20752
G1 X63.493 Y73.501 E95.23984
G1 X76.499 Y86.507 E96.04156
G1 X77.240 Y86.507 E96.07387
G1 X63.493 Y72.760 E96.92130
G1 X63.493 Y72.019 E96.95361
G1 X77.981 Y86.507 E97.84673
G1 X78.723 Y86.507 E97.87905
G1 X63.493 Y71.277 E98.81787
G1 X63.493 Y70.536 E98.85019
G1 X79.464 Y86.507 E99.83471
G1 X80.205 Y86.507 E99.86703
G1 X63.493 Y69.795 E100.89725
G1 X63.493 Y69.053 E100.92957
G1 X80.947 Y86.507 E102.00550
G1 X81.688 Y86.507 E102.03781
G1 X63.493 Y68.312 E103.15944
G1 X63.493 Y67.571 E103.19175
G1 X82.429 Y86.507 E104.35908
G1 X83.171 Y86.507 E104.39140
G1 X63.493 Y66.829 E105.60443
G1 X63.493 Y66.088 E105.63674
G1 X83.912 Y86.507 E106.89547
G1 X84.654 Y86.507 E106.92779
G1 X63.493 Y65.346 E108.23222
G1 X63.493 Y64.605 E108.26454
G1 X85.395 Y86.507 E109.61467
G1 X86.136 Y86.507 E109.64699
G1 X63.493 Y63.864 E111.04282
G1 X63.493 Y63.493 E111.05898
G1 X63.864 Y63.493 E111.07514
G1 X86.507 Y86.136 E112.47097
G1 X86.507 Y85.395 E112.50328
G1 X64.605 Y63.493 E113.85342
G1 X65.346 Y63.493 E113.88573
G1 X86.507 Y84.654 E115.19016
G1 X86.507 Y83.912 E115.22248
G1 X66.088 Y63.493 E116.48121
G1 X66.829 Y63.493 E116.51352
G1 X86.507 Y83.171 E117.72655
G1 X86.507 Y82.429 E117.75887
G1 X67.571 Y63.493 E118.92620
G1 X68.312 Y63.493 E118.95851
G1 X86.507 Y81.688 E120.08014
G1 X86.507 Y80.947 E120.11245
G1 X69.053 Y63.493 E121.18838
G1 X69.795 Y63.493 E121.22070
G1 X86.507 Y80.205 E122.25092
G1 X86.507 Y79.464 E122.28324
G1 X70.536 Y63.493 E123.26776
G1 X71.277 Y63.493 E123.30007
G1 X86.507 Y78.723 E124.23890
G1 X86.507 Y77.981 E124.27121
G1 X72.019 Y63.493 E125.16433
G1 X72.760 Y63.493 E125.19665
G1 X86.507 Y77.240 E126.04407
G1 X86.507 Y76.499 E126.07639
G1 X73.501 Y63.493 E126.87811
G1 X74.243 Y63.493 E126.91042
G1 X86.507 Y75.757 E127.66644
G1 X86.507 Y75.016 E127.69876
G1 X74.984 Y63.493 E128.40907
G1 X75.726 Y63.493 E128.44139
G1 X86.507 Y74.274 E129.10600
G1 X86.507 Y73.533 E129.13832
G1 X76.467 Y63.493 E129.75724
G1 X77.208 Y63.493 E129.78955
G1 X86.507 Y72.792 E130.36276
G1 X86.507 Y72.050 E130.39508
G1 X77.950 Y63.493 E130.92259
G1 X78.691 Y63.493 E130.95491
G1 X86.507 Y71.309 E131.43672
G1 X86.507 Y70.568 E131.46904
G1 X79.432 Y63.493 E131.90515
G1 X80.174 Y63.493 E131.93746
G1 X86.507 Y69.826 E132.32787
G1 X86.507 Y69.085 E132.36019
G1 X80.915 Y63.493 E132.70490
G1 X81.656 Y63.493 E132.73721
G1 X86.507 Y68.344 E133.03622
G1 X86.507 Y67.602 E133.06854
G1 X82.398 Y63.493 E133.32184
G1 X83.139 Y63.493 E133.35416
G1 X86.507 Y66.861 E133.56177
G1 X86.507 Y66.119 E133.59408
G1 X83.881 Y63.493 E133.75599
G1 X84.622 Y63.493 E133.78830
G1 X86.507 Y65.378 E133.90450
G1 X86.507 Y64.637 E133.93682
G1 X85.363 Y63.493 E134.00732
G1 X86.105 Y63.493 E134.03964
G1 X86.507 Y63.895 E134.06444
G1 Z0.700 F7800.000
G1 X63.177 Y63.177 F7800.000
G1 F2400.000
G1 X86.823 Y63.177 E135.08110
G1 X86.823 Y86.823 E136.09776
G1 X63.177 Y86.823 E137.11442
G1 X63.177 Y63.237 E138.12851
G1 X62.720 Y62.720 F7800.000
G1 F2160.000
G1 X87.280 Y62.720 E138.93941
G1 X87.280 Y87.280 E139.75032
G1 X62.720 Y87.280 E140.56122
G1 X62.720 Y62.780 E141.37014
G1 X63.106 Y62.824 F7800.000
G1 X63.493 Y63.895 F7800.000
G1 F1800.000
G1 X63.895 Y63.493 E141.39494
G1 X64.637 Y63.493 E141.42725
G1 X63.493 Y64.637 E141.49776
G1 X63.493 Y65.378 E141.53007
G1 X65.378 Y63.493 E141.64628
G1 X66.119 Y63.493 E141.67859
G1 X63.493 Y66.119 E141.84050
G1 X63.493 Y66.861 E141.87281
G1 X66.861 Y63.493 E142.08042
G1 X67.602 Y63.493 E142.11274
G1 X63.493 Y67.602 E142.36604
G1 X63.493 Y68.344 E142.39836
G1 X68.344 Y63.493 E142.69737
G1 X69.085 Y63.493 E142.72968
G1 X63.493 Y69.085 E143.07439
G1 X63.493 Y69.826 E143.10671
G1 X69.826 Y63.493 E143.49712
G1 X70.568 Y63.493 E143.52944
G1 X63.493 Y70.568 E143.96555
G1 X63.493 Y71.309 E143.99786
G1 X71.309 Y63.493 E144.47968
G1 X72.050 Y63.493 E144.51199
G1 X63.493 Y72.050 E145.03951
G1 X63.493 Y72.792 E145.07182
G1 X72.792 Y63.493 E145.64504
G1 X73.533 Y63.493 E145.67735
G1 X63.493 Y73.533 E146.29627
G1 X63.493 Y74.274 E146.32858
G1 X74.274 Y63.493 E146.99320
G1 X75.016 Y63.493 E147.02552
G1 X63.493 Y75.016 E147.73583
G1 X63.493 Y75.757 E147.76815
G1 X75.757 Y63.493 E148.52417
G1 X76.499 Y63.493 E148.55648
G1 X63.493 Y76.499 E149.35821
G1 X63.493 Y77.240 E149.39052
G1 X77.240 Y63.493 E150.23794
G1 X77.981 Y63.493 E150.27026
G1 X63.493 Y77.981 E151.16338
G1 X63.493 Y78.723 E151.19570
G1 X78.723 Y63.493 E152.13452
G1 X79.464 Y63.493 E152.16683
G1 X63.493 Y79.464 E153.15136
G1 X63.493 Y80.205 E153.18367
G1 X80.205 Y63.493 E154.21390
G1 X80.947 Y63.493 E154.24622
G1 X63.493 Y80.947 E155.32214
G1 X63.493 Y81.688 E155.35446
G1 X81.688 Y63.493 E156.47609
G1 X82.429 Y63.493 E156.50840
G1 X63.493 Y82.429 E157.67573
G1 X63.493 Y83.171 E157.70805
G1 X83.171 Y63.493 E158.92107
G1 X83.912 Y63.493 E158.95339
G1 X63.493 Y83.912 E160.21212
G1 X63.493 Y84.654 E160.24444
G1 X84.654 Y63.493 E161.54887
G1 X85.395 Y63.493 E161.58118
G1 X63.493 Y85.395 E162.93132
G1 X63.493 Y86.136 E162.96363
G1 X86.136 Y63.493 E164.35947
G1 X86.507 Y63.493 E164.37562
G1 X86.507 Y63.864 E164.39178
G1 X63.864 Y86.507 E165.78761
G1 X64.605 Y86.507 E165.81993
G1 X86.507 Y64.605 E167.17006
G1 X86.507 Y65.346 E167.20238
G1 X65.346 Y86.507 E168.50681
G1 X66.088 Y86.507 E168.53912
G1 X86.507 Y66.088 E169.79785
G1 X86.507 Y66.829 E169.83017
G1 X66.829 Y86.507 E171.04320
G1 X67.571 Y86.507 E171.07551
G1 X86.507 Y67.571 E172.24284
G1 X86.507 Y68.312 E172.27516
G1 X68.312 Y86.507 E173.39678
G1 X69.053 Y86.507 E173.42910
G1 X86.507 Y69.053 E174.50503
G1 X86.507 Y69.795 E174.53734
G1 X69.795 Y86.507 E175.56757
G1 X70.536 Y86.507 E175.59988
G1 X86.507 Y70.536 E176.58440
G1 X86.507 Y71.277 E176.61672
G1 X71.277 Y86.507 E177.55554
G1 X72.019 Y86.507 E177.58786
G1 X86.507 Y72.019 E178.48098
G1 X86.507 Y72.760 E178.51330
G1 X72.760 Y86.507 E179.36072
G1 X73.501 Y86.507 E179.39303
G1 X86.507 Y73.501 E180.19475
G1 X86.507 Y74.243 E180.22707
G1 X74.243 Y86.507 E180.98309
G1 X74.984 Y86.507 E181.01540
G1 X86.507 Y74.984 E181.72572
G1 X86.507 Y75.726 E181.75803
G1 X75.726 Y86.507 E182.42265
G1 X76.467 Y86.507 E182.45497
G1 X86.507 Y76.467 E183.07388
G1 X86.507 Y77.208 E183.10620
