; Gcode updated with 'stl_info' on 2019-12-09 14:12:31.034100

; stl_min_x = -115.0
; stl_max_x = 115.0
; stl_min_y = -5.199999809265137
; stl_max_y = 5.199999809265137
; stl_min_z = -16.58970069885254

; generated by Slic3r 1.3.1-dev (Build adea0d9) on 2019-12-09 at 14:12:30

; external perimeters extrusion width = 0.44mm (2.86mm^3/s)
; perimeters extrusion width = 0.56mm (4.14mm^3/s)
; infill extrusion width = 0.50mm (3.66mm^3/s)
; solid infill extrusion width = 0.56mm (3.10mm^3/s)
; top infill extrusion width = 0.56mm (3.10mm^3/s)

M107
G92 E0
;D3D:START:START
T0
M104 S215 T0

G21
G90
M107
T0
G28
G29
M109 T0 S215 T0
G0 F3000
M107
T0
G92 E0
G0 X0 Y149 Z0.1 F3600
G1 Y49 E6.5 F1200
G0 Z1
G92 E0
; Filament gcode

G21 ; set units to millimeters
G90 ; use absolute coordinates
M82 ; use absolute distances for extrusion
G92 E0
G1 Z0.300 F7800.000
G1 E-2.00000 F2400.00000
G92 E0
G1 X-35.223 Y74.456 F7800.000
G1 E2.00000 F2400.00000
G1 F1800.000
G1 X-35.287 Y74.760 E2.01029
G1 X-35.287 Y75.240 E2.02618
G1 X-35.223 Y75.544 E2.03647
G1 X-39.304 Y75.544 E2.17166
G1 X-39.304 Y74.456 E2.20769
G1 X-35.283 Y74.456 E2.34089
G1 X-34.853 Y74.191 F7800.000
G1 F1800.000
G1 X-34.934 Y74.372 E2.34747
G1 X-35.022 Y74.788 E2.36154
G1 X-35.022 Y75.212 E2.37560
G1 X-34.934 Y75.628 E2.38967
G1 X-34.853 Y75.809 E2.39625
G1 X-39.569 Y75.809 E2.55250
G1 X-39.569 Y74.191 E2.60613
G1 X-34.913 Y74.191 E2.76038
G1 X-34.390 Y73.925 F7800.000
G1 F1800.000
G1 X-34.530 Y74.117 E2.76825
G1 X-34.680 Y74.454 E2.78049
G1 X-34.756 Y74.816 E2.79271
G1 X-34.756 Y75.184 E2.80493
G1 X-34.680 Y75.546 E2.81716
G1 X-34.530 Y75.883 E2.82940
G1 X-34.390 Y76.075 E2.83726
G1 X-39.835 Y76.075 E3.01765
G1 X-39.835 Y73.925 E3.08888
G1 X-34.450 Y73.925 E3.26729
G1 X-35.654 Y75.381 F7800.000
G1 F1800.000
G1 X-35.447 Y75.175 E3.27771
G1 X-35.450 Y74.773 E3.29205
G1 X-36.058 Y75.381 E3.32276
G1 X-36.463 Y75.381 E3.33718
G1 X-35.700 Y74.619 E3.37565
G1 X-36.104 Y74.619 E3.39007
G1 X-36.867 Y75.381 E3.42855
G1 X-37.271 Y75.381 E3.44297
G1 X-36.509 Y74.619 E3.48144
G1 X-36.913 Y74.619 E3.49586
G1 X-37.676 Y75.381 E3.53433
G1 X-38.080 Y75.381 E3.54875
G1 X-37.317 Y74.619 E3.58723
G1 X-37.722 Y74.619 E3.60165
G1 X-38.485 Y75.381 E3.64012
G1 X-38.889 Y75.381 E3.65454
G1 X-38.126 Y74.619 E3.69302
G1 X-38.530 Y74.619 E3.70744
G1 X-39.141 Y75.230 E3.73826
G1 X-39.141 Y74.825 E3.75268
G1 X-38.935 Y74.619 E3.76310
G1 E1.76310 F2400.00000
G92 E0
G1 X-30.777 Y74.456 F7800.000
G1 E2.00000 F2400.00000
G1 F1800.000
G1 X72.777 Y74.456 E5.43069
G1 X72.713 Y74.760 E5.44096
G1 X72.713 Y75.240 E5.45689
G1 X72.777 Y75.544 E5.46716
G1 X-30.777 Y75.544 E8.89785
G1 X-30.713 Y75.240 E8.90814
G1 X-30.713 Y74.760 E8.92403
G1 X-30.764 Y74.515 E8.93233
G1 X-31.147 Y74.191 F7800.000
G1 F1800.000
G1 X73.147 Y74.191 E12.38754
G1 X73.067 Y74.372 E12.39411
G1 X72.978 Y74.787 E12.40819
G1 X72.978 Y75.213 E12.42227
G1 X73.067 Y75.628 E12.43635
G1 X73.147 Y75.809 E12.44291
G1 X-31.147 Y75.809 E15.89812
G1 X-31.066 Y75.628 E15.90470
G1 X-30.978 Y75.212 E15.91878
G1 X-30.978 Y74.788 E15.93283
G1 X-31.066 Y74.372 E15.94691
G1 X-31.122 Y74.246 E15.95150
G1 X-31.610 Y73.925 F7800.000
G1 F1800.000
G1 X73.610 Y73.925 E19.43740
G1 X73.471 Y74.117 E19.44526
G1 X73.321 Y74.454 E19.45749
G1 X73.244 Y74.815 E19.46972
G1 X73.244 Y75.185 E19.48195
G1 X73.321 Y75.546 E19.49418
G1 X73.471 Y75.883 E19.50641
G1 X73.610 Y76.075 E19.51427
G1 X-31.610 Y76.075 E23.00017
G1 X-31.470 Y75.883 E23.00803
G1 X-31.320 Y75.546 E23.02027
G1 X-31.244 Y75.184 E23.03250
G1 X-31.244 Y74.816 E23.04472
G1 X-31.320 Y74.454 E23.05694
G1 X-31.470 Y74.117 E23.06918
G1 X-31.575 Y73.974 E23.07506
G1 X-30.552 Y74.825 F7800.000
G1 F1800.000
G1 X-30.346 Y74.619 E23.08475
G1 X-29.969 Y74.619 E23.09723
G1 X-30.550 Y75.200 E23.12449
G1 X-30.553 Y75.381 E23.13053
G1 X-30.356 Y75.381 E23.13705
G1 X-29.593 Y74.619 E23.17284
G1 X-29.217 Y74.619 E23.18532
G1 X-29.980 Y75.381 E23.22111
G1 X-29.604 Y75.381 E23.23360
G1 X-28.841 Y74.619 E23.26939
G1 X-28.465 Y74.619 E23.28187
G1 X-29.227 Y75.381 E23.31766
G1 X-28.851 Y75.381 E23.33014
G1 X-28.088 Y74.619 E23.36593
G1 X-27.712 Y74.619 E23.37841
G1 X-28.475 Y75.381 E23.41420
G1 X-28.099 Y75.381 E23.42669
G1 X-27.336 Y74.619 E23.46248
G1 X-26.960 Y74.619 E23.47496
G1 X-27.723 Y75.381 E23.51075
G1 X-27.346 Y75.381 E23.52323
G1 X-26.584 Y74.619 E23.55902
G1 X-26.208 Y74.619 E23.57150
G1 X-26.970 Y75.381 E23.60730
G1 X-26.594 Y75.381 E23.61978
G1 X-25.831 Y74.619 E23.65557
G1 X-25.455 Y74.619 E23.66805
G1 X-26.218 Y75.381 E23.70384
G1 X-25.842 Y75.381 E23.71632
G1 X-25.079 Y74.619 E23.75211
G1 X-24.703 Y74.619 E23.76460
G1 X-25.466 Y75.381 E23.80039
G1 X-25.089 Y75.381 E23.81287
G1 X-24.327 Y74.619 E23.84866
G1 X-23.950 Y74.619 E23.86114
G1 X-24.713 Y75.381 E23.89693
G1 X-24.337 Y75.381 E23.90941
G1 X-23.574 Y74.619 E23.94520
G1 X-23.198 Y74.619 E23.95769
G1 X-23.961 Y75.381 E23.99348
G1 X-23.585 Y75.381 E24.00596
G1 X-22.822 Y74.619 E24.04175
G1 X-22.446 Y74.619 E24.05423
G1 X-23.208 Y75.381 E24.09002
G1 X-22.832 Y75.381 E24.10250
G1 X-22.069 Y74.619 E24.13830
G1 X-21.693 Y74.619 E24.15078
G1 X-22.456 Y75.381 E24.18657
G1 X-22.080 Y75.381 E24.19905
G1 X-21.317 Y74.619 E24.23484
G1 X-20.941 Y74.619 E24.24732
G1 X-21.704 Y75.381 E24.28311
G1 X-21.327 Y75.381 E24.29559
G1 X-20.565 Y74.619 E24.33139
G1 X-20.188 Y74.619 E24.34387
G1 X-20.951 Y75.381 E24.37966
G1 X-20.575 Y75.381 E24.39214
G1 X-19.812 Y74.619 E24.42793
G1 X-19.436 Y74.619 E24.44041
G1 X-20.199 Y75.381 E24.47620
G1 X-19.823 Y75.381 E24.48869
G1 X-19.060 Y74.619 E24.52448
G1 X-18.684 Y74.619 E24.53696
G1 X-19.446 Y75.381 E24.57275
G1 X-19.070 Y75.381 E24.58523
G1 X-18.307 Y74.619 E24.62102
G1 X-17.931 Y74.619 E24.63350
G1 X-18.694 Y75.381 E24.66929
G1 X-18.318 Y75.381 E24.68178
G1 X-17.555 Y74.619 E24.71757
G1 X-17.179 Y74.619 E24.73005
G1 X-17.942 Y75.381 E24.76584
G1 X-17.565 Y75.381 E24.77832
G1 X-16.803 Y74.619 E24.81411
G1 X-16.426 Y74.619 E24.82659
G1 X-17.189 Y75.381 E24.86239
G1 X-16.813 Y75.381 E24.87487
G1 X-16.050 Y74.619 E24.91066
G1 X-15.674 Y74.619 E24.92314
G1 X-16.437 Y75.381 E24.95893
G1 X-16.061 Y75.381 E24.97141
G1 X-15.298 Y74.619 E25.00720
G1 X-14.922 Y74.619 E25.01969
G1 X-15.684 Y75.381 E25.05548
G1 X-15.308 Y75.381 E25.06796
G1 X-14.545 Y74.619 E25.10375
G1 X-14.169 Y74.619 E25.11623
G1 X-14.932 Y75.381 E25.15202
G1 X-14.556 Y75.381 E25.16450
G1 X-13.793 Y74.619 E25.20029
G1 X-13.417 Y74.619 E25.21278
G1 X-14.180 Y75.381 E25.24857
G1 X-13.803 Y75.381 E25.26105
G1 X-13.041 Y74.619 E25.29684
G1 X-12.664 Y74.619 E25.30932
G1 X-13.427 Y75.381 E25.34511
G1 X-13.051 Y75.381 E25.35759
G1 X-12.288 Y74.619 E25.39339
G1 X-11.912 Y74.619 E25.40587
G1 X-12.675 Y75.381 E25.44166
G1 X-12.299 Y75.381 E25.45414
G1 X-11.536 Y74.619 E25.48993
G1 X-11.160 Y74.619 E25.50241
G1 X-11.922 Y75.381 E25.53820
G1 X-11.546 Y75.381 E25.55068
G1 X-10.783 Y74.619 E25.58648
G1 X-10.407 Y74.619 E25.59896
G1 X-11.170 Y75.381 E25.63475
G1 X-10.794 Y75.381 E25.64723
G1 X-10.031 Y74.619 E25.68302
G1 X-9.655 Y74.619 E25.69550
G1 X-10.418 Y75.381 E25.73129
G1 X-10.041 Y75.381 E25.74378
G1 X-9.279 Y74.619 E25.77957
G1 X-8.902 Y74.619 E25.79205
G1 X-9.665 Y75.381 E25.82784
G1 X-9.289 Y75.381 E25.84032
G1 X-8.526 Y74.619 E25.87611
G1 X-8.150 Y74.619 E25.88859
G1 X-8.913 Y75.381 E25.92439
G1 X-8.537 Y75.381 E25.93687
G1 X-7.774 Y74.619 E25.97266
G1 X-7.398 Y74.619 E25.98514
G1 X-8.160 Y75.381 E26.02093
G1 X-7.784 Y75.381 E26.03341
G1 X-7.021 Y74.619 E26.06920
G1 X-6.645 Y74.619 E26.08168
G1 X-7.408 Y75.381 E26.11748
G1 X-7.032 Y75.381 E26.12996
G1 X-6.269 Y74.619 E26.16575
G1 X-5.893 Y74.619 E26.17823
G1 X-6.656 Y75.381 E26.21402
G1 X-6.279 Y75.381 E26.22650
G1 X-5.517 Y74.619 E26.26229
G1 X-5.141 Y74.619 E26.27478
G1 X-5.903 Y75.381 E26.31057
G1 X-5.527 Y75.381 E26.32305
G1 X-4.764 Y74.619 E26.35884
G1 X-4.388 Y74.619 E26.37132
G1 X-5.151 Y75.381 E26.40711
G1 X-4.775 Y75.381 E26.41959
G1 X-4.012 Y74.619 E26.45538
G1 X-3.636 Y74.619 E26.46787
G1 X-4.399 Y75.381 E26.50366
G1 X-4.022 Y75.381 E26.51614
G1 X-3.260 Y74.619 E26.55193
G1 X-2.883 Y74.619 E26.56441
G1 X-3.646 Y75.381 E26.60020
G1 X-3.270 Y75.381 E26.61268
G1 X-2.507 Y74.619 E26.64848
G1 X-2.131 Y74.619 E26.66096
G1 X-2.894 Y75.381 E26.69675
G1 X-2.518 Y75.381 E26.70923
G1 X-1.755 Y74.619 E26.74502
G1 X-1.379 Y74.619 E26.75750
G1 X-2.141 Y75.381 E26.79329
G1 X-1.765 Y75.381 E26.80578
G1 X-1.002 Y74.619 E26.84157
G1 X-0.626 Y74.619 E26.85405
G1 X-1.389 Y75.381 E26.88984
G1 X-1.013 Y75.381 E26.90232
G1 X-0.250 Y74.619 E26.93811
G1 X0.126 Y74.619 E26.95059
G1 X-0.637 Y75.381 E26.98638
G1 X-0.260 Y75.381 E26.99887
G1 X0.502 Y74.619 E27.03466
G1 X0.879 Y74.619 E27.04714
G1 X0.116 Y75.381 E27.08293
G1 X0.492 Y75.381 E27.09541
G1 X1.255 Y74.619 E27.13120
G1 X1.631 Y74.619 E27.14368
G1 X0.868 Y75.381 E27.17948
G1 X1.244 Y75.381 E27.19196
G1 X2.007 Y74.619 E27.22775
G1 X2.383 Y74.619 E27.24023
G1 X1.621 Y75.381 E27.27602
G1 X1.997 Y75.381 E27.28850
G1 X2.760 Y74.619 E27.32429
G1 X3.136 Y74.619 E27.33678
G1 X2.373 Y75.381 E27.37257
G1 X2.749 Y75.381 E27.38505
G1 X3.512 Y74.619 E27.42084
G1 X3.888 Y74.619 E27.43332
G1 X3.125 Y75.381 E27.46911
G1 X3.502 Y75.381 E27.48159
G1 X4.264 Y74.619 E27.51738
G1 X4.641 Y74.619 E27.52987
G1 X3.878 Y75.381 E27.56566
G1 X4.254 Y75.381 E27.57814
G1 X5.017 Y74.619 E27.61393
G1 X5.393 Y74.619 E27.62641
G1 X4.630 Y75.381 E27.66220
G1 X5.006 Y75.381 E27.67468
G1 X5.769 Y74.619 E27.71048
G1 X6.145 Y74.619 E27.72296
G1 X5.383 Y75.381 E27.75875
G1 X5.759 Y75.381 E27.77123
G1 X6.522 Y74.619 E27.80702
G1 X6.898 Y74.619 E27.81950
G1 X6.135 Y75.381 E27.85529
G1 X6.511 Y75.381 E27.86777
G1 X7.274 Y74.619 E27.90357
G1 X7.650 Y74.619 E27.91605
G1 X6.887 Y75.381 E27.95184
G1 X7.264 Y75.381 E27.96432
G1 X8.026 Y74.619 E28.00011
G1 X8.403 Y74.619 E28.01259
G1 X7.640 Y75.381 E28.04838
G1 X8.016 Y75.381 E28.06087
G1 X8.779 Y74.619 E28.09666
G1 X9.155 Y74.619 E28.10914
G1 X8.392 Y75.381 E28.14493
G1 X8.768 Y75.381 E28.15741
G1 X9.531 Y74.619 E28.19320
G1 X9.907 Y74.619 E28.20568
G1 X9.145 Y75.381 E28.24147
G1 X9.521 Y75.381 E28.25396
G1 X10.284 Y74.619 E28.28975
G1 X10.660 Y74.619 E28.30223
G1 X9.897 Y75.381 E28.33802
G1 X10.273 Y75.381 E28.35050
G1 X11.036 Y74.619 E28.38629
G1 X11.412 Y74.619 E28.39877
G1 X10.649 Y75.381 E28.43457
G1 X11.026 Y75.381 E28.44705
G1 X11.788 Y74.619 E28.48284
G1 X12.165 Y74.619 E28.49532
G1 X11.402 Y75.381 E28.53111
G1 X11.778 Y75.381 E28.54359
G1 X12.541 Y74.619 E28.57938
G1 X12.917 Y74.619 E28.59187
G1 X12.154 Y75.381 E28.62766
G1 X12.530 Y75.381 E28.64014
G1 X13.293 Y74.619 E28.67593
G1 X13.669 Y74.619 E28.68841
G1 X12.907 Y75.381 E28.72420
G1 X13.283 Y75.381 E28.73668
G1 X14.046 Y74.619 E28.77247
G1 X14.422 Y74.619 E28.78496
G1 X13.659 Y75.381 E28.82075
G1 X14.035 Y75.381 E28.83323
G1 X14.798 Y74.619 E28.86902
G1 X15.174 Y74.619 E28.88150
G1 X14.411 Y75.381 E28.91729
G1 X14.788 Y75.381 E28.92977
G1 X15.550 Y74.619 E28.96557
G1 X15.926 Y74.619 E28.97805
G1 X15.164 Y75.381 E29.01384
G1 X15.540 Y75.381 E29.02632
G1 X16.303 Y74.619 E29.06211
G1 X16.679 Y74.619 E29.07459
G1 X15.916 Y75.381 E29.11038
G1 X16.292 Y75.381 E29.12287
G1 X17.055 Y74.619 E29.15866
G1 X17.431 Y74.619 E29.17114
G1 X16.668 Y75.381 E29.20693
G1 X17.045 Y75.381 E29.21941
G1 X17.807 Y74.619 E29.25520
G1 X18.184 Y74.619 E29.26768
G1 X17.421 Y75.381 E29.30347
G1 X17.797 Y75.381 E29.31596
G1 X18.560 Y74.619 E29.35175
G1 X18.936 Y74.619 E29.36423
G1 X18.173 Y75.381 E29.40002
G1 X18.549 Y75.381 E29.41250
G1 X19.312 Y74.619 E29.44829
G1 X19.688 Y74.619 E29.46077
G1 X18.926 Y75.381 E29.49656
G1 X19.302 Y75.381 E29.50905
G1 X20.065 Y74.619 E29.54484
G1 X20.441 Y74.619 E29.55732
G1 X19.678 Y75.381 E29.59311
G1 X20.054 Y75.381 E29.60559
G1 X20.817 Y74.619 E29.64138
G1 X21.193 Y74.619 E29.65386
G1 X20.430 Y75.381 E29.68966
G1 X20.807 Y75.381 E29.70214
G1 X21.569 Y74.619 E29.73793
G1 X21.946 Y74.619 E29.75041
G1 X21.183 Y75.381 E29.78620
G1 X21.559 Y75.381 E29.79868
G1 X22.322 Y74.619 E29.83447
G1 X22.698 Y74.619 E29.84696
G1 X21.935 Y75.381 E29.88275
G1 X22.311 Y75.381 E29.89523
G1 X23.074 Y74.619 E29.93102
G1 X23.450 Y74.619 E29.94350
G1 X22.688 Y75.381 E29.97929
G1 X23.064 Y75.381 E29.99177
G1 X23.827 Y74.619 E30.02756
G1 X24.203 Y74.619 E30.04005
G1 X23.440 Y75.381 E30.07584
G1 X23.816 Y75.381 E30.08832
G1 X24.579 Y74.619 E30.12411
G1 X24.955 Y74.619 E30.13659
G1 X24.192 Y75.381 E30.17238
G1 X24.569 Y75.381 E30.18486
G1 X25.331 Y74.619 E30.22066
G1 X25.708 Y74.619 E30.23314
G1 X24.945 Y75.381 E30.26893
G1 X25.321 Y75.381 E30.28141
G1 X26.084 Y74.619 E30.31720
G1 X26.460 Y74.619 E30.32968
G1 X25.697 Y75.381 E30.36547
G1 X26.073 Y75.381 E30.37795
G1 X26.836 Y74.619 E30.41375
G1 X27.212 Y74.619 E30.42623
G1 X26.450 Y75.381 E30.46202
G1 X26.826 Y75.381 E30.47450
G1 X27.589 Y74.619 E30.51029
G1 X27.965 Y74.619 E30.52277
G1 X27.202 Y75.381 E30.55856
G1 X27.578 Y75.381 E30.57105
G1 X28.341 Y74.619 E30.60684
G1 X28.717 Y74.619 E30.61932
G1 X27.954 Y75.381 E30.65511
G1 X28.331 Y75.381 E30.66759
G1 X29.093 Y74.619 E30.70338
G1 X29.470 Y74.619 E30.71586
G1 X28.707 Y75.381 E30.75165
G1 X29.083 Y75.381 E30.76414
G1 X29.846 Y74.619 E30.79993
G1 X30.222 Y74.619 E30.81241
G1 X29.459 Y75.381 E30.84820
G1 X29.835 Y75.381 E30.86068
G1 X30.598 Y74.619 E30.89647
G1 X30.974 Y74.619 E30.90895
G1 X30.212 Y75.381 E30.94475
G1 X30.588 Y75.381 E30.95723
G1 X31.351 Y74.619 E30.99302
G1 X31.727 Y74.619 E31.00550
G1 X30.964 Y75.381 E31.04129
G1 X31.340 Y75.381 E31.05377
G1 X32.103 Y74.619 E31.08956
G1 X32.479 Y74.619 E31.10204
G1 X31.716 Y75.381 E31.13784
G1 X32.093 Y75.381 E31.15032
G1 X32.855 Y74.619 E31.18611
G1 X33.232 Y74.619 E31.19859
G1 X32.469 Y75.381 E31.23438
G1 X32.845 Y75.381 E31.24686
G1 X33.608 Y74.619 E31.28265
G1 X33.984 Y74.619 E31.29514
G1 X33.221 Y75.381 E31.33093
G1 X33.597 Y75.381 E31.34341
G1 X34.360 Y74.619 E31.37920
G1 X34.736 Y74.619 E31.39168
G1 X33.974 Y75.381 E31.42747
G1 X34.350 Y75.381 E31.43995
G1 X35.113 Y74.619 E31.47574
G1 X35.489 Y74.619 E31.48823
G1 X34.726 Y75.381 E31.52402
G1 X35.102 Y75.381 E31.53650
G1 X35.865 Y74.619 E31.57229
G1 X36.241 Y74.619 E31.58477
G1 X35.478 Y75.381 E31.62056
G1 X35.855 Y75.381 E31.63304
G1 X36.617 Y74.619 E31.66884
G1 X36.993 Y74.619 E31.68132
G1 X36.231 Y75.381 E31.71711
G1 X36.607 Y75.381 E31.72959
G1 X37.370 Y74.619 E31.76538
G1 X37.746 Y74.619 E31.77786
G1 X36.983 Y75.381 E31.81365
G1 X37.359 Y75.381 E31.82613
G1 X38.122 Y74.619 E31.86193
G1 X38.498 Y74.619 E31.87441
G1 X37.735 Y75.381 E31.91020
G1 X38.112 Y75.381 E31.92268
G1 X38.874 Y74.619 E31.95847
G1 X39.251 Y74.619 E31.97095
G1 X38.488 Y75.381 E32.00674
G1 X38.864 Y75.381 E32.01922
G1 X39.627 Y74.619 E32.05502
G1 X40.003 Y74.619 E32.06750
G1 X39.240 Y75.381 E32.10329
G1 X39.616 Y75.381 E32.11577
G1 X40.379 Y74.619 E32.15156
G1 X40.755 Y74.619 E32.16404
G1 X39.993 Y75.381 E32.19983
G1 X40.369 Y75.381 E32.21232
G1 X41.132 Y74.619 E32.24811
G1 X41.508 Y74.619 E32.26059
G1 X40.745 Y75.381 E32.29638
G1 X41.121 Y75.381 E32.30886
G1 X41.884 Y74.619 E32.34465
G1 X42.260 Y74.619 E32.35713
G1 X41.497 Y75.381 E32.39292
G1 X41.874 Y75.381 E32.40541
G1 X42.636 Y74.619 E32.44120
G1 X43.013 Y74.619 E32.45368
G1 X42.250 Y75.381 E32.48947
G1 X42.626 Y75.381 E32.50195
G1 X43.389 Y74.619 E32.53774
G1 X43.765 Y74.619 E32.55022
G1 X43.002 Y75.381 E32.58602
G1 X43.378 Y75.381 E32.59850
G1 X44.141 Y74.619 E32.63429
G1 X44.517 Y74.619 E32.64677
G1 X43.755 Y75.381 E32.68256
G1 X44.131 Y75.381 E32.69504
G1 X44.894 Y74.619 E32.73083
G1 X45.270 Y74.619 E32.74332
G1 X44.507 Y75.381 E32.77911
G1 X44.883 Y75.381 E32.79159
G1 X45.646 Y74.619 E32.82738
G1 X46.022 Y74.619 E32.83986
G1 X45.259 Y75.381 E32.87565
G1 X45.636 Y75.381 E32.88813
G1 X46.398 Y74.619 E32.92392
G1 X46.775 Y74.619 E32.93641
G1 X46.012 Y75.381 E32.97220
G1 X46.388 Y75.381 E32.98468
G1 X47.151 Y74.619 E33.02047
G1 X47.527 Y74.619 E33.03295
G1 X46.764 Y75.381 E33.06874
G1 X47.140 Y75.381 E33.08122
G1 X47.903 Y74.619 E33.11702
G1 X48.279 Y74.619 E33.12950
G1 X47.517 Y75.381 E33.16529
G1 X47.893 Y75.381 E33.17777
G1 X48.656 Y74.619 E33.21356
G1 X49.032 Y74.619 E33.22604
