; Gcode updated with 'stl_info' on 2019-12-09 14:00:30.848546

; stl_min_x = 0.0
; stl_max_x = 72.6322021484375
; stl_min_y = 41.5
; stl_max_y = 85.53359985351562
; stl_min_z = 100.0

; generated by Slic3r 1.3.1-dev (Build adea0d9) on 2019-12-09 at 14:00:30

; external perimeters extrusion width = 0.44mm (2.86mm^3/s)
; perimeters extrusion width = 0.56mm (4.14mm^3/s)
; infill extrusion width = 0.50mm (3.66mm^3/s)
; solid infill extrusion width = 0.56mm (3.10mm^3/s)
; top infill extrusion width = 0.56mm (3.10mm^3/s)

M107
G92 E0
;D3D:START:START
T0
M104 S215 T0

G21
G90
M107
T0
G28
G29
M109 T0 S215 T0
G0 F3000
M107
T0
G92 E0
G0 X0 Y149 Z0.1 F3600
G1 Y49 E6.5 F1200
G0 Z1
G92 E0
; Filament gcode

G21 ; set units to millimeters
G90 ; use absolute coordinates
M82 ; use absolute distances for extrusion
G92 E0
G1 Z0.300 F7800.000
G1 E-2.00000 F2400.00000
G92 E0
G1 X56.841 Y92.981 F7800.000
G1 E2.00000 F2400.00000
G1 F1800.000
G1 X56.841 Y93.992 E2.03350
G1 X56.583 Y94.054 E2.04227
G1 X56.583 Y88.669 E2.22066
G1 X57.376 Y88.479 E2.24767
G1 X59.785 Y87.820 E2.33040
G1 X62.172 Y87.086 E2.41314
G1 X64.534 Y86.277 E2.49587
G1 X66.870 Y85.394 E2.57860
G1 X69.177 Y84.438 E2.66133
G1 X71.453 Y83.411 E2.74407
G1 X73.696 Y82.312 E2.82680
G1 X75.903 Y81.143 E2.90953
G1 X78.072 Y79.906 E2.99226
G1 X80.202 Y78.601 E3.07500
G1 X82.289 Y77.230 E3.15773
G1 X84.332 Y75.794 E3.24046
G1 X86.329 Y74.295 E3.32319
G1 X88.278 Y72.734 E3.40593
G1 X90.177 Y71.112 E3.48866
G1 X92.024 Y69.431 E3.57139
G1 X93.817 Y67.693 E3.65412
G1 X95.555 Y65.900 E3.73686
G1 X97.236 Y64.053 E3.81959
G1 X98.857 Y62.154 E3.90232
G1 X100.419 Y60.205 E3.98506
G1 X101.918 Y58.208 E4.06779
G1 X103.354 Y56.165 E4.15052
G1 X104.987 Y53.679 E4.24904
G1 X111.070 Y53.679 E4.45058
G1 X110.537 Y54.614 E4.48622
G1 X109.146 Y56.884 E4.57441
G1 X107.685 Y59.108 E4.66259
G1 X106.155 Y61.286 E4.75077
G1 X104.556 Y63.414 E4.83895
G1 X102.892 Y65.492 E4.92714
G1 X101.164 Y67.516 E5.01532
G1 X99.372 Y69.485 E5.10350
G1 X97.520 Y71.396 E5.19168
G1 X95.608 Y73.248 E5.27986
G1 X93.640 Y75.040 E5.36805
G1 X91.616 Y76.768 E5.45623
G1 X89.538 Y78.433 E5.54441
G1 X87.410 Y80.031 E5.63259
G1 X85.232 Y81.561 E5.72078
G1 X83.007 Y83.023 E5.80896
G1 X80.738 Y84.413 E5.89714
G1 X78.426 Y85.732 E5.98532
G1 X76.073 Y86.978 E6.07351
G1 X73.683 Y88.149 E6.16169
G1 X71.257 Y89.244 E6.24987
G1 X68.733 Y90.289 E6.34038
G1 X68.733 Y89.236 E6.37527
G1 X65.975 Y90.278 E6.47296
G1 X63.486 Y91.131 E6.56011
G1 X60.971 Y91.904 E6.64727
G1 X58.434 Y92.598 E6.73443
G1 X56.899 Y92.967 E6.78672
G1 X57.106 Y93.190 F7800.000
G1 F1800.000
G1 X57.106 Y94.201 E6.82022
G1 X56.318 Y94.391 E6.84709
G1 X56.318 Y88.460 E7.04358
G1 X57.310 Y88.222 E7.07739
G1 X59.711 Y87.565 E7.15985
G1 X62.090 Y86.833 E7.24230
G1 X64.444 Y86.027 E7.32476
G1 X66.773 Y85.147 E7.40722
G1 X69.072 Y84.195 E7.48967
G1 X71.340 Y83.170 E7.57213
G1 X73.576 Y82.075 E7.65459
G1 X75.775 Y80.911 E7.73704
G1 X77.937 Y79.678 E7.81950
G1 X80.059 Y78.377 E7.90195
G1 X82.139 Y77.011 E7.98441
G1 X84.176 Y75.580 E8.06686
G1 X86.166 Y74.085 E8.14932
G1 X88.108 Y72.529 E8.23178
G1 X90.001 Y70.913 E8.31423
G1 X91.842 Y69.237 E8.39669
G1 X93.629 Y67.505 E8.47915
G1 X95.361 Y65.718 E8.56160
G1 X97.036 Y63.877 E8.64406
G1 X98.653 Y61.985 E8.72651
G1 X100.209 Y60.042 E8.80897
G1 X101.703 Y58.052 E8.89143
G1 X103.134 Y56.016 E8.97388
G1 X104.843 Y53.414 E9.07701
G1 X111.528 Y53.414 E9.29845
G1 X110.766 Y54.749 E9.34938
G1 X109.371 Y57.026 E9.43784
G1 X107.905 Y59.258 E9.52630
G1 X106.369 Y61.442 E9.61476
G1 X104.766 Y63.577 E9.70322
G1 X103.097 Y65.661 E9.79168
G1 X101.363 Y67.692 E9.88014
G1 X99.566 Y69.666 E9.96859
G1 X97.708 Y71.584 E10.05705
G1 X95.790 Y73.442 E10.14551
G1 X93.815 Y75.239 E10.23397
G1 X91.785 Y76.973 E10.32243
G1 X89.701 Y78.643 E10.41089
G1 X87.566 Y80.246 E10.49935
G1 X85.381 Y81.781 E10.58781
G1 X83.150 Y83.247 E10.67626
G1 X80.873 Y84.642 E10.76472
G1 X78.554 Y85.965 E10.85318
G1 X76.194 Y87.214 E10.94164
G1 X73.796 Y88.389 E11.03010
G1 X71.363 Y89.488 E11.11856
G1 X68.468 Y90.671 E11.22217
G1 X68.468 Y89.621 E11.25699
G1 X66.065 Y90.528 E11.34208
G1 X63.568 Y91.383 E11.42952
G1 X61.046 Y92.159 E11.51695
G1 X58.500 Y92.856 E11.60439
G1 X57.165 Y93.176 E11.64988
G1 X57.372 Y93.400 F7800.000
G1 F1800.000
G1 X57.372 Y94.411 E11.68337
G1 X56.206 Y94.691 E11.72310
G1 X53.583 Y95.234 E11.81183
G1 X50.945 Y95.694 E11.90057
G1 X48.293 Y96.072 E11.98930
G1 X45.631 Y96.366 E12.07804
G1 X42.961 Y96.576 E12.16678
G1 X40.285 Y96.702 E12.25551
G1 X37.772 Y96.741 E12.33878
G1 X37.772 Y90.442 E12.54746
G1 X38.242 Y90.435 E12.56304
G1 X38.242 Y96.081 E12.75008
G1 X40.265 Y96.049 E12.81710
G1 X42.920 Y95.924 E12.90515
G1 X45.569 Y95.715 E12.99321
G1 X48.211 Y95.424 E13.08126
G1 X50.842 Y95.049 E13.16932
G1 X53.461 Y94.592 E13.25737
G1 X56.052 Y94.056 E13.34504
G1 X56.052 Y88.250 E13.53736
G1 X57.244 Y87.964 E13.57797
G1 X59.637 Y87.310 E13.66015
G1 X62.007 Y86.580 E13.74233
G1 X64.354 Y85.777 E13.82451
G1 X66.675 Y84.900 E13.90669
G1 X68.966 Y83.951 E13.98887
G1 X71.227 Y82.930 E14.07105
G1 X73.455 Y81.839 E14.15323
G1 X75.647 Y80.678 E14.23541
G1 X77.802 Y79.449 E14.31759
G1 X79.917 Y78.153 E14.39977
G1 X81.990 Y76.791 E14.48195
G1 X84.020 Y75.365 E14.56413
G1 X86.003 Y73.875 E14.64631
G1 X87.939 Y72.324 E14.72849
G1 X89.825 Y70.713 E14.81067
G1 X91.660 Y69.044 E14.89285
G1 X93.441 Y67.318 E14.97503
G1 X95.168 Y65.536 E15.05721
G1 X96.837 Y63.702 E15.13938
G1 X98.448 Y61.815 E15.22156
G1 X99.999 Y59.879 E15.30374
G1 X101.488 Y57.896 E15.38592
G1 X102.915 Y55.866 E15.46810
G1 X104.391 Y53.618 E15.55721
G1 X37.772 Y53.618 E17.76428
G1 X37.772 Y53.148 E17.77985
G1 X111.985 Y53.148 E20.23849
G1 X110.994 Y54.884 E20.30471
G1 X109.595 Y57.168 E20.39345
G1 X108.125 Y59.407 E20.48218
G1 X106.584 Y61.598 E20.57092
G1 X104.976 Y63.740 E20.65965
G1 X103.302 Y65.831 E20.74839
G1 X101.562 Y67.867 E20.83712
G1 X99.759 Y69.848 E20.92586
G1 X97.895 Y71.772 E21.01459
G1 X95.972 Y73.636 E21.10333
G1 X93.991 Y75.438 E21.19206
G1 X91.954 Y77.178 E21.28080
G1 X89.864 Y78.852 E21.36953
G1 X87.722 Y80.461 E21.45827
G1 X85.531 Y82.001 E21.54701
G1 X83.292 Y83.471 E21.63574
G1 X81.008 Y84.871 E21.72448
G1 X78.682 Y86.198 E21.81321
G1 X76.315 Y87.451 E21.90195
G1 X73.909 Y88.629 E21.99068
G1 X71.468 Y89.732 E22.07941
G1 X68.994 Y90.757 E22.16815
G1 X68.202 Y91.056 E22.19619
G1 X68.202 Y90.005 E22.23100
G1 X66.155 Y90.778 E22.30350
G1 X63.650 Y91.636 E22.39121
G1 X61.120 Y92.414 E22.47892
G1 X58.566 Y93.113 E22.56663
G1 X57.430 Y93.386 E22.60533
G1 X56.185 Y94.362 F7800.000
G1 F1800.000
G1 X53.522 Y94.913 E22.71492
G1 X50.894 Y95.372 E22.82247
G1 X48.252 Y95.748 E22.93001
G1 X45.603 Y96.040 E23.03743
G1 X42.940 Y96.250 E23.14509
G1 X40.275 Y96.375 E23.25264
G1 X38.099 Y96.409 E23.34035
G1 X38.053 Y96.313 E23.34467
G1 F1800.000
G1 X38.007 Y96.216 E23.34777
G1 F1800.000
G1 X38.007 Y90.571 E23.44633
G1 E21.44633 F2400.00000
G92 E0
G1 X37.905 Y53.383 F7800.000
G1 E2.00000 F2400.00000
G1 F1800.000
G1 X104.705 Y53.383 E3.16643
G1 X105.573 Y53.842 F7800.000
G1 F1800.000
G1 X104.376 Y55.039 E3.22320
G1 X103.648 Y56.147 E3.26766
G1 X105.954 Y53.842 E3.37698
G1 X106.334 Y53.842 E3.38973
G1 X102.791 Y57.385 E3.55774
G1 X101.854 Y58.702 E3.61194
G1 X106.714 Y53.842 E3.84242
G1 X107.094 Y53.842 E3.85516
G1 X100.708 Y60.228 E4.15800
G1 X99.238 Y62.078 E4.23724
G1 X107.474 Y53.842 E4.62782
G1 X107.855 Y53.842 E4.64057
G1 X96.999 Y64.697 E5.15535
G1 E3.15535 F2400.00000
G92 E0
G1 X97.224 Y71.316 F7800.000
G1 E2.00000 F2400.00000
G1 F1800.000
G1 X99.282 Y69.199 E2.09898
G1 X101.068 Y67.237 E2.18796
G1 X101.914 Y66.246 E2.23167
G1 X92.369 Y75.790 E2.68430
G1 X91.343 Y76.667 E2.72956
G1 X90.184 Y77.595 E2.77935
G1 X103.719 Y64.060 E3.42119
G1 X104.450 Y63.148 E3.46038
G1 X105.049 Y62.351 E3.49383
G1 X88.474 Y78.925 E4.27982
G1 X86.981 Y80.038 E4.34227
G1 X106.162 Y60.857 E5.25186
G1 X107.061 Y59.578 E5.30429
G1 X85.702 Y80.937 E6.31719
G1 X84.497 Y81.762 E6.36615
G1 X107.886 Y58.373 E7.47528
G1 X108.614 Y57.265 E7.51974
G1 X83.389 Y82.490 E8.71593
G1 X82.336 Y83.163 E8.75785
G1 X109.287 Y56.212 E10.03591
G1 X109.888 Y55.230 E10.07452
G1 X81.354 Y83.764 E11.42767
G1 X80.384 Y84.354 E11.46571
G1 X110.477 Y54.261 E12.89276
G1 X110.716 Y53.842 E12.90893
G1 X110.516 Y53.842 E12.91565
G1 X79.499 Y84.858 E14.38650
G1 X78.614 Y85.363 E14.42067
G1 X110.136 Y53.842 E15.91546
G1 X109.756 Y53.842 E15.92821
G1 X77.770 Y85.828 E17.44503
G1 X76.962 Y86.255 E17.47569
G1 X109.375 Y53.842 E19.01279
G1 X108.995 Y53.842 E19.02554
G1 X76.154 Y86.683 E20.58294
G1 X75.385 Y87.072 E20.61183
G1 X108.615 Y53.842 E22.18766
G1 X108.235 Y53.842 E22.20041
G1 X74.639 Y87.437 E23.79356
G1 X73.894 Y87.802 E23.82139
G1 X90.821 Y70.875 E24.62409
G1 X90.456 Y71.208 E24.64065
G1 X88.202 Y73.114 E24.73963
G1 X73.171 Y88.145 E25.45242
G1 X72.478 Y88.458 E25.47793
G1 X86.351 Y74.584 E26.13584
G1 X84.826 Y75.730 E26.19983
G1 X71.784 Y88.771 E26.81826
G1 X71.091 Y89.084 E26.84376
G1 X83.508 Y76.667 E27.43260
G1 X82.271 Y77.524 E27.48308
G1 X70.440 Y89.356 E28.04414
G1 X69.790 Y89.625 E28.06770
G1 X81.163 Y78.252 E28.60699
G1 X80.099 Y78.936 E28.64937
G1 X69.141 Y89.893 E29.16901
G1 X68.896 Y89.995 E29.17794
G1 X68.896 Y89.759 E29.18586
G1 X79.117 Y79.537 E29.67059
G1 X78.153 Y80.122 E29.70841
G1 X68.896 Y89.379 E30.14741
G1 X68.896 Y88.999 E30.16016
G1 X77.268 Y80.626 E30.55718
G1 X76.383 Y81.131 E30.59135
G1 X68.354 Y89.160 E30.97207
G1 X67.743 Y89.391 E30.99398
G1 X75.553 Y81.581 E31.36434
G1 X74.745 Y82.009 E31.39500
G1 X67.132 Y89.622 E31.75602
G1 X66.521 Y89.853 E31.77793
G1 X73.937 Y82.436 E32.12961
G1 X73.190 Y82.803 E32.15750
G1 X65.910 Y90.084 E32.50276
G1 X65.782 Y90.132 E32.50735
G1 X65.325 Y90.288 E32.52355
G1 X72.445 Y83.168 E32.86120
G1 X71.700 Y83.533 E32.88904
G1 X64.746 Y90.486 E33.21876
G1 X64.168 Y90.684 E33.23925
G1 X71.004 Y83.848 E33.56342
G1 X70.311 Y84.161 E33.58893
G1 X63.590 Y90.882 E33.90764
G1 X63.027 Y91.066 E33.92752
G1 X69.618 Y84.474 E34.24010
G1 X68.954 Y84.758 E34.26430
G1 X62.477 Y91.235 E34.57144
G1 X61.928 Y91.403 E34.59070
G1 X68.305 Y85.027 E34.89310
G1 X67.656 Y85.295 E34.91666
G1 X61.379 Y91.572 E35.21433
G1 X60.830 Y91.741 E35.23359
G1 X67.011 Y85.560 E35.52670
G1 X66.400 Y85.791 E35.54860
G1 X60.305 Y91.886 E35.83763
G1 X59.781 Y92.029 E35.85582
G1 X65.789 Y86.022 E36.14069
G1 X65.177 Y86.253 E36.16260
G1 X59.258 Y92.173 E36.44330
G1 X58.735 Y92.316 E36.46149
G1 X64.575 Y86.476 E36.73845
G1 X63.997 Y86.673 E36.75894
G1 X58.214 Y92.457 E37.03318
G1 X57.713 Y92.577 E37.05044
G1 X63.419 Y86.871 E37.32099
G1 X62.840 Y87.069 E37.34148
G1 X57.213 Y92.697 E37.60835
G1 X56.746 Y92.809 E37.62447
G1 X56.746 Y92.784 E37.62530
G1 X62.267 Y87.263 E37.88714
G1 X61.718 Y87.432 E37.90641
G1 X56.746 Y92.404 E38.14221
G1 X56.746 Y92.024 E38.15496
G1 X61.169 Y87.600 E38.36472
G1 X60.620 Y87.769 E38.38398
G1 X56.746 Y91.643 E38.56770
G1 X56.746 Y91.263 E38.58045
G1 X60.071 Y87.938 E38.73812
G1 X59.542 Y88.087 E38.75653
G1 X56.746 Y90.883 E38.88914
G1 X56.746 Y90.503 E38.90189
G1 X59.019 Y88.230 E39.00969
G1 X58.495 Y88.373 E39.02788
G1 X56.746 Y90.123 E39.11085
G1 X56.746 Y89.742 E39.12360
G1 X57.972 Y88.516 E39.18176
G1 X57.453 Y88.655 E39.19978
G1 X56.746 Y89.362 E39.23331
G1 X56.746 Y88.982 E39.24606
G1 X56.952 Y88.775 E39.25587
M106 S255
G1 Z0.500 F7800.000
G1 E37.25587 F2400.00000
G92 E0
G1 X68.714 Y89.072 F7800.000
G1 E2.00000 F2400.00000
G1 F2400.000
G1 X65.921 Y90.128 E2.12839
G1 X63.437 Y90.978 E2.24128
G1 X60.927 Y91.751 E2.35418
G1 X58.394 Y92.443 E2.46708
G1 X56.564 Y92.883 E2.54800
G1 X56.564 Y88.472 E2.73763
G1 X57.327 Y88.289 E2.77138
G1 X59.730 Y87.632 E2.87849
G1 X62.111 Y86.899 E2.98559
G1 X64.468 Y86.092 E3.09270
G1 X66.798 Y85.212 E3.19980
G1 X69.100 Y84.258 E3.30691
G1 X71.370 Y83.233 E3.41401
G1 X73.607 Y82.137 E3.52112
G1 X75.809 Y80.972 E3.62822
G1 X77.972 Y79.737 E3.73533
G1 X80.096 Y78.436 E3.84243
G1 X82.179 Y77.068 E3.94954
G1 X84.217 Y75.636 E4.05664
G1 X86.209 Y74.140 E4.16375
G1 X88.153 Y72.583 E4.27085
G1 X90.047 Y70.965 E4.37796
G1 X91.889 Y69.288 E4.48506
G1 X93.678 Y67.555 E4.59217
G1 X95.412 Y65.766 E4.69927
G1 X97.089 Y63.923 E4.80638
G1 X98.706 Y62.029 E4.91348
G1 X100.264 Y60.085 E5.02059
G1 X101.760 Y58.093 E5.12769
G1 X103.192 Y56.055 E5.23480
G1 X104.765 Y53.660 E5.35797
G1 X110.896 Y53.660 E5.62160
G1 X110.399 Y54.532 E5.66476
G1 X109.011 Y56.798 E5.77899
G1 X107.552 Y59.018 E5.89322
G1 X106.025 Y61.192 E6.00744
G1 X104.430 Y63.316 E6.12167
G1 X102.769 Y65.390 E6.23589
G1 X101.043 Y67.410 E6.35012
G1 X99.255 Y69.375 E6.46435
G1 X97.406 Y71.283 E6.57857
G1 X95.498 Y73.131 E6.69280
G1 X93.533 Y74.919 E6.80702
G1 X91.513 Y76.645 E6.92125
G1 X89.440 Y78.306 E7.03548
G1 X87.315 Y79.901 E7.14970
G1 X85.142 Y81.429 E7.26393
G1 X82.921 Y82.887 E7.37815
G1 X80.656 Y84.275 E7.49238
G1 X78.348 Y85.592 E7.60661
G1 X76.000 Y86.835 E7.72083
G1 X73.615 Y88.003 E7.83506
G1 X71.193 Y89.097 E7.94928
G1 X68.714 Y90.124 E8.06466
G1 X68.714 Y89.132 E8.10729
G1 X68.257 Y89.734 F7800.000
G1 F2160.000
G1 X66.076 Y90.558 E8.18428
G1 X63.578 Y91.413 E8.27145
G1 X61.054 Y92.190 E8.35862
G1 X58.508 Y92.886 E8.44579
G1 X57.317 Y93.172 E8.48623
G1 X57.317 Y94.183 E8.51959
G1 X56.155 Y94.462 E8.55905
G1 X53.539 Y95.003 E8.64724
G1 X50.908 Y95.462 E8.73544
G1 X48.264 Y95.839 E8.82363
G1 X45.609 Y96.132 E8.91182
G1 X42.946 Y96.342 E9.00001
G1 X40.278 Y96.467 E9.08820
G1 X37.827 Y96.506 E9.16913
G1 X37.827 Y90.320 E9.37338
G1 X38.187 Y90.314 E9.38527
G1 X38.187 Y95.958 E9.57161
G1 X40.261 Y95.925 E9.64009
G1 X42.912 Y95.800 E9.72771
G1 X45.558 Y95.592 E9.81534
G1 X48.196 Y95.300 E9.90297
G1 X50.823 Y94.926 E9.99060
G1 X53.438 Y94.470 E10.07823
G1 X56.107 Y93.917 E10.16824
G1 X56.107 Y88.112 E10.35992
G1 X57.214 Y87.846 E10.39750
G1 X59.603 Y87.193 E10.47927
G1 X61.970 Y86.464 E10.56105
G1 X64.313 Y85.662 E10.64282
G1 X66.630 Y84.787 E10.72460
G1 X68.918 Y83.839 E10.80637
G1 X71.175 Y82.820 E10.88814
G1 X73.400 Y81.730 E10.96992
G1 X75.588 Y80.571 E11.05169
G1 X77.740 Y79.344 E11.13347
G1 X79.851 Y78.050 E11.21524
G1 X81.922 Y76.690 E11.29702
G1 X83.948 Y75.266 E11.37879
G1 X85.928 Y73.779 E11.46057
G1 X87.861 Y72.230 E11.54234
G1 X89.745 Y70.622 E11.62412
G1 X91.577 Y68.955 E11.70589
G1 X93.355 Y67.231 E11.78767
G1 X95.079 Y65.453 E11.86944
G1 X96.746 Y63.621 E11.95122
G1 X98.354 Y61.738 E12.03299
G1 X99.903 Y59.805 E12.11477
G1 X101.390 Y57.824 E12.19654
G1 X102.814 Y55.798 E12.27831
G1 X104.282 Y53.563 E12.36659
G1 X37.827 Y53.563 E14.56075
G1 X37.827 Y53.203 E14.57263
G1 X111.683 Y53.203 E17.01117
G1 X110.793 Y54.765 E17.07054
G1 X109.397 Y57.042 E17.15873
G1 X107.930 Y59.275 E17.24692
G1 X106.395 Y61.460 E17.33511
G1 X104.791 Y63.596 E17.42330
G1 X103.121 Y65.681 E17.51149
G1 X101.386 Y67.712 E17.59968
G1 X99.588 Y69.688 E17.68788
G1 X97.730 Y71.606 E17.77607
G1 X95.811 Y73.465 E17.86426
G1 X93.836 Y75.262 E17.95245
G1 X91.805 Y76.997 E18.04064
G1 X89.720 Y78.667 E18.12883
G1 X87.584 Y80.271 E18.21702
G1 X85.399 Y81.807 E18.30522
G1 X83.166 Y83.273 E18.39341
G1 X80.889 Y84.669 E18.48160
G1 X78.569 Y85.992 E18.56979
G1 X76.208 Y87.242 E18.65798
G1 X73.809 Y88.417 E18.74617
G1 X71.375 Y89.516 E18.83436
G1 X68.907 Y90.538 E18.92255
G1 X68.257 Y90.784 E18.94550
G1 X68.257 Y89.794 E18.97821
G1 E16.97821 F2400.00000
G92 E0
G1 X57.282 Y92.428 F7800.000
G1 E2.00000 F2400.00000
G1 F1800.000
G1 X56.880 Y92.025 E2.02454
G1 X56.880 Y91.292 E2.05618
G1 X57.874 Y92.286 E2.11683
G1 X58.466 Y92.144 E2.14307
G1 X56.880 Y90.558 E2.23981
G1 X56.880 Y89.824 E2.27145
G1 X59.042 Y91.986 E2.40333
G1 X59.618 Y91.829 E2.42909
G1 X56.880 Y89.091 E2.59612
G1 X56.880 Y88.679 E2.61389
G1 X57.139 Y88.616 E2.62540
G1 X60.194 Y91.671 E2.81174
G1 X60.770 Y91.513 E2.83751
G1 X57.718 Y88.462 E3.02367
G1 X58.294 Y88.304 E3.04943
G1 X61.337 Y91.346 E3.23502
G1 X61.898 Y91.174 E3.26034
G1 X58.870 Y88.147 E3.44501
G1 X59.447 Y87.989 E3.47078
G1 X62.459 Y91.001 E3.65453
G1 X63.020 Y90.829 E3.67985
G1 X60.014 Y87.822 E3.86325
G1 X60.575 Y87.650 E3.88857
G1 X63.578 Y90.653 E4.07181
G1 X64.125 Y90.466 E4.09673
