; Gcode updated with 'stl_info' on 2019-12-05 15:43:29.518154

; stl_min_x = 127.44999694824219
; stl_max_x = 201.93299865722656
; stl_min_y = -6.080540180206299
; stl_max_y = 6.080540180206299
; stl_min_z = -149.0

; generated by Slic3r 1.3.1-dev (Build adea0d9) on 2019-12-05 at 15:43:28

; external perimeters extrusion width = 0.44mm (2.86mm^3/s)
; perimeters extrusion width = 0.56mm (4.14mm^3/s)
; infill extrusion width = 0.50mm (3.66mm^3/s)
; solid infill extrusion width = 0.56mm (3.10mm^3/s)
; top infill extrusion width = 0.56mm (3.10mm^3/s)

M107
G92 E0
;D3D:START:START
T0
M104 S215 T0

G21
G90
M107
T0
G28
G29
M109 T0 S215 T0
G0 F3000
M107
T0
G92 E0
G0 X0 Y149 Z0.1 F3600
G1 Y49 E6.5 F1200
G0 Z1
G92 E0
; Filament gcode

G21 ; set units to millimeters
G90 ; use absolute coordinates
M82 ; use absolute distances for extrusion
G92 E0
G1 Z1.300 F7800.000
G1 E-2.00000 F2400.00000
G92 E0
G1 X42.853 Y73.601 F7800.000
G1 E2.00000 F2400.00000
G1 F1040.220
G1 X43.036 Y73.500 E2.00307
G1 X43.229 Y73.424 E2.00613
G1 X43.430 Y73.372 E2.00919
G1 X43.637 Y73.346 E2.01226
G1 X43.845 Y73.346 E2.01532
G1 X44.052 Y73.372 E2.01839
G1 X44.253 Y73.424 E2.02145
G1 X44.446 Y73.500 E2.02451
G1 X44.629 Y73.601 E2.02758
G1 X44.798 Y73.723 E2.03065
G1 X44.950 Y73.866 E2.03372
G1 X45.082 Y74.026 E2.03678
G1 X45.194 Y74.202 E2.03985
G1 X45.283 Y74.390 E2.04291
G1 X45.347 Y74.587 E2.04597
G1 X45.386 Y74.792 E2.04903
G1 X45.399 Y75.000 E2.05210
G1 X45.386 Y75.208 E2.05517
G1 X45.347 Y75.413 E2.05824
G1 X45.283 Y75.610 E2.06130
G1 X45.194 Y75.798 E2.06436
G1 X45.082 Y75.974 E2.06742
G1 X44.950 Y76.134 E2.07049
G1 X44.798 Y76.277 E2.07355
G1 X44.629 Y76.399 E2.07663
G1 X44.446 Y76.500 E2.07970
G1 X44.253 Y76.576 E2.08275
G1 X44.052 Y76.628 E2.08582
G1 X43.845 Y76.654 E2.08889
G1 X43.637 Y76.654 E2.09194
G1 X43.430 Y76.628 E2.09501
G1 X43.229 Y76.576 E2.09808
G1 X43.036 Y76.500 E2.10113
G1 X42.853 Y76.399 E2.10420
G1 X42.684 Y76.277 E2.10728
G1 X42.532 Y76.134 E2.11034
G1 X42.400 Y75.975 E2.11339
G1 X42.289 Y75.799 E2.11645
G1 X42.200 Y75.609 E2.11954
G1 X42.135 Y75.412 E2.12261
G1 X42.096 Y75.208 E2.12566
G1 X42.083 Y75.000 E2.12873
G1 X42.096 Y74.792 E2.13179
G1 X42.135 Y74.588 E2.13485
G1 X42.200 Y74.391 E2.13791
G1 X42.289 Y74.201 E2.14100
G1 X42.400 Y74.025 E2.14406
G1 X42.532 Y73.866 E2.14711
G1 X42.805 Y73.636 E2.15235
G1 X42.758 Y73.451 F7800.000
G1 F1040.220
G1 X42.960 Y73.340 E2.15575
G1 X43.174 Y73.255 E2.15913
G1 X43.397 Y73.198 E2.16253
G1 X43.626 Y73.169 E2.16593
G1 X43.856 Y73.169 E2.16931
G1 X44.085 Y73.198 E2.17271
G1 X44.308 Y73.255 E2.17610
G1 X44.522 Y73.340 E2.17949
G1 X44.724 Y73.451 E2.18288
G1 X44.911 Y73.586 E2.18628
G1 X45.079 Y73.744 E2.18968
G1 X45.226 Y73.922 E2.19307
G1 X45.350 Y74.116 E2.19646
G1 X45.448 Y74.324 E2.19985
G1 X45.518 Y74.543 E2.20324
G1 X45.562 Y74.770 E2.20664
G1 X45.576 Y75.000 E2.21003
G1 X45.562 Y75.230 E2.21343
G1 X45.518 Y75.457 E2.21682
G1 X45.448 Y75.676 E2.22021
G1 X45.350 Y75.884 E2.22360
G1 X45.226 Y76.078 E2.22700
G1 X45.079 Y76.256 E2.23039
G1 X44.911 Y76.414 E2.23378
G1 X44.724 Y76.549 E2.23718
G1 X44.522 Y76.660 E2.24058
G1 X44.308 Y76.745 E2.24396
G1 X44.085 Y76.802 E2.24736
G1 X43.856 Y76.831 E2.25076
G1 X43.626 Y76.831 E2.25414
G1 X43.397 Y76.802 E2.25754
G1 X43.174 Y76.745 E2.26093
G1 X42.960 Y76.660 E2.26431
G1 X42.758 Y76.549 E2.26771
G1 X42.571 Y76.414 E2.27111
G1 X42.403 Y76.256 E2.27451
G1 X42.257 Y76.079 E2.27789
G1 X42.134 Y75.884 E2.28128
G1 X42.035 Y75.675 E2.28468
G1 X41.963 Y75.456 E2.28808
G1 X41.920 Y75.230 E2.29146
G1 X41.906 Y75.000 E2.29486
G1 X41.920 Y74.770 E2.29825
G1 X41.963 Y74.544 E2.30164
G1 X42.035 Y74.325 E2.30503
G1 X42.134 Y74.116 E2.30844
G1 X42.257 Y73.921 E2.31183
G1 X42.403 Y73.744 E2.31521
G1 X42.710 Y73.486 E2.32111
G1 X42.663 Y73.301 F7800.000
G1 F1040.220
G1 X42.885 Y73.179 E2.32483
G1 X43.119 Y73.086 E2.32854
G1 X43.364 Y73.023 E2.33227
G1 X43.615 Y72.992 E2.33599
G1 X43.867 Y72.992 E2.33970
G1 X44.118 Y73.023 E2.34343
G1 X44.363 Y73.086 E2.34715
G1 X44.597 Y73.179 E2.35087
G1 X44.819 Y73.301 E2.35459
G1 X45.024 Y73.450 E2.35832
G1 X45.208 Y73.623 E2.36204
G1 X45.369 Y73.817 E2.36576
G1 X45.505 Y74.031 E2.36948
G1 X45.613 Y74.259 E2.37320
G1 X45.690 Y74.499 E2.37692
G1 X45.738 Y74.748 E2.38064
G1 X45.753 Y75.000 E2.38436
G1 X45.738 Y75.252 E2.38809
G1 X45.690 Y75.501 E2.39181
G1 X45.613 Y75.741 E2.39553
G1 X45.505 Y75.969 E2.39925
G1 X45.369 Y76.183 E2.40297
G1 X45.208 Y76.377 E2.40669
G1 X45.024 Y76.550 E2.41041
G1 X44.819 Y76.699 E2.41414
G1 X44.597 Y76.821 E2.41786
G1 X44.363 Y76.914 E2.42157
G1 X44.118 Y76.977 E2.42530
G1 X43.867 Y77.008 E2.42903
G1 X43.615 Y77.008 E2.43273
G1 X43.364 Y76.977 E2.43646
G1 X43.119 Y76.914 E2.44019
G1 X42.885 Y76.821 E2.44390
G1 X42.663 Y76.699 E2.44762
G1 X42.458 Y76.550 E2.45135
G1 X42.274 Y76.377 E2.45507
G1 X42.113 Y76.183 E2.45878
G1 X41.978 Y75.970 E2.46250
G1 X41.870 Y75.740 E2.46623
G1 X41.792 Y75.500 E2.46995
G1 X41.744 Y75.252 E2.47367
G1 X41.729 Y75.000 E2.47739
G1 X41.744 Y74.748 E2.48111
G1 X41.792 Y74.500 E2.48483
G1 X41.870 Y74.260 E2.48855
G1 X41.978 Y74.030 E2.49228
G1 X42.113 Y73.817 E2.49600
G1 X42.274 Y73.623 E2.49971
G1 X42.458 Y73.450 E2.50344
G1 X42.615 Y73.336 E2.50628
G1 X42.568 Y73.151 F7800.000
G1 F1800.000
G1 X42.809 Y73.019 E2.51033
G1 X43.064 Y72.917 E2.51437
G1 X43.331 Y72.849 E2.51842
G1 X43.604 Y72.815 E2.52248
G1 X43.878 Y72.815 E2.52651
G1 X44.151 Y72.849 E2.53057
G1 X44.418 Y72.917 E2.53462
G1 X44.673 Y73.019 E2.53866
G1 X44.914 Y73.151 E2.54271
G1 X45.137 Y73.313 E2.54677
G1 X45.338 Y73.501 E2.55082
G1 X45.513 Y73.713 E2.55487
G1 X45.660 Y73.945 E2.55892
G1 X45.778 Y74.194 E2.56297
G1 X45.862 Y74.455 E2.56701
G1 X45.914 Y74.725 E2.57106
G1 X45.931 Y75.000 E2.57511
G1 X45.914 Y75.274 E2.57916
G1 X45.862 Y75.545 E2.58321
G1 X45.778 Y75.806 E2.58726
G1 X45.660 Y76.055 E2.59131
G1 X45.513 Y76.287 E2.59536
G1 X45.338 Y76.499 E2.59941
G1 X45.137 Y76.687 E2.60346
G1 X44.914 Y76.849 E2.60751
G1 X44.673 Y76.981 E2.61156
G1 X44.418 Y77.083 E2.61560
G1 X44.151 Y77.151 E2.61965
G1 X43.878 Y77.185 E2.62371
G1 X43.604 Y77.185 E2.62775
G1 X43.331 Y77.151 E2.63180
G1 X43.064 Y77.083 E2.63586
G1 X42.809 Y76.981 E2.63990
G1 X42.568 Y76.849 E2.64395
G1 X42.345 Y76.687 E2.64800
G1 X42.144 Y76.499 E2.65205
G1 X41.969 Y76.287 E2.65610
G1 X41.823 Y76.055 E2.66014
G1 X41.705 Y75.806 E2.66419
G1 X41.620 Y75.544 E2.66825
G1 X41.568 Y75.274 E2.67229
G1 X41.551 Y75.000 E2.67634
G1 X41.568 Y74.725 E2.68039
G1 X41.620 Y74.456 E2.68444
G1 X41.705 Y74.194 E2.68849
G1 X41.823 Y73.945 E2.69254
G1 X41.969 Y73.713 E2.69659
G1 X42.144 Y73.501 E2.70063
G1 X42.345 Y73.313 E2.70469
G1 X42.519 Y73.186 E2.70786
G1 X42.812 Y73.279 F7800.000
G1 X42.733 Y73.916 F7800.000
G1 F1040.220
G1 X42.475 Y74.198 E2.71373
G1 X42.376 Y74.355 E2.71659
G1 X42.253 Y74.658 E2.72162
G1 X43.399 Y73.512 E2.74654
G1 X43.718 Y73.454 E2.75153
G1 X42.198 Y74.974 E2.78458
G1 X42.202 Y75.231 E2.78854
G1 X43.971 Y73.463 E2.82700
G1 X44.191 Y73.504 E2.83044
G1 X42.243 Y75.452 E2.87280
G1 X42.311 Y75.645 E2.87596
G1 X44.386 Y73.570 E2.92107
G1 X44.560 Y73.658 E2.92407
G1 X42.399 Y75.819 E2.97106
G1 X42.504 Y75.975 E2.97396
G1 X44.716 Y73.764 E3.02205
G1 X44.855 Y73.886 E3.02490
G1 X42.627 Y76.114 E3.07335
G1 X42.766 Y76.236 E3.07620
G1 X44.978 Y74.025 E3.12430
G1 X45.083 Y74.181 E3.12719
G1 X42.922 Y76.342 E3.17419
G1 X43.096 Y76.430 E3.17719
G1 X45.171 Y74.354 E3.22232
G1 X45.239 Y74.548 E3.22548
G1 X43.291 Y76.496 E3.26784
G1 X43.511 Y76.537 E3.27129
G1 X45.280 Y74.769 E3.30975
G1 X45.284 Y75.026 E3.31371
G1 X43.764 Y76.546 E3.34676
G1 X44.083 Y76.488 E3.35174
G1 X45.230 Y75.342 E3.37668
G1 X45.108 Y75.644 E3.38169
G1 X45.008 Y75.801 E3.38456
G1 X44.749 Y76.084 E3.39045
G1 Z1.500 F7800.000
G1 X42.872 Y73.631 F7800.000
G1 F600.000
G1 X43.051 Y73.533 E3.39922
G1 X43.240 Y73.458 E3.40795
G1 X43.437 Y73.407 E3.41670
G1 X43.640 Y73.382 E3.42547
G1 X43.842 Y73.382 E3.43420
G1 X44.045 Y73.407 E3.44298
G1 X44.242 Y73.458 E3.45173
G1 X44.431 Y73.533 E3.46046
G1 X44.610 Y73.631 E3.46923
G1 X44.775 Y73.751 E3.47801
G1 X44.924 Y73.890 E3.48677
G1 X45.053 Y74.047 E3.49552
G1 X45.163 Y74.219 E3.50428
G1 X45.249 Y74.403 E3.51302
G1 X45.312 Y74.596 E3.52176
G1 X45.350 Y74.796 E3.53052
G1 X45.363 Y75.000 E3.53929
G1 X45.350 Y75.204 E3.54806
G1 X45.312 Y75.404 E3.55682
G1 X45.249 Y75.597 E3.56556
G1 X45.163 Y75.781 E3.57430
G1 X45.053 Y75.953 E3.58306
G1 X44.924 Y76.110 E3.59181
G1 X44.775 Y76.249 E3.60057
G1 X44.610 Y76.369 E3.60935
G1 X44.431 Y76.467 E3.61812
G1 X44.242 Y76.542 E3.62685
G1 X44.045 Y76.593 E3.63560
G1 X43.842 Y76.618 E3.64438
G1 X43.640 Y76.618 E3.65311
G1 X43.437 Y76.593 E3.66188
G1 X43.240 Y76.542 E3.67063
G1 X43.051 Y76.467 E3.67936
G1 X42.872 Y76.369 E3.68813
G1 X42.707 Y76.249 E3.69692
G1 X42.558 Y76.110 E3.70567
G1 X42.429 Y75.954 E3.71438
G1 X42.321 Y75.782 E3.72312
G1 X42.233 Y75.596 E3.73195
G1 X42.170 Y75.403 E3.74071
G1 X42.132 Y75.204 E3.74942
G1 X42.119 Y75.000 E3.75819
G1 X42.132 Y74.796 E3.76695
G1 X42.170 Y74.597 E3.77567
G1 X42.233 Y74.404 E3.78442
G1 X42.321 Y74.218 E3.79325
G1 X42.429 Y74.046 E3.80199
G1 X42.558 Y73.890 E3.81070
G1 X42.824 Y73.666 E3.82563
G1 X42.627 Y73.244 F7800.000
G1 F1800.000
G1 X42.856 Y73.118 E3.83425
G1 X43.098 Y73.022 E3.84286
G1 X43.351 Y72.957 E3.85148
G1 X43.611 Y72.925 E3.86012
G1 X43.871 Y72.925 E3.86872
G1 X44.131 Y72.957 E3.87736
G1 X44.384 Y73.022 E3.88598
G1 X44.626 Y73.118 E3.89459
G1 X44.855 Y73.244 E3.90321
G1 X45.067 Y73.398 E3.91185
G1 X45.257 Y73.577 E3.92048
G1 X45.424 Y73.778 E3.92910
G1 X45.564 Y73.998 E3.93772
G1 X45.675 Y74.234 E3.94634
G1 X45.755 Y74.483 E3.95496
G1 X45.804 Y74.739 E3.96358
G1 X45.821 Y75.000 E3.97221
G1 X45.804 Y75.261 E3.98083
G1 X45.755 Y75.517 E3.98946
G1 X45.675 Y75.766 E3.99808
G1 X45.564 Y76.002 E4.00669
G1 X45.424 Y76.222 E4.01532
G1 X45.257 Y76.423 E4.02394
G1 X45.067 Y76.602 E4.03257
G1 X44.855 Y76.756 E4.04121
G1 X44.626 Y76.882 E4.04983
G1 X44.384 Y76.978 E4.05843
G1 X44.131 Y77.043 E4.06706
G1 X43.871 Y77.075 E4.07570
G1 X43.611 Y77.075 E4.08430
G1 X43.351 Y77.043 E4.09293
G1 X43.098 Y76.978 E4.10156
G1 X42.856 Y76.882 E4.11016
G1 X42.627 Y76.756 E4.11879
G1 X42.415 Y76.602 E4.12742
G1 X42.225 Y76.423 E4.13605
G1 X42.059 Y76.223 E4.14466
G1 X41.919 Y76.002 E4.15327
G1 X41.808 Y75.765 E4.16191
G1 X41.726 Y75.517 E4.17054
G1 X41.678 Y75.261 E4.17915
G1 X41.661 Y75.000 E4.18778
G1 X41.678 Y74.739 E4.19640
G1 X41.726 Y74.483 E4.20502
G1 X41.808 Y74.235 E4.21364
G1 X41.919 Y73.998 E4.22228
G1 X42.059 Y73.777 E4.23089
G1 X42.225 Y73.577 E4.23950
G1 X42.415 Y73.398 E4.24813
G1 X42.579 Y73.279 E4.25479
G1 X42.859 Y73.365 F7800.000
G1 X44.346 Y74.045 F7800.000
G1 F600.000
G1 X44.748 Y74.447 E4.28087
G1 X45.008 Y75.487 F7800.000
G1 F600.000
G1 X43.256 Y73.735 E4.39449
G1 X43.071 Y73.800 E4.40349
G1 X42.949 Y73.867 E4.40988
G1 X42.761 Y74.020 E4.42098
G1 X44.721 Y75.980 E4.54814
G1 X44.533 Y76.133 E4.55924
G1 X44.411 Y76.200 E4.56563
G1 X44.226 Y76.265 E4.57462
G1 X42.475 Y74.514 E4.68823
G1 X42.436 Y74.799 E4.70143
G1 X42.471 Y75.072 E4.71406
G1 X42.514 Y75.204 E4.72041
G1 X42.574 Y75.332 E4.72689
G1 X42.734 Y75.553 E4.73943
G1 X43.136 Y75.955 E4.76551
M106 S255
G1 Z1.700 F7800.000
G1 X42.872 Y73.631 F7800.000
G1 F600.000
G1 X43.051 Y73.533 E4.77428
G1 X43.240 Y73.458 E4.78301
G1 X43.437 Y73.407 E4.79176
G1 X43.640 Y73.382 E4.80054
G1 X43.842 Y73.382 E4.80927
G1 X44.045 Y73.407 E4.81804
G1 X44.242 Y73.458 E4.82680
G1 X44.431 Y73.533 E4.83552
G1 X44.610 Y73.631 E4.84430
G1 X44.775 Y73.751 E4.85308
G1 X44.924 Y73.890 E4.86184
G1 X45.053 Y74.047 E4.87058
G1 X45.163 Y74.219 E4.87935
G1 X45.249 Y74.403 E4.88808
G1 X45.312 Y74.596 E4.89683
G1 X45.350 Y74.796 E4.90559
G1 X45.363 Y75.000 E4.91436
G1 X45.350 Y75.204 E4.92312
G1 X45.312 Y75.404 E4.93188
G1 X45.249 Y75.597 E4.94063
G1 X45.163 Y75.781 E4.94936
G1 X45.053 Y75.953 E4.95813
G1 X44.924 Y76.110 E4.96688
G1 X44.775 Y76.249 E4.97563
G1 X44.610 Y76.369 E4.98442
G1 X44.431 Y76.467 E4.99319
G1 X44.242 Y76.542 E5.00192
G1 X44.045 Y76.593 E5.01067
G1 X43.842 Y76.618 E5.01945
G1 X43.640 Y76.618 E5.02817
G1 X43.437 Y76.593 E5.03695
G1 X43.240 Y76.542 E5.04570
G1 X43.051 Y76.467 E5.05443
G1 X42.872 Y76.369 E5.06320
G1 X42.707 Y76.249 E5.07199
G1 X42.558 Y76.110 E5.08074
G1 X42.429 Y75.954 E5.08944
G1 X42.321 Y75.782 E5.09819
G1 X42.233 Y75.596 E5.10701
G1 X42.170 Y75.403 E5.11577
G1 X42.132 Y75.204 E5.12448
G1 X42.119 Y75.000 E5.13325
G1 X42.132 Y74.796 E5.14202
G1 X42.170 Y74.597 E5.15073
G1 X42.233 Y74.404 E5.15949
G1 X42.321 Y74.218 E5.16831
G1 X42.429 Y74.046 E5.17706
G1 X42.558 Y73.890 E5.18576
G1 X42.824 Y73.666 E5.20069
G1 X42.627 Y73.244 F7800.000
G1 F1800.000
G1 X42.856 Y73.118 E5.20932
G1 X43.098 Y73.022 E5.21792
G1 X43.351 Y72.957 E5.22655
G1 X43.611 Y72.925 E5.23519
G1 X43.871 Y72.925 E5.24378
G1 X44.131 Y72.957 E5.25242
G1 X44.384 Y73.022 E5.26105
G1 X44.626 Y73.118 E5.26965
G1 X44.855 Y73.244 E5.27828
G1 X45.067 Y73.398 E5.28691
G1 X45.257 Y73.577 E5.29554
G1 X45.424 Y73.778 E5.30416
G1 X45.564 Y73.998 E5.31279
G1 X45.675 Y74.234 E5.32141
G1 X45.755 Y74.483 E5.33003
G1 X45.804 Y74.739 E5.33865
G1 X45.821 Y75.000 E5.34727
G1 X45.804 Y75.261 E5.35590
G1 X45.755 Y75.517 E5.36452
G1 X45.675 Y75.766 E5.37314
G1 X45.564 Y76.002 E5.38176
G1 X45.424 Y76.222 E5.39039
G1 X45.257 Y76.423 E5.39901
G1 X45.067 Y76.602 E5.40764
G1 X44.855 Y76.756 E5.41627
G1 X44.626 Y76.882 E5.42490
G1 X44.384 Y76.978 E5.43350
G1 X44.131 Y77.043 E5.44213
G1 X43.871 Y77.075 E5.45077
G1 X43.611 Y77.075 E5.45936
G1 X43.351 Y77.043 E5.46800
G1 X43.098 Y76.978 E5.47663
G1 X42.856 Y76.882 E5.48523
G1 X42.627 Y76.756 E5.49385
G1 X42.415 Y76.602 E5.50249
G1 X42.225 Y76.423 E5.51112
G1 X42.059 Y76.223 E5.51973
G1 X41.919 Y76.002 E5.52834
G1 X41.808 Y75.765 E5.53698
G1 X41.726 Y75.517 E5.54561
G1 X41.678 Y75.261 E5.55422
G1 X41.661 Y75.000 E5.56284
G1 X41.678 Y74.739 E5.57147
G1 X41.726 Y74.483 E5.58008
G1 X41.808 Y74.235 E5.58871
G1 X41.919 Y73.998 E5.59735
G1 X42.059 Y73.777 E5.60596
G1 X42.225 Y73.577 E5.61457
G1 X42.415 Y73.398 E5.62320
G1 X42.579 Y73.279 E5.62985
G1 X42.859 Y73.365 F7800.000
G1 X43.139 Y74.042 F7800.000
G1 F600.000
G1 X42.734 Y74.447 E5.65613
G1 X42.574 Y74.668 E5.66866
G1 X42.514 Y74.796 E5.67515
G1 X42.471 Y74.928 E5.68150
G1 X42.436 Y75.201 E5.69413
G1 X42.475 Y75.486 E5.70733
G1 X44.226 Y73.735 E5.82094
G1 X44.411 Y73.800 E5.82993
G1 X44.533 Y73.867 E5.83632
G1 X44.721 Y74.020 E5.84742
G1 X42.761 Y75.980 E5.97458
G1 X42.949 Y76.133 E5.98568
G1 X43.071 Y76.200 E5.99207
G1 X43.256 Y76.265 E6.00107
G1 X45.008 Y74.513 E6.11469
G1 X45.046 Y74.799 E6.12790
G1 X45.037 Y74.938 E6.13428
G1 X44.968 Y75.206 E6.14696
G1 X44.910 Y75.330 E6.15327
G1 X44.748 Y75.553 E6.16591
G1 X44.343 Y75.958 E6.19218
G1 Z1.900 F7800.000
G1 X42.872 Y73.631 F7800.000
G1 F600.000
G1 X43.051 Y73.533 E6.20095
G1 X43.240 Y73.458 E6.20968
G1 X43.437 Y73.407 E6.21843
G1 X43.640 Y73.382 E6.22721
G1 X43.842 Y73.382 E6.23594
G1 X44.045 Y73.407 E6.24471
G1 X44.242 Y73.458 E6.25347
G1 X44.431 Y73.533 E6.26219
G1 X44.610 Y73.631 E6.27096
G1 X44.775 Y73.751 E6.27975
G1 X44.924 Y73.890 E6.28851
G1 X45.053 Y74.047 E6.29725
G1 X45.163 Y74.219 E6.30602
G1 X45.249 Y74.403 E6.31475
G1 X45.312 Y74.596 E6.32350
G1 X45.350 Y74.796 E6.33226
G1 X45.363 Y75.000 E6.34103
G1 X45.350 Y75.204 E6.34979
G1 X45.312 Y75.404 E6.35855
G1 X45.249 Y75.597 E6.36730
G1 X45.163 Y75.781 E6.37603
G1 X45.053 Y75.953 E6.38480
G1 X44.924 Y76.110 E6.39355
G1 X44.775 Y76.249 E6.40230
G1 X44.610 Y76.369 E6.41109
G1 X44.431 Y76.467 E6.41986
G1 X44.242 Y76.542 E6.42859
G1 X44.045 Y76.593 E6.43734
G1 X43.842 Y76.618 E6.44612
G1 X43.640 Y76.618 E6.45484
G1 X43.437 Y76.593 E6.46362
G1 X43.240 Y76.542 E6.47237
G1 X43.051 Y76.467 E6.48110
G1 X42.872 Y76.369 E6.48987
G1 X42.707 Y76.249 E6.49866
G1 X42.558 Y76.110 E6.50741
G1 X42.429 Y75.954 E6.51611
G1 X42.321 Y75.782 E6.52486
G1 X42.233 Y75.596 E6.53368
G1 X42.170 Y75.403 E6.54244
G1 X42.132 Y75.204 E6.55115
G1 X42.119 Y75.000 E6.55992
G1 X42.132 Y74.796 E6.56869
G1 X42.170 Y74.597 E6.57740
G1 X42.233 Y74.404 E6.58616
