; Gcode updated with 'stl_info' on 2019-12-03 19:08:10.216270

; stl_min_x = -6.699999809265137
; stl_max_x = 46.663299560546875
; stl_min_y = -10.199999809265137
; stl_max_y = 10.199999809265137
; stl_min_z = 0.0

; generated by Slic3r 1.3.1-dev (Build adea0d9) on 2019-12-03 at 19:08:09

; external perimeters extrusion width = 0.55mm (1.90mm^3/s)
; perimeters extrusion width = 0.70mm (2.71mm^3/s)
; infill extrusion width = 0.62mm (2.41mm^3/s)
; solid infill extrusion width = 0.70mm (2.04mm^3/s)
; top infill extrusion width = 0.70mm (2.04mm^3/s)

M107
G92 E0
;D3D:START:START
T0
M104 S215 T0

G21
G90
M107
T0
G28
G29
M109 T0 S215 T0
G0 F3000
M107
T0
G92 E0
G0 X0 Y149 Z0.1 F3600
G1 Y49 E6.5 F1200
G0 Z1
G92 E0
; Filament gcode

G21 ; set units to millimeters
G90 ; use absolute coordinates
M82 ; use absolute distances for extrusion
G92 E0
G1 Z0.090 F7800.000
G1 E-2.00000 F2400.00000
G92 E0
G1 X47.236 Y64.855 F7800.000
G1 E2.00000 F2400.00000
G1 F1800.000
G1 X47.751 Y64.481 E2.00190
G1 X48.339 Y64.099 E2.00399
G1 X48.890 Y63.781 E2.00589
G1 X49.515 Y63.462 E2.00798
G1 X50.096 Y63.203 E2.00987
G1 X50.751 Y62.952 E2.01197
G1 X51.356 Y62.755 E2.01386
G1 X52.033 Y62.574 E2.01595
G1 X52.544 Y62.460 E2.01751
G1 X71.816 Y59.037 E2.07588
G1 X72.983 Y58.851 E2.07940
G1 X73.615 Y58.785 E2.08130
G1 X74.682 Y58.729 E2.08448
G1 X75.317 Y58.729 E2.08637
G1 X76.387 Y58.784 E2.08957
G1 X77.021 Y58.851 E2.09147
G1 X78.076 Y59.018 E2.09465
G1 X97.590 Y62.486 E2.15375
G1 X98.644 Y62.755 E2.15699
G1 X99.249 Y62.952 E2.15889
G1 X99.904 Y63.203 E2.16098
G1 X100.485 Y63.462 E2.16288
G1 X101.110 Y63.781 E2.16497
G1 X101.661 Y64.099 E2.16687
G1 X102.249 Y64.481 E2.16896
G1 X102.764 Y64.855 E2.17086
G1 X103.309 Y65.296 E2.17295
G1 X103.782 Y65.722 E2.17484
G1 X104.278 Y66.218 E2.17694
G1 X104.704 Y66.691 E2.17883
G1 X105.145 Y67.236 E2.18092
G1 X105.519 Y67.750 E2.18282
G1 X105.901 Y68.338 E2.18491
G1 X106.219 Y68.890 E2.18681
G1 X106.538 Y69.515 E2.18890
G1 X106.797 Y70.096 E2.19080
G1 X107.048 Y70.751 E2.19289
G1 X107.245 Y71.356 E2.19479
G1 X107.426 Y72.034 E2.19688
G1 X107.558 Y72.656 E2.19878
G1 X107.668 Y73.349 E2.20087
G1 X107.735 Y73.982 E2.20276
G1 X107.771 Y74.682 E2.20485
G1 X107.771 Y75.318 E2.20675
G1 X107.735 Y76.019 E2.20884
G1 X107.668 Y76.651 E2.21074
G1 X107.558 Y77.344 E2.21283
G1 X107.426 Y77.966 E2.21473
G1 X107.245 Y78.644 E2.21682
G1 X107.048 Y79.249 E2.21872
G1 X106.797 Y79.904 E2.22081
G1 X106.538 Y80.485 E2.22271
G1 X106.219 Y81.110 E2.22480
G1 X105.901 Y81.662 E2.22670
G1 X105.519 Y82.250 E2.22879
G1 X105.145 Y82.764 E2.23068
G1 X104.704 Y83.309 E2.23277
G1 X104.278 Y83.782 E2.23467
G1 X103.782 Y84.278 E2.23676
G1 X103.309 Y84.704 E2.23866
G1 X102.764 Y85.145 E2.24075
G1 X102.249 Y85.519 E2.24265
G1 X101.661 Y85.901 E2.24474
G1 X101.110 Y86.219 E2.24664
G1 X100.485 Y86.538 E2.24873
G1 X99.904 Y86.797 E2.25063
G1 X99.249 Y87.048 E2.25272
G1 X98.644 Y87.245 E2.25461
G1 X97.967 Y87.426 E2.25670
G1 X97.425 Y87.546 E2.25836
G1 X78.076 Y90.982 E2.31695
G1 X77.021 Y91.149 E2.32014
G1 X76.389 Y91.215 E2.32203
G1 X75.004 Y91.280 E2.32617
G1 X73.615 Y91.215 E2.33031
G1 X72.983 Y91.149 E2.33221
G1 X71.928 Y90.982 E2.33539
G1 X52.544 Y87.540 E2.39409
G1 X52.033 Y87.426 E2.39565
G1 X51.356 Y87.245 E2.39774
G1 X50.751 Y87.048 E2.39964
G1 X50.096 Y86.797 E2.40173
G1 X49.515 Y86.538 E2.40363
G1 X48.890 Y86.219 E2.40572
G1 X48.339 Y85.901 E2.40762
G1 X47.751 Y85.519 E2.40971
G1 X47.236 Y85.145 E2.41161
G1 X46.691 Y84.704 E2.41370
G1 X46.218 Y84.278 E2.41560
G1 X45.722 Y83.782 E2.41769
G1 X45.296 Y83.309 E2.41958
G1 X44.855 Y82.764 E2.42167
G1 X44.481 Y82.249 E2.42357
G1 X44.099 Y81.661 E2.42566
G1 X43.781 Y81.110 E2.42756
G1 X43.462 Y80.485 E2.42965
G1 X43.203 Y79.904 E2.43155
G1 X42.952 Y79.249 E2.43364
G1 X42.755 Y78.644 E2.43554
G1 X42.574 Y77.967 E2.43763
G1 X42.442 Y77.344 E2.43953
G1 X42.332 Y76.651 E2.44162
G1 X42.265 Y76.018 E2.44351
G1 X42.229 Y75.318 E2.44561
G1 X42.229 Y74.682 E2.44750
G1 X42.265 Y73.982 E2.44959
G1 X42.332 Y73.349 E2.45149
G1 X42.442 Y72.656 E2.45358
G1 X42.574 Y72.033 E2.45548
G1 X42.755 Y71.356 E2.45757
G1 X42.952 Y70.751 E2.45947
G1 X43.203 Y70.096 E2.46156
G1 X43.462 Y69.515 E2.46346
G1 X43.781 Y68.890 E2.46555
G1 X44.099 Y68.339 E2.46745
G1 X44.481 Y67.751 E2.46954
G1 X44.855 Y67.236 E2.47143
G1 X45.296 Y66.691 E2.47352
G1 X45.722 Y66.218 E2.47542
G1 X46.218 Y65.722 E2.47751
G1 X46.691 Y65.296 E2.47941
G1 X47.177 Y64.902 E2.48128
G1 E0.48128 F2400.00000
G92 E0
G1 X95.119 Y76.885 F7800.000
G1 E2.00000 F2400.00000
G1 F1800.000
G1 X94.881 Y76.885 E2.00071
G1 X94.646 Y76.856 E2.00141
G1 X94.416 Y76.797 E2.00212
G1 X94.196 Y76.709 E2.00283
G1 X93.988 Y76.595 E2.00354
G1 X93.796 Y76.456 E2.00424
G1 X93.623 Y76.293 E2.00495
G1 X93.472 Y76.110 E2.00566
G1 X93.345 Y75.910 E2.00637
G1 X93.244 Y75.695 E2.00707
G1 X93.170 Y75.470 E2.00778
G1 X93.126 Y75.237 E2.00849
G1 X93.111 Y75.000 E2.00920
G1 X93.126 Y74.763 E2.00990
G1 X93.170 Y74.530 E2.01061
G1 X93.244 Y74.305 E2.01132
G1 X93.345 Y74.090 E2.01203
G1 X93.472 Y73.890 E2.01273
G1 X93.623 Y73.707 E2.01344
G1 X93.796 Y73.544 E2.01415
G1 X93.988 Y73.405 E2.01485
G1 X94.196 Y73.291 E2.01556
G1 X94.416 Y73.203 E2.01627
G1 X94.646 Y73.144 E2.01698
G1 X94.881 Y73.115 E2.01768
G1 X95.119 Y73.115 E2.01839
G1 X95.354 Y73.144 E2.01910
G1 X95.584 Y73.203 E2.01981
G1 X95.804 Y73.291 E2.02051
G1 X96.012 Y73.405 E2.02122
G1 X96.204 Y73.544 E2.02193
G1 X96.377 Y73.707 E2.02264
G1 X96.528 Y73.890 E2.02334
G1 X96.655 Y74.090 E2.02405
G1 X96.756 Y74.305 E2.02476
G1 X96.830 Y74.530 E2.02546
G1 X96.874 Y74.763 E2.02617
G1 X96.889 Y75.000 E2.02688
G1 X96.874 Y75.237 E2.02759
G1 X96.830 Y75.470 E2.02829
G1 X96.756 Y75.695 E2.02900
G1 X96.655 Y75.910 E2.02971
G1 X96.528 Y76.110 E2.03042
G1 X96.377 Y76.293 E2.03112
G1 X96.204 Y76.456 E2.03183
G1 X96.012 Y76.595 E2.03254
G1 X95.804 Y76.709 E2.03325
G1 X95.584 Y76.797 E2.03395
G1 X95.193 Y76.876 E2.03514
G1 X95.114 Y76.806 F7800.000
G1 F1800.000
G1 X94.886 Y76.806 E2.03582
G1 X94.661 Y76.777 E2.03650
G1 X94.441 Y76.721 E2.03717
G1 X94.230 Y76.637 E2.03785
G1 X94.031 Y76.528 E2.03853
G1 X93.847 Y76.394 E2.03921
G1 X93.681 Y76.239 E2.03988
G1 X93.536 Y76.063 E2.04056
G1 X93.414 Y75.872 E2.04124
G1 X93.318 Y75.666 E2.04192
G1 X93.248 Y75.450 E2.04259
G1 X93.205 Y75.227 E2.04327
G1 X93.191 Y75.000 E2.04395
G1 X93.205 Y74.773 E2.04463
G1 X93.248 Y74.550 E2.04530
G1 X93.318 Y74.334 E2.04598
G1 X93.414 Y74.128 E2.04666
G1 X93.536 Y73.937 E2.04734
G1 X93.681 Y73.761 E2.04801
G1 X93.847 Y73.606 E2.04869
G1 X94.031 Y73.472 E2.04937
G1 X94.230 Y73.363 E2.05005
G1 X94.441 Y73.279 E2.05072
G1 X94.661 Y73.223 E2.05140
G1 X94.886 Y73.194 E2.05208
G1 X95.114 Y73.194 E2.05276
G1 X95.339 Y73.223 E2.05343
G1 X95.559 Y73.279 E2.05411
G1 X95.770 Y73.363 E2.05479
G1 X95.969 Y73.472 E2.05547
G1 X96.153 Y73.606 E2.05614
G1 X96.319 Y73.761 E2.05682
G1 X96.464 Y73.937 E2.05750
G1 X96.586 Y74.128 E2.05818
G1 X96.682 Y74.334 E2.05885
G1 X96.752 Y74.550 E2.05953
G1 X96.795 Y74.773 E2.06021
G1 X96.809 Y75.000 E2.06089
G1 X96.795 Y75.227 E2.06156
G1 X96.752 Y75.450 E2.06224
G1 X96.682 Y75.666 E2.06292
G1 X96.585 Y75.872 E2.06360
G1 X96.464 Y76.063 E2.06427
G1 X96.319 Y76.239 E2.06495
G1 X96.153 Y76.394 E2.06563
G1 X95.969 Y76.528 E2.06631
G1 X95.770 Y76.637 E2.06698
G1 X95.559 Y76.721 E2.06766
G1 X95.188 Y76.796 E2.06879
G1 X95.109 Y76.726 F7800.000
G1 F1800.000
G1 X94.891 Y76.726 E2.06944
G1 X94.676 Y76.699 E2.07008
G1 X94.466 Y76.645 E2.07073
G1 X94.264 Y76.565 E2.07138
G1 X94.073 Y76.460 E2.07203
G1 X93.898 Y76.333 E2.07268
G1 X93.739 Y76.184 E2.07332
G1 X93.601 Y76.017 E2.07397
G1 X93.484 Y75.833 E2.07462
G1 X93.392 Y75.637 E2.07527
G1 X93.325 Y75.430 E2.07591
G1 X93.284 Y75.217 E2.07656
G1 X93.271 Y75.000 E2.07721
G1 X93.284 Y74.783 E2.07786
G1 X93.325 Y74.570 E2.07850
G1 X93.392 Y74.363 E2.07915
G1 X93.484 Y74.167 E2.07980
G1 X93.601 Y73.983 E2.08045
G1 X93.739 Y73.816 E2.08109
G1 X93.898 Y73.667 E2.08174
G1 X94.073 Y73.540 E2.08239
G1 X94.264 Y73.435 E2.08304
G1 X94.466 Y73.355 E2.08368
G1 X94.676 Y73.301 E2.08433
G1 X94.891 Y73.274 E2.08498
G1 X95.109 Y73.274 E2.08563
G1 X95.324 Y73.301 E2.08627
G1 X95.534 Y73.355 E2.08692
G1 X95.736 Y73.435 E2.08757
G1 X95.927 Y73.540 E2.08822
G1 X96.102 Y73.667 E2.08886
G1 X96.261 Y73.816 E2.08951
G1 X96.399 Y73.983 E2.09016
G1 X96.516 Y74.167 E2.09081
G1 X96.608 Y74.363 E2.09145
G1 X96.675 Y74.570 E2.09210
G1 X96.716 Y74.783 E2.09275
G1 X96.729 Y75.000 E2.09340
G1 X96.716 Y75.217 E2.09404
G1 X96.675 Y75.430 E2.09469
G1 X96.608 Y75.637 E2.09534
G1 X96.516 Y75.833 E2.09599
G1 X96.399 Y76.017 E2.09664
G1 X96.261 Y76.184 E2.09728
G1 X96.102 Y76.333 E2.09793
G1 X95.927 Y76.460 E2.09858
G1 X95.736 Y76.565 E2.09923
G1 X95.534 Y76.645 E2.09987
G1 X95.183 Y76.717 E2.10094
G1 X95.104 Y76.646 F7800.000
G1 F1800.000
G1 X94.896 Y76.646 E2.10156
G1 X94.691 Y76.620 E2.10218
G1 X94.490 Y76.569 E2.10280
G1 X94.298 Y76.493 E2.10341
G1 X94.116 Y76.393 E2.10403
G1 X93.948 Y76.271 E2.10465
G1 X93.797 Y76.129 E2.10527
G1 X93.665 Y75.970 E2.10588
G1 X93.554 Y75.795 E2.10650
G1 X93.466 Y75.607 E2.10712
G1 X93.402 Y75.410 E2.10774
G1 X93.363 Y75.207 E2.10835
G1 X93.350 Y75.000 E2.10897
G1 X93.363 Y74.793 E2.10959
G1 X93.402 Y74.590 E2.11021
G1 X93.466 Y74.393 E2.11083
G1 X93.554 Y74.205 E2.11144
G1 X93.665 Y74.030 E2.11206
G1 X93.797 Y73.871 E2.11268
G1 X93.948 Y73.729 E2.11330
G1 X94.116 Y73.607 E2.11391
G1 X94.298 Y73.507 E2.11453
G1 X94.490 Y73.431 E2.11515
G1 X94.691 Y73.380 E2.11577
G1 X94.896 Y73.354 E2.11638
G1 X95.104 Y73.354 E2.11700
G1 X95.309 Y73.380 E2.11762
G1 X95.510 Y73.431 E2.11824
G1 X95.702 Y73.507 E2.11885
G1 X95.884 Y73.607 E2.11947
G1 X96.052 Y73.729 E2.12009
G1 X96.203 Y73.871 E2.12071
G1 X96.335 Y74.030 E2.12133
G1 X96.446 Y74.205 E2.12194
G1 X96.534 Y74.393 E2.12256
G1 X96.598 Y74.590 E2.12318
G1 X96.637 Y74.793 E2.12380
G1 X96.650 Y75.000 E2.12441
G1 X96.637 Y75.207 E2.12503
G1 X96.598 Y75.410 E2.12565
G1 X96.534 Y75.607 E2.12627
G1 X96.446 Y75.795 E2.12688
G1 X96.335 Y75.970 E2.12750
G1 X96.203 Y76.129 E2.12812
G1 X96.052 Y76.271 E2.12874
G1 X95.884 Y76.393 E2.12936
G1 X95.702 Y76.493 E2.12997
G1 X95.510 Y76.569 E2.13059
G1 X95.178 Y76.637 E2.13160
G1 X95.104 Y76.646 F7800.000
G1 E0.13160 F2400.00000
G92 E0
G1 X56.889 Y75.000 F7800.000
G1 E2.00000 F2400.00000
G1 F1800.000
G1 X56.874 Y75.237 E2.00071
G1 X56.830 Y75.470 E2.00141
G1 X56.756 Y75.695 E2.00212
G1 X56.655 Y75.910 E2.00283
G1 X56.528 Y76.110 E2.00354
G1 X56.377 Y76.293 E2.00424
G1 X56.204 Y76.456 E2.00495
G1 X56.012 Y76.595 E2.00566
G1 X55.804 Y76.709 E2.00637
G1 X55.584 Y76.797 E2.00707
G1 X55.354 Y76.856 E2.00778
G1 X55.119 Y76.885 E2.00849
G1 X54.881 Y76.885 E2.00920
G1 X54.646 Y76.856 E2.00990
G1 X54.416 Y76.797 E2.01061
G1 X54.196 Y76.709 E2.01132
G1 X53.988 Y76.595 E2.01203
G1 X53.796 Y76.456 E2.01273
G1 X53.623 Y76.293 E2.01344
G1 X53.472 Y76.110 E2.01415
G1 X53.345 Y75.910 E2.01485
G1 X53.244 Y75.695 E2.01556
G1 X53.170 Y75.470 E2.01627
G1 X53.126 Y75.237 E2.01698
G1 X53.111 Y75.000 E2.01768
G1 X53.126 Y74.763 E2.01839
G1 X53.170 Y74.530 E2.01910
G1 X53.244 Y74.305 E2.01981
G1 X53.345 Y74.090 E2.02051
G1 X53.472 Y73.890 E2.02122
G1 X53.623 Y73.707 E2.02193
G1 X53.796 Y73.544 E2.02264
G1 X53.988 Y73.405 E2.02334
G1 X54.196 Y73.291 E2.02405
G1 X54.416 Y73.203 E2.02476
G1 X54.646 Y73.144 E2.02547
G1 X54.881 Y73.115 E2.02617
G1 X55.119 Y73.115 E2.02688
G1 X55.354 Y73.144 E2.02759
G1 X55.584 Y73.203 E2.02829
G1 X55.804 Y73.291 E2.02900
G1 X56.012 Y73.405 E2.02971
G1 X56.204 Y73.544 E2.03042
G1 X56.377 Y73.707 E2.03112
G1 X56.528 Y73.890 E2.03183
G1 X56.655 Y74.090 E2.03254
G1 X56.756 Y74.305 E2.03325
G1 X56.830 Y74.530 E2.03395
G1 X56.884 Y74.925 E2.03514
G1 X56.809 Y75.000 F7800.000
G1 F1800.000
G1 X56.795 Y75.227 E2.03582
G1 X56.752 Y75.450 E2.03650
G1 X56.682 Y75.666 E2.03717
G1 X56.585 Y75.872 E2.03785
G1 X56.464 Y76.063 E2.03853
G1 X56.319 Y76.239 E2.03921
G1 X56.153 Y76.394 E2.03988
G1 X55.969 Y76.528 E2.04056
G1 X55.770 Y76.637 E2.04124
G1 X55.559 Y76.721 E2.04192
G1 X55.339 Y76.777 E2.04259
G1 X55.114 Y76.806 E2.04327
G1 X54.886 Y76.806 E2.04395
G1 X54.661 Y76.777 E2.04463
G1 X54.441 Y76.721 E2.04530
G1 X54.230 Y76.637 E2.04598
G1 X54.031 Y76.528 E2.04666
G1 X53.847 Y76.394 E2.04734
G1 X53.681 Y76.239 E2.04801
G1 X53.536 Y76.063 E2.04869
G1 X53.415 Y75.872 E2.04937
G1 X53.318 Y75.666 E2.05005
G1 X53.248 Y75.450 E2.05072
G1 X53.205 Y75.227 E2.05140
G1 X53.191 Y75.000 E2.05208
G1 X53.205 Y74.773 E2.05276
G1 X53.248 Y74.550 E2.05343
G1 X53.318 Y74.334 E2.05411
G1 X53.415 Y74.128 E2.05479
G1 X53.536 Y73.937 E2.05547
G1 X53.681 Y73.761 E2.05614
G1 X53.847 Y73.606 E2.05682
G1 X54.031 Y73.472 E2.05750
G1 X54.230 Y73.363 E2.05818
G1 X54.441 Y73.279 E2.05885
G1 X54.661 Y73.223 E2.05953
G1 X54.886 Y73.194 E2.06021
G1 X55.114 Y73.194 E2.06089
G1 X55.339 Y73.223 E2.06156
G1 X55.559 Y73.279 E2.06224
G1 X55.770 Y73.363 E2.06292
G1 X55.969 Y73.472 E2.06360
G1 X56.153 Y73.606 E2.06427
G1 X56.319 Y73.761 E2.06495
G1 X56.464 Y73.937 E2.06563
G1 X56.585 Y74.128 E2.06631
G1 X56.682 Y74.334 E2.06698
G1 X56.752 Y74.550 E2.06766
G1 X56.805 Y74.925 E2.06879
G1 X56.729 Y75.000 F7800.000
G1 F1800.000
G1 X56.716 Y75.217 E2.06944
G1 X56.675 Y75.430 E2.07008
G1 X56.608 Y75.637 E2.07073
G1 X56.516 Y75.833 E2.07138
G1 X56.399 Y76.017 E2.07203
G1 X56.261 Y76.184 E2.07268
G1 X56.102 Y76.333 E2.07332
G1 X55.927 Y76.460 E2.07397
G1 X55.736 Y76.565 E2.07462
G1 X55.534 Y76.645 E2.07527
G1 X55.324 Y76.699 E2.07591
G1 X55.109 Y76.726 E2.07656
G1 X54.891 Y76.726 E2.07721
G1 X54.676 Y76.699 E2.07786
G1 X54.466 Y76.645 E2.07850
G1 X54.264 Y76.565 E2.07915
G1 X54.073 Y76.460 E2.07980
G1 X53.898 Y76.333 E2.08045
G1 X53.739 Y76.184 E2.08109
G1 X53.601 Y76.017 E2.08174
G1 X53.484 Y75.833 E2.08239
G1 X53.392 Y75.637 E2.08304
G1 X53.325 Y75.430 E2.08368
G1 X53.284 Y75.217 E2.08433
G1 X53.271 Y75.000 E2.08498
G1 X53.284 Y74.783 E2.08563
G1 X53.325 Y74.570 E2.08627
G1 X53.392 Y74.363 E2.08692
G1 X53.484 Y74.167 E2.08757
G1 X53.601 Y73.983 E2.08822
G1 X53.739 Y73.816 E2.08886
G1 X53.898 Y73.667 E2.08951
G1 X54.073 Y73.540 E2.09016
G1 X54.264 Y73.435 E2.09081
G1 X54.466 Y73.355 E2.09145
G1 X54.676 Y73.301 E2.09210
G1 X54.891 Y73.274 E2.09275
G1 X55.109 Y73.274 E2.09340
G1 X55.324 Y73.301 E2.09405
G1 X55.534 Y73.355 E2.09469
G1 X55.736 Y73.435 E2.09534
G1 X55.927 Y73.540 E2.09599
G1 X56.102 Y73.667 E2.09664
G1 X56.261 Y73.816 E2.09728
G1 X56.399 Y73.983 E2.09793
G1 X56.516 Y74.167 E2.09858
G1 X56.608 Y74.363 E2.09923
G1 X56.675 Y74.570 E2.09987
G1 X56.725 Y74.925 E2.10094
G1 X56.650 Y75.000 F7800.000
G1 F1800.000
G1 X56.637 Y75.207 E2.10156
G1 X56.598 Y75.410 E2.10218
G1 X56.534 Y75.607 E2.10280
G1 X56.446 Y75.795 E2.10341
G1 X56.335 Y75.970 E2.10403
G1 X56.203 Y76.129 E2.10465
G1 X56.051 Y76.271 E2.10527
G1 X55.884 Y76.393 E2.10588
G1 X55.702 Y76.493 E2.10650
G1 X55.510 Y76.569 E2.10712
G1 X55.309 Y76.620 E2.10774
G1 X55.104 Y76.646 E2.10835
G1 X54.896 Y76.646 E2.10897
G1 X54.691 Y76.620 E2.10959
G1 X54.490 Y76.569 E2.11021
G1 X54.298 Y76.493 E2.11083
G1 X54.116 Y76.393 E2.11144
G1 X53.949 Y76.271 E2.11206
G1 X53.797 Y76.129 E2.11268
G1 X53.665 Y75.970 E2.11330
G1 X53.554 Y75.795 E2.11391
G1 X53.466 Y75.607 E2.11453
G1 X53.402 Y75.410 E2.11515
G1 X53.363 Y75.207 E2.11577
G1 X53.350 Y75.000 E2.11638
G1 X53.363 Y74.793 E2.11700
G1 X53.402 Y74.590 E2.11762
G1 X53.466 Y74.393 E2.11824
G1 X53.554 Y74.205 E2.11886
G1 X53.665 Y74.030 E2.11947
G1 X53.797 Y73.871 E2.12009
G1 X53.948 Y73.729 E2.12071
G1 X54.116 Y73.607 E2.12133
G1 X54.298 Y73.507 E2.12194
G1 X54.490 Y73.431 E2.12256
G1 X54.691 Y73.380 E2.12318
G1 X54.896 Y73.354 E2.12380
G1 X55.104 Y73.354 E2.12441
G1 X55.309 Y73.380 E2.12503
G1 X55.510 Y73.431 E2.12565
G1 X55.702 Y73.507 E2.12627
G1 X55.884 Y73.607 E2.12689
G1 X56.051 Y73.729 E2.12750
G1 X56.203 Y73.871 E2.12812
G1 X56.335 Y74.030 E2.12874
G1 X56.446 Y74.205 E2.12936
G1 X56.534 Y74.393 E2.12997
G1 X56.598 Y74.590 E2.13059
G1 X56.645 Y74.925 E2.13160
G1 X56.650 Y75.000 F7800.000
G1 E0.13160 F2400.00000
G92 E0
G1 X55.478 Y81.593 F7800.000
G1 E2.00000 F2400.00000
