; Gcode updated with 'stl_info' on 2019-12-05 15:37:44.052515

; stl_min_x = -19.33329963684082
; stl_max_x = 19.33329963684082
; stl_min_y = -12.906700134277344
; stl_max_y = 8.666669845581055
; stl_min_z = -8.666669845581055

; generated by Slic3r 1.3.1-dev (Build adea0d9) on 2019-12-05 at 15:37:43

; external perimeters extrusion width = 0.44mm (2.86mm^3/s)
; perimeters extrusion width = 0.56mm (4.14mm^3/s)
; infill extrusion width = 0.50mm (3.66mm^3/s)
; solid infill extrusion width = 0.56mm (3.10mm^3/s)
; top infill extrusion width = 0.56mm (3.10mm^3/s)

M107
G92 E0
;D3D:START:START
T0
M104 S215 T0

G21
G90
M107
T0
G28
G29
M109 T0 S215 T0
G0 F3000
M107
T0
G92 E0
G0 X0 Y149 Z0.1 F3600
G1 Y49 E6.5 F1200
G0 Z1
G92 E0
; Filament gcode

G21 ; set units to millimeters
G90 ; use absolute coordinates
M82 ; use absolute distances for extrusion
G92 E0
G1 Z0.300 F7800.000
G1 E-2.00000 F2400.00000
G92 E0
G1 X88.255 Y74.097 F7800.000
G1 E2.00000 F2400.00000
G1 F1800.000
G1 X91.745 Y74.097 E2.11564
G1 X93.491 Y77.120 E2.23128
G1 X91.745 Y80.143 E2.34692
G1 X88.255 Y80.143 E2.46256
G1 X86.509 Y77.120 E2.57820
G1 X88.225 Y74.149 E2.69185
G1 X88.255 Y73.697 F7800.000
G1 E0.69185 F2400.00000
G92 E0
G1 X84.824 Y77.120 F7800.000
G1 E2.00000 F2400.00000
G1 F1800.000
G1 X83.079 Y80.143 E2.11564
G1 X79.588 Y80.143 E2.23128
G1 X77.843 Y77.120 E2.34692
G1 X79.588 Y74.097 E2.46256
G1 X83.079 Y74.097 E2.57820
G1 X84.794 Y77.068 E2.69185
G1 X85.170 Y77.320 F7800.000
G1 X85.437 Y77.120 F7800.000
G1 F1800.000
G1 X83.385 Y73.566 E2.82781
G1 X79.281 Y73.566 E2.96377
G1 X77.814 Y76.107 E3.06097
G1 X77.696 Y76.075 E3.06503
G1 X77.696 Y68.266 E3.32375
G1 X81.052 Y64.910 E3.48099
G1 X82.868 Y64.910 E3.54116
G1 X80.663 Y68.730 E3.68731
G1 X83.165 Y73.064 E3.85308
G1 X88.169 Y73.064 E4.01886
G1 X90.671 Y68.730 E4.18464
G1 X88.465 Y64.910 E4.33079
G1 X90.281 Y64.910 E4.39096
G1 X93.637 Y68.266 E4.54820
G1 X93.637 Y76.075 E4.80692
G1 X93.519 Y76.107 E4.81097
G1 X92.052 Y73.566 E4.90817
G1 X87.948 Y73.566 E5.04413
G1 X85.896 Y77.120 E5.18010
G1 X87.948 Y80.674 E5.31606
G1 X92.052 Y80.674 E5.45202
G1 X93.519 Y78.133 E5.54922
G1 X93.637 Y78.165 E5.55327
G1 X93.637 Y81.476 E5.66298
G1 X77.696 Y81.476 E6.19109
G1 X77.696 Y78.165 E6.30080
G1 X77.814 Y78.133 E6.30485
G1 X79.281 Y80.674 E6.40205
G1 X83.385 Y80.674 E6.53801
G1 X85.407 Y77.172 E6.67199
G1 X85.131 Y77.120 F7800.000
G1 F1800.000
G1 X83.232 Y73.832 E6.79779
G1 X79.435 Y73.832 E6.92359
G1 X77.549 Y77.098 E7.04855
G1 X77.431 Y77.066 E7.05260
G1 X77.431 Y68.156 E7.34781
G1 X80.942 Y64.644 E7.51235
G1 X83.329 Y64.644 E7.59140
G1 X80.969 Y68.730 E7.74771
G1 X83.318 Y72.798 E7.90333
G1 X88.015 Y72.798 E8.05894
G1 X90.364 Y68.730 E8.21456
G1 X88.005 Y64.644 E8.37087
G1 X90.391 Y64.644 E8.44992
G1 X93.903 Y68.156 E8.61446
G1 X93.903 Y77.066 E8.90966
G1 X93.785 Y77.098 E8.91372
G1 X91.899 Y73.832 E9.03868
G1 X88.101 Y73.832 E9.16448
G1 X86.203 Y77.120 E9.29028
G1 X88.101 Y80.409 E9.41608
G1 X91.899 Y80.409 E9.54188
G1 X93.785 Y77.142 E9.66684
G1 X93.903 Y77.174 E9.67089
G1 X93.903 Y81.742 E9.82224
G1 X77.431 Y81.742 E10.36795
G1 X77.431 Y77.174 E10.51930
G1 X77.549 Y77.142 E10.52335
G1 X79.435 Y80.409 E10.64832
G1 X83.232 Y80.409 E10.77412
G1 X85.101 Y77.172 E10.89793
G1 E8.89793 F2400.00000
G92 E0
G1 X83.471 Y72.532 F7800.000
G1 E2.00000 F2400.00000
G1 F1800.000
G1 X81.276 Y68.730 E2.14546
G1 X83.471 Y64.928 E2.29091
G1 X87.862 Y64.928 E2.43637
G1 X90.057 Y68.730 E2.58182
G1 X87.862 Y72.532 E2.72728
G1 X83.531 Y72.532 E2.87075
G1 X83.125 Y72.732 F7800.000
G1 E0.87075 F2400.00000
G92 E0
G1 X77.165 Y82.008 F7800.000
G1 E2.00000 F2400.00000
G1 F1800.000
G1 X77.165 Y68.046 E2.46255
G1 X80.832 Y64.378 E2.63438
G1 X90.501 Y64.378 E2.95469
G1 X94.168 Y68.046 E3.12652
G1 X94.168 Y82.008 E3.58907
G1 X77.225 Y82.008 E4.15039
G1 X77.281 Y81.625 F7800.000
G1 E2.15039 F2400.00000
G92 E0
G1 X78.065 Y78.817 F7800.000
G1 E2.00000 F2400.00000
G1 F1800.000
G1 X77.859 Y79.023 E2.00990
G1 X77.859 Y79.400 E2.02265
G1 X78.203 Y79.055 E2.03915
G1 X78.341 Y79.294 E2.04849
G1 X77.859 Y79.777 E2.07159
G1 X77.859 Y80.153 E2.08434
G1 X78.479 Y79.533 E2.11404
G1 X78.617 Y79.772 E2.12338
G1 X77.859 Y80.530 E2.15968
G1 X77.859 Y80.906 E2.17244
G1 X78.754 Y80.010 E2.21534
G1 X78.892 Y80.249 E2.22468
G1 X77.859 Y81.283 E2.27419
G1 X77.859 Y81.314 E2.27524
G1 X78.204 Y81.314 E2.28694
G1 X79.030 Y80.488 E2.32651
G1 X79.168 Y80.727 E2.33584
G1 X78.581 Y81.314 E2.36397
G1 X78.957 Y81.314 E2.37673
G1 X79.435 Y80.836 E2.39960
G1 X79.811 Y80.836 E2.41236
G1 X79.334 Y81.314 E2.43523
G1 X79.710 Y81.314 E2.44799
G1 X80.188 Y80.836 E2.47086
G1 X80.565 Y80.836 E2.48362
G1 X80.087 Y81.314 E2.50649
G1 X80.464 Y81.314 E2.51924
G1 X80.941 Y80.836 E2.54212
G1 X81.318 Y80.836 E2.55487
G1 X80.840 Y81.314 E2.57775
G1 X81.217 Y81.314 E2.59050
G1 X81.694 Y80.836 E2.61338
G1 X82.071 Y80.836 E2.62613
G1 X81.593 Y81.314 E2.64901
G1 X81.970 Y81.314 E2.66176
G1 X82.448 Y80.836 E2.68464
G1 X82.824 Y80.836 E2.69739
G1 X82.347 Y81.314 E2.72027
G1 X82.723 Y81.314 E2.73302
G1 X83.201 Y80.836 E2.75590
G1 X83.577 Y80.836 E2.76865
G1 X83.100 Y81.314 E2.79153
G1 E0.79153 F2400.00000
G92 E0
G1 X85.903 Y77.381 F7800.000
G1 E2.00000 F2400.00000
G1 F1800.000
G1 X85.067 Y78.217 E2.04005
G1 X84.552 Y79.108 E2.07489
G1 X86.041 Y77.620 E2.14618
G1 X86.179 Y77.859 E2.15552
G1 X84.038 Y79.999 E2.25805
G1 X83.523 Y80.890 E2.29289
G1 X86.317 Y78.097 E2.42666
G1 X86.454 Y78.336 E2.43599
G1 X83.476 Y81.314 E2.57862
G1 X83.853 Y81.314 E2.59137
G1 X86.592 Y78.575 E2.72256
G1 X86.730 Y78.814 E2.73189
G1 X84.230 Y81.314 E2.85165
G1 X84.606 Y81.314 E2.86440
G1 X86.868 Y79.052 E2.97272
G1 X87.006 Y79.291 E2.98206
G1 X84.983 Y81.314 E3.07894
G1 X85.359 Y81.314 E3.09169
G1 X87.144 Y79.530 E3.17715
G1 X87.281 Y79.769 E3.18648
G1 X85.736 Y81.314 E3.26050
G1 X86.113 Y81.314 E3.27325
G1 X87.419 Y80.007 E3.33583
G1 X87.557 Y80.246 E3.34517
G1 X86.489 Y81.314 E3.39631
G1 X86.866 Y81.314 E3.40907
G1 X87.695 Y80.485 E3.44878
G1 X87.833 Y80.724 E3.45812
G1 X87.242 Y81.314 E3.48639
G1 X87.619 Y81.314 E3.49915
G1 X88.097 Y80.836 E3.52202
G1 X88.473 Y80.836 E3.53478
G1 X87.996 Y81.314 E3.55765
G1 X88.372 Y81.314 E3.57041
G1 X88.850 Y80.836 E3.59328
G1 X89.226 Y80.836 E3.60604
G1 X88.749 Y81.314 E3.62891
G1 X89.125 Y81.314 E3.64167
G1 X89.603 Y80.836 E3.66454
G1 X89.980 Y80.836 E3.67730
G1 X89.502 Y81.314 E3.70017
G1 X89.879 Y81.314 E3.71293
G1 X90.356 Y80.836 E3.73580
G1 X90.733 Y80.836 E3.74856
G1 X90.255 Y81.314 E3.77143
G1 X90.632 Y81.314 E3.78418
G1 X91.109 Y80.836 E3.80706
G1 X91.486 Y80.836 E3.81981
G1 X91.008 Y81.314 E3.84269
G1 X91.385 Y81.314 E3.85544
G1 X91.863 Y80.836 E3.87832
G1 X92.239 Y80.836 E3.89107
G1 X91.762 Y81.314 E3.91395
G1 X92.138 Y81.314 E3.92670
G1 X93.475 Y79.978 E3.99071
G1 X93.475 Y80.354 E4.00347
G1 X92.515 Y81.314 E4.04944
G1 X92.891 Y81.314 E4.06219
G1 X93.475 Y80.731 E4.09013
G1 X93.475 Y81.107 E4.10288
G1 X93.268 Y81.314 E4.11279
G1 X92.197 Y80.879 F7800.000
G1 F1800.000
G1 X93.475 Y79.601 E4.17399
G1 X93.475 Y79.224 E4.18675
G1 X92.711 Y79.988 E4.22332
G1 X93.226 Y79.097 E4.25816
G1 X93.475 Y78.848 E4.27009
G1 E2.27009 F2400.00000
G92 E0
G1 X93.268 Y75.423 F7800.000
G1 E2.00000 F2400.00000
G1 F1800.000
G1 X93.475 Y75.217 E2.00990
G1 X93.475 Y74.833 E2.02290
G1 X93.128 Y75.180 E2.03953
G1 X92.987 Y74.936 E2.04905
G1 X93.475 Y74.449 E2.07241
G1 X93.475 Y74.065 E2.08541
G1 X92.846 Y74.693 E2.11550
G1 X92.706 Y74.450 E2.12502
G1 X93.475 Y73.681 E2.16184
G1 X93.475 Y73.297 E2.17484
G1 X92.565 Y74.206 E2.21840
G1 X92.425 Y73.963 E2.22791
G1 X93.475 Y72.913 E2.27820
G1 X93.475 Y72.529 E2.29120
G1 X92.284 Y73.719 E2.34822
G1 X92.144 Y73.476 E2.35773
G1 X93.475 Y72.145 E2.42148
G1 X93.475 Y71.761 E2.43448
G1 X91.832 Y73.404 E2.51316
G1 X91.448 Y73.404 E2.52616
G1 X93.475 Y71.377 E2.62322
G1 X93.475 Y70.993 E2.63623
G1 X91.064 Y73.404 E2.75168
G1 X90.680 Y73.404 E2.76468
G1 X93.475 Y70.609 E2.89852
G1 X93.475 Y70.225 E2.91153
G1 X90.296 Y73.404 E3.06376
G1 X89.912 Y73.404 E3.07676
G1 X93.475 Y69.841 E3.24738
G1 X93.475 Y69.457 E3.26038
G1 X89.528 Y73.404 E3.44939
G1 X89.144 Y73.404 E3.46240
G1 X93.475 Y69.073 E3.66980
G1 X93.475 Y68.689 E3.68280
G1 X88.760 Y73.404 E3.90859
G1 X88.376 Y73.404 E3.92159
G1 X93.475 Y68.305 E4.16577
G1 X93.475 Y68.272 E4.16688
G1 X93.299 Y68.097 E4.17529
G1 X88.567 Y72.828 E4.40189
G1 X89.092 Y71.920 E4.43742
G1 X93.107 Y67.905 E4.62971
G1 X92.915 Y67.713 E4.63890
G1 X89.617 Y71.011 E4.79688
G1 X90.141 Y70.103 E4.83241
G1 X92.723 Y67.521 E4.95606
G1 X92.531 Y67.329 E4.96526
G1 X90.666 Y69.194 E5.05460
G1 X90.874 Y68.833 E5.06872
G1 X90.789 Y68.687 E5.07446
G1 X92.339 Y67.137 E5.14868
G1 X92.147 Y66.945 E5.15788
G1 X90.649 Y68.443 E5.22963
G1 X90.508 Y68.200 E5.23915
G1 X91.955 Y66.753 E5.30845
G1 X91.763 Y66.561 E5.31764
G1 X90.368 Y67.956 E5.38448
G1 X90.227 Y67.713 E5.39399
G1 X91.571 Y66.369 E5.45836
G1 X91.379 Y66.177 E5.46756
G1 X90.087 Y67.469 E5.52946
G1 X89.946 Y67.226 E5.53898
G1 X91.187 Y65.985 E5.59842
G1 X90.995 Y65.793 E5.60762
G1 X89.806 Y66.983 E5.66459
G1 X89.665 Y66.739 E5.67411
G1 X90.803 Y65.601 E5.72863
G1 X90.611 Y65.409 E5.73782
G1 X89.524 Y66.496 E5.78987
G1 X89.384 Y66.252 E5.79939
G1 X90.419 Y65.217 E5.84898
G1 X90.274 Y65.072 E5.85592
G1 X90.180 Y65.072 E5.85910
G1 X89.243 Y66.009 E5.90398
G1 X89.103 Y65.765 E5.91350
G1 X89.796 Y65.072 E5.94671
G1 X89.412 Y65.072 E5.95972
G1 X88.962 Y65.522 E5.98128
G1 X88.822 Y65.279 E5.99079
G1 X89.028 Y65.072 E6.00069
G1 E4.00069 F2400.00000
G92 E0
G1 X81.266 Y65.072 F7800.000
G1 E2.00000 F2400.00000
G1 F1800.000
G1 X77.859 Y68.479 E2.16319
G1 X77.859 Y68.862 E2.17615
G1 X81.649 Y65.072 E2.35768
G1 X82.032 Y65.072 E2.37065
G1 X77.859 Y69.245 E2.57052
G1 X77.859 Y69.628 E2.58349
G1 X82.415 Y65.072 E2.80170
G1 X82.512 Y65.072 E2.80498
G1 X82.121 Y65.749 E2.83144
G1 X77.859 Y70.011 E3.03558
G1 X77.859 Y70.394 E3.04855
G1 X81.598 Y66.655 E3.22763
G1 X81.075 Y67.561 E3.26307
G1 X77.859 Y70.777 E3.41710
G1 X77.859 Y71.160 E3.43006
G1 X80.552 Y68.467 E3.55904
G1 X80.459 Y68.627 E3.56529
G1 X80.575 Y68.827 E3.57311
G1 X77.859 Y71.543 E3.70319
G1 X77.859 Y71.926 E3.71616
G1 X80.715 Y69.069 E3.85296
G1 X80.855 Y69.312 E3.86246
G1 X77.859 Y72.309 E4.00597
G1 X77.859 Y72.692 E4.01894
G1 X80.995 Y69.555 E4.16917
G1 X81.135 Y69.798 E4.17866
G1 X77.859 Y73.075 E4.33560
G1 X77.859 Y73.458 E4.34857
G1 X81.276 Y70.041 E4.51222
G1 X81.416 Y70.283 E4.52171
G1 X77.859 Y73.841 E4.69208
G1 X77.859 Y74.224 E4.70505
G1 X81.556 Y70.526 E4.88213
G1 X81.696 Y70.769 E4.89162
G1 X79.062 Y73.404 E5.01780
G1 X79.445 Y73.404 E5.03077
G1 X81.836 Y71.012 E5.14532
G1 X81.977 Y71.255 E5.15481
G1 X79.828 Y73.404 E5.25773
G1 X80.210 Y73.404 E5.27070
G1 X82.117 Y71.497 E5.36199
G1 X82.257 Y71.740 E5.37149
G1 X80.593 Y73.404 E5.45115
G1 X80.976 Y73.404 E5.46412
G1 X82.397 Y71.983 E5.53216
G1 X82.537 Y72.226 E5.54165
G1 X81.359 Y73.404 E5.59806
G1 X81.742 Y73.404 E5.61103
G1 X82.677 Y72.469 E5.65581
G1 X82.818 Y72.711 E5.66531
G1 X82.125 Y73.404 E5.69846
G1 X82.508 Y73.404 E5.71143
G1 X82.958 Y72.954 E5.73296
G1 X83.098 Y73.197 E5.74245
G1 X82.891 Y73.404 E5.75235
G1 X83.452 Y73.432 F7800.000
G1 F1800.000
G1 X83.659 Y73.226 E5.76224
G1 X84.043 Y73.226 E5.77527
G1 X83.593 Y73.676 E5.79684
G1 X83.734 Y73.920 E5.80637
G1 X84.428 Y73.226 E5.83962
G1 X84.812 Y73.226 E5.85265
G1 X83.874 Y74.164 E5.89757
G1 X84.015 Y74.408 E5.90710
G1 X85.197 Y73.226 E5.96370
G1 X85.581 Y73.226 E5.97673
G1 X84.156 Y74.651 E6.04500
G1 X84.297 Y74.895 E6.05453
G1 X85.966 Y73.226 E6.13449
G1 X86.351 Y73.226 E6.14751
G1 X84.437 Y75.139 E6.23913
G1 X84.578 Y75.383 E6.24867
G1 X86.735 Y73.226 E6.35197
G1 X87.120 Y73.226 E6.36499
G1 X84.719 Y75.627 E6.47997
G1 X84.860 Y75.870 E6.48950
G1 X87.504 Y73.226 E6.61615
G1 X87.881 Y73.226 E6.62893
G1 X85.000 Y76.114 E6.76708
G1 X85.141 Y76.358 E6.77661
G1 X87.346 Y74.153 E6.88221
G1 X86.821 Y75.063 E6.91779
G1 X85.282 Y76.602 E6.99149
G1 X85.423 Y76.846 E7.00103
G1 X86.295 Y75.973 E7.04283
G1 X85.770 Y76.882 E7.07841
G1 X85.563 Y77.089 E7.08831
G1 E5.08831 F2400.00000
G92 E0
G1 X79.181 Y73.284 F7800.000
G1 E2.00000 F2400.00000
G1 F1800.000
G1 X77.859 Y74.607 E2.06333
G1 X77.859 Y74.990 E2.07630
G1 X78.658 Y74.190 E2.11458
G1 X78.135 Y75.096 E2.15001
G1 X77.859 Y75.373 E2.16323
G1 E0.16323 F2400.00000
G92 E0
G1 X83.477 Y64.653 F7800.000
G1 E2.00000 F2400.00000
G1 F1800.000
G1 X87.857 Y64.653 E2.11986
G1 E0.11986 F2400.00000
G92 E0
G1 X72.157 Y77.120 F7800.000
G1 E2.00000 F2400.00000
G1 F1800.000
G1 X70.412 Y80.143 E2.11564
G1 X66.921 Y80.143 E2.23128
G1 X65.176 Y77.120 E2.34692
G1 X66.921 Y74.097 E2.46256
G1 X70.412 Y74.097 E2.57820
G1 X72.127 Y77.068 E2.69185
G1 X72.504 Y77.320 F7800.000
G1 E0.69185 F2400.00000
G92 E0
G1 X66.011 Y71.040 F7800.000
G1 E2.00000 F2400.00000
G1 F1800.000
G1 X65.216 Y71.445 E2.02959
G1 X64.333 Y71.585 E2.05918
G1 X63.451 Y71.445 E2.08878
G1 X62.655 Y71.040 E2.11837
G1 X62.024 Y70.408 E2.14796
G1 X61.618 Y69.612 E2.17755
G1 X61.478 Y68.730 E2.20714
G1 X61.618 Y67.848 E2.23673
G1 X62.024 Y67.052 E2.26632
G1 X62.655 Y66.420 E2.29592
G1 X63.451 Y66.015 E2.32551
G1 X64.333 Y65.875 E2.35510
G1 X65.216 Y66.015 E2.38469
G1 X66.011 Y66.420 E2.41429
G1 X66.643 Y67.052 E2.44388
G1 X67.049 Y67.848 E2.47347
G1 X67.188 Y68.730 E2.50306
G1 X67.049 Y69.612 E2.53265
G1 X66.643 Y70.408 E2.56225
G1 X66.054 Y70.997 E2.58985
G1 X65.853 Y70.822 F7800.000
G1 F1800.000
G1 X65.132 Y71.189 E2.61665
G1 X64.333 Y71.316 E2.64346
G1 X63.534 Y71.189 E2.67026
G1 X62.813 Y70.822 E2.69707
G1 X62.241 Y70.250 E2.72387
G1 X61.874 Y69.529 E2.75067
G1 X61.747 Y68.730 E2.77748
G1 X61.874 Y67.931 E2.80428
G1 X62.241 Y67.210 E2.83109
G1 X62.813 Y66.638 E2.85789
G1 X63.534 Y66.271 E2.88470
G1 X64.333 Y66.144 E2.91150
G1 X65.132 Y66.271 E2.93830
G1 X65.853 Y66.638 E2.96511
G1 X66.425 Y67.210 E2.99191
G1 X66.793 Y67.931 E3.01872
G1 X66.919 Y68.730 E3.04552
G1 X66.793 Y69.529 E3.07233
G1 X66.425 Y70.250 E3.09913
G1 X65.896 Y70.780 E3.12395
G1 X65.695 Y70.605 F7800.000
G1 F1800.000
G1 X65.049 Y70.934 E3.14797
G1 X64.333 Y71.047 E3.17198
G1 X63.617 Y70.934 E3.19600
G1 X62.971 Y70.605 E3.22001
G1 X62.459 Y70.092 E3.24403
G1 X62.130 Y69.446 E3.26805
G1 X62.016 Y68.730 E3.29207
G1 X62.130 Y68.014 E3.31608
G1 X62.459 Y67.368 E3.34010
G1 X62.971 Y66.855 E3.36412
G1 X63.617 Y66.526 E3.38813
G1 X64.333 Y66.413 E3.41215
G1 X65.049 Y66.526 E3.43617
G1 X65.695 Y66.855 E3.46018
G1 X66.208 Y67.368 E3.48420
G1 X66.537 Y68.014 E3.50822
G1 X66.650 Y68.730 E3.53223
G1 X66.537 Y69.446 E3.55625
G1 X66.208 Y70.092 E3.58027
G1 X65.738 Y70.562 E3.60230
G1 X65.737 Y71.002 F7800.000
G1 E1.60230 F2400.00000
G92 E0
G1 X66.615 Y73.566 F7800.000
G1 E2.00000 F2400.00000
G1 F1800.000
G1 X64.563 Y77.120 E2.13596
G1 X66.615 Y80.674 E2.27192
G1 X70.719 Y80.674 E2.40789
G1 X72.186 Y78.133 E2.50509
G1 X72.304 Y78.165 E2.50914
G1 X72.304 Y81.476 E2.61885
G1 X56.363 Y81.476 E3.14696
G1 X56.363 Y78.165 E3.25667
G1 X56.481 Y78.133 E3.26072
G1 X57.948 Y80.674 E3.35792
G1 X62.052 Y80.674 E3.49388
G1 X64.104 Y77.120 E3.62984
G1 X62.052 Y73.566 E3.76580
G1 X57.948 Y73.566 E3.90176
G1 X56.481 Y76.107 E3.99896
G1 X56.363 Y76.075 E4.00302
G1 X56.363 Y68.266 E4.26173
G1 X59.719 Y64.910 E4.41898
G1 X68.948 Y64.910 E4.72471
G1 X72.304 Y68.266 E4.88196
G1 X72.304 Y76.075 E5.14068
G1 X72.186 Y76.107 E5.14473
G1 X70.719 Y73.566 E5.24193
G1 X66.675 Y73.566 E5.37591
G1 X66.768 Y73.832 F7800.000
G1 F1800.000
G1 X64.869 Y77.120 E5.50171
G1 X66.768 Y80.409 E5.62751
G1 X70.565 Y80.409 E5.75331
G1 X72.451 Y77.142 E5.87827
G1 X72.569 Y77.174 E5.88232
G1 X72.569 Y81.742 E6.03367
G1 X56.097 Y81.742 E6.57939
G1 X56.097 Y77.174 E6.73073
G1 X56.215 Y77.142 E6.73479
G1 X58.101 Y80.409 E6.85975
G1 X61.899 Y80.409 E6.98555
G1 X63.797 Y77.120 E7.11135
G1 X61.899 Y73.832 E7.23715
G1 X58.101 Y73.832 E7.36295
G1 X56.215 Y77.098 E7.48791
G1 X56.097 Y77.066 E7.49196
G1 X56.097 Y68.156 E7.78717
G1 X59.609 Y64.644 E7.95170
G1 X69.058 Y64.644 E8.26473
G1 X72.569 Y68.156 E8.42926
G1 X72.569 Y77.066 E8.72447
G1 X72.451 Y77.098 E8.72852
G1 X70.565 Y73.832 E8.85348
G1 X66.828 Y73.832 E8.97730
