; Gcode updated with 'stl_info' on 2019-12-05 16:49:59.805075

; stl_min_x = 0.0
; stl_max_x = 115.0
; stl_min_y = 30.0
; stl_max_y = 180.0
; stl_min_z = 0.0

; generated by Slic3r 1.3.1-dev (Build adea0d9) on 2019-12-05 at 16:49:59

; external perimeters extrusion width = 0.44mm (2.86mm^3/s)
; perimeters extrusion width = 0.56mm (4.14mm^3/s)
; infill extrusion width = 0.50mm (3.66mm^3/s)
; solid infill extrusion width = 0.56mm (3.10mm^3/s)
; top infill extrusion width = 0.56mm (3.10mm^3/s)

M107
G92 E0
;D3D:START:START
T0
M104 S215 T0

G21
G90
M107
T0
G28
G29
M109 T0 S215 T0
G0 F3000
M107
T0
G92 E0
G0 X0 Y149 Z0.1 F3600
G1 Y49 E6.5 F1200
G0 Z1
G92 E0
; Filament gcode

G21 ; set units to millimeters
G90 ; use absolute coordinates
M82 ; use absolute distances for extrusion
G92 E0
G1 Z0.300 F7800.000
G1 E-2.00000 F2400.00000
G92 E0
G1 X97.523 Y80.023 F7800.000
G1 E2.00000 F2400.00000
G1 F1800.000
G1 X98.078 Y79.614 E2.02283
G1 X98.729 Y79.389 E2.04568
G1 X99.419 Y79.368 E2.06853
G1 X100.084 Y79.550 E2.09137
G1 X100.667 Y79.918 E2.11422
G1 X101.118 Y80.441 E2.13710
G1 X101.396 Y81.071 E2.15993
G1 X101.477 Y81.756 E2.18278
G1 X101.353 Y82.435 E2.20562
G1 X101.032 Y83.045 E2.22847
G1 X100.545 Y83.532 E2.25129
G1 X99.935 Y83.853 E2.27413
G1 X99.257 Y83.977 E2.29696
G1 X98.572 Y83.896 E2.31979
G1 X97.941 Y83.618 E2.34265
G1 X97.418 Y83.167 E2.36552
G1 X97.049 Y82.584 E2.38839
G1 X96.868 Y81.918 E2.41124
G1 X96.890 Y81.230 E2.43407
G1 X97.115 Y80.578 E2.45692
G1 X97.487 Y80.071 E2.47774
G1 X97.713 Y80.213 F7800.000
G1 F1800.000
G1 X98.203 Y79.852 E2.49789
G1 X98.778 Y79.654 E2.51807
G1 X99.387 Y79.634 E2.53826
G1 X99.976 Y79.796 E2.55847
G1 X100.492 Y80.121 E2.57869
G1 X100.891 Y80.584 E2.59894
G1 X101.137 Y81.142 E2.61914
G1 X101.209 Y81.748 E2.63935
G1 X101.099 Y82.347 E2.65953
G1 X100.816 Y82.886 E2.67969
G1 X100.386 Y83.316 E2.69983
G1 X99.847 Y83.599 E2.72000
G1 X99.248 Y83.708 E2.74017
G1 X98.643 Y83.637 E2.76035
G1 X98.084 Y83.391 E2.78058
G1 X97.621 Y82.992 E2.80082
G1 X97.295 Y82.475 E2.82107
G1 X97.135 Y81.887 E2.84128
G1 X97.154 Y81.278 E2.86146
G1 X97.352 Y80.703 E2.88163
G1 X97.677 Y80.261 E2.89978
G1 X97.903 Y80.403 F7800.000
G1 F1800.000
G1 X98.327 Y80.090 E2.91725
G1 X98.827 Y79.918 E2.93475
G1 X99.356 Y79.901 E2.95228
G1 X99.867 Y80.041 E2.96986
G1 X100.317 Y80.325 E2.98745
G1 X100.664 Y80.728 E3.00508
G1 X100.878 Y81.213 E3.02265
G1 X100.940 Y81.739 E3.04021
G1 X100.845 Y82.259 E3.05772
G1 X100.599 Y82.727 E3.07521
G1 X100.227 Y83.099 E3.09267
G1 X99.759 Y83.345 E3.11016
G1 X99.240 Y83.440 E3.12767
G1 X98.714 Y83.378 E3.14521
G1 X98.228 Y83.164 E3.16280
G1 X97.825 Y82.817 E3.18042
G1 X97.541 Y82.367 E3.19803
G1 X97.401 Y81.855 E3.21561
G1 X97.418 Y81.327 E3.23313
G1 X97.590 Y80.827 E3.25063
G1 X97.867 Y80.451 E3.26610
G1 E1.26610 F2400.00000
G92 E0
G1 X86.421 Y94.903 F7800.000
G1 E2.00000 F2400.00000
G1 F1800.000
G1 X85.334 Y92.572 E2.08522
G1 X84.463 Y89.323 E2.19667
G1 X84.170 Y85.971 E2.30813
G1 X84.463 Y82.619 E2.41959
G1 X85.334 Y79.369 E2.53107
G1 X86.756 Y76.321 E2.64252
G1 X88.685 Y73.564 E2.75398
G1 X91.064 Y71.186 E2.86544
G1 X93.820 Y69.256 E2.97691
G1 X96.869 Y67.834 E3.08837
G1 X100.119 Y66.963 E3.19983
G1 X103.471 Y66.670 E3.31129
G1 X106.822 Y66.963 E3.42275
G1 X110.072 Y67.834 E3.53421
G1 X112.404 Y68.921 E3.61944
G1 X114.508 Y65.927 E3.74069
G1 X116.531 Y62.847 E3.86276
G1 X118.456 Y59.705 E3.98482
G1 X120.282 Y56.505 E4.10690
G1 X121.805 Y53.628 E4.21473
G1 X123.626 Y49.941 E4.35098
G1 X125.144 Y46.581 E4.47310
G1 X126.553 Y43.177 E4.59517
G1 X127.855 Y39.731 E4.71723
G1 X128.196 Y38.736 E4.75206
G1 X128.196 Y18.976 E5.40669
G1 X131.804 Y18.976 E5.52621
G1 X131.804 Y39.282 E6.19894
G1 X131.234 Y40.947 E6.25722
G1 X129.892 Y44.499 E6.38303
G1 X128.439 Y48.007 E6.50883
G1 X126.876 Y51.468 E6.63464
G1 X125.205 Y54.879 E6.76045
G1 X123.428 Y58.234 E6.88625
G1 X121.547 Y61.533 E7.01206
G1 X119.563 Y64.771 E7.13786
G1 X117.478 Y67.945 E7.26367
G1 X115.294 Y71.051 E7.38947
G1 X113.014 Y74.088 E7.51528
G1 X110.640 Y77.051 E7.64108
G1 X108.174 Y79.939 E7.76689
G1 X105.618 Y82.748 E7.89271
G1 X102.975 Y85.475 E8.01851
G1 X100.248 Y88.118 E8.14432
G1 X97.440 Y90.674 E8.27013
G1 X94.552 Y93.140 E8.39593
G1 X91.588 Y95.514 E8.52173
G1 X88.552 Y97.794 E8.64754
G1 X85.445 Y99.978 E8.77335
G1 X82.271 Y102.063 E8.89916
G1 X79.033 Y104.047 E9.02496
G1 X75.734 Y105.928 E9.15077
G1 X72.378 Y107.705 E9.27657
G1 X68.968 Y109.376 E9.40238
G1 X67.017 Y110.257 E9.47333
G1 X67.017 Y106.318 E9.60384
G1 X67.440 Y106.127 E9.61922
G1 X70.748 Y104.506 E9.74129
G1 X74.005 Y102.782 E9.86335
G1 X77.205 Y100.956 E9.98542
G1 X80.347 Y99.031 E10.10748
G1 X83.427 Y97.008 E10.22956
G1 X86.372 Y94.938 E10.34883
G1 X86.086 Y94.814 F7800.000
G1 F1800.000
G1 X85.083 Y92.663 E10.42745
G1 X84.200 Y89.369 E10.54043
G1 X83.903 Y85.971 E10.65344
G1 X84.200 Y82.573 E10.76644
G1 X85.083 Y79.278 E10.87946
G1 X86.525 Y76.187 E10.99244
G1 X88.481 Y73.393 E11.10545
G1 X90.893 Y70.981 E11.21844
G1 X93.687 Y69.025 E11.33145
G1 X96.778 Y67.583 E11.44445
G1 X100.073 Y66.700 E11.55745
G1 X103.471 Y66.403 E11.67045
G1 X106.869 Y66.700 E11.78345
G1 X110.163 Y67.583 E11.89645
G1 X112.314 Y68.586 E11.97508
G1 X114.288 Y65.777 E12.08882
G1 X116.307 Y62.705 E12.21061
G1 X118.228 Y59.570 E12.33240
G1 X120.049 Y56.377 E12.45420
G1 X121.569 Y53.507 E12.56177
G1 X123.386 Y49.827 E12.69775
G1 X124.900 Y46.476 E12.81958
G1 X126.306 Y43.079 E12.94137
G1 X127.605 Y39.641 E13.06315
G1 X127.931 Y38.692 E13.09638
G1 X127.931 Y18.711 E13.75835
G1 X132.069 Y18.711 E13.89546
G1 X132.069 Y39.326 E14.57845
G1 X131.484 Y41.037 E14.63834
G1 X130.139 Y44.597 E14.76442
G1 X128.683 Y48.113 E14.89050
G1 X127.116 Y51.581 E15.01659
G1 X125.442 Y54.999 E15.14268
G1 X123.661 Y58.362 E15.26876
G1 X121.775 Y61.668 E15.39484
G1 X119.787 Y64.913 E15.52092
G1 X117.697 Y68.094 E15.64701
G1 X115.509 Y71.207 E15.77308
G1 X113.224 Y74.251 E15.89916
G1 X110.844 Y77.221 E16.02524
G1 X108.373 Y80.115 E16.15133
G1 X105.811 Y82.930 E16.27743
G1 X103.163 Y85.663 E16.40350
G1 X100.430 Y88.312 E16.52959
G1 X97.615 Y90.873 E16.65567
G1 X94.721 Y93.345 E16.78175
G1 X91.751 Y95.724 E16.90782
G1 X88.708 Y98.009 E17.03391
G1 X85.594 Y100.197 E17.16000
G1 X82.413 Y102.287 E17.28608
G1 X79.168 Y104.275 E17.41216
G1 X75.862 Y106.161 E17.53825
G1 X72.499 Y107.942 E17.66433
G1 X69.081 Y109.616 E17.79041
G1 X66.751 Y110.669 E17.87513
G1 X66.751 Y106.146 E18.02495
G1 X67.326 Y105.886 E18.04587
G1 X70.628 Y104.269 E18.16766
G1 X73.877 Y102.549 E18.28945
G1 X77.070 Y100.728 E18.41125
G1 X80.205 Y98.807 E18.53303
G1 X83.277 Y96.788 E18.65483
G1 X86.037 Y94.849 E18.76659
G1 X85.751 Y94.725 F7800.000
G1 F1800.000
G1 X84.833 Y92.755 E18.83861
G1 X83.938 Y89.415 E18.95314
G1 X83.636 Y85.971 E19.06768
G1 X83.938 Y82.527 E19.18222
G1 X84.833 Y79.187 E19.29678
G1 X86.294 Y76.054 E19.41130
G1 X88.277 Y73.222 E19.52585
G1 X90.722 Y70.777 E19.64039
G1 X93.554 Y68.794 E19.75493
G1 X96.687 Y67.333 E19.86947
G1 X100.027 Y66.438 E19.98401
G1 X103.471 Y66.136 E20.09855
G1 X106.915 Y66.438 E20.21309
G1 X110.255 Y67.333 E20.32763
G1 X112.225 Y68.251 E20.39966
G1 X114.069 Y65.628 E20.50589
G1 X116.082 Y62.562 E20.62741
G1 X117.999 Y59.435 E20.74892
G1 X119.816 Y56.249 E20.87044
G1 X121.332 Y53.386 E20.97775
G1 X123.146 Y49.714 E21.11345
G1 X124.656 Y46.370 E21.23499
G1 X126.059 Y42.982 E21.35650
G1 X127.355 Y39.551 E21.47801
G1 X127.665 Y38.647 E21.50964
G1 X127.665 Y18.445 E22.17894
G1 X131.865 Y18.445 E22.31808
G1 X131.865 Y0.635 E22.90812
G1 X127.665 Y0.635 E23.04726
G1 X127.665 Y0.165 E23.06283
G1 X132.335 Y0.165 E23.21755
G1 X132.335 Y39.371 E24.51641
G1 X131.734 Y41.127 E24.57790
G1 X130.386 Y44.695 E24.70426
G1 X128.926 Y48.218 E24.83061
G1 X127.356 Y51.695 E24.95698
G1 X125.678 Y55.120 E25.08334
G1 X123.894 Y58.490 E25.20970
G1 X122.004 Y61.803 E25.33606
G1 X120.011 Y65.056 E25.46241
G1 X117.917 Y68.243 E25.58878
G1 X115.724 Y71.364 E25.71513
G1 X113.953 Y73.722 E25.81284
G1 X113.434 Y74.414 E25.84149
G1 X111.049 Y77.390 E25.96784
G1 X108.572 Y80.291 E26.09421
G1 X106.005 Y83.112 E26.22058
G1 X103.351 Y85.851 E26.34693
G1 X100.612 Y88.506 E26.47330
G1 X97.791 Y91.072 E26.59966
G1 X94.891 Y93.549 E26.72601
G1 X91.914 Y95.933 E26.85236
G1 X88.864 Y98.224 E26.97872
G1 X85.743 Y100.417 E27.10509
G1 X82.556 Y102.511 E27.23145
G1 X79.303 Y104.504 E27.35781
G1 X75.990 Y106.394 E27.48416
G1 X72.620 Y108.178 E27.61053
G1 X69.195 Y109.856 E27.73688
G1 X66.962 Y110.865 E27.81805
G1 X66.962 Y149.835 E29.10911
G1 X66.485 Y149.835 E29.12490
G1 X66.485 Y105.975 E30.57797
G1 X67.213 Y105.646 E30.60443
G1 X70.507 Y104.032 E30.72595
G1 X73.749 Y102.316 E30.84745
G1 X76.935 Y100.499 E30.96898
G1 X80.062 Y98.583 E31.09049
G1 X83.128 Y96.569 E31.21201
G1 X85.702 Y94.759 E31.31626
G1 E29.31626 F2400.00000
G92 E0
G1 X85.284 Y91.849 F7800.000
G1 E2.00000 F2400.00000
G1 F1800.000
G1 X109.349 Y67.784 E3.13247
G1 X109.051 Y67.704 E3.14272
G1 X85.204 Y91.551 E4.26493
G1 X85.124 Y91.254 E4.27518
G1 X108.754 Y67.624 E5.38715
G1 X108.456 Y67.545 E5.39740
G1 X85.045 Y90.956 E6.49911
G1 X84.965 Y90.659 E6.50936
G1 X108.159 Y67.465 E7.60082
G1 X107.861 Y67.385 E7.61107
G1 X84.885 Y90.361 E8.69229
G1 X84.805 Y90.064 E8.70254
G1 X107.564 Y67.306 E9.77350
G1 X107.266 Y67.226 E9.78375
G1 X84.726 Y89.766 E10.84446
G1 X84.646 Y89.469 E10.85471
G1 X106.969 Y67.146 E11.90518
G1 X106.636 Y67.101 E11.91633
G1 X84.601 Y89.136 E12.95328
G1 X84.571 Y88.789 E12.96487
G1 X106.289 Y67.071 E13.98692
G1 X105.942 Y67.040 E13.99851
G1 X84.540 Y88.442 E15.00567
G1 X84.510 Y88.096 E15.01726
G1 X105.596 Y67.010 E16.00951
G1 X105.249 Y66.980 E16.02110
G1 X84.480 Y87.749 E16.99846
G1 X84.449 Y87.402 E17.01005
G1 X104.902 Y66.949 E17.97251
G1 X104.555 Y66.919 E17.98410
G1 X84.419 Y87.055 E18.93166
G1 X84.388 Y86.708 E18.94325
G1 X104.208 Y66.888 E19.87591
G1 X103.861 Y66.858 E19.88750
G1 X84.358 Y86.361 E20.80526
G1 X84.339 Y86.002 E20.81721
G1 X103.502 Y66.839 E21.71899
G1 X103.089 Y66.876 E21.73280
G1 X84.376 Y85.589 E22.61341
G1 X84.412 Y85.175 E22.62722
G1 X102.675 Y66.912 E23.48668
G1 X102.262 Y66.948 E23.50049
G1 X84.448 Y84.762 E24.33879
G1 X84.484 Y84.348 E24.35260
G1 X101.848 Y66.984 E25.16974
G1 X101.435 Y67.020 E25.18355
G1 X84.520 Y83.935 E25.97953
G1 X84.556 Y83.521 E25.99334
G1 X101.022 Y67.056 E26.76816
G1 X100.608 Y67.093 E26.78198
G1 X84.593 Y83.108 E27.53564
G1 X84.622 Y82.769 E27.54696
G1 X84.647 Y82.676 E27.55016
G1 X100.176 Y67.147 E28.28094
G1 X99.661 Y67.285 E28.29869
G1 X84.785 Y82.161 E28.99872
G1 X84.923 Y81.645 E29.01648
G1 X99.146 Y67.423 E29.68575
G1 X98.630 Y67.561 E29.70351
G1 X85.061 Y81.130 E30.34203
G1 X85.199 Y80.615 E30.35979
G1 X98.115 Y67.699 E30.96756
G1 X97.599 Y67.837 E30.98532
G1 X85.337 Y80.099 E31.56234
G1 X85.475 Y79.584 E31.58009
G1 X97.084 Y67.976 E32.12637
G1 X96.384 Y68.298 E32.15200
G1 X85.798 Y78.884 E32.65019
G1 X86.128 Y78.177 E32.67615
G1 X95.677 Y68.628 E33.12555
G1 X94.970 Y68.957 E33.15150
G1 X86.457 Y77.470 E33.55212
G1 X86.787 Y76.763 E33.57808
G1 X94.263 Y69.287 E33.92990
G1 X94.057 Y69.383 E33.93749
G1 X93.166 Y70.007 E33.97368
G1 X87.507 Y75.666 E34.23996
G1 X88.388 Y74.407 E34.29107
G1 X91.907 Y70.889 E34.45665
G1 E32.45665 F2400.00000
G92 E0
G1 X96.885 Y80.625 F7800.000
G1 E2.00000 F2400.00000
G1 F1800.000
G1 X85.364 Y92.147 E2.54216
G1 X85.443 Y92.444 E2.55241
G1 X96.726 Y81.161 E3.08336
G1 X96.714 Y81.551 E3.09634
G1 X85.544 Y92.720 E3.62195
G1 X85.664 Y92.978 E3.63139
G1 X96.724 Y81.918 E4.15184
G1 X96.805 Y82.215 E4.16206
G1 X85.784 Y93.235 E4.68066
G1 X85.904 Y93.492 E4.69011
G1 X96.886 Y82.511 E5.20688
G1 X96.907 Y82.589 E5.20956
G1 X97.015 Y82.759 E5.21627
G1 X86.024 Y93.750 E5.73346
G1 X86.144 Y94.007 E5.74291
G1 X97.161 Y82.991 E6.26132
G1 X97.307 Y83.222 E6.27042
G1 X86.264 Y94.264 E6.79005
G1 X86.384 Y94.522 E6.79950
G1 X97.505 Y83.401 E7.32282
G1 X97.708 Y83.576 E7.33172
G1 X86.504 Y94.779 E7.85893
G1 X86.624 Y95.036 E7.86838
G1 X97.913 Y83.747 E8.39961
G1 X98.175 Y83.863 E8.40913
G1 X77.216 Y104.821 E9.39541
G1 X78.095 Y104.320 E9.42906
G1 X98.437 Y83.978 E10.38634
G1 X98.605 Y84.052 E10.39245
G1 X98.726 Y84.066 E10.39650
G1 X78.992 Y103.800 E11.32514
G1 X79.966 Y103.203 E11.36316
G1 X99.064 Y84.106 E12.26185
G1 X99.413 Y84.134 E12.27352
G1 X80.941 Y102.606 E13.14282
G1 X81.915 Y102.009 E13.18083
G1 X99.875 Y84.049 E14.02601
G1 X100.126 Y84.003 E14.03449
G1 X100.489 Y83.813 E14.04814
G1 X83.000 Y101.301 E14.87113
G1 X84.100 Y100.578 E14.91494
G1 X118.078 Y66.601 E16.51388
G1 X117.354 Y67.702 E16.55774
G1 X85.202 Y99.854 E18.07077
G1 X86.472 Y98.962 E18.12241
G1 X116.462 Y68.972 E19.53371
G1 X115.570 Y70.241 E19.58534
G1 X87.741 Y98.069 E20.89490
G1 X88.292 Y97.682 E20.91730
G1 X89.150 Y97.038 E20.95298
G1 X114.540 Y71.648 E22.14779
G1 X113.404 Y73.162 E22.21074
G1 X90.664 Y95.901 E23.28084
G1 X91.322 Y95.407 E23.30823
G1 X92.394 Y94.549 E23.35391
G1 X112.049 Y74.894 E24.27884
G1 X110.523 Y76.797 E24.36000
G1 X94.293 Y93.027 E25.12378
G1 X96.878 Y90.819 E25.23691
G1 X108.316 Y79.382 E25.77515
G1 X105.527 Y82.463 E25.91343
G1 X102.679 Y85.395 E26.04944
G1 E24.04944 F2400.00000
G92 E0
G1 X101.313 Y82.989 F7800.000
G1 E2.00000 F2400.00000
G1 F1800.000
G1 X118.801 Y65.501 E2.82297
G1 X119.509 Y64.415 E2.86611
G1 X101.549 Y82.375 E3.71129
G1 X101.634 Y81.913 E3.72693
G1 X120.106 Y63.441 E4.59620
G1 X120.703 Y62.466 E4.63422
G1 X101.606 Y81.563 E5.53289
G1 X101.566 Y81.226 E5.54420
G1 X121.300 Y61.492 E6.47284
G1 X121.820 Y60.595 E6.50736
G1 X101.478 Y80.937 E7.46464
G1 X101.363 Y80.675 E7.47416
G1 X122.321 Y59.716 E8.46045
G1 X122.822 Y58.838 E8.49409
G1 X112.598 Y69.062 E8.97521
G1 X113.491 Y67.793 E9.02685
G1 X123.319 Y57.964 E9.48938
G1 X123.744 Y57.162 E9.51959
G1 X114.383 Y66.523 E9.96012
G1 X115.151 Y65.377 E10.00601
G1 X124.169 Y56.359 E10.43039
G1 X124.594 Y55.557 E10.46059
G1 X115.873 Y64.278 E10.87097
G1 X116.596 Y63.178 E10.91474
G1 X125.018 Y54.756 E11.31108
G1 X125.388 Y54.009 E11.33883
G1 X117.203 Y62.194 E11.72403
G1 X117.800 Y61.220 E11.76206
G1 X125.750 Y53.269 E12.13621
G1 X126.113 Y52.529 E12.16361
G1 X118.397 Y60.245 E12.52671
G1 X118.928 Y59.337 E12.56171
G1 X126.475 Y51.790 E12.91688
G1 X126.823 Y51.064 E12.94366
G1 X119.429 Y58.459 E13.29164
G1 X119.930 Y57.580 E13.32529
G1 X127.134 Y50.376 E13.66431
G1 X127.445 Y49.688 E13.68943
G1 X120.428 Y56.705 E14.01964
G1 X120.853 Y55.903 E14.04984
G1 X127.756 Y49.000 E14.37469
G1 X128.067 Y48.312 E14.39981
G1 X121.277 Y55.101 E14.71930
G1 X121.702 Y54.299 E14.74950
G1 X128.366 Y47.635 E15.06310
G1 X128.633 Y46.991 E15.08629
G1 X122.101 Y53.522 E15.39364
G1 X122.470 Y52.777 E15.42131
G1 X128.899 Y46.347 E15.72389
G1 X129.166 Y45.703 E15.74708
G1 X122.838 Y52.032 E16.04489
G1 X123.206 Y51.286 E16.07255
G1 X129.433 Y45.059 E16.36558
G1 X129.699 Y44.415 E16.38878
G1 X123.574 Y50.541 E16.67704
G1 X123.914 Y49.823 E16.70347
G1 X129.935 Y43.802 E16.98683
G1 X130.165 Y43.195 E17.00840
G1 X124.225 Y49.135 E17.28792
G1 X124.536 Y48.447 E17.31304
G1 X130.394 Y42.589 E17.58872
G1 X130.623 Y41.982 E17.61029
G1 X124.847 Y47.759 E17.88212
G1 X125.157 Y47.071 E17.90725
G1 X130.852 Y41.376 E18.17524
G1 X131.081 Y40.769 E18.19681
G1 X125.442 Y46.409 E18.46219
G1 X125.709 Y45.765 E18.48538
G1 X131.279 Y40.195 E18.74750
G1 X131.475 Y39.621 E18.76767
G1 X125.975 Y45.121 E19.02647
G1 X126.242 Y44.477 E19.04966
G1 X131.641 Y39.077 E19.30375
G1 X131.641 Y38.700 E19.31631
G1 X126.509 Y43.833 E19.55785
G1 X126.764 Y43.200 E19.58056
G1 X131.641 Y38.323 E19.81008
G1 X131.641 Y37.946 E19.82263
G1 X126.993 Y42.594 E20.04137
G1 X127.222 Y41.987 E20.06294
G1 X131.641 Y37.568 E20.27089
G1 X131.641 Y37.191 E20.28345
G1 X127.451 Y41.381 E20.48062
G1 X127.681 Y40.775 E20.50219
G1 X131.641 Y36.814 E20.68859
G1 X131.641 Y36.436 E20.70114
G1 X127.910 Y40.168 E20.87676
G1 X128.119 Y39.581 E20.89750
G1 X131.641 Y36.059 E21.06325
G1 X131.641 Y35.682 E21.07580
G1 X128.316 Y39.007 E21.23228
G1 X128.359 Y38.884 E21.23663
G1 X128.359 Y38.587 E21.24648
G1 X131.641 Y35.305 E21.40097
G1 X131.641 Y34.927 E21.41353
G1 X128.359 Y38.210 E21.56802
