; Gcode updated with 'stl_info' on 2019-12-03 19:04:46.108665

; stl_min_x = 0.0
; stl_max_x = 72.6322021484375
; stl_min_y = 41.5
; stl_max_y = 85.53359985351562
; stl_min_z = 100.0

; generated by Slic3r 1.3.1-dev (Build adea0d9) on 2019-12-03 at 19:04:45

; external perimeters extrusion width = 0.55mm (1.90mm^3/s)
; perimeters extrusion width = 0.70mm (2.71mm^3/s)
; infill extrusion width = 0.62mm (2.41mm^3/s)
; solid infill extrusion width = 0.70mm (2.04mm^3/s)
; top infill extrusion width = 0.70mm (2.04mm^3/s)

M107
G92 E0
;D3D:START:START
T0
M104 S215 T0

G21
G90
M107
T0
G28
G29
M109 T0 S215 T0
G0 F3000
M107
T0
G92 E0
G0 X0 Y149 Z0.1 F3600
G1 Y49 E6.5 F1200
G0 Z1
G92 E0
; Filament gcode

G21 ; set units to millimeters
G90 ; use absolute coordinates
M82 ; use absolute distances for extrusion
G92 E0
G1 Z0.090 F7800.000
G1 E-2.00000 F2400.00000
G92 E0
G1 X34.794 Y47.594 F7800.000
G1 E2.00000 F2400.00000
G1 F1800.000
G1 X37.607 Y46.904 E2.00864
G1 X112.356 Y46.904 E2.23151
G1 X114.516 Y47.300 E2.23806
G1 X116.394 Y48.439 E2.24461
G1 X117.745 Y50.170 E2.25116
G1 X118.393 Y52.269 E2.25771
G1 X118.253 Y54.460 E2.26425
G1 X117.637 Y55.996 E2.26919
G1 X116.385 Y58.183 E2.27670
G1 X114.880 Y60.635 E2.28528
G1 X113.405 Y62.880 E2.29329
G1 X111.753 Y65.236 E2.30187
G1 X110.028 Y67.538 E2.31045
G1 X108.110 Y69.932 E2.31959
G1 X106.239 Y72.118 E2.32817
G1 X104.301 Y74.244 E2.33675
G1 X102.296 Y76.308 E2.34533
G1 X100.228 Y78.308 E2.35391
G1 X98.099 Y80.242 E2.36248
G1 X95.909 Y82.108 E2.37106
G1 X93.812 Y83.787 E2.37907
G1 X91.514 Y85.517 E2.38765
G1 X89.162 Y87.174 E2.39623
G1 X86.759 Y88.756 E2.40481
G1 X84.307 Y90.262 E2.41338
G1 X81.810 Y91.689 E2.42196
G1 X79.098 Y93.125 E2.43111
G1 X76.513 Y94.388 E2.43969
G1 X74.066 Y95.493 E2.44770
G1 X71.409 Y96.597 E2.45627
G1 X69.831 Y97.184 E2.46129
G1 X59.331 Y100.427 E2.49406
G1 X57.491 Y100.879 E2.49971
G1 X54.674 Y101.459 E2.50829
G1 X51.839 Y101.951 E2.51686
G1 X48.990 Y102.353 E2.52544
G1 X46.130 Y102.666 E2.53402
G1 X43.453 Y102.877 E2.54203
G1 X40.579 Y103.015 E2.55061
G1 X37.702 Y103.063 E2.55918
G1 X35.536 Y102.701 E2.56573
G1 X33.640 Y101.592 E2.57228
G1 X32.262 Y99.882 E2.57883
G1 X31.527 Y96.984 E2.58774
G1 X31.527 Y52.983 E2.71894
G1 X31.924 Y50.823 E2.72549
G1 X33.062 Y48.945 E2.73204
G1 X34.735 Y47.640 E2.73836
G1 E0.73836 F2400.00000
G92 E0
G1 X68.326 Y89.907 F7800.000
G1 E2.00000 F2400.00000
G1 F1800.000
G1 X66.139 Y90.733 E2.00697
G1 X63.635 Y91.590 E2.01486
G1 X61.106 Y92.368 E2.02275
G1 X58.554 Y93.066 E2.03064
G1 X57.248 Y93.380 E2.03464
G1 X57.248 Y94.391 E2.03766
G1 X56.196 Y94.644 E2.04089
G1 X53.574 Y95.186 E2.04887
G1 X50.937 Y95.647 E2.05685
G1 X48.287 Y96.024 E2.06483
G1 X45.626 Y96.318 E2.07281
G1 X42.958 Y96.528 E2.08079
G1 X40.284 Y96.654 E2.08878
G1 X37.896 Y96.691 E2.09590
G1 X37.896 Y90.638 E2.11395
G1 X38.118 Y90.635 E2.11461
G1 X38.118 Y96.282 E2.13145
G1 X40.271 Y96.248 E2.13787
G1 X42.932 Y96.122 E2.14581
G1 X45.588 Y95.913 E2.15375
G1 X48.236 Y95.621 E2.16170
G1 X50.874 Y95.245 E2.16964
G1 X53.498 Y94.787 E2.17758
G1 X56.176 Y94.233 E2.18574
G1 X56.176 Y88.424 E2.20306
G1 X57.293 Y88.156 E2.20648
G1 X59.692 Y87.500 E2.21390
G1 X62.069 Y86.768 E2.22131
G1 X64.421 Y85.963 E2.22873
G1 X66.748 Y85.084 E2.23614
G1 X69.045 Y84.132 E2.24356
G1 X71.312 Y83.109 E2.25097
G1 X73.545 Y82.015 E2.25839
G1 X75.742 Y80.851 E2.26580
G1 X77.902 Y79.619 E2.27322
G1 X80.023 Y78.320 E2.28063
G1 X82.101 Y76.955 E2.28804
G1 X84.136 Y75.525 E2.29546
G1 X86.124 Y74.032 E2.30287
G1 X88.065 Y72.477 E2.31029
G1 X89.956 Y70.862 E2.31770
G1 X91.795 Y69.188 E2.32512
G1 X93.581 Y67.458 E2.33253
G1 X95.312 Y65.672 E2.33995
G1 X96.985 Y63.832 E2.34736
G1 X98.601 Y61.941 E2.35478
G1 X100.155 Y60.001 E2.36219
G1 X101.649 Y58.012 E2.36961
G1 X103.078 Y55.978 E2.37702
G1 X104.709 Y53.495 E2.38588
G1 X37.896 Y53.495 E2.58509
G1 X37.896 Y53.272 E2.58576
G1 X111.859 Y53.272 E2.80629
G1 X110.953 Y54.860 E2.81174
G1 X109.554 Y57.142 E2.81973
G1 X108.085 Y59.380 E2.82771
G1 X106.545 Y61.570 E2.83569
G1 X104.938 Y63.711 E2.84367
G1 X103.265 Y65.800 E2.85165
G1 X101.526 Y67.835 E2.85963
G1 X99.724 Y69.815 E2.86762
G1 X97.861 Y71.738 E2.87560
G1 X95.939 Y73.601 E2.88358
G1 X93.959 Y75.402 E2.89156
G1 X91.924 Y77.141 E2.89954
G1 X89.834 Y78.814 E2.90752
G1 X87.694 Y80.422 E2.91551
G1 X85.504 Y81.961 E2.92349
G1 X83.266 Y83.431 E2.93147
G1 X80.984 Y84.829 E2.93945
G1 X78.658 Y86.156 E2.94743
G1 X76.293 Y87.408 E2.95541
G1 X73.889 Y88.586 E2.96340
G1 X71.449 Y89.687 E2.97138
G1 X68.976 Y90.712 E2.97936
G1 X68.326 Y90.958 E2.98143
G1 X68.326 Y89.982 E2.98434
G1 X68.246 Y90.022 F7800.000
G1 F1800.000
G1 X66.166 Y90.808 E2.99097
G1 X63.660 Y91.666 E2.99887
G1 X61.128 Y92.445 E3.00677
G1 X58.574 Y93.143 E3.01466
G1 X57.328 Y93.442 E3.01848
G1 X57.328 Y94.454 E3.02150
G1 X56.213 Y94.721 E3.02492
G1 X53.589 Y95.265 E3.03291
G1 X50.950 Y95.725 E3.04090
G1 X48.297 Y96.103 E3.04889
G1 X45.634 Y96.397 E3.05687
G1 X42.963 Y96.607 E3.06486
G1 X40.286 Y96.733 E3.07285
G1 X37.816 Y96.772 E3.08022
G1 X37.816 Y90.560 E3.09874
G1 X38.198 Y90.554 E3.09988
G1 X38.198 Y96.201 E3.11672
G1 X40.268 Y96.168 E3.12289
G1 X42.927 Y96.043 E3.13083
G1 X45.580 Y95.834 E3.13877
G1 X48.226 Y95.542 E3.14670
G1 X50.861 Y95.167 E3.15464
G1 X53.483 Y94.709 E3.16257
G1 X56.096 Y94.168 E3.17053
G1 X56.096 Y88.361 E3.18784
G1 X57.273 Y88.079 E3.19145
G1 X59.670 Y87.423 E3.19886
G1 X62.044 Y86.693 E3.20627
G1 X64.394 Y85.888 E3.21367
G1 X66.718 Y85.010 E3.22108
G1 X69.013 Y84.059 E3.22849
G1 X71.278 Y83.037 E3.23590
G1 X73.509 Y81.944 E3.24330
G1 X75.704 Y80.781 E3.25071
G1 X77.862 Y79.551 E3.25812
G1 X79.980 Y78.253 E3.26553
G1 X82.057 Y76.889 E3.27293
G1 X84.089 Y75.460 E3.28034
G1 X86.076 Y73.969 E3.28775
G1 X88.014 Y72.415 E3.29515
G1 X89.903 Y70.802 E3.30256
G1 X91.741 Y69.130 E3.30997
G1 X93.525 Y67.401 E3.31738
G1 X95.254 Y65.617 E3.32478
G1 X96.926 Y63.780 E3.33219
G1 X98.539 Y61.891 E3.33960
G1 X100.092 Y59.952 E3.34701
G1 X101.584 Y57.965 E3.35441
G1 X103.012 Y55.933 E3.36182
G1 X104.562 Y53.574 E3.37023
G1 X37.816 Y53.574 E3.56925
G1 X37.816 Y53.192 E3.57039
G1 X111.996 Y53.192 E3.79157
G1 X111.022 Y54.901 E3.79743
G1 X109.622 Y57.185 E3.80542
G1 X108.151 Y59.425 E3.81341
G1 X106.610 Y61.617 E3.82140
G1 X105.001 Y63.759 E3.82939
G1 X103.326 Y65.851 E3.83738
G1 X101.586 Y67.888 E3.84536
G1 X99.782 Y69.870 E3.85335
G1 X97.918 Y71.794 E3.86134
G1 X95.994 Y73.659 E3.86933
G1 X94.012 Y75.462 E3.87732
G1 X91.974 Y77.202 E3.88531
G1 X89.883 Y78.877 E3.89330
G1 X87.741 Y80.486 E3.90129
G1 X85.548 Y82.027 E3.90928
G1 X83.309 Y83.498 E3.91727
G1 X81.024 Y84.898 E3.92526
G1 X78.697 Y86.225 E3.93325
G1 X76.329 Y87.479 E3.94123
G1 X73.923 Y88.658 E3.94922
G1 X71.481 Y89.761 E3.95721
G1 X69.005 Y90.786 E3.96520
G1 X68.246 Y91.073 E3.96762
G1 X68.246 Y90.097 E3.97053
G1 X68.166 Y90.137 F7800.000
G1 F1800.000
G1 X66.193 Y90.883 E3.97682
G1 X63.685 Y91.742 E3.98473
G1 X61.151 Y92.521 E3.99263
G1 X58.594 Y93.221 E4.00054
G1 X57.408 Y93.505 E4.00417
G1 X57.408 Y94.517 E4.00719
G1 X56.230 Y94.799 E4.01080
G1 X53.604 Y95.343 E4.01880
G1 X50.962 Y95.804 E4.02679
G1 X48.307 Y96.182 E4.03479
G1 X45.641 Y96.476 E4.04278
G1 X42.968 Y96.687 E4.05078
G1 X40.289 Y96.813 E4.05878
G1 X37.736 Y96.853 E4.06639
G1 X37.736 Y90.481 E4.08539
G1 X38.278 Y90.473 E4.08700
G1 X38.278 Y96.120 E4.10384
G1 X40.266 Y96.088 E4.10977
G1 X42.922 Y95.963 E4.11770
G1 X45.573 Y95.755 E4.12563
G1 X48.216 Y95.463 E4.13355
G1 X50.849 Y95.088 E4.14148
G1 X53.468 Y94.631 E4.14941
G1 X56.016 Y94.103 E4.15717
G1 X56.016 Y88.299 E4.17448
G1 X57.254 Y88.001 E4.17827
G1 X59.647 Y87.347 E4.18567
G1 X62.019 Y86.617 E4.19307
G1 X64.367 Y85.813 E4.20047
G1 X66.689 Y84.936 E4.20787
G1 X68.982 Y83.986 E4.21527
G1 X71.244 Y82.965 E4.22267
G1 X73.472 Y81.873 E4.23007
G1 X75.666 Y80.712 E4.23747
G1 X77.821 Y79.482 E4.24487
G1 X79.937 Y78.185 E4.25227
G1 X82.012 Y76.823 E4.25967
G1 X84.042 Y75.396 E4.26707
G1 X86.027 Y73.906 E4.27447
G1 X87.964 Y72.354 E4.28187
G1 X89.851 Y70.742 E4.28927
G1 X91.686 Y69.072 E4.29667
G1 X93.469 Y67.345 E4.30407
G1 X95.196 Y65.563 E4.31147
G1 X96.866 Y63.727 E4.31887
G1 X98.478 Y61.840 E4.32627
G1 X100.029 Y59.903 E4.33367
G1 X101.520 Y57.918 E4.34107
G1 X102.947 Y55.888 E4.34847
G1 X104.414 Y53.654 E4.35644
G1 X37.736 Y53.654 E4.55525
G1 X37.736 Y53.112 E4.55686
G1 X112.133 Y53.112 E4.77869
G1 X111.090 Y54.941 E4.78496
G1 X109.689 Y57.228 E4.79296
G1 X108.217 Y59.469 E4.80096
G1 X106.674 Y61.664 E4.80895
G1 X105.064 Y63.808 E4.81695
G1 X103.387 Y65.901 E4.82495
G1 X101.646 Y67.941 E4.83294
G1 X99.841 Y69.924 E4.84094
G1 X97.974 Y71.850 E4.84894
G1 X96.048 Y73.717 E4.85693
G1 X94.065 Y75.522 E4.86493
G1 X92.025 Y77.264 E4.87293
G1 X89.932 Y78.940 E4.88092
G1 X87.787 Y80.551 E4.88892
G1 X85.593 Y82.093 E4.89692
G1 X83.352 Y83.565 E4.90491
G1 X81.065 Y84.966 E4.91291
G1 X78.735 Y86.295 E4.92091
G1 X76.365 Y87.550 E4.92890
G1 X73.957 Y88.730 E4.93690
G1 X71.512 Y89.834 E4.94490
G1 X69.035 Y90.860 E4.95289
G1 X68.166 Y91.188 E4.95566
G1 X68.166 Y90.212 E4.95857
G1 X68.086 Y90.252 F7800.000
G1 F1800.000
G1 X66.220 Y90.958 E4.96452
G1 X63.709 Y91.817 E4.97243
G1 X61.173 Y92.598 E4.98035
G1 X58.613 Y93.298 E4.98826
G1 X57.487 Y93.568 E4.99171
G1 X57.487 Y94.579 E4.99473
G1 X56.248 Y94.877 E4.99853
G1 X53.619 Y95.421 E5.00653
G1 X50.975 Y95.883 E5.01454
G1 X48.317 Y96.261 E5.02254
G1 X45.649 Y96.556 E5.03054
G1 X42.973 Y96.766 E5.03855
G1 X40.291 Y96.893 E5.04655
G1 X37.656 Y96.934 E5.05441
G1 X37.656 Y90.403 E5.07388
G1 X38.357 Y90.392 E5.07597
G1 X38.357 Y96.039 E5.09281
G1 X40.263 Y96.009 E5.09849
G1 X42.917 Y95.884 E5.10641
G1 X45.565 Y95.675 E5.11433
G1 X48.206 Y95.384 E5.12226
G1 X50.836 Y95.009 E5.13018
G1 X53.453 Y94.553 E5.13810
G1 X55.936 Y94.038 E5.14566
G1 X55.936 Y88.236 E5.16296
G1 X57.234 Y87.924 E5.16694
G1 X59.625 Y87.270 E5.17433
G1 X61.995 Y86.541 E5.18172
G1 X64.340 Y85.738 E5.18912
G1 X66.660 Y84.862 E5.19651
G1 X68.950 Y83.913 E5.20390
G1 X71.210 Y82.893 E5.21129
G1 X73.436 Y81.802 E5.21869
G1 X75.627 Y80.642 E5.22608
G1 X77.781 Y79.413 E5.23347
G1 X79.895 Y78.118 E5.24086
G1 X81.967 Y76.757 E5.24825
G1 X83.995 Y75.331 E5.25565
G1 X85.978 Y73.843 E5.26304
G1 X87.913 Y72.293 E5.27043
G1 X89.798 Y70.682 E5.27782
G1 X91.632 Y69.014 E5.28522
G1 X93.412 Y67.288 E5.29261
G1 X95.138 Y65.508 E5.30000
G1 X96.806 Y63.674 E5.30739
G1 X98.416 Y61.789 E5.31478
G1 X99.966 Y59.854 E5.32218
G1 X101.455 Y57.871 E5.32957
G1 X102.881 Y55.843 E5.33696
G1 X104.266 Y53.734 E5.34449
G1 X37.656 Y53.734 E5.54309
G1 X37.656 Y53.033 E5.54518
G1 X112.271 Y53.033 E5.76766
G1 X111.159 Y54.982 E5.77435
G1 X109.756 Y57.271 E5.78235
G1 X108.283 Y59.514 E5.79036
G1 X106.739 Y61.710 E5.79836
G1 X105.127 Y63.857 E5.80636
G1 X103.449 Y65.952 E5.81437
G1 X101.705 Y67.993 E5.82237
G1 X99.899 Y69.979 E5.83038
G1 X98.031 Y71.907 E5.83838
G1 X96.103 Y73.775 E5.84638
G1 X94.117 Y75.582 E5.85439
G1 X92.076 Y77.325 E5.86239
G1 X89.981 Y79.003 E5.87040
G1 X87.834 Y80.615 E5.87840
G1 X85.638 Y82.159 E5.88641
G1 X83.394 Y83.632 E5.89441
G1 X81.105 Y85.035 E5.90241
G1 X78.774 Y86.365 E5.91042
G1 X76.401 Y87.621 E5.91842
G1 X73.991 Y88.802 E5.92643
G1 X71.544 Y89.907 E5.93443
G1 X69.064 Y90.934 E5.94243
G1 X68.086 Y91.304 E5.94555
G1 X68.086 Y90.327 E5.94846
G1 X67.820 Y89.829 F7800.000
G1 E3.94846 F2400.00000
G92 E0
G1 X57.200 Y93.339 F7800.000
G1 E2.00000 F2400.00000
G1 F1800.000
G1 X56.224 Y94.314 E2.00412
G1 X57.064 Y94.377 F7800.000
G1 F1800.000
G1 X57.200 Y94.241 E2.00469
G1 X57.200 Y94.128 E2.00503
G1 X56.916 Y94.412 E2.00622
G1 X56.767 Y94.448 E2.00668
G1 X57.200 Y94.016 E2.00850
G1 X57.200 Y93.903 E2.00884
G1 X56.619 Y94.484 E2.01129
G1 X56.471 Y94.519 E2.01175
G1 X57.200 Y93.790 E2.01483
G1 X57.200 Y93.677 E2.01516
G1 X56.322 Y94.555 E2.01887
G1 X56.174 Y94.591 E2.01932
G1 X57.200 Y93.564 E2.02365
G1 X57.200 Y93.452 E2.02399
G1 X56.030 Y94.621 E2.02892
G1 X55.888 Y94.651 E2.02936
G1 X56.268 Y94.271 E2.03096
G1 X56.126 Y94.300 E2.03139
G1 X55.746 Y94.680 E2.03300
G1 X55.604 Y94.709 E2.03343
G1 X55.984 Y94.330 E2.03503
G1 X55.841 Y94.359 E2.03547
G1 X55.461 Y94.739 E2.03707
G1 X55.319 Y94.768 E2.03750
G1 X55.699 Y94.388 E2.03911
G1 X55.557 Y94.418 E2.03954
G1 X55.177 Y94.798 E2.04114
G1 X55.035 Y94.827 E2.04158
G1 X55.415 Y94.447 E2.04318
G1 X55.272 Y94.477 E2.04362
G1 X54.892 Y94.857 E2.04522
G1 X54.750 Y94.886 E2.04565
G1 X55.130 Y94.506 E2.04725
G1 X54.988 Y94.536 E2.04769
G1 X54.608 Y94.916 E2.04929
G1 X54.466 Y94.945 E2.04973
G1 X54.846 Y94.565 E2.05133
G1 X54.703 Y94.595 E2.05176
G1 X54.324 Y94.975 E2.05336
G1 X54.181 Y95.004 E2.05380
G1 X54.561 Y94.624 E2.05540
G1 X54.419 Y94.654 E2.05583
G1 X54.039 Y95.033 E2.05744
G1 X53.897 Y95.063 E2.05787
G1 X54.277 Y94.683 E2.05947
G1 X54.134 Y94.712 E2.05991
G1 X53.755 Y95.092 E2.06151
G1 X53.612 Y95.122 E2.06194
G1 X53.992 Y94.742 E2.06355
G1 X53.850 Y94.771 E2.06398
G1 X53.472 Y95.149 E2.06557
G1 X53.336 Y95.173 E2.06599
G1 X53.708 Y94.801 E2.06756
G1 X53.565 Y94.830 E2.06799
G1 X53.199 Y95.197 E2.06954
G1 X53.063 Y95.220 E2.06995
G1 X53.428 Y94.855 E2.07149
G1 X53.291 Y94.879 E2.07191
G1 X52.926 Y95.244 E2.07345
G1 X52.789 Y95.268 E2.07386
G1 X53.155 Y94.903 E2.07540
G1 X53.018 Y94.927 E2.07582
G1 X52.653 Y95.292 E2.07736
G1 X52.516 Y95.316 E2.07778
G1 X52.881 Y94.950 E2.07932
G1 X52.745 Y94.974 E2.07973
G1 X52.379 Y95.340 E2.08127
G1 X52.243 Y95.364 E2.08169
G1 X52.608 Y94.998 E2.08323
G1 X52.472 Y95.022 E2.08364
G1 X52.106 Y95.387 E2.08519
G1 X51.969 Y95.411 E2.08560
G1 X52.335 Y95.046 E2.08714
G1 X52.198 Y95.070 E2.08756
G1 X51.833 Y95.435 E2.08910
G1 X51.696 Y95.459 E2.08951
G1 X52.062 Y95.093 E2.09106
G1 X51.925 Y95.117 E2.09147
G1 X51.560 Y95.483 E2.09301
G1 X51.423 Y95.507 E2.09343
G1 X51.788 Y95.141 E2.09497
G1 X51.652 Y95.165 E2.09538
G1 X51.286 Y95.530 E2.09692
G1 X51.150 Y95.554 E2.09734
G1 X51.515 Y95.189 E2.09888
G1 X51.379 Y95.213 E2.09930
G1 X51.013 Y95.578 E2.10084
G1 X50.894 Y95.599 E2.10120
G1 X50.877 Y95.601 E2.10125
G1 X51.242 Y95.236 E2.10279
G1 X51.105 Y95.260 E2.10320
G1 X50.746 Y95.620 E2.10472
G1 X50.614 Y95.639 E2.10512
G1 X50.969 Y95.284 E2.10661
G1 X50.835 Y95.305 E2.10702
G1 X50.483 Y95.658 E2.10851
G1 X50.351 Y95.676 E2.10890
G1 X50.704 Y95.324 E2.11039
G1 X50.572 Y95.342 E2.11079
G1 X50.220 Y95.695 E2.11228
G1 X50.088 Y95.714 E2.11267
G1 X50.441 Y95.361 E2.11416
G1 X50.309 Y95.380 E2.11456
G1 X49.957 Y95.732 E2.11604
G1 X49.825 Y95.751 E2.11644
G1 X50.178 Y95.398 E2.11793
G1 X50.046 Y95.417 E2.11833
G1 X49.694 Y95.770 E2.11981
G1 X49.562 Y95.789 E2.12021
G1 X49.915 Y95.436 E2.12170
G1 X49.783 Y95.455 E2.12210
G1 X49.431 Y95.807 E2.12358
G1 X49.299 Y95.826 E2.12398
G1 X49.652 Y95.473 E2.12547
G1 X49.520 Y95.492 E2.12586
G1 X49.168 Y95.845 E2.12735
G1 X49.036 Y95.863 E2.12775
G1 X49.389 Y95.511 E2.12924
G1 X49.257 Y95.529 E2.12963
G1 X48.905 Y95.882 E2.13112
G1 X48.773 Y95.901 E2.13152
G1 X49.126 Y95.548 E2.13301
G1 X48.994 Y95.567 E2.13340
G1 X48.642 Y95.920 E2.13489
G1 X48.510 Y95.938 E2.13529
G1 X48.863 Y95.586 E2.13678
G1 X48.731 Y95.604 E2.13717
G1 X48.379 Y95.957 E2.13866
G1 X48.247 Y95.976 E2.13906
G1 X48.600 Y95.623 E2.14055
G1 X48.468 Y95.642 E2.14094
G1 X48.120 Y95.990 E2.14241
G1 X47.993 Y96.004 E2.14279
G1 X48.337 Y95.660 E2.14424
G1 X48.208 Y95.677 E2.14463
G1 X47.867 Y96.018 E2.14607
G1 X47.740 Y96.032 E2.14645
G1 X48.081 Y95.691 E2.14789
G1 X47.954 Y95.705 E2.14827
G1 X47.613 Y96.046 E2.14971
G1 X47.486 Y96.060 E2.15009
G1 X47.827 Y95.719 E2.15153
G1 X47.701 Y95.733 E2.15191
G1 X47.360 Y96.074 E2.15335
G1 X47.233 Y96.088 E2.15373
G1 X47.574 Y95.747 E2.15517
G1 X47.447 Y95.761 E2.15555
G1 X47.106 Y96.102 E2.15699
G1 X46.979 Y96.116 E2.15737
G1 X47.320 Y95.775 E2.15881
G1 X47.194 Y95.789 E2.15919
G1 X46.852 Y96.130 E2.16063
G1 X46.726 Y96.144 E2.16101
G1 X47.067 Y95.803 E2.16245
G1 X46.940 Y95.817 E2.16283
G1 X46.599 Y96.158 E2.16427
G1 X46.472 Y96.172 E2.16465
G1 X46.813 Y95.831 E2.16609
G1 X46.686 Y95.845 E2.16647
G1 X46.345 Y96.186 E2.16791
G1 X46.219 Y96.200 E2.16829
G1 X46.560 Y95.859 E2.16973
G1 X46.433 Y95.873 E2.17011
G1 X46.092 Y96.214 E2.17155
