; generated by Slic3r 1.3.1-dev (Build 2ef957d) on 2019-11-25 at 09:24:36

; external perimeters extrusion width = 0.55mm (4.37mm^3/s)
; perimeters extrusion width = 0.70mm (11.44mm^3/s)
; infill extrusion width = 0.62mm (13.45mm^3/s)
; solid infill extrusion width = 0.70mm (3.81mm^3/s)
; top infill extrusion width = 0.70mm (2.86mm^3/s)

M107
G92 E0
M104 S200 ; set temperature
G28 ; home all axes
G1 Z5 F5000 ; lift nozzle

; Filament gcode

M109 S200 ; set temperature and wait for it to be reached
G21 ; set units to millimeters
G90 ; use absolute coordinates
M82 ; use absolute distances for extrusion
G92 E0
G1 Z0.350 F7800.000
G1 E-2.00000 F2400.00000
G92 E0
G1 X28.638 Y88.143 F7800.000
G1 E2.00000 F2400.00000
G1 F1800.000
G1 X31.997 Y87.073 E2.10907
G1 X35.576 Y85.961 E2.22503
G1 X39.402 Y84.803 E2.34870
G1 X43.458 Y83.610 E2.47954
G1 X47.719 Y82.393 E2.61665
G1 X52.192 Y81.156 E2.76024
G1 X56.861 Y79.909 E2.90978
G1 X61.620 Y78.685 E3.06181
G1 X66.634 Y77.447 E3.22162
G1 X71.666 Y76.259 E3.38158
G1 X76.940 Y75.076 E3.54883
G1 X82.230 Y73.955 E3.71615
G1 X87.504 Y72.909 E3.88250
G1 X93.020 Y71.895 E4.05604
G1 X98.351 Y71.000 E4.22327
G1 X103.802 Y70.180 E4.39384
G1 X109.243 Y69.465 E4.56365
G1 X114.802 Y68.854 E4.73667
G1 X120.181 Y68.390 E4.90374
G1 X125.309 Y68.076 E5.06270
G1 X130.519 Y67.901 E5.22399
G1 X135.624 Y67.887 E5.38196
G1 X140.610 Y68.043 E5.53629
G1 X145.722 Y68.399 E5.69485
G1 X150.140 Y68.888 E5.83240
G1 X154.652 Y69.587 E5.97366
G1 X158.977 Y70.475 E6.11028
G1 X163.100 Y71.553 E6.24212
G1 X167.005 Y72.821 E6.36917
G1 X170.680 Y74.281 E6.49152
G1 X171.110 Y74.471 E6.50609
G1 X174.112 Y75.931 E6.60934
G1 X174.570 Y76.176 E6.62543
G1 X177.288 Y77.773 E6.72297
G1 X177.772 Y78.086 E6.74081
G1 X180.196 Y79.810 E6.83284
G1 X180.699 Y80.205 E6.85264
G1 X182.820 Y82.045 E6.93951
G1 X183.331 Y82.539 E6.96150
G1 X185.140 Y84.485 E7.04371
G1 X185.639 Y85.091 E7.06800
G1 X187.129 Y87.133 E7.14622
G1 X187.588 Y87.858 E7.17276
G1 X188.753 Y89.987 E7.24785
G1 X189.138 Y90.822 E7.27630
G1 X189.973 Y93.030 E7.34933
G1 X190.246 Y93.948 E7.37898
G1 X190.749 Y96.227 E7.45120
G1 X190.887 Y97.181 E7.48103
G1 X191.055 Y99.528 E7.55381
G1 X191.055 Y100.472 E7.58304
G1 X190.887 Y102.819 E7.65582
G1 X190.749 Y103.773 E7.68565
G1 X190.246 Y106.052 E7.75787
G1 X189.973 Y106.970 E7.78752
G1 X189.138 Y109.178 E7.86055
G1 X188.753 Y110.013 E7.88900
G1 X187.588 Y112.142 E7.96409
G1 X187.129 Y112.867 E7.99063
G1 X185.639 Y114.909 E8.06885
G1 X185.140 Y115.515 E8.09314
G1 X183.331 Y117.461 E8.17535
G1 X182.820 Y117.955 E8.19734
G1 X180.699 Y119.795 E8.28421
G1 X180.196 Y120.190 E8.30401
G1 X177.772 Y121.914 E8.39605
G1 X177.288 Y122.227 E8.41388
G1 X174.570 Y123.824 E8.51142
G1 X174.112 Y124.069 E8.52751
G1 X171.110 Y125.529 E8.63077
G1 X170.680 Y125.719 E8.64534
G1 X167.407 Y127.032 E8.75445
G1 X163.473 Y128.337 E8.88267
G1 X158.977 Y129.525 E9.02657
G1 X154.652 Y130.413 E9.16319
G1 X150.433 Y131.073 E9.29533
G1 X145.451 Y131.626 E9.45041
G1 X140.608 Y131.957 E9.60062
G1 X135.624 Y132.113 E9.75489
G1 X130.724 Y132.102 E9.90652
G1 X125.309 Y131.924 E10.07415
G1 X120.013 Y131.598 E10.23833
G1 X114.802 Y131.146 E10.40018
G1 X109.376 Y130.551 E10.56906
G1 X103.799 Y129.820 E10.74309
G1 X98.351 Y129.000 E10.91358
G1 X93.013 Y128.104 E11.08103
G1 X87.596 Y127.109 E11.25145
G1 X82.230 Y126.045 E11.42070
G1 X76.857 Y124.906 E11.59065
G1 X71.659 Y123.739 E11.75548
G1 X66.634 Y122.553 E11.91523
G1 X61.667 Y121.327 E12.07353
G1 X56.788 Y120.072 E12.22942
G1 X52.192 Y118.844 E12.37661
G1 X47.665 Y117.592 E12.52193
G1 X43.446 Y116.387 E12.65769
G1 X39.390 Y115.193 E12.78852
G1 X35.566 Y114.036 E12.91216
G1 X31.987 Y112.924 E13.02810
G1 X28.629 Y111.854 E13.13714
G1 X22.834 Y109.948 E13.32590
G1 X18.229 Y108.374 E13.47648
G1 X13.710 Y106.777 E13.62479
G1 X13.310 Y106.633 E13.63795
G1 X11.319 Y105.495 E13.70891
G1 X9.835 Y103.746 E13.77987
G1 X9.037 Y101.596 E13.85083
G1 X8.928 Y100.400 E13.88799
G1 X8.928 Y99.600 E13.91274
G1 X9.325 Y97.341 E13.98370
G1 X10.468 Y95.353 E14.05467
G1 X12.221 Y93.874 E14.12563
G1 X13.310 Y93.367 E14.16279
G1 X16.425 Y92.257 E14.26511
G1 X20.417 Y90.872 E14.39585
G1 X25.596 Y89.134 E14.56488
G1 X28.567 Y88.166 E14.66156
G1 E12.66156 F2400.00000
G92 E0
G1 X25.964 Y102.314 F7800.000
G1 E2.00000 F2400.00000
G1 F1800.000
G1 X26.015 Y102.000 E2.00986
G1 X30.064 Y102.000 E2.13513
G1 X35.773 Y103.821 E2.32056
G1 X40.337 Y105.214 E2.46820
G1 X43.006 Y106.004 E2.55432
G1 X49.039 Y107.729 E2.74846
G1 X52.391 Y108.652 E2.85604
G1 X55.944 Y109.604 E2.96985
G1 X59.688 Y110.576 E3.08953
G1 X63.606 Y111.561 E3.21455
G1 X67.684 Y112.552 E3.34439
G1 X71.905 Y113.540 E3.47854
G1 X76.254 Y114.516 E3.61643
G1 X80.713 Y115.474 E3.75755
G1 X85.265 Y116.402 E3.90128
G1 X89.891 Y117.294 E4.04708
G1 X94.575 Y118.139 E4.19435
G1 X99.298 Y118.929 E4.34251
G1 X104.042 Y119.653 E4.49099
G1 X108.789 Y120.302 E4.63921
G1 X113.519 Y120.866 E4.78662
G1 X118.215 Y121.336 E4.93265
G1 X122.859 Y121.702 E5.07679
G1 X127.433 Y121.957 E5.21854
G1 X131.920 Y122.092 E5.35741
G1 X136.301 Y122.100 E5.49299
G1 X140.561 Y121.976 E5.62485
G1 X144.683 Y121.716 E5.75264
G1 X148.651 Y121.316 E5.87605
G1 X152.451 Y120.775 E5.99479
G1 X156.068 Y120.094 E6.10866
G1 X159.488 Y119.273 E6.21749
G1 X162.698 Y118.316 E6.32116
G1 X165.688 Y117.225 E6.41962
G1 X168.445 Y116.006 E6.51291
G1 X170.961 Y114.663 E6.60115
G1 X173.224 Y113.199 E6.68454
G1 X175.226 Y111.620 E6.76344
G1 X176.955 Y109.927 E6.83831
G1 X178.401 Y108.125 E6.90977
G1 X179.547 Y106.220 E6.97859
G1 X180.379 Y104.219 E7.04563
G1 X180.883 Y102.140 E7.11183
G1 X181.052 Y100.000 E7.17825
G1 X180.883 Y97.860 E7.24466
G1 X180.379 Y95.781 E7.31086
G1 X179.547 Y93.780 E7.37790
G1 X178.401 Y91.875 E7.44672
G1 X176.955 Y90.073 E7.51818
G1 X175.226 Y88.380 E7.59306
G1 X173.224 Y86.801 E7.67195
G1 X170.961 Y85.337 E7.75535
G1 X168.445 Y83.994 E7.84358
G1 X165.688 Y82.775 E7.93687
G1 X162.698 Y81.684 E8.03534
G1 X159.488 Y80.727 E8.13901
G1 X156.068 Y79.906 E8.24783
G1 X152.451 Y79.225 E8.36170
G1 X148.651 Y78.684 E8.48045
G1 X144.683 Y78.284 E8.60385
G1 X140.561 Y78.024 E8.73164
G1 X136.301 Y77.900 E8.86351
G1 X131.920 Y77.908 E8.99908
G1 X127.433 Y78.043 E9.13795
G1 X122.859 Y78.298 E9.27970
G1 X118.215 Y78.664 E9.42384
G1 X113.519 Y79.134 E9.56988
G1 X108.789 Y79.698 E9.71728
G1 X104.042 Y80.347 E9.86550
G1 X99.298 Y81.071 E10.01398
G1 X94.575 Y81.861 E10.16215
G1 X89.891 Y82.706 E10.30942
G1 X85.265 Y83.598 E10.45521
G1 X80.713 Y84.526 E10.59894
G1 X76.254 Y85.484 E10.74006
G1 X71.905 Y86.460 E10.87796
G1 X67.684 Y87.448 E11.01210
G1 X63.606 Y88.439 E11.14195
G1 X59.688 Y89.424 E11.26696
G1 X55.944 Y90.396 E11.38664
G1 X52.388 Y91.348 E11.50053
G1 X45.910 Y93.155 E11.70864
G1 X43.001 Y93.997 E11.80233
G1 X37.927 Y95.515 E11.96619
G1 X33.893 Y96.769 E12.09691
G1 X30.062 Y98.000 E12.22141
G1 X26.015 Y98.000 E12.34663
G1 X25.964 Y97.686 E12.35649
G1 X31.180 Y95.965 E12.52645
G1 X34.443 Y94.926 E12.63239
G1 X37.965 Y93.831 E12.74649
G1 X41.730 Y92.692 E12.86821
G1 X45.724 Y91.516 E12.99703
G1 X49.918 Y90.318 E13.13200
G1 X54.322 Y89.100 E13.27337
G1 X58.918 Y87.873 E13.42056
G1 X63.662 Y86.652 E13.57213
G1 X68.532 Y85.449 E13.72733
G1 X73.546 Y84.266 E13.88677
G1 X78.654 Y83.120 E14.04874
G1 X83.842 Y82.020 E14.21280
G1 X89.094 Y80.978 E14.37849
G1 X94.394 Y80.004 E14.54522
G1 X99.698 Y79.114 E14.71164
G1 X105.010 Y78.315 E14.87783
G1 X110.296 Y77.622 E15.04279
G1 X115.531 Y77.046 E15.20575
G1 X120.704 Y76.598 E15.36640
G1 X125.789 Y76.287 E15.52403
G1 X130.766 Y76.122 E15.67811
G1 X135.614 Y76.112 E15.82814
G1 X140.317 Y76.262 E15.97372
G1 X144.849 Y76.577 E16.11427
G1 X149.199 Y77.059 E16.24970
G1 X153.342 Y77.707 E16.37945
G1 X157.267 Y78.520 E16.50347
G1 X160.956 Y79.493 E16.62151
G1 X164.393 Y80.621 E16.73344
G1 X167.565 Y81.893 E16.83920
G1 X170.459 Y83.300 E16.93875
G1 X173.063 Y84.829 E17.03219
G1 X175.367 Y86.468 E17.11967
G1 X177.365 Y88.201 E17.20150
G1 X179.050 Y90.015 E17.27811
G1 X180.423 Y91.897 E17.35018
G1 X181.485 Y93.837 E17.41862
G1 X182.239 Y95.832 E17.48462
G1 X182.692 Y97.884 E17.54964
G1 X182.843 Y100.000 E17.61528
G1 X182.692 Y102.116 E17.68091
G1 X182.239 Y104.168 E17.74593
G1 X181.485 Y106.163 E17.81193
G1 X180.423 Y108.103 E17.88037
G1 X179.050 Y109.985 E17.95244
G1 X177.365 Y111.799 E18.02905
G1 X175.367 Y113.532 E18.11088
G1 X173.063 Y115.171 E18.19837
G1 X170.459 Y116.700 E18.29181
G1 X167.565 Y118.107 E18.39137
G1 X164.393 Y119.379 E18.49711
G1 X160.956 Y120.507 E18.60905
G1 X157.267 Y121.480 E18.72708
G1 X153.342 Y122.293 E18.85111
G1 X149.197 Y122.941 E18.98092
G1 X144.849 Y123.423 E19.11628
G1 X140.315 Y123.738 E19.25689
G1 X135.614 Y123.888 E19.40241
G1 X130.766 Y123.878 E19.55244
G1 X125.789 Y123.713 E19.70652
G1 X120.704 Y123.402 E19.86415
G1 X115.531 Y122.954 E20.02480
G1 X110.292 Y122.377 E20.18789
G1 X105.007 Y121.684 E20.35280
G1 X99.698 Y120.886 E20.51891
G1 X94.387 Y119.995 E20.68555
G1 X89.094 Y119.022 E20.85206
G1 X83.842 Y117.980 E21.01775
G1 X78.649 Y116.879 E21.18198
G1 X73.540 Y115.733 E21.34399
G1 X68.532 Y114.551 E21.50322
G1 X63.647 Y113.344 E21.65889
G1 X58.904 Y112.124 E21.81044
G1 X54.322 Y110.900 E21.95718
G1 X49.918 Y109.682 E22.09856
G1 X45.712 Y108.480 E22.23391
G1 X41.719 Y107.305 E22.36270
G1 X37.954 Y106.165 E22.48440
G1 X34.433 Y105.071 E22.59848
G1 X31.172 Y104.032 E22.70439
G1 X26.035 Y102.338 E22.87175
G1 E20.87175 F2400.00000
G92 E0
G1 X22.156 Y101.688 F7800.000
G1 E2.00000 F2400.00000
G1 F1800.000
G1 X22.209 Y101.375 E2.00981
G1 X30.161 Y101.375 E2.25587
G1 X35.960 Y103.224 E2.44419
G1 X40.517 Y104.615 E2.59163
G1 X43.181 Y105.404 E2.67757
G1 X49.208 Y107.128 E2.87153
G1 X52.555 Y108.049 E2.97895
G1 X56.103 Y108.999 E3.09262
G1 X59.843 Y109.970 E3.21215
G1 X63.756 Y110.955 E3.33701
G1 X67.829 Y111.944 E3.46669
G1 X72.045 Y112.931 E3.60068
G1 X76.388 Y113.906 E3.73839
G1 X80.841 Y114.862 E3.87932
G1 X85.386 Y115.789 E4.02285
G1 X90.006 Y116.680 E4.16842
G1 X94.682 Y117.524 E4.31545
G1 X99.397 Y118.312 E4.46336
G1 X104.132 Y119.034 E4.61155
G1 X108.868 Y119.682 E4.75945
G1 X113.587 Y120.245 E4.90651
G1 X118.271 Y120.713 E5.05216
G1 X122.901 Y121.079 E5.19587
G1 X127.460 Y121.332 E5.33715
G1 X131.930 Y121.467 E5.47550
G1 X136.293 Y121.475 E5.61050
G1 X140.532 Y121.352 E5.74174
G1 X144.632 Y121.093 E5.86884
G1 X148.576 Y120.696 E5.99149
G1 X152.349 Y120.159 E6.10941
G1 X155.937 Y119.483 E6.22236
G1 X159.325 Y118.670 E6.33019
G1 X162.502 Y117.723 E6.43275
G1 X165.454 Y116.646 E6.52999
G1 X168.172 Y115.444 E6.62192
G1 X170.643 Y114.124 E6.70863
G1 X172.860 Y112.690 E6.79031
G1 X174.813 Y111.150 E6.86726
G1 X176.491 Y109.507 E6.93994
G1 X177.887 Y107.767 E7.00894
G1 X178.988 Y105.937 E7.07503
G1 X179.784 Y104.024 E7.13913
G1 X180.264 Y102.041 E7.20227
G1 X180.425 Y100.000 E7.26562
G1 X180.264 Y97.959 E7.32897
G1 X179.784 Y95.976 E7.39211
G1 X178.988 Y94.063 E7.45621
G1 X177.887 Y92.233 E7.52230
G1 X176.491 Y90.493 E7.59130
G1 X174.813 Y88.850 E7.66398
G1 X172.860 Y87.310 E7.74093
G1 X170.643 Y85.876 E7.82261
G1 X168.172 Y84.556 E7.90932
G1 X165.454 Y83.354 E8.00125
G1 X162.502 Y82.277 E8.09849
G1 X159.325 Y81.330 E8.20105
G1 X155.937 Y80.517 E8.30888
G1 X152.349 Y79.841 E8.42183
G1 X148.576 Y79.304 E8.53975
G1 X144.632 Y78.907 E8.66240
G1 X140.532 Y78.648 E8.78950
G1 X136.293 Y78.525 E8.92074
G1 X131.930 Y78.533 E9.05574
G1 X127.460 Y78.668 E9.19409
G1 X122.901 Y78.921 E9.33537
G1 X118.271 Y79.287 E9.47908
G1 X113.587 Y79.755 E9.62473
G1 X108.868 Y80.318 E9.77179
G1 X104.132 Y80.966 E9.91969
G1 X99.397 Y81.688 E10.06788
G1 X94.682 Y82.476 E10.21579
G1 X90.006 Y83.320 E10.36282
G1 X85.386 Y84.211 E10.50839
G1 X80.841 Y85.138 E10.65192
G1 X76.388 Y86.094 E10.79285
G1 X72.045 Y87.069 E10.93057
G1 X67.829 Y88.056 E11.06455
G1 X63.756 Y89.045 E11.19423
G1 X59.843 Y90.030 E11.31909
G1 X56.103 Y91.001 E11.43862
G1 X52.553 Y91.951 E11.55234
G1 X46.080 Y93.756 E11.76025
G1 X43.178 Y94.597 E11.85376
G1 X38.110 Y96.113 E12.01744
G1 X34.081 Y97.365 E12.14796
G1 X30.160 Y98.625 E12.27540
G1 X22.209 Y98.625 E12.52143
G1 X22.156 Y98.312 E12.53124
G1 X27.993 Y96.346 E12.72182
G1 X34.255 Y94.329 E12.92537
G1 X37.781 Y93.234 E13.03962
G1 X41.551 Y92.093 E13.16149
G1 X45.549 Y90.916 E13.29045
G1 X49.749 Y89.717 E13.42558
G1 X54.158 Y88.497 E13.56712
G1 X58.759 Y87.268 E13.71448
G1 X63.509 Y86.046 E13.86623
G1 X68.385 Y84.842 E14.02163
G1 X73.406 Y83.657 E14.18127
G1 X78.521 Y82.509 E14.34347
G1 X83.716 Y81.408 E14.50777
G1 X88.977 Y80.364 E14.67372
G1 X94.285 Y79.389 E14.84073
G1 X99.600 Y78.497 E15.00747
G1 X104.923 Y77.697 E15.17401
G1 X110.221 Y77.002 E15.33935
G1 X115.470 Y76.425 E15.50274
G1 X120.658 Y75.974 E15.66385
G1 X125.759 Y75.662 E15.82200
G1 X130.755 Y75.497 E15.97665
G1 X135.624 Y75.487 E16.12731
G1 X140.349 Y75.638 E16.27358
G1 X144.905 Y75.954 E16.41489
G1 X149.282 Y76.439 E16.55115
G1 X153.454 Y77.092 E16.68180
G1 X157.410 Y77.912 E16.80682
G1 X161.133 Y78.894 E16.92595
G1 X164.607 Y80.033 E17.03907
G1 X167.819 Y81.321 E17.14614
G1 X170.754 Y82.749 E17.24714
G1 X173.403 Y84.304 E17.34218
G1 X175.754 Y85.976 E17.43144
G1 X177.800 Y87.751 E17.51524
G1 X179.533 Y89.617 E17.59404
G1 X180.952 Y91.561 E17.66851
G1 X182.054 Y93.575 E17.73955
G1 X182.840 Y95.653 E17.80830
G1 X183.312 Y97.794 E17.87613
G1 X183.470 Y100.000 E17.94456
G1 X183.312 Y102.206 E18.01298
G1 X182.840 Y104.347 E18.08082
G1 X182.054 Y106.425 E18.14957
G1 X180.952 Y108.439 E18.22060
G1 X179.533 Y110.383 E18.29507
G1 X177.800 Y112.249 E18.37387
G1 X175.754 Y114.024 E18.45767
G1 X173.403 Y115.696 E18.54694
G1 X170.754 Y117.251 E18.64198
G1 X167.818 Y118.679 E18.74298
G1 X164.607 Y119.967 E18.85005
G1 X161.133 Y121.106 E18.96317
G1 X157.410 Y122.088 E19.08230
G1 X153.454 Y122.908 E19.20731
G1 X149.280 Y123.561 E19.33803
G1 X144.905 Y124.046 E19.47422
G1 X140.347 Y124.362 E19.61560
G1 X135.624 Y124.513 E19.76181
G1 X130.755 Y124.503 E19.91246
G1 X125.759 Y124.338 E20.06711
G1 X120.658 Y124.026 E20.22526
G1 X115.470 Y123.575 E20.38638
G1 X110.217 Y122.998 E20.54989
G1 X104.920 Y122.303 E20.71519
G1 X99.600 Y121.503 E20.88164
G1 X94.279 Y120.610 E21.04860
G1 X88.977 Y119.636 E21.21540
G1 X83.716 Y118.592 E21.38135
G1 X78.516 Y117.490 E21.54582
G1 X73.400 Y116.342 E21.70805
G1 X68.385 Y115.158 E21.86748
G1 X63.494 Y113.950 E22.02335
G1 X58.745 Y112.728 E22.17508
G1 X54.158 Y111.503 E22.32200
G1 X49.749 Y110.283 E22.46354
G1 X45.538 Y109.081 E22.59905
G1 X41.540 Y107.904 E22.72799
G1 X37.771 Y106.763 E22.84983
G1 X34.246 Y105.668 E22.96406
G1 X30.980 Y104.627 E23.07010
G1 X27.985 Y103.652 E23.16756
G1 X22.227 Y101.712 E23.35556
G1 E21.35556 F2400.00000
G92 E0
G1 X18.451 Y101.061 F7800.000
G1 E2.00000 F2400.00000
G1 F1800.000
G1 X18.505 Y100.750 E2.00977
G1 X30.259 Y100.750 E2.37343
G1 X36.146 Y102.628 E2.56463
G1 X40.697 Y104.017 E2.71187
G1 X43.355 Y104.804 E2.79765
G1 X49.376 Y106.526 E2.99142
G1 X52.718 Y107.446 E3.09867
G1 X56.263 Y108.395 E3.21220
G1 X59.997 Y109.365 E3.33159
G1 X63.906 Y110.348 E3.45629
G1 X67.974 Y111.336 E3.58582
G1 X72.185 Y112.322 E3.71963
G1 X76.522 Y113.296 E3.85717
G1 X80.969 Y114.250 E3.99791
G1 X85.508 Y115.177 E4.14123
G1 X90.121 Y116.066 E4.28659
G1 X94.789 Y116.908 E4.43338
G1 X99.496 Y117.695 E4.58102
G1 X104.221 Y118.416 E4.72892
G1 X108.947 Y119.062 E4.87651
G1 X113.655 Y119.624 E5.02322
G1 X118.327 Y120.091 E5.16848
G1 X122.943 Y120.455 E5.31177
G1 X127.487 Y120.708 E5.45257
G1 X131.940 Y120.842 E5.59041
G1 X136.284 Y120.850 E5.72484
G1 X140.504 Y120.727 E5.85544
G1 X144.581 Y120.470 E5.98186
G1 X148.501 Y120.075 E6.10375
G1 X152.247 Y119.542 E6.22084
G1 X155.806 Y118.872 E6.33288
G1 X159.163 Y118.066 E6.43970
G1 X162.305 Y117.129 E6.54116
G1 X165.221 Y116.066 E6.63718
G1 X167.898 Y114.882 E6.72775
G1 X170.326 Y113.585 E6.81293
G1 X172.496 Y112.182 E6.89290
G1 X174.399 Y110.680 E6.96791
G1 X176.027 Y109.087 E7.03839
G1 X177.373 Y107.409 E7.10493
G1 X178.429 Y105.654 E7.16829
G1 X179.188 Y103.830 E7.22944
G1 X179.645 Y101.942 E7.28952
G1 X179.798 Y100.000 E7.34981
G1 X179.645 Y98.058 E7.41010
G1 X179.188 Y96.170 E7.47018
