; generated by Slic3r 1.3.1-dev (Build 2ef957d) on 2019-11-25 at 09:24:24

; external perimeters extrusion width = 0.55mm (4.37mm^3/s)
; perimeters extrusion width = 0.70mm (11.44mm^3/s)
; infill extrusion width = 0.62mm (13.45mm^3/s)
; solid infill extrusion width = 0.70mm (3.81mm^3/s)
; top infill extrusion width = 0.70mm (2.86mm^3/s)

M107
G92 E0
M104 S200 ; set temperature
G28 ; home all axes
G1 Z5 F5000 ; lift nozzle

; Filament gcode

M109 S200 ; set temperature and wait for it to be reached
G21 ; set units to millimeters
G90 ; use absolute coordinates
M82 ; use absolute distances for extrusion
G92 E0
G1 Z0.350 F7800.000
G1 E-2.00000 F2400.00000
G92 E0
G1 X147.688 Y34.799 F7800.000
G1 E2.00000 F2400.00000
G1 F1800.000
G1 X149.529 Y33.431 E2.07096
G1 X152.500 Y32.728 E2.16544
G1 X157.500 Y32.728 E2.32015
G1 X159.759 Y33.125 E2.39111
G1 X161.747 Y34.268 E2.46208
G1 X163.226 Y36.021 E2.53304
G1 X164.019 Y38.173 E2.60400
G1 X164.125 Y39.352 E2.64065
G1 X164.125 Y78.198 E3.84259
G1 X163.768 Y80.344 E3.90991
G1 X162.918 Y82.816 E3.99077
G1 X161.494 Y86.577 E4.11520
G1 X159.952 Y90.289 E4.23958
G1 X158.381 Y93.768 E4.35770
G1 X156.615 Y97.380 E4.48210
G1 X154.736 Y100.936 E4.60654
G1 X152.746 Y104.432 E4.73100
G1 X152.332 Y105.114 E4.75570
G1 X150.536 Y108.038 E4.86184
G1 X148.326 Y111.397 E4.98628
G1 X146.131 Y114.520 E5.10437
G1 X143.721 Y117.735 E5.22871
G1 X141.076 Y121.037 E5.35960
G1 X138.462 Y124.093 E5.48405
G1 X135.753 Y127.064 E5.60845
G1 X132.951 Y129.952 E5.73295
G1 X130.063 Y132.746 E5.85729
G1 X127.240 Y135.315 E5.97538
G1 X124.184 Y137.929 E6.09980
G1 X121.048 Y140.446 E6.22424
G1 X117.832 Y142.864 E6.34874
G1 X114.545 Y145.178 E6.47312
G1 X111.185 Y147.389 E6.59755
G1 X107.756 Y149.494 E6.72206
G1 X104.782 Y151.194 E6.82803
G1 X104.084 Y151.589 E6.85286
G1 X100.528 Y153.468 E6.97730
G1 X96.916 Y155.234 E7.10170
G1 X93.249 Y156.886 E7.22616
G1 X89.531 Y158.423 E7.35063
G1 X85.963 Y159.770 E7.46863
G1 X82.160 Y161.076 E7.59304
G1 X78.316 Y162.262 E7.71752
G1 X74.439 Y163.326 E7.84192
G1 X70.528 Y164.268 E7.96639
G1 X66.589 Y165.088 E8.09087
G1 X62.630 Y165.782 E8.21524
G1 X58.648 Y166.352 E8.33971
G1 X54.652 Y166.797 E8.46411
G1 X50.642 Y167.115 E8.58858
G1 X48.062 Y167.240 E8.66850
G1 X46.893 Y167.192 E8.70470
G1 X41.643 Y166.507 E8.86852
G1 X39.454 Y165.821 E8.93948
G1 X37.631 Y164.430 E9.01044
G1 X36.391 Y162.501 E9.08141
G1 X35.875 Y159.938 E9.16230
G1 X35.875 Y155.609 E9.29622
G1 X36.272 Y153.351 E9.36719
G1 X37.688 Y151.056 E9.45060
G1 X147.636 Y34.854 E14.40041
G1 E12.40041 F2400.00000
G92 E0
G1 X155.100 Y71.382 F7800.000
G1 E2.00000 F2400.00000
G1 F1800.000
G1 X155.900 Y71.382 E2.02475
G1 X155.900 Y77.932 E2.22741
G1 X155.215 Y79.933 E2.29284
G1 X153.885 Y83.453 E2.40928
G1 X152.445 Y86.930 E2.52572
G1 X150.896 Y90.360 E2.64217
G1 X149.240 Y93.740 E2.75862
G1 X147.479 Y97.065 E2.87506
G1 X145.614 Y100.335 E2.99152
G1 X143.648 Y103.543 E3.10795
G1 X141.582 Y106.689 E3.22439
G1 X139.418 Y109.768 E3.34083
G1 X137.159 Y112.778 E3.45729
G1 X134.806 Y115.715 E3.57374
G1 X132.362 Y118.576 E3.69016
G1 X129.829 Y121.359 E3.80661
G1 X127.210 Y124.063 E3.92306
G1 X124.507 Y126.681 E4.03950
G1 X121.724 Y129.214 E4.15594
G1 X118.862 Y131.659 E4.27240
G1 X115.925 Y134.012 E4.38884
G1 X112.915 Y136.271 E4.50528
G1 X109.836 Y138.435 E4.62172
G1 X106.691 Y140.501 E4.73816
G1 X103.482 Y142.467 E4.85461
G1 X100.213 Y144.332 E4.97106
G1 X96.887 Y146.093 E5.08750
G1 X93.507 Y147.748 E5.20394
G1 X90.077 Y149.297 E5.32039
G1 X87.126 Y150.520 E5.41924
G1 X86.601 Y150.738 E5.43683
G1 X83.080 Y152.068 E5.55328
G1 X79.520 Y153.287 E5.66973
G1 X75.923 Y154.393 E5.78617
G1 X72.292 Y155.387 E5.90262
G1 X68.633 Y156.265 E6.01906
G1 X64.948 Y157.028 E6.13550
G1 X61.241 Y157.676 E6.25195
G1 X57.515 Y158.205 E6.36839
G1 X53.774 Y158.619 E6.48484
G1 X50.022 Y158.914 E6.60128
G1 X49.350 Y158.946 E6.62211
G1 X49.350 Y158.132 E6.64729
G1 X46.237 Y158.279 E6.74370
G1 X44.100 Y158.312 E6.80985
G1 X44.100 Y157.184 E6.84475
G1 X46.202 Y157.152 E6.90980
G1 X49.901 Y156.977 E7.02439
G1 X53.759 Y156.668 E7.14415
G1 X57.271 Y156.280 E7.25348
G1 X60.937 Y155.759 E7.36803
G1 X64.584 Y155.122 E7.48260
G1 X68.210 Y154.372 E7.59715
G1 X71.810 Y153.507 E7.71171
G1 X75.381 Y152.530 E7.82627
G1 X78.920 Y151.441 E7.94083
G1 X82.423 Y150.242 E8.05539
G1 X85.886 Y148.933 E8.16994
G1 X89.307 Y147.516 E8.28450
G1 X92.681 Y145.993 E8.39905
G1 X96.006 Y144.364 E8.51361
G1 X99.278 Y142.631 E8.62818
G1 X102.347 Y140.881 E8.73750
G1 X105.650 Y138.863 E8.85725
G1 X108.746 Y136.830 E8.97185
G1 X111.775 Y134.700 E9.08641
G1 X114.735 Y132.478 E9.20096
G1 X117.625 Y130.163 E9.31552
G1 X120.440 Y127.759 E9.43007
G1 X123.179 Y125.267 E9.54464
G1 X125.838 Y122.690 E9.65919
G1 X128.414 Y120.031 E9.77377
G1 X130.906 Y117.293 E9.88832
G1 X133.310 Y114.478 E10.00286
G1 X135.625 Y111.588 E10.11743
G1 X137.848 Y108.627 E10.23199
G1 X139.977 Y105.598 E10.34655
G1 X142.010 Y102.503 E10.46111
G1 X143.944 Y99.347 E10.57566
G1 X145.779 Y96.131 E10.69022
G1 X147.512 Y92.859 E10.80478
G1 X149.140 Y89.534 E10.91934
G1 X150.664 Y86.159 E11.03390
G1 X152.081 Y82.739 E11.14846
G1 X153.389 Y79.275 E11.26301
G1 X154.100 Y77.201 E11.33086
G1 X154.100 Y59.232 E11.88683
G1 X155.100 Y59.232 E11.91778
G1 X155.100 Y71.307 E12.29140
G1 X155.725 Y70.757 F7800.000
G1 F1800.000
G1 X156.525 Y70.757 E12.31615
G1 X156.525 Y78.036 E12.54136
G1 X155.803 Y80.144 E12.61031
G1 X154.466 Y83.683 E12.72736
G1 X153.018 Y87.178 E12.84441
G1 X151.461 Y90.626 E12.96147
G1 X149.797 Y94.023 E13.07852
G1 X148.027 Y97.367 E13.19557
G1 X146.152 Y100.653 E13.31263
G1 X144.176 Y103.878 E13.42968
G1 X142.099 Y107.040 E13.54673
G1 X139.924 Y110.135 E13.66377
G1 X137.653 Y113.161 E13.78083
G1 X135.287 Y116.113 E13.89789
G1 X132.830 Y118.989 E14.01493
G1 X130.284 Y121.787 E14.13198
G1 X127.652 Y124.504 E14.24904
G1 X124.935 Y127.137 E14.36608
G1 X122.137 Y129.683 E14.48313
G1 X119.260 Y132.140 E14.60020
G1 X116.308 Y134.505 E14.71725
G1 X113.283 Y136.777 E14.83430
G1 X110.188 Y138.952 E14.95134
G1 X107.026 Y141.028 E15.06839
G1 X103.800 Y143.005 E15.18544
G1 X100.514 Y144.879 E15.30250
G1 X97.171 Y146.650 E15.41955
G1 X93.773 Y148.314 E15.53660
G1 X90.326 Y149.871 E15.65366
G1 X87.365 Y151.098 E15.75281
G1 X86.831 Y151.319 E15.77071
G1 X83.292 Y152.656 E15.88776
G1 X79.713 Y153.882 E16.00482
G1 X76.097 Y154.993 E16.12186
G1 X72.448 Y155.992 E16.23892
G1 X68.769 Y156.875 E16.35597
G1 X65.065 Y157.642 E16.47302
G1 X61.338 Y158.293 E16.59007
G1 X57.593 Y158.826 E16.70713
G1 X53.833 Y159.241 E16.82418
G1 X50.061 Y159.538 E16.94123
G1 X48.725 Y159.601 E16.98263
G1 X48.725 Y158.787 E17.00781
G1 X46.257 Y158.903 E17.08426
G1 X43.475 Y158.947 E17.17035
G1 X43.475 Y156.569 E17.24393
G1 X46.182 Y156.527 E17.32771
G1 X49.862 Y156.353 E17.44168
G1 X53.700 Y156.046 E17.56083
G1 X57.193 Y155.660 E17.66956
G1 X60.839 Y155.142 E17.78351
G1 X64.467 Y154.508 E17.89747
G1 X68.073 Y153.762 E18.01141
G1 X71.654 Y152.902 E18.12537
G1 X75.207 Y151.930 E18.23932
G1 X78.727 Y150.847 E18.35327
G1 X82.211 Y149.654 E18.46722
G1 X85.656 Y148.352 E18.58117
G1 X89.058 Y146.943 E18.69512
G1 X92.415 Y145.427 E18.80907
G1 X95.722 Y143.807 E18.92302
G1 X98.977 Y142.084 E19.03698
G1 X102.030 Y140.343 E19.14570
G1 X105.316 Y138.336 E19.26484
G1 X108.394 Y136.313 E19.37883
G1 X111.407 Y134.195 E19.49278
G1 X114.352 Y131.984 E19.60672
G1 X117.227 Y129.681 E19.72067
G1 X120.027 Y127.290 E19.83462
G1 X122.751 Y124.811 E19.94858
G1 X125.396 Y122.248 E20.06252
G1 X127.959 Y119.603 E20.17649
G1 X130.437 Y116.879 E20.29043
G1 X132.829 Y114.079 E20.40437
G1 X135.132 Y111.205 E20.51833
G1 X137.343 Y108.260 E20.63228
G1 X139.460 Y105.247 E20.74623
G1 X141.482 Y102.169 E20.86019
G1 X143.406 Y99.029 E20.97413
G1 X145.231 Y95.830 E21.08808
G1 X146.955 Y92.575 E21.20204
G1 X148.575 Y89.267 E21.31599
G1 X150.090 Y85.911 E21.42994
G1 X151.500 Y82.508 E21.54389
G1 X152.801 Y79.063 E21.65783
G1 X153.475 Y77.097 E21.72216
G1 X153.475 Y58.607 E22.29424
G1 X155.725 Y58.607 E22.36387
G1 X155.725 Y70.682 E22.73749
G1 X156.350 Y70.132 F7800.000
G1 F1800.000
G1 X157.150 Y70.132 E22.76224
G1 X157.150 Y78.140 E23.01000
G1 X156.391 Y80.356 E23.08247
G1 X155.047 Y83.913 E23.20013
G1 X153.592 Y87.426 E23.31779
G1 X152.027 Y90.892 E23.43546
G1 X150.354 Y94.307 E23.55311
G1 X148.575 Y97.668 E23.67077
G1 X146.690 Y100.971 E23.78844
G1 X144.703 Y104.213 E23.90609
G1 X142.616 Y107.391 E24.02375
G1 X140.430 Y110.502 E24.14140
G1 X138.146 Y113.544 E24.25907
G1 X135.769 Y116.512 E24.37674
G1 X133.299 Y119.403 E24.49438
G1 X130.740 Y122.215 E24.61204
G1 X128.094 Y124.946 E24.72971
G1 X125.363 Y127.592 E24.84736
G1 X122.550 Y130.151 E24.96502
G1 X119.659 Y132.622 E25.08269
G1 X116.691 Y134.999 E25.20035
G1 X113.650 Y137.282 E25.31800
G1 X110.539 Y139.468 E25.43566
G1 X107.361 Y141.556 E25.55331
G1 X104.118 Y143.543 E25.67097
G1 X100.815 Y145.427 E25.78863
G1 X97.454 Y147.206 E25.90629
G1 X94.040 Y148.879 E26.02395
G1 X90.574 Y150.444 E26.14162
G1 X87.604 Y151.675 E26.24107
G1 X87.061 Y151.900 E26.25928
G1 X83.503 Y153.244 E26.37693
G1 X79.906 Y154.476 E26.49460
G1 X76.271 Y155.594 E26.61225
G1 X72.603 Y156.597 E26.72992
G1 X68.906 Y157.485 E26.84757
G1 X65.182 Y158.256 E26.96523
G1 X61.436 Y158.910 E27.08289
G1 X57.671 Y159.446 E27.20055
G1 X53.892 Y159.863 E27.31821
G1 X50.101 Y160.161 E27.43587
G1 X48.100 Y160.256 E27.49784
G1 X48.100 Y159.442 E27.52302
G1 X46.277 Y159.528 E27.57950
G1 X42.850 Y159.582 E27.68554
G1 X42.850 Y155.954 E27.79780
G1 X46.163 Y155.902 E27.90031
G1 X49.822 Y155.730 E28.01366
G1 X53.641 Y155.424 E28.13220
G1 X57.115 Y155.040 E28.24034
G1 X60.741 Y154.524 E28.35368
G1 X64.350 Y153.894 E28.46703
G1 X67.937 Y153.152 E28.58037
G1 X71.499 Y152.296 E28.69371
G1 X75.032 Y151.330 E28.80706
G1 X78.534 Y150.253 E28.92040
G1 X81.999 Y149.065 E29.03375
G1 X85.426 Y147.771 E29.14709
G1 X88.810 Y146.369 E29.26043
G1 X92.149 Y144.862 E29.37377
G1 X95.438 Y143.250 E29.48711
G1 X98.676 Y141.536 E29.60047
G1 X101.712 Y139.805 E29.70860
G1 X104.981 Y137.808 E29.82713
G1 X108.043 Y135.796 E29.94049
G1 X111.040 Y133.689 E30.05384
G1 X113.969 Y131.490 E30.16718
G1 X116.828 Y129.200 E30.28052
G1 X119.614 Y126.821 E30.39385
G1 X122.323 Y124.355 E30.50721
G1 X124.954 Y121.806 E30.62054
G1 X127.503 Y119.175 E30.73390
G1 X129.968 Y116.466 E30.84724
G1 X132.347 Y113.681 E30.96057
G1 X134.638 Y110.822 E31.07392
G1 X136.837 Y107.892 E31.18727
G1 X138.943 Y104.895 E31.30061
G1 X140.955 Y101.834 E31.41395
G1 X142.868 Y98.710 E31.52729
G1 X144.683 Y95.528 E31.64063
G1 X146.398 Y92.291 E31.75398
G1 X148.009 Y89.001 E31.86733
G1 X149.517 Y85.663 E31.98067
G1 X150.919 Y82.278 E32.09401
G1 X152.213 Y78.852 E32.20735
G1 X152.850 Y76.993 E32.26816
G1 X152.850 Y57.982 E32.85636
G1 X157.150 Y57.982 E32.98940
G1 X157.150 Y58.933 E33.01880
G1 X156.350 Y58.933 E33.04355
G1 X156.350 Y70.057 E33.38777
G1 X156.338 Y70.632 F7800.000
G1 E31.38777 F2400.00000
G92 E0
G1 X157.100 Y57.982 F7800.000
G1 E2.00000 F2400.00000
G1 F1800.000
G1 X157.100 Y40.152 E2.63997
G1 X157.077 Y40.042 E2.64402
G1 F1800.000
G1 X157.031 Y39.821 E2.65314
G1 X156.700 Y39.752 E2.66682
G1 F1800.000
G1 X152.500 Y39.752 E2.81757
G1 E0.81757 F2400.00000
G92 E0
G1 X156.038 Y58.457 F7800.000
G1 E2.00000 F2400.00000
G1 F1800.000
G1 X156.838 Y58.457 E2.00990
G1 E0.00990 F2400.00000
G92 E0
G1 X154.600 Y59.545 F7800.000
G1 E2.00000 F2400.00000
G1 F1800.000
G1 X154.600 Y71.695 E2.18075
G1 X155.277 Y72.077 F7800.000
G1 F1800.000
G1 X154.482 Y72.872 E2.21563
G1 X154.482 Y73.758 E2.24311
G1 X155.518 Y72.721 E2.28859
G1 X155.518 Y73.607 E2.31608
G1 X154.482 Y74.644 E2.36156
G1 X154.482 Y75.530 E2.38904
G1 X155.518 Y74.493 E2.43452
G1 X155.518 Y75.379 E2.46200
G1 X154.482 Y76.416 E2.50748
G1 X154.482 Y77.301 E2.53497
G1 X155.518 Y76.265 E2.58045
G1 X155.518 Y77.151 E2.60793
G1 X154.148 Y78.521 E2.66804
G1 X153.679 Y79.876 E2.71254
G1 X155.283 Y78.272 E2.78293
G1 X154.870 Y79.478 E2.82247
G1 X154.814 Y79.627 E2.82742
G1 X153.141 Y81.300 E2.90081
G1 X152.603 Y82.724 E2.94802
G1 X154.276 Y81.051 E3.02141
G1 X153.738 Y82.475 E3.06863
G1 X152.007 Y84.206 E3.14457
G1 X151.380 Y85.719 E3.19536
G1 X153.143 Y83.956 E3.27268
G1 X152.516 Y85.469 E3.32347
G1 X150.714 Y87.271 E3.40251
G1 X149.985 Y88.886 E3.45748
G1 X151.853 Y87.018 E3.53939
G1 X151.123 Y88.634 E3.59438
G1 X149.222 Y90.535 E3.67779
G1 X148.371 Y92.272 E3.73778
G1 X150.363 Y90.279 E3.82520
G1 X149.513 Y92.016 E3.88519
G1 X147.467 Y94.062 E3.97492
G1 X146.470 Y95.945 E4.04103
G1 X148.616 Y93.798 E4.13520
G1 X147.619 Y95.681 E4.20130
G1 X145.363 Y97.938 E4.30029
G1 X144.176 Y100.010 E4.37437
G1 X146.523 Y97.664 E4.47731
G1 X145.347 Y99.726 E4.55096
G1 X142.775 Y102.298 E4.66379
G1 X142.295 Y103.081 E4.69229
G1 X141.179 Y104.779 E4.75530
G1 X143.950 Y102.009 E4.87683
G1 X143.364 Y102.965 E4.91162
G1 X142.377 Y104.468 E4.96738
G1 X139.303 Y107.542 E5.10224
G1 X138.111 Y109.237 E5.16652
G1 X136.960 Y110.770 E5.22598
G1 X140.533 Y107.197 E5.38272
G1 X139.156 Y109.157 E5.45704
G1 X138.242 Y110.375 E5.50426
G1 X133.757 Y114.860 E5.70101
G1 E3.70101 F2400.00000
G92 E0
G1 X126.520 Y123.868 F7800.000
G1 E2.00000 F2400.00000
G1 F1800.000
G1 X129.616 Y120.689 E2.13766
G1 X132.136 Y117.920 E2.25379
G1 X134.567 Y115.073 E2.36990
G1 X135.124 Y114.379 E2.39751
G1 X117.526 Y131.976 E3.16950
G1 X115.299 Y133.761 E3.25802
G1 X113.521 Y135.096 E3.32698
G1 X118.008 Y130.608 E3.52383
G1 X115.361 Y132.729 E3.62903
G1 X113.919 Y133.811 E3.68497
G1 X110.344 Y137.386 E3.84180
G1 X109.242 Y138.161 E3.88358
G1 X107.615 Y139.229 E3.94396
G1 X110.690 Y136.155 E4.07884
G1 X109.340 Y137.103 E4.13003
G1 X107.926 Y138.032 E4.18251
G1 X105.156 Y140.802 E4.30402
G1 X102.873 Y142.199 E4.38704
G1 X105.448 Y139.625 E4.49999
G1 X103.172 Y141.015 E4.58274
G1 X100.811 Y143.376 E4.68629
G1 X99.669 Y144.027 E4.72708
G1 X98.829 Y144.472 E4.75657
G1 X101.085 Y142.216 E4.85555
G1 X99.822 Y142.936 E4.90064
G1 X99.092 Y143.322 E4.92626
G1 X96.946 Y145.469 E5.02043
G1 X96.360 Y145.779 E5.04098
G1 X95.164 Y146.365 E5.08232
G1 X97.209 Y144.320 E5.17205
G1 X96.533 Y144.678 E5.19579
G1 X95.420 Y145.223 E5.23424
G1 X93.427 Y147.216 E5.32166
G1 X91.781 Y147.975 E5.37788
G1 X93.683 Y146.074 E5.46128
G1 X92.033 Y146.838 E5.51767
G1 X90.166 Y148.705 E5.59959
G1 X89.586 Y148.967 E5.61932
G1 X88.616 Y149.369 E5.65189
G1 X90.418 Y147.567 E5.73093
G1 X89.798 Y147.847 E5.75204
G1 X88.866 Y148.233 E5.78332
G1 X87.103 Y149.995 E5.86066
G1 X86.128 Y150.400 E5.89342
G1 X85.622 Y150.590 E5.91017
G1 X87.354 Y148.859 E5.98611
G1 X85.871 Y149.455 E6.03567
G1 X84.199 Y151.128 E6.10906
G1 X82.775 Y151.666 E6.15628
G1 X84.448 Y149.993 E6.22967
G1 X83.024 Y150.531 E6.27688
G1 X81.419 Y152.136 E6.34728
G1 X80.072 Y152.597 E6.39146
G1 X81.668 Y151.001 E6.46150
G1 X80.321 Y151.462 E6.50569
G1 X78.742 Y153.041 E6.57493
G1 X77.463 Y153.434 E6.61645
G1 X78.993 Y151.904 E6.68355
G1 X77.713 Y152.298 E6.72508
G1 X76.184 Y153.827 E6.79217
G1 X74.932 Y154.193 E6.83261
G1 X76.433 Y152.692 E6.89847
G1 X75.184 Y153.055 E6.93883
G1 X73.712 Y154.527 E7.00338
G1 X72.493 Y154.861 E7.04261
G1 X73.964 Y153.389 E7.10717
G1 X72.745 Y153.723 E7.14640
G1 X71.300 Y155.167 E7.20975
G1 X70.135 Y155.447 E7.24694
G1 X71.555 Y154.026 E7.30925
G1 X70.389 Y154.306 E7.34645
G1 X68.969 Y155.726 E7.40875
G1 X68.254 Y155.898 E7.43157
G1 X67.822 Y155.987 E7.44525
G1 X69.223 Y154.586 E7.50672
G1 X68.080 Y154.844 E7.54309
G1 X66.704 Y156.219 E7.60342
G1 X65.587 Y156.451 E7.63882
G1 X66.963 Y155.075 E7.69916
G1 X65.845 Y155.306 E7.73455
G1 X64.474 Y156.677 E7.79471
G1 X63.401 Y156.865 E7.82851
G1 X64.737 Y155.529 E7.88711
G1 X63.663 Y155.716 E7.92092
G1 X62.327 Y157.052 E7.97952
G1 X61.254 Y157.240 E8.01332
G1 X62.590 Y155.904 E8.07191
G1 X61.516 Y156.091 E8.10572
G1 X60.208 Y157.400 E8.16311
G1 X59.175 Y157.547 E8.19547
G1 X60.474 Y156.247 E8.25247
G1 X59.442 Y156.394 E8.28483
G1 X58.142 Y157.694 E8.34183
G1 X57.193 Y157.828 E8.37156
G1 X57.112 Y157.837 E8.37409
G1 X58.409 Y156.541 E8.43096
G1 X57.384 Y156.680 E8.46305
G1 X56.116 Y157.947 E8.51865
G1 X55.120 Y158.058 E8.54974
