; generated by Slic3r 1.3.1-dev (Build 2ef957d) on 2019-11-25 at 09:24:43

; external perimeters extrusion width = 0.55mm (4.37mm^3/s)
; perimeters extrusion width = 0.70mm (11.44mm^3/s)
; infill extrusion width = 0.62mm (13.45mm^3/s)
; solid infill extrusion width = 0.70mm (3.81mm^3/s)
; top infill extrusion width = 0.70mm (2.86mm^3/s)

M107
G92 E0
M104 S200 ; set temperature
G28 ; home all axes
G1 Z5 F5000 ; lift nozzle

; Filament gcode

M109 S200 ; set temperature and wait for it to be reached
G21 ; set units to millimeters
G90 ; use absolute coordinates
M82 ; use absolute distances for extrusion
G92 E0
G1 Z0.350 F7800.000
G1 E-2.00000 F2400.00000
G92 E0
G1 X46.668 Y56.774 F7800.000
G1 E2.00000 F2400.00000
G1 F1800.000
G1 X48.820 Y55.981 E2.07096
G1 X50.000 Y55.875 E2.10761
G1 X150.000 Y55.875 E5.20174
G1 X152.259 Y56.272 E5.27271
G1 X154.247 Y57.415 E5.34367
G1 X155.726 Y59.168 E5.41463
G1 X156.519 Y61.320 E5.48559
G1 X156.625 Y62.500 E5.52225
G1 X156.625 Y137.500 E7.84284
G1 X156.228 Y139.759 E7.91381
G1 X155.085 Y141.747 E7.98477
G1 X153.332 Y143.226 E8.05573
G1 X151.180 Y144.019 E8.12669
G1 X150.000 Y144.125 E8.16334
G1 X50.000 Y144.125 E11.25748
G1 X47.741 Y143.728 E11.32844
G1 X45.753 Y142.585 E11.39940
G1 X44.274 Y140.832 E11.47036
G1 X43.481 Y138.680 E11.54132
G1 X43.375 Y137.500 E11.57798
G1 X43.375 Y62.500 E13.89857
G1 X43.772 Y60.241 E13.96954
G1 X44.915 Y58.253 E14.04050
G1 X46.611 Y56.822 E14.10914
G1 E12.10914 F2400.00000
G92 E0
G1 X81.817 Y125.453 F7800.000
G1 E2.00000 F2400.00000
G1 F1800.000
G1 X82.482 Y127.500 E2.06659
G1 X81.817 Y129.547 E2.13318
G1 X80.076 Y130.812 E2.19976
G1 X77.924 Y130.812 E2.26635
G1 X76.183 Y129.547 E2.33294
G1 X75.518 Y127.500 E2.39952
G1 X76.183 Y125.453 E2.46611
G1 X77.924 Y124.188 E2.53270
G1 X80.076 Y124.188 E2.59929
G1 X81.756 Y125.409 E2.66355
G1 X81.285 Y125.839 F7800.000
G1 F1800.000
G1 X81.825 Y127.500 E2.71757
G1 X81.285 Y129.161 E2.77160
G1 X79.873 Y130.187 E2.82562
G1 X78.127 Y130.187 E2.87964
G1 X76.715 Y129.161 E2.93366
G1 X76.175 Y127.500 E2.98769
G1 X76.715 Y125.839 E3.04171
G1 X78.127 Y124.813 E3.09573
G1 X79.873 Y124.813 E3.14976
G1 X81.225 Y125.795 E3.20146
G1 X80.754 Y126.226 F7800.000
G1 F1800.000
G1 X81.168 Y127.500 E3.24292
G1 X80.754 Y128.774 E3.28437
G1 X79.670 Y129.562 E3.32583
G1 X78.330 Y129.562 E3.36729
G1 X77.246 Y128.774 E3.40875
G1 X76.832 Y127.500 E3.45021
G1 X77.246 Y126.226 E3.49166
G1 X78.330 Y125.438 E3.53312
G1 X79.670 Y125.438 E3.57458
G1 X80.693 Y126.182 E3.61372
G1 X80.754 Y126.226 F7800.000
G1 E1.61372 F2400.00000
G92 E0
G1 X82.371 Y116.475 F7800.000
G1 E2.00000 F2400.00000
G1 F1800.000
G1 X82.371 Y116.047 E2.01324
G1 X82.016 Y116.303 E2.02679
G1 X81.479 Y116.495 E2.04444
G1 X80.957 Y116.547 E2.06067
G1 X80.390 Y116.475 E2.07834
G1 X74.674 Y116.475 E2.25521
G1 X73.655 Y116.609 E2.28701
G1 X73.064 Y116.573 E2.30534
G1 X72.569 Y116.475 E2.32094
G1 X65.108 Y116.475 E2.55181
G1 X68.007 Y108.347 E2.81881
G1 X70.968 Y108.347 E2.91042
G1 X71.249 Y109.135 E2.93631
G1 X71.604 Y108.815 E2.95110
G1 X72.570 Y108.396 E2.98368
G1 X73.559 Y108.277 E3.01450
G1 X74.147 Y108.313 E3.03273
G1 X74.682 Y108.420 E3.04962
G1 X75.196 Y108.610 E3.06655
G1 X75.666 Y108.877 E3.08328
G1 X75.976 Y109.125 E3.09557
G1 X76.253 Y108.347 E3.12113
G1 X79.214 Y108.347 E3.21274
G1 X79.813 Y110.028 E3.26795
G1 X80.445 Y109.800 E3.28872
G1 X80.957 Y109.747 E3.30464
G1 X81.472 Y109.798 E3.32067
G1 X82.005 Y109.984 E3.33813
G1 X82.325 Y110.211 E3.35027
G1 X84.734 Y108.283 E3.44574
G1 X87.404 Y108.283 E3.52836
G1 X87.404 Y112.300 E3.65265
G1 X88.009 Y112.238 E3.67144
G1 X88.009 Y108.411 E3.78984
G1 X93.608 Y108.411 E3.96310
G1 X93.608 Y112.298 E4.08336
G1 X93.683 Y112.548 E4.09143
G1 X93.749 Y112.946 E4.10392
G1 X93.771 Y113.349 E4.11642
G1 X93.744 Y113.807 E4.13060
G1 X93.654 Y114.270 E4.14519
G1 X93.496 Y114.714 E4.15977
G1 X93.279 Y115.121 E4.17403
G1 X93.005 Y115.489 E4.18825
G1 X92.679 Y115.810 E4.20240
G1 X92.320 Y116.072 E4.21615
G1 X91.937 Y116.277 E4.22960
G1 X91.539 Y116.428 E4.24276
G1 X91.137 Y116.529 E4.25559
G1 X90.707 Y116.590 E4.26901
G1 X90.031 Y116.598 E4.28994
G1 X89.424 Y116.522 E4.30887
G1 X88.839 Y116.366 E4.32759
G1 X88.479 Y116.495 E4.33941
G1 X87.957 Y116.547 E4.35565
G1 X87.391 Y116.475 E4.37331
G1 X82.446 Y116.475 E4.52632
G1 X82.996 Y115.850 F7800.000
G1 F1800.000
G1 X82.996 Y113.132 E4.61042
G1 X83.954 Y113.132 E4.64006
G1 X82.749 Y111.504 E4.70274
G1 X82.482 Y111.609 E4.71163
G1 X82.513 Y111.895 E4.72054
G1 X82.471 Y112.283 E4.73263
G1 X82.323 Y112.666 E4.74533
G1 X82.065 Y113.001 E4.75842
G1 X81.864 Y113.146 E4.76608
G1 X82.057 Y113.283 E4.77341
G1 X82.319 Y113.616 E4.78652
G1 X82.470 Y114.001 E4.79933
G1 X82.513 Y114.391 E4.81144
G1 X82.471 Y114.779 E4.82353
G1 X82.323 Y115.162 E4.83624
G1 X82.065 Y115.497 E4.84932
G1 X81.722 Y115.744 E4.86238
G1 X81.340 Y115.880 E4.87493
G1 X80.958 Y115.919 E4.88682
G1 X80.581 Y115.879 E4.89855
G1 X80.502 Y115.850 E4.90117
G1 X78.154 Y115.850 E4.97382
G1 X77.840 Y114.976 E5.00255
G1 X77.573 Y114.979 E5.01078
G1 X77.278 Y115.850 E5.03925
G1 X74.544 Y115.850 E5.12383
G1 X74.475 Y115.880 E5.12617
G1 X73.636 Y115.981 E5.15232
G1 X73.144 Y115.952 E5.16757
G1 X72.661 Y115.850 E5.18284
G1 X69.907 Y115.850 E5.26804
G1 X69.593 Y114.976 E5.29676
G1 X69.327 Y114.979 E5.30500
G1 X69.032 Y115.850 E5.33347
G1 X65.994 Y115.850 E5.42745
G1 X68.448 Y108.972 E5.65340
G1 X70.527 Y108.972 E5.71775
G1 X71.033 Y110.390 E5.76432
G1 X71.308 Y109.924 E5.78105
G1 X71.946 Y109.348 E5.80767
G1 X72.735 Y109.006 E5.83427
G1 X73.578 Y108.905 E5.86052
G1 X74.066 Y108.934 E5.87567
G1 X74.511 Y109.023 E5.88972
G1 X74.932 Y109.179 E5.90358
G1 X75.314 Y109.396 E5.91719
G1 X75.654 Y109.669 E5.93068
G1 X75.943 Y109.990 E5.94404
G1 X76.194 Y110.372 E5.95820
G1 X76.694 Y108.972 E6.00419
G1 X78.774 Y108.972 E6.06854
G1 X79.563 Y111.187 E6.14131
G1 X79.874 Y110.790 E6.15693
G1 X80.211 Y110.549 E6.16976
G1 X80.585 Y110.414 E6.18205
G1 X80.958 Y110.375 E6.19366
G1 X81.337 Y110.412 E6.20542
G1 X81.715 Y110.545 E6.21784
G1 X82.057 Y110.787 E6.23080
G1 X82.269 Y111.056 E6.24139
G1 X84.954 Y108.908 E6.34777
G1 X86.779 Y108.908 E6.40427
G1 X86.779 Y113.132 E6.53496
G1 X87.090 Y113.132 E6.54457
G1 X87.212 Y113.045 E6.54922
G1 X87.586 Y112.910 E6.56152
G1 X87.959 Y112.871 E6.57312
G1 X88.337 Y112.908 E6.58488
G1 X88.633 Y113.012 E6.59459
G1 X88.633 Y109.036 E6.71761
G1 X92.983 Y109.036 E6.85219
G1 X92.983 Y111.818 E6.93827
G1 X92.730 Y111.818 E6.94610
G1 X92.979 Y112.376 E6.96501
G1 X93.073 Y112.690 E6.97514
G1 X93.127 Y113.014 E6.98531
G1 X93.145 Y113.347 E6.99564
G1 X93.122 Y113.729 E7.00746
G1 X93.049 Y114.105 E7.01931
G1 X92.923 Y114.461 E7.03101
G1 X92.749 Y114.785 E7.04239
G1 X92.532 Y115.078 E7.05367
G1 X92.274 Y115.332 E7.06489
G1 X91.987 Y115.542 E7.07588
G1 X91.678 Y115.707 E7.08673
G1 X91.352 Y115.831 E7.09752
G1 X91.017 Y115.915 E7.10820
G1 X90.660 Y115.965 E7.11936
G1 X90.066 Y115.973 E7.13771
G1 X89.544 Y115.907 E7.15401
G1 X89.079 Y115.784 E7.16889
G1 X88.819 Y115.676 E7.17762
G1 X88.723 Y115.744 E7.18125
G1 X88.341 Y115.880 E7.19380
G1 X87.959 Y115.919 E7.20570
G1 X87.582 Y115.879 E7.21742
G1 X87.502 Y115.850 E7.22005
G1 X83.071 Y115.850 E7.35717
G1 E5.35717 F2400.00000
G92 E0
G1 X78.593 Y115.225 F7800.000
G1 E2.00000 F2400.00000
G1 F1800.000
G1 X78.202 Y114.137 E2.03577
G1 X77.199 Y114.137 E2.06681
G1 X76.830 Y115.225 E2.10235
G1 X75.127 Y115.225 E2.15506
G1 X75.257 Y114.860 E2.16706
G1 X74.310 Y115.271 E2.19900
G1 X73.617 Y115.354 E2.22059
G1 X73.224 Y115.331 E2.23278
G1 X72.867 Y115.260 E2.24405
G1 X72.538 Y115.139 E2.25489
G1 X71.942 Y114.801 E2.27607
G1 X72.093 Y115.225 E2.28999
G1 X70.347 Y115.225 E2.34403
G1 X69.956 Y114.137 E2.37980
G1 X68.953 Y114.137 E2.41083
G1 X68.584 Y115.225 E2.44638
G1 X66.881 Y115.225 E2.49908
G1 X68.888 Y109.597 E2.68397
G1 X70.087 Y109.597 E2.72106
G1 X70.925 Y111.948 E2.79828
G1 X71.226 Y111.908 E2.80766
G1 X71.248 Y111.623 E2.81650
G1 X71.449 Y110.915 E2.83928
G1 X71.797 Y110.324 E2.86050
G1 X72.289 Y109.880 E2.88100
G1 X72.900 Y109.615 E2.90160
G1 X73.596 Y109.532 E2.92330
G1 X73.986 Y109.555 E2.93537
G1 X74.341 Y109.627 E2.94657
G1 X74.667 Y109.748 E2.95736
G1 X74.962 Y109.915 E2.96784
G1 X75.223 Y110.124 E2.97819
G1 X75.446 Y110.373 E2.98853
G1 X75.632 Y110.654 E2.99897
G1 X75.780 Y110.966 E3.00963
G1 X75.891 Y111.303 E3.02063
G1 X75.968 Y111.663 E3.03201
G1 X75.999 Y111.920 E3.04001
G1 X76.294 Y111.953 E3.04920
G1 X77.134 Y109.597 E3.12658
G1 X78.333 Y109.597 E3.16366
G1 X79.967 Y114.181 E3.31425
G1 X80.311 Y113.742 E3.33152
G1 X80.505 Y113.603 E3.33889
G1 X80.725 Y113.523 E3.34615
G1 X80.960 Y113.499 E3.35344
G1 X81.201 Y113.523 E3.36093
G1 X81.426 Y113.602 E3.36832
G1 X81.622 Y113.741 E3.37575
G1 X81.771 Y113.930 E3.38320
G1 X81.858 Y114.152 E3.39060
G1 X81.885 Y114.391 E3.39802
G1 X81.858 Y114.630 E3.40545
G1 X81.772 Y114.852 E3.41284
G1 X81.625 Y115.044 E3.42032
G1 X81.429 Y115.186 E3.42781
G1 X81.202 Y115.266 E3.43525
G1 X80.960 Y115.291 E3.44279
G1 X80.724 Y115.266 E3.45012
G1 X80.613 Y115.225 E3.45379
G1 X78.668 Y115.225 E3.51396
G1 X78.105 Y115.336 F7800.000
G1 E1.51396 F2400.00000
G92 E0
G1 X80.465 Y112.661 F7800.000
G1 E2.00000 F2400.00000
G1 F1800.000
G1 X80.308 Y112.547 E2.00600
G1 X80.162 Y112.356 E2.01345
G1 X80.077 Y112.133 E2.02083
G1 X80.050 Y111.895 E2.02824
G1 X80.077 Y111.657 E2.03564
G1 X80.163 Y111.435 E2.04302
G1 X80.311 Y111.246 E2.05045
G1 X80.505 Y111.107 E2.05782
G1 X80.725 Y111.027 E2.06508
G1 X80.960 Y111.003 E2.07237
G1 X81.201 Y111.027 E2.07986
G1 X81.426 Y111.106 E2.08725
G1 X81.622 Y111.245 E2.09469
G1 X81.771 Y111.434 E2.10214
G1 X81.858 Y111.656 E2.10953
G1 X81.885 Y111.895 E2.11695
G1 X81.858 Y112.134 E2.12439
G1 X81.772 Y112.356 E2.13178
G1 X81.625 Y112.548 E2.13925
G1 X81.429 Y112.690 E2.14674
G1 X81.202 Y112.770 E2.15418
G1 X80.960 Y112.795 E2.16172
G1 X80.724 Y112.770 E2.16906
G1 X80.529 Y112.698 E2.17548
G1 X80.299 Y112.761 F7800.000
G1 E0.17548 F2400.00000
G92 E0
G1 X83.223 Y111.093 F7800.000
G1 E2.00000 F2400.00000
G1 F1800.000
G1 X85.173 Y109.533 E2.07727
G1 X86.155 Y109.533 E2.10765
G1 X86.155 Y113.757 E2.23835
G1 X87.290 Y113.757 E2.27349
G1 X87.506 Y113.603 E2.28167
G1 X87.726 Y113.523 E2.28893
G1 X87.960 Y113.499 E2.29622
G1 X88.202 Y113.523 E2.30372
G1 X88.427 Y113.602 E2.31111
G1 X88.623 Y113.741 E2.31854
G1 X88.772 Y113.930 E2.32599
G1 X88.842 Y114.108 E2.33191
G1 X89.107 Y114.099 E2.34012
G1 X89.268 Y113.589 E2.35669
G1 X89.921 Y113.789 E2.37783
G1 X90.153 Y113.816 E2.38506
G1 X90.536 Y113.799 E2.39690
G1 X90.681 Y113.754 E2.40161
G1 X90.783 Y113.689 E2.40534
G1 X90.849 Y113.609 E2.40857
G1 X90.892 Y113.504 E2.41206
G1 X90.909 Y113.359 E2.41658
G1 X90.890 Y113.211 E2.42121
G1 X90.847 Y113.121 E2.42428
G1 X90.774 Y113.052 E2.42739
G1 X90.640 Y112.987 E2.43199
G1 X90.434 Y112.940 E2.43853
G1 X90.155 Y112.921 E2.44719
G1 X89.258 Y112.956 E2.47495
G1 X89.258 Y109.661 E2.57689
G1 X92.358 Y109.661 E2.67281
G1 X92.358 Y111.193 E2.72021
G1 X91.189 Y111.193 E2.75639
G1 X91.138 Y111.508 E2.76627
G1 X91.423 Y111.603 E2.77557
G1 X91.640 Y111.706 E2.78298
G1 X91.837 Y111.836 E2.79029
G1 X92.013 Y111.991 E2.79755
G1 X92.167 Y112.171 E2.80487
G1 X92.293 Y112.373 E2.81225
G1 X92.392 Y112.594 E2.81974
G1 X92.463 Y112.831 E2.82741
G1 X92.505 Y113.082 E2.83527
G1 X92.519 Y113.345 E2.84343
G1 X92.501 Y113.650 E2.85288
G1 X92.445 Y113.940 E2.86200
G1 X92.349 Y114.208 E2.87081
G1 X92.220 Y114.450 E2.87931
G1 X92.059 Y114.667 E2.88765
G1 X91.868 Y114.855 E2.89594
G1 X91.654 Y115.011 E2.90417
G1 X91.418 Y115.137 E2.91243
G1 X91.164 Y115.234 E2.92083
G1 X90.896 Y115.301 E2.92938
G1 X90.612 Y115.341 E2.93827
G1 X90.102 Y115.347 E2.95406
G1 X89.663 Y115.292 E2.96773
G1 X89.280 Y115.190 E2.98000
G1 X88.699 Y114.949 E2.99948
G1 X88.626 Y115.044 E3.00318
G1 X88.430 Y115.186 E3.01066
G1 X88.203 Y115.266 E3.01810
G1 X87.960 Y115.291 E3.02565
G1 X87.725 Y115.266 E3.03298
G1 X87.503 Y115.184 E3.04029
G1 X87.104 Y114.893 E3.05559
G1 X87.104 Y115.225 E3.06587
G1 X83.621 Y115.225 E3.17364
G1 X83.621 Y113.757 E3.21906
G1 X84.590 Y113.757 E3.24905
G1 X84.590 Y111.758 E3.31091
G1 X84.007 Y112.153 E3.33269
G1 X83.267 Y111.154 E3.37118
G1 X82.856 Y110.753 F7800.000
G1 E1.37118 F2400.00000
G92 E0
G1 X62.482 Y109.500 F7800.000
G1 E2.00000 F2400.00000
G1 F1800.000
G1 X61.817 Y111.547 E2.06659
G1 X60.076 Y112.812 E2.13317
G1 X57.924 Y112.812 E2.19976
G1 X56.183 Y111.547 E2.26635
G1 X55.518 Y109.500 E2.33294
G1 X56.183 Y107.453 E2.39952
G1 X57.924 Y106.188 E2.46611
G1 X60.076 Y106.188 E2.53270
G1 X61.817 Y107.453 E2.59929
G1 X62.459 Y109.429 E2.66355
G1 X61.825 Y109.500 F7800.000
G1 F1800.000
G1 X61.285 Y111.161 E2.71758
G1 X59.873 Y112.187 E2.77160
G1 X58.127 Y112.187 E2.82562
G1 X56.714 Y111.161 E2.87964
G1 X56.175 Y109.500 E2.93367
G1 X56.714 Y107.839 E2.98769
G1 X58.127 Y106.813 E3.04171
G1 X59.873 Y106.813 E3.09574
G1 X61.285 Y107.839 E3.14976
G1 X61.802 Y109.429 E3.20146
G1 X61.168 Y109.500 F7800.000
G1 F1800.000
G1 X60.754 Y110.774 E3.24292
G1 X59.670 Y111.562 E3.28438
G1 X58.330 Y111.562 E3.32584
G1 X57.246 Y110.774 E3.36729
G1 X56.832 Y109.500 E3.40875
G1 X57.246 Y108.226 E3.45021
G1 X58.330 Y107.438 E3.49167
G1 X59.670 Y107.438 E3.53313
G1 X60.754 Y108.226 E3.57458
G1 X61.145 Y109.429 E3.61372
G1 X61.168 Y109.500 F7800.000
G1 E1.61372 F2400.00000
G92 E0
G1 X94.818 Y115.922 F7800.000
G1 E2.00000 F2400.00000
G1 F1800.000
G1 X105.379 Y115.922 E2.32675
G1 X105.379 Y128.850 E2.72675
G1 X94.818 Y128.850 E3.05350
G1 X94.818 Y115.997 E3.45118
G1 X95.443 Y116.547 F7800.000
G1 F1800.000
G1 X99.296 Y116.547 E3.57039
G1 X99.296 Y120.515 E3.69316
G1 X100.901 Y120.515 E3.74283
G1 X100.901 Y116.547 E3.86560
G1 X104.754 Y116.547 E3.98481
G1 X104.754 Y128.225 E4.34614
G1 X100.901 Y128.225 E4.46535
G1 X100.901 Y124.129 E4.59209
G1 X99.296 Y124.129 E4.64175
G1 X99.296 Y128.225 E4.76849
G1 X95.443 Y128.225 E4.88770
G1 X95.443 Y116.622 E5.24670
G1 X96.068 Y117.172 F7800.000
G1 F1800.000
G1 X98.671 Y117.172 E5.32724
G1 X98.671 Y121.140 E5.45002
G1 X101.526 Y121.140 E5.53835
G1 X101.526 Y117.172 E5.66113
G1 X104.129 Y117.172 E5.74167
G1 X104.129 Y127.600 E6.06432
G1 X101.526 Y127.600 E6.14486
G1 X101.526 Y123.504 E6.27160
G1 X98.671 Y123.504 E6.35993
G1 X98.671 Y127.600 E6.48667
G1 X96.068 Y127.600 E6.56721
G1 X96.068 Y117.247 E6.88754
G1 X96.027 Y116.674 F7800.000
G1 E4.88754 F2400.00000
G92 E0
G1 X97.924 Y112.812 F7800.000
G1 E2.00000 F2400.00000
G1 F1800.000
G1 X96.183 Y111.547 E2.06659
G1 X95.518 Y109.500 E2.13317
G1 X96.183 Y107.453 E2.19976
G1 X97.924 Y106.188 E2.26635
G1 X100.076 Y106.188 E2.33294
G1 X101.817 Y107.453 E2.39952
G1 X102.482 Y109.500 E2.46611
G1 X101.817 Y111.547 E2.53270
G1 X100.076 Y112.812 E2.59929
G1 X97.999 Y112.812 E2.66355
G1 X98.127 Y112.187 F7800.000
G1 F1800.000
G1 X96.715 Y111.161 E2.71757
G1 X96.175 Y109.500 E2.77160
G1 X96.715 Y107.839 E2.82562
G1 X98.127 Y106.813 E2.87964
G1 X99.873 Y106.813 E2.93366
G1 X101.285 Y107.839 E2.98769
G1 X101.825 Y109.500 E3.04171
G1 X101.285 Y111.161 E3.09573
G1 X99.873 Y112.187 E3.14976
G1 X98.202 Y112.187 E3.20146
G1 X98.330 Y111.562 F7800.000
G1 F1800.000
G1 X97.246 Y110.774 E3.24292
G1 X96.832 Y109.500 E3.28437
G1 X97.246 Y108.226 E3.32583
G1 X98.330 Y107.438 E3.36729
G1 X99.670 Y107.438 E3.40875
G1 X100.754 Y108.226 E3.45021
G1 X101.168 Y109.500 E3.49166
G1 X100.754 Y110.774 E3.53312
G1 X99.670 Y111.562 E3.57458
G1 X98.405 Y111.562 E3.61372
G1 X98.330 Y111.562 F7800.000
G1 E1.61372 F2400.00000
G92 E0
G1 X116.183 Y123.453 F7800.000
G1 E2.00000 F2400.00000
G1 F1800.000
G1 X117.924 Y122.188 E2.06659
G1 X120.076 Y122.188 E2.13317
G1 X121.817 Y123.453 E2.19976
G1 X122.482 Y125.500 E2.26635
G1 X121.817 Y127.547 E2.33294
G1 X120.076 Y128.812 E2.39952
G1 X117.924 Y128.812 E2.46611
G1 X116.183 Y127.547 E2.53270
G1 X115.518 Y125.500 E2.59928
G1 X116.160 Y123.525 E2.66355
G1 X116.715 Y123.839 F7800.000
G1 F1800.000
G1 X118.127 Y122.813 E2.71757
G1 X119.873 Y122.813 E2.77160
G1 X121.285 Y123.839 E2.82562
G1 X121.825 Y125.500 E2.87964
G1 X121.285 Y127.161 E2.93366
G1 X119.873 Y128.187 E2.98769
G1 X118.127 Y128.187 E3.04171
