; generated by Slic3r 1.3.1-dev (Build 2ef957d) on 2019-11-25 at 09:19:32

; external perimeters extrusion width = 0.55mm (4.37mm^3/s)
; perimeters extrusion width = 0.70mm (11.44mm^3/s)
; infill extrusion width = 0.62mm (13.45mm^3/s)
; solid infill extrusion width = 0.70mm (3.81mm^3/s)
; top infill extrusion width = 0.70mm (2.86mm^3/s)

M107
G92 E0
M104 S200 ; set temperature
G28 ; home all axes
G1 Z5 F5000 ; lift nozzle

; Filament gcode

M109 S200 ; set temperature and wait for it to be reached
G21 ; set units to millimeters
G90 ; use absolute coordinates
M82 ; use absolute distances for extrusion
G92 E0
G1 Z0.350 F7800.000
G1 E-2.00000 F2400.00000
G92 E0
G1 X73.316 Y31.802 F7800.000
G1 E2.00000 F2400.00000
G1 F1800.000
G1 X74.592 Y29.897 E2.07096
G1 X76.442 Y28.541 E2.14192
G1 X79.375 Y27.856 E2.23511
G1 X104.375 Y27.856 E3.00864
G1 X106.634 Y28.253 E3.07961
G1 X108.622 Y29.396 E3.15057
G1 X110.101 Y31.149 E3.22153
G1 X110.984 Y34.027 E3.31469
G1 X119.355 Y155.978 E7.09689
G1 X119.369 Y156.551 E7.11461
G1 X119.345 Y157.888 E7.15600
G1 X119.312 Y158.445 E7.17326
G1 X119.215 Y159.385 E7.20248
G1 X118.590 Y161.591 E7.27345
G1 X117.250 Y163.452 E7.34441
G1 X115.355 Y164.745 E7.41537
G1 X112.625 Y165.334 E7.50179
G1 X71.125 Y165.334 E8.78585
G1 X68.866 Y164.937 E8.85682
G1 X66.878 Y163.793 E8.92778
G1 X65.399 Y162.041 E8.99874
G1 X64.606 Y159.889 E9.06970
G1 X64.500 Y158.709 E9.10635
G1 X64.500 Y154.980 E9.22174
G1 X64.516 Y154.527 E9.23575
G1 X72.766 Y34.028 E12.97287
G1 X73.298 Y31.875 E13.04151
G1 E11.04151 F2400.00000
G92 E0
G1 X98.064 Y121.099 F7800.000
G1 E2.00000 F2400.00000
G1 F1800.000
G1 X98.661 Y121.594 E2.02400
G1 X99.231 Y122.133 E2.04828
G1 X99.771 Y122.714 E2.07283
G1 X100.280 Y123.335 E2.09768
G1 X100.756 Y123.993 E2.12279
G1 X101.196 Y124.685 E2.14818
G1 X101.600 Y125.409 E2.17383
G1 X101.965 Y126.163 E2.19973
G1 X102.290 Y126.942 E2.22586
G1 X102.575 Y127.744 E2.25219
G1 X102.818 Y128.566 E2.27870
G1 X103.017 Y129.404 E2.30537
G1 X103.173 Y130.256 E2.33217
G1 X103.285 Y131.118 E2.35906
G1 X103.353 Y131.986 E2.38601
G1 X103.375 Y132.858 E2.41300
G1 X103.353 Y133.730 E2.43999
G1 X103.285 Y134.599 E2.46695
G1 X103.173 Y135.461 E2.49384
G1 X103.017 Y136.312 E2.52063
G1 X102.818 Y137.151 E2.54730
G1 X102.575 Y137.973 E2.57382
G1 X102.290 Y138.775 E2.60014
G1 X101.965 Y139.554 E2.62626
G1 X101.600 Y140.307 E2.65217
G1 X101.196 Y141.031 E2.67781
G1 X100.756 Y141.723 E2.70319
G1 X100.378 Y142.247 E2.72318
G1 X99.773 Y143.001 E2.75309
G1 X99.231 Y143.583 E2.77770
G1 X98.661 Y144.123 E2.80199
G1 X98.064 Y144.618 E2.82599
G1 X97.442 Y145.066 E2.84972
G1 X96.797 Y145.467 E2.87322
G1 X96.132 Y145.818 E2.89647
G1 X95.450 Y146.118 E2.91954
G1 X94.753 Y146.365 E2.94242
G1 X94.044 Y146.559 E2.96516
G1 X93.326 Y146.697 E2.98778
G1 X92.602 Y146.781 E3.01033
G1 X91.875 Y146.808 E3.03283
G1 X91.148 Y146.781 E3.05534
G1 X90.424 Y146.697 E3.07788
G1 X89.706 Y146.559 E3.10050
G1 X88.997 Y146.365 E3.12324
G1 X88.300 Y146.118 E3.14612
G1 X87.618 Y145.818 E3.16919
G1 X86.953 Y145.467 E3.19244
G1 X86.308 Y145.066 E3.21594
G1 X85.686 Y144.618 E3.23967
G1 X85.089 Y144.123 E3.26367
G1 X84.519 Y143.583 E3.28796
G1 X83.979 Y143.002 E3.31251
G1 X83.470 Y142.381 E3.33735
G1 X82.994 Y141.723 E3.36247
G1 X82.642 Y141.171 E3.38272
G1 X82.151 Y140.309 E3.41344
G1 X81.785 Y139.554 E3.43940
G1 X81.460 Y138.775 E3.46552
G1 X81.175 Y137.973 E3.49185
G1 X80.932 Y137.151 E3.51836
G1 X80.733 Y136.312 E3.54503
G1 X80.577 Y135.461 E3.57183
G1 X80.465 Y134.599 E3.59871
G1 X80.397 Y133.730 E3.62567
G1 X80.375 Y132.858 E3.65266
G1 X80.397 Y131.986 E3.67965
G1 X80.465 Y131.118 E3.70661
G1 X80.577 Y130.256 E3.73350
G1 X80.733 Y129.404 E3.76029
G1 X80.932 Y128.566 E3.78696
G1 X81.175 Y127.744 E3.81347
G1 X81.460 Y126.942 E3.83981
G1 X81.785 Y126.163 E3.86593
G1 X82.150 Y125.409 E3.89183
G1 X82.554 Y124.685 E3.91748
G1 X82.994 Y123.993 E3.94287
G1 X83.470 Y123.335 E3.96799
G1 X83.979 Y122.714 E3.99283
G1 X84.519 Y122.133 E4.01739
G1 X85.089 Y121.594 E4.04166
G1 X85.686 Y121.099 E4.06566
G1 X86.308 Y120.650 E4.08940
G1 X86.953 Y120.249 E4.11289
G1 X87.618 Y119.898 E4.13615
G1 X88.300 Y119.598 E4.15921
G1 X88.997 Y119.352 E4.18209
G1 X89.706 Y119.158 E4.20483
G1 X90.424 Y119.020 E4.22745
G1 X91.148 Y118.936 E4.25000
G1 X91.875 Y118.908 E4.27250
G1 X92.602 Y118.936 E4.29501
G1 X93.326 Y119.020 E4.31756
G1 X94.044 Y119.158 E4.34018
G1 X94.753 Y119.352 E4.36291
G1 X95.450 Y119.598 E4.38579
G1 X96.132 Y119.898 E4.40885
G1 X96.797 Y120.249 E4.43211
G1 X97.442 Y120.650 E4.45560
G1 X98.003 Y121.055 E4.47702
G1 X98.064 Y121.099 F7800.000
G1 E2.47702 F2400.00000
G92 E0
G1 X102.495 Y124.448 F7800.000
G1 E2.00000 F2400.00000
G1 F1800.000
G1 X102.270 Y124.045 E2.01425
G1 X101.791 Y123.291 E2.04191
G1 X101.271 Y122.572 E2.06936
G1 X100.713 Y121.892 E2.09658
G1 X100.119 Y121.252 E2.12359
G1 X99.490 Y120.658 E2.15037
G1 X98.829 Y120.110 E2.17693
G1 X98.138 Y119.611 E2.20331
G1 X97.419 Y119.164 E2.22949
G1 X96.676 Y118.772 E2.25550
G1 X95.910 Y118.436 E2.28137
G1 X95.126 Y118.158 E2.30711
G1 X94.327 Y117.940 E2.33273
G1 X93.516 Y117.783 E2.35828
G1 X92.698 Y117.689 E2.38378
G1 X91.875 Y117.658 E2.40925
G1 X91.052 Y117.689 E2.43472
G1 X90.234 Y117.783 E2.46022
G1 X89.423 Y117.940 E2.48577
G1 X88.624 Y118.158 E2.51140
G1 X87.840 Y118.436 E2.53713
G1 X87.074 Y118.772 E2.56300
G1 X86.331 Y119.164 E2.58901
G1 X85.612 Y119.611 E2.61520
G1 X84.921 Y120.110 E2.64157
G1 X84.260 Y120.658 E2.66814
G1 X83.631 Y121.252 E2.69492
G1 X83.037 Y121.892 E2.72192
G1 X82.479 Y122.572 E2.74915
G1 X81.959 Y123.291 E2.77659
G1 X81.480 Y124.045 E2.80425
G1 X81.255 Y124.448 E2.81850
G1 X80.975 Y124.375 E2.82747
G1 X80.975 Y36.081 E5.55941
G1 X102.775 Y36.081 E6.23394
G1 X102.775 Y124.375 E8.96587
G1 X102.567 Y124.429 E8.97252
G1 E6.97252 F2400.00000
G92 E0
G1 X103.089 Y127.323 F7800.000
G1 E2.00000 F2400.00000
G1 F1800.000
G1 X102.874 Y126.717 E2.01991
G1 X102.535 Y125.906 E2.04710
G1 X102.154 Y125.121 E2.07409
G1 X101.733 Y124.365 E2.10085
G1 X101.273 Y123.642 E2.12738
G1 X100.776 Y122.954 E2.15366
G1 X100.242 Y122.303 E2.17969
G1 X99.675 Y121.693 E2.20547
G1 X99.076 Y121.126 E2.23100
G1 X98.446 Y120.604 E2.25628
G1 X97.790 Y120.130 E2.28134
G1 X97.108 Y119.707 E2.30618
G1 X96.404 Y119.335 E2.33081
G1 X95.680 Y119.017 E2.35528
G1 X94.939 Y118.755 E2.37958
G1 X94.185 Y118.549 E2.40377
G1 X93.421 Y118.401 E2.42785
G1 X92.650 Y118.313 E2.45188
G1 X91.875 Y118.283 E2.47586
G1 X91.100 Y118.313 E2.49985
G1 X90.329 Y118.401 E2.52387
G1 X89.565 Y118.549 E2.54796
G1 X88.811 Y118.755 E2.57214
G1 X88.070 Y119.017 E2.59645
G1 X87.346 Y119.335 E2.62091
G1 X86.642 Y119.707 E2.64555
G1 X85.960 Y120.130 E2.67039
G1 X85.304 Y120.604 E2.69544
G1 X84.674 Y121.126 E2.72073
G1 X84.075 Y121.693 E2.74625
G1 X83.508 Y122.303 E2.77204
G1 X82.974 Y122.954 E2.79807
G1 X82.477 Y123.642 E2.82435
G1 X82.017 Y124.365 E2.85088
G1 X81.596 Y125.121 E2.87764
G1 X81.215 Y125.906 E2.90463
G1 X80.876 Y126.717 E2.93182
G1 X80.661 Y127.323 E2.95173
G1 X80.350 Y127.269 E2.96150
G1 X80.350 Y35.456 E5.80233
G1 X103.400 Y35.456 E6.51554
G1 X103.400 Y127.269 E9.35637
G1 X103.163 Y127.310 E9.36382
G1 E7.36382 F2400.00000
G92 E0
G1 X102.775 Y156.537 F7800.000
G1 E2.00000 F2400.00000
G1 F1800.000
G1 X111.143 Y156.537 E2.25892
G1 X111.133 Y157.109 E2.27661
G1 X72.725 Y157.109 E3.46502
G1 X72.725 Y156.537 E3.48271
G1 X80.975 Y156.537 E3.73797
G1 X80.975 Y141.332 E4.20844
G1 X81.254 Y141.259 E4.21736
G1 X81.572 Y141.817 E4.23724
G1 X81.960 Y142.426 E4.25958
G1 X82.479 Y143.144 E4.28701
G1 X83.037 Y143.825 E4.31424
G1 X83.631 Y144.463 E4.34123
G1 X84.260 Y145.059 E4.36802
G1 X84.921 Y145.607 E4.39460
G1 X85.612 Y146.105 E4.42096
G1 X86.331 Y146.552 E4.44715
G1 X87.074 Y146.944 E4.47315
G1 X87.840 Y147.281 E4.49902
G1 X88.624 Y147.558 E4.52475
G1 X89.423 Y147.777 E4.55040
G1 X90.234 Y147.933 E4.57595
G1 X91.053 Y148.028 E4.60145
G1 X91.875 Y148.058 E4.62691
G1 X92.697 Y148.028 E4.65237
G1 X93.516 Y147.933 E4.67788
G1 X94.327 Y147.777 E4.70342
G1 X95.126 Y147.558 E4.72907
G1 X95.910 Y147.281 E4.75480
G1 X96.676 Y146.944 E4.78067
G1 X97.419 Y146.552 E4.80667
G1 X98.138 Y146.105 E4.83287
G1 X98.829 Y145.607 E4.85923
G1 X99.490 Y145.059 E4.88580
G1 X100.119 Y144.463 E4.91260
G1 X100.719 Y143.819 E4.93984
G1 X101.373 Y143.004 E4.97215
G1 X101.791 Y142.425 E4.99427
G1 X102.270 Y141.671 E5.02190
G1 X102.495 Y141.269 E5.03616
G1 X102.775 Y141.342 E5.04513
G1 X102.775 Y156.462 E5.51298
G1 X103.400 Y155.913 F7800.000
G1 F1800.000
G1 X111.730 Y155.913 E5.77073
G1 X111.770 Y156.458 E5.78766
G1 X111.747 Y157.734 E5.82714
G1 X72.100 Y157.734 E7.05387
G1 X72.100 Y155.913 E7.11022
G1 X80.350 Y155.913 E7.36549
G1 X80.350 Y138.447 E7.90589
G1 X80.661 Y138.394 E7.91567
G1 X80.876 Y139.000 E7.93558
G1 X81.215 Y139.810 E7.96276
G1 X81.598 Y140.600 E7.98991
G1 X82.107 Y141.494 E8.02174
G1 X82.477 Y142.074 E8.04304
G1 X82.974 Y142.763 E8.06931
G1 X83.508 Y143.413 E8.09534
G1 X84.075 Y144.023 E8.12111
G1 X84.674 Y144.591 E8.14666
G1 X85.304 Y145.112 E8.17194
G1 X85.960 Y145.586 E8.19699
G1 X86.642 Y146.010 E8.22184
G1 X87.346 Y146.381 E8.24646
G1 X88.070 Y146.699 E8.27093
G1 X88.811 Y146.961 E8.29523
G1 X89.565 Y147.168 E8.31943
G1 X90.329 Y147.315 E8.34351
G1 X91.100 Y147.404 E8.36754
G1 X91.875 Y147.433 E8.39152
G1 X92.650 Y147.404 E8.41550
G1 X93.421 Y147.315 E8.43953
G1 X94.185 Y147.168 E8.46361
G1 X94.939 Y146.961 E8.48781
G1 X95.680 Y146.699 E8.51211
G1 X96.404 Y146.381 E8.53658
G1 X97.108 Y146.010 E8.56120
G1 X97.790 Y145.586 E8.58605
G1 X98.446 Y145.112 E8.61110
G1 X99.076 Y144.591 E8.63639
G1 X99.675 Y144.023 E8.66193
G1 X100.246 Y143.410 E8.68785
G1 X100.875 Y142.626 E8.71897
G1 X101.273 Y142.074 E8.74002
G1 X101.733 Y141.351 E8.76652
G1 X102.154 Y140.596 E8.79328
G1 X102.535 Y139.810 E8.82028
G1 X102.874 Y139.000 E8.84746
G1 X103.089 Y138.394 E8.86737
G1 X103.400 Y138.447 E8.87715
G1 X103.400 Y155.838 E9.41523
G1 X104.025 Y155.288 F7800.000
G1 F1800.000
G1 X112.312 Y155.288 E9.67163
G1 X112.395 Y156.441 E9.70742
G1 X112.372 Y157.748 E9.74787
G1 X112.309 Y158.359 E9.76686
G1 X71.475 Y158.359 E11.03032
G1 X71.475 Y155.288 E11.12534
G1 X79.725 Y155.288 E11.38061
G1 X79.725 Y34.831 E15.10770
G1 X104.025 Y34.831 E15.85957
G1 X104.025 Y155.213 E19.58434
G1 X104.058 Y155.787 F7800.000
G1 E17.58434 F2400.00000
G92 E0
G1 X101.907 Y156.727 F7800.000
G1 E2.00000 F2400.00000
G1 F1800.000
G1 X102.393 Y156.241 E2.02165
G1 X102.393 Y155.342 E2.04996
G1 X101.008 Y156.727 E2.11165
G1 X100.109 Y156.727 E2.13996
G1 X102.393 Y154.443 E2.24169
G1 X102.393 Y153.543 E2.27000
G1 X99.209 Y156.727 E2.41177
G1 X98.310 Y156.727 E2.44009
G1 X102.393 Y152.644 E2.62190
G1 X102.393 Y151.745 E2.65021
G1 X97.411 Y156.727 E2.87206
G1 X96.512 Y156.727 E2.90037
G1 X102.393 Y150.846 E3.16226
G1 X102.393 Y149.946 E3.19058
G1 X95.612 Y156.727 E3.49251
G1 X94.713 Y156.727 E3.52082
G1 X102.393 Y149.047 E3.86279
G1 X102.393 Y148.148 E3.89110
G1 X93.814 Y156.727 E4.27312
G1 X92.915 Y156.727 E4.30143
G1 X102.393 Y147.248 E4.72348
G1 X102.393 Y146.349 E4.75179
G1 X92.015 Y156.727 E5.21389
G1 X91.116 Y156.727 E5.24220
G1 X102.393 Y145.450 E5.74433
G1 X102.393 Y144.551 E5.77264
G1 X90.217 Y156.727 E6.31482
G1 X89.318 Y156.727 E6.34313
G1 X102.393 Y143.651 E6.92534
G1 X102.393 Y143.512 E6.92973
G1 X101.929 Y143.369 E6.94504
G1 X101.435 Y143.984 E6.96987
G1 X100.806 Y144.660 E6.99893
G1 X100.148 Y145.284 E7.02748
G1 X99.454 Y145.858 E7.05583
G1 X98.855 Y146.290 E7.07909
G1 X88.418 Y156.727 E7.54380
G1 X87.519 Y156.727 E7.57211
G1 X96.819 Y147.428 E7.98619
G1 X96.384 Y147.619 E8.00115
G1 X95.390 Y147.957 E8.03421
G1 X86.620 Y156.727 E8.42469
G1 X85.721 Y156.727 E8.45301
G1 X94.208 Y148.240 E8.83092
G1 X93.854 Y148.308 E8.84227
G1 X93.160 Y148.388 E8.86427
G1 X84.821 Y156.727 E9.23557
G1 X83.922 Y156.727 E9.26388
G1 X92.212 Y148.437 E9.63300
G1 X91.338 Y148.412 E9.66053
G1 X83.023 Y156.727 E10.03078
G1 X82.124 Y156.727 E10.05910
G1 X90.526 Y148.325 E10.43324
G1 X89.763 Y148.189 E10.45765
G1 X81.357 Y156.595 E10.83195
G1 X81.357 Y155.696 E10.86026
G1 X89.042 Y148.011 E11.20245
G1 X88.680 Y147.912 E11.21425
G1 X88.356 Y147.797 E11.22507
G1 X81.357 Y154.796 E11.53672
G1 X81.357 Y153.897 E11.56503
G1 X87.701 Y147.553 E11.84754
G1 X87.077 Y147.278 E11.86902
G1 X81.357 Y152.998 E12.12371
G1 X81.357 Y152.099 E12.15203
G1 X86.486 Y146.969 E12.38043
G1 X85.919 Y146.637 E12.40113
G1 X81.357 Y151.199 E12.60426
G1 X81.357 Y150.300 E12.63257
G1 X85.372 Y146.284 E12.81138
G1 X84.850 Y145.907 E12.83166
G1 X81.357 Y149.401 E12.98721
G1 X81.357 Y148.502 E13.01553
G1 X84.354 Y145.504 E13.14900
G1 X83.876 Y145.083 E13.16906
G1 X81.357 Y147.602 E13.28125
G1 X81.357 Y146.703 E13.30956
G1 X83.415 Y144.645 E13.40122
G1 X82.982 Y144.179 E13.42126
G1 X81.357 Y145.804 E13.49362
G1 X81.357 Y144.905 E13.52194
G1 X82.566 Y143.696 E13.57576
G1 X82.304 Y143.377 E13.58873
G1 X81.843 Y143.519 E13.60393
G1 X81.357 Y144.005 E13.62557
G1 X81.628 Y143.100 F7800.000
G1 F1800.000
G1 X81.308 Y142.058 E13.64619
G1 X81.018 Y140.998 F7800.000
G1 F1800.000
G1 X80.689 Y139.468 E13.66221
G1 X80.662 Y140.572 F7800.000
G1 F1800.000
G1 X81.400 Y140.896 E13.67034
G1 E11.67034 F2400.00000
G92 E0
G1 X80.455 Y138.112 F7800.000
G1 E2.00000 F2400.00000
G1 F1800.000
G1 X80.378 Y137.582 E2.01738
G1 F1800.000
G1 X80.317 Y137.125 E2.03043
G1 F1800.000
G1 X80.276 Y136.774 E2.03892
G1 F1800.000
G1 X80.235 Y136.423 E2.04596
G1 F1800.000
G1 X80.194 Y135.971 E2.05314
G1 F1800.000
G1 X80.154 Y135.530 E2.05834
G1 F1800.000
G1 X80.115 Y134.934 E2.06299
G1 F1800.000
G1 X80.078 Y134.174 E2.06600
G1 E0.06600 F2400.00000
G92 E0
G1 X80.078 Y131.543 F7800.000
G1 E2.00000 F2400.00000
G1 F1800.000
G1 X80.115 Y130.783 E2.00301
G1 F1800.000
G1 X80.154 Y130.187 E2.00766
G1 F1800.000
G1 X80.194 Y129.745 E2.01286
G1 F1800.000
G1 X80.235 Y129.294 E2.02004
G1 F1800.000
G1 X80.276 Y128.943 E2.02709
G1 F1800.000
G1 X80.317 Y128.591 E2.03558
G1 F1800.000
G1 X80.378 Y128.134 E2.04863
G1 F1800.000
G1 X80.455 Y127.605 E2.06600
G1 X80.689 Y126.249 F7800.000
G1 F1800.000
G1 X81.020 Y124.709 E2.08213
G1 X81.405 Y124.809 F7800.000
G1 F1800.000
G1 X80.662 Y125.140 E2.09147
G1 X81.308 Y123.659 F7800.000
G1 F1800.000
G1 X81.628 Y122.616 E2.11208
G1 E0.11208 F2400.00000
G92 E0
G1 X101.907 Y122.197 F7800.000
G1 E2.00000 F2400.00000
G1 F1800.000
G1 X102.393 Y121.711 E2.02141
G1 X102.393 Y120.822 E2.04908
G1 X101.189 Y122.026 E2.10209
G1 X100.778 Y121.548 E2.12172
G1 X102.393 Y119.933 E2.19283
G1 X102.393 Y119.044 E2.22050
G1 X100.350 Y121.087 E2.31047
G1 X99.895 Y120.653 E2.33005
G1 X102.393 Y118.155 E2.44004
G1 X102.393 Y117.265 E2.46772
G1 X99.424 Y120.235 E2.59846
G1 X98.935 Y119.834 E2.61812
G1 X102.393 Y116.376 E2.77035
G1 X102.393 Y115.487 E2.79802
G1 X98.419 Y119.462 E2.97298
G1 X97.882 Y119.110 E2.99298
G1 X102.393 Y114.598 E3.19160
G1 X102.393 Y113.709 E3.21927
G1 X97.324 Y118.779 E3.44245
G1 X96.742 Y118.472 E3.46293
G1 X102.393 Y112.820 E3.71172
G1 X102.393 Y111.931 E3.73940
G1 X96.126 Y118.198 E4.01528
G1 X95.484 Y117.951 E4.03670
G1 X102.393 Y111.042 E4.34085
G1 X102.393 Y110.153 E4.36852
G1 X94.812 Y117.734 E4.70226
G1 X94.106 Y117.551 E4.72496
G1 X102.393 Y109.264 E5.08978
G1 X102.393 Y108.375 E5.11745
G1 X93.361 Y117.408 E5.51509
G1 X92.564 Y117.316 E5.54007
G1 X102.393 Y107.486 E5.97280
G1 X102.393 Y106.597 E6.00047
G1 X91.712 Y117.278 E6.47070
G1 X90.794 Y117.307 E6.49929
G1 X102.393 Y105.708 E7.00993
G1 X102.393 Y104.819 E7.03760
G1 X89.781 Y117.430 E7.59280
G1 X89.038 Y117.574 E7.61637
G1 X88.640 Y117.683 E7.62921
G1 X102.393 Y103.929 E8.23465
G1 X102.393 Y103.040 E8.26232
G1 X87.313 Y118.121 E8.92620
G1 X86.560 Y118.452 E8.95181
G1 X85.777 Y118.865 E8.97936
G1 X85.520 Y119.024 E8.98876
G1 X102.393 Y102.151 E9.73155
G1 X102.393 Y101.262 E9.75923
G1 X81.435 Y122.221 E10.68187
G1 X81.357 Y122.197 E10.68441
G1 X81.357 Y121.410 E10.70891
G1 X102.393 Y100.373 E11.63499
G1 X102.393 Y99.484 E11.66266
G1 X81.357 Y120.521 E12.58874
G1 X81.357 Y119.632 E12.61642
G1 X102.393 Y98.595 E13.54250
G1 X102.393 Y97.706 E13.57017
G1 X81.357 Y118.743 E14.49625
