; Gcode updated with 'stl_info' on 2019-12-09 11:55:57.380587

; stl_min_x = -94.74829864501953
; stl_max_x = 0.0
; stl_min_y = -64.59429931640625
; stl_max_y = 30.0
; stl_min_z = -0.005000109784305096

; generated by Slic3r 1.3.1-dev (Build adea0d9) on 2019-12-09 at 11:55:56

; external perimeters extrusion width = 0.44mm (2.86mm^3/s)
; perimeters extrusion width = 0.56mm (4.14mm^3/s)
; infill extrusion width = 0.50mm (3.66mm^3/s)
; solid infill extrusion width = 0.56mm (3.10mm^3/s)
; top infill extrusion width = 0.56mm (3.10mm^3/s)

M107
G92 E0
;D3D:START:START
T0
M104 S215 T0

G21
G90
M107
T0
G28
G29
M109 T0 S215 T0
G0 F3000
M107
T0
G92 E0
G0 X0 Y149 Z0.1 F3600
G1 Y49 E6.5 F1200
G0 Z1
G92 E0
; Filament gcode

G21 ; set units to millimeters
G90 ; use absolute coordinates
M82 ; use absolute distances for extrusion
G92 E0
G1 Z0.300 F7800.000
G1 E-2.00000 F2400.00000
G92 E0
G1 X34.553 Y91.171 F7800.000
G1 E2.00000 F2400.00000
G1 F1800.000
G1 X33.670 Y91.171 E2.02925
G1 X33.917 Y90.451 E2.05447
G1 X34.961 Y87.688 E2.15232
G1 X36.091 Y84.959 E2.25017
G1 X37.306 Y82.267 E2.34801
G1 X38.606 Y79.615 E2.44586
G1 X39.988 Y77.005 E2.54371
G1 X41.451 Y74.439 E2.64155
G1 X42.994 Y71.921 E2.73940
G1 X44.616 Y69.453 E2.83724
G1 X46.314 Y67.036 E2.93509
G1 X48.087 Y64.674 E3.03294
G1 X49.934 Y62.369 E3.13079
G1 X51.852 Y60.124 E3.22864
G1 X53.840 Y57.939 E3.32648
G1 X55.895 Y55.818 E3.42433
G1 X58.016 Y53.763 E3.52217
G1 X60.201 Y51.775 E3.62002
G1 X62.446 Y49.857 E3.71787
G1 X64.751 Y48.010 E3.81571
G1 X67.113 Y46.237 E3.91356
G1 X69.530 Y44.539 E4.01141
G1 X71.998 Y42.917 E4.10925
G1 X74.516 Y41.374 E4.20710
G1 X77.082 Y39.911 E4.30495
G1 X79.692 Y38.529 E4.40279
G1 X82.344 Y37.229 E4.50064
G1 X85.036 Y36.014 E4.59849
G1 X87.765 Y34.884 E4.69633
G1 X90.528 Y33.840 E4.79418
G1 X93.322 Y32.883 E4.89203
G1 X96.145 Y32.015 E4.98988
G1 X98.993 Y31.235 E5.08772
G1 X101.865 Y30.546 E5.18557
G1 X104.757 Y29.947 E5.28341
G1 X107.667 Y29.439 E5.38126
G1 X110.591 Y29.023 E5.47911
G1 X113.527 Y28.699 E5.57696
G1 X116.428 Y28.471 E5.67337
G1 X116.428 Y29.305 E5.70103
G1 X119.447 Y29.163 E5.80117
G1 X121.678 Y29.128 E5.87508
G1 X121.678 Y31.871 E5.96597
G1 X119.533 Y31.905 E6.03702
G1 X116.696 Y32.039 E6.13114
G1 X113.863 Y32.262 E6.22526
G1 X111.039 Y32.573 E6.31939
G1 X108.227 Y32.974 E6.41351
G1 X105.428 Y33.462 E6.50763
G1 X102.646 Y34.038 E6.60175
G1 X99.883 Y34.702 E6.69588
G1 X97.143 Y35.451 E6.79000
G1 X94.428 Y36.287 E6.88412
G1 X91.740 Y37.207 E6.97824
G1 X89.082 Y38.211 E7.07237
G1 X86.457 Y39.298 E7.16649
G1 X83.868 Y40.468 E7.26061
G1 X81.317 Y41.717 E7.35473
G1 X78.806 Y43.047 E7.44885
G1 X76.338 Y44.454 E7.54298
G1 X73.916 Y45.939 E7.63710
G1 X71.541 Y47.499 E7.73122
G1 X69.217 Y49.132 E7.82534
G1 X66.945 Y50.838 E7.91946
G1 X64.728 Y52.614 E8.01359
G1 X62.567 Y54.460 E8.10771
G1 X60.466 Y56.372 E8.20183
G1 X58.426 Y58.349 E8.29595
G1 X56.449 Y60.389 E8.39008
G1 X54.537 Y62.490 E8.48420
G1 X52.691 Y64.651 E8.57832
G1 X50.915 Y66.868 E8.67244
G1 X49.209 Y69.140 E8.76656
G1 X47.576 Y71.464 E8.86069
G1 X46.016 Y73.839 E8.95481
G1 X44.531 Y76.261 E9.04893
G1 X43.124 Y78.729 E9.14305
G1 X41.794 Y81.240 E9.23718
G1 X40.545 Y83.791 E9.33130
G1 X39.375 Y86.380 E9.42542
G1 X38.288 Y89.005 E9.51954
G1 X37.284 Y91.663 E9.61366
G1 X36.364 Y94.351 E9.70779
G1 X35.528 Y97.066 E9.80191
G1 X34.779 Y99.806 E9.89603
G1 X34.115 Y102.569 E9.99015
G1 X33.960 Y103.321 E10.01559
G1 X30.306 Y103.321 E10.13665
G1 X30.359 Y103.063 E10.14537
G1 X31.212 Y103.063 E10.17362
G1 X31.438 Y101.971 E10.21060
G1 X32.122 Y99.124 E10.30758
G1 X32.894 Y96.301 E10.40455
G1 X33.755 Y93.503 E10.50153
G1 X34.534 Y91.228 E10.58120
G1 X34.181 Y91.437 F7800.000
G1 F1800.000
G1 X33.299 Y91.437 E10.61045
G1 X33.667 Y90.361 E10.64813
G1 X34.714 Y87.590 E10.74625
G1 X35.847 Y84.854 E10.84437
G1 X37.066 Y82.154 E10.94250
G1 X38.369 Y79.494 E11.04062
G1 X39.755 Y76.877 E11.13874
G1 X41.222 Y74.304 E11.23687
G1 X42.770 Y71.779 E11.33499
G1 X44.396 Y69.303 E11.43311
G1 X46.099 Y66.880 E11.53123
G1 X47.878 Y64.512 E11.62936
G1 X49.729 Y62.200 E11.72748
G1 X51.653 Y59.948 E11.82561
G1 X53.646 Y57.757 E11.92373
G1 X55.707 Y55.630 E12.02185
G1 X57.834 Y53.569 E12.11997
G1 X60.025 Y51.576 E12.21810
G1 X62.277 Y49.652 E12.31622
G1 X64.589 Y47.800 E12.41434
G1 X66.957 Y46.022 E12.51247
G1 X69.380 Y44.319 E12.61059
G1 X71.856 Y42.693 E12.70871
G1 X74.381 Y41.145 E12.80684
G1 X76.954 Y39.678 E12.90496
G1 X79.571 Y38.292 E13.00308
G1 X82.231 Y36.989 E13.10121
G1 X84.931 Y35.770 E13.19933
G1 X87.667 Y34.637 E13.29745
G1 X90.438 Y33.590 E13.39558
G1 X93.240 Y32.630 E13.49370
G1 X96.071 Y31.760 E13.59182
G1 X98.927 Y30.978 E13.68995
G1 X101.807 Y30.287 E13.78807
G1 X104.708 Y29.686 E13.88619
G1 X107.625 Y29.177 E13.98432
G1 X110.558 Y28.759 E14.08244
G1 X113.502 Y28.434 E14.18056
G1 X116.694 Y28.191 E14.28662
G1 X116.694 Y29.027 E14.31432
G1 X119.439 Y28.898 E14.40538
G1 X121.944 Y28.858 E14.48836
G1 X121.944 Y32.133 E14.59685
G1 X119.542 Y32.171 E14.67643
G1 X116.712 Y32.304 E14.77027
G1 X113.888 Y32.526 E14.86412
G1 X111.073 Y32.837 E14.95797
G1 X108.268 Y33.236 E15.05181
G1 X105.478 Y33.723 E15.14566
G1 X102.704 Y34.298 E15.23950
G1 X99.949 Y34.959 E15.33335
G1 X97.217 Y35.706 E15.42719
G1 X94.510 Y36.539 E15.52104
G1 X91.830 Y37.457 E15.61489
G1 X89.180 Y38.458 E15.70873
G1 X86.563 Y39.542 E15.80258
G1 X83.981 Y40.708 E15.89642
G1 X81.437 Y41.954 E15.99027
G1 X78.934 Y43.280 E16.08412
G1 X76.473 Y44.683 E16.17796
G1 X74.058 Y46.163 E16.27181
G1 X71.690 Y47.718 E16.36565
G1 X69.373 Y49.347 E16.45950
G1 X67.108 Y51.048 E16.55334
G1 X64.897 Y52.819 E16.64719
G1 X62.743 Y54.659 E16.74103
G1 X60.648 Y56.565 E16.83488
G1 X58.614 Y58.537 E16.92873
G1 X56.642 Y60.571 E17.02257
G1 X54.736 Y62.666 E17.11642
G1 X52.896 Y64.820 E17.21026
G1 X51.125 Y67.031 E17.30411
G1 X49.424 Y69.296 E17.39795
G1 X47.795 Y71.613 E17.49180
G1 X46.240 Y73.981 E17.58565
G1 X44.760 Y76.396 E17.67949
G1 X43.357 Y78.857 E17.77334
G1 X42.031 Y81.360 E17.86718
G1 X40.785 Y83.904 E17.96103
G1 X39.619 Y86.486 E18.05488
G1 X38.535 Y89.103 E18.14872
G1 X37.534 Y91.753 E18.24257
G1 X36.616 Y94.433 E18.33641
G1 X35.783 Y97.140 E18.43026
G1 X35.036 Y99.873 E18.52411
G1 X34.375 Y102.627 E18.61795
G1 X34.176 Y103.587 E18.65042
G1 X29.979 Y103.587 E18.78945
G1 X30.143 Y102.798 E18.81614
G1 X30.996 Y102.798 E18.84439
G1 X31.179 Y101.913 E18.87434
G1 X31.864 Y99.058 E18.97159
G1 X32.639 Y96.227 E19.06885
G1 X33.502 Y93.421 E19.16610
G1 X34.162 Y91.493 E19.23360
G1 X33.810 Y91.702 F7800.000
G1 F1800.000
G1 X32.927 Y91.702 E19.26285
G1 X33.417 Y90.271 E19.31298
G1 X34.467 Y87.492 E19.41138
G1 X35.603 Y84.748 E19.50978
G1 X36.826 Y82.041 E19.60818
G1 X38.132 Y79.374 E19.70658
G1 X39.522 Y76.749 E19.80497
G1 X40.994 Y74.169 E19.90337
G1 X42.546 Y71.636 E20.00178
G1 X44.176 Y69.154 E20.10017
G1 X45.884 Y66.724 E20.19857
G1 X47.668 Y64.349 E20.29697
G1 X49.525 Y62.031 E20.39537
G1 X51.454 Y59.772 E20.49377
G1 X53.453 Y57.575 E20.59217
G1 X55.519 Y55.442 E20.69057
G1 X57.652 Y53.376 E20.78897
G1 X59.849 Y51.377 E20.88737
G1 X62.108 Y49.448 E20.98577
G1 X64.426 Y47.591 E21.08417
G1 X66.801 Y45.807 E21.18257
G1 X69.231 Y44.099 E21.28097
G1 X71.713 Y42.469 E21.37937
G1 X74.246 Y40.917 E21.47777
G1 X76.826 Y39.445 E21.57617
G1 X79.451 Y38.055 E21.67457
G1 X82.118 Y36.749 E21.77297
G1 X84.825 Y35.526 E21.87137
G1 X87.569 Y34.390 E21.96977
G1 X90.348 Y33.340 E22.06817
G1 X93.158 Y32.378 E22.16657
G1 X95.996 Y31.504 E22.26497
G1 X98.861 Y30.721 E22.36337
G1 X101.749 Y30.027 E22.46177
G1 X104.658 Y29.425 E22.56016
G1 X107.584 Y28.914 E22.65857
G1 X110.524 Y28.496 E22.75697
G1 X113.477 Y28.170 E22.85537
G1 X116.438 Y27.937 E22.95377
G1 X116.959 Y27.912 E22.97107
G1 X116.959 Y28.749 E22.99877
G1 X119.431 Y28.632 E23.08074
G1 X122.209 Y28.588 E23.17280
G1 X122.209 Y32.394 E23.29889
G1 X119.550 Y32.436 E23.38699
G1 X116.729 Y32.569 E23.48056
G1 X113.913 Y32.791 E23.57413
G1 X111.106 Y33.101 E23.66770
G1 X108.310 Y33.499 E23.76127
G1 X105.528 Y33.984 E23.85484
G1 X102.762 Y34.557 E23.94841
G1 X100.016 Y35.216 E24.04198
G1 X97.291 Y35.961 E24.13555
G1 X94.592 Y36.792 E24.22911
G1 X91.920 Y37.707 E24.32268
G1 X89.278 Y38.705 E24.41625
G1 X86.668 Y39.786 E24.50982
G1 X84.094 Y40.948 E24.60339
G1 X81.558 Y42.191 E24.69696
G1 X79.062 Y43.512 E24.79053
G1 X76.609 Y44.912 E24.88410
G1 X74.200 Y46.387 E24.97767
G1 X71.840 Y47.938 E25.07124
G1 X69.529 Y49.562 E25.16481
G1 X67.270 Y51.258 E25.25838
G1 X65.066 Y53.024 E25.35195
G1 X62.919 Y54.858 E25.44551
G1 X60.830 Y56.759 E25.53908
G1 X58.801 Y58.724 E25.63265
G1 X56.836 Y60.753 E25.72622
G1 X54.935 Y62.842 E25.81979
G1 X53.101 Y64.989 E25.91336
G1 X51.335 Y67.193 E26.00693
G1 X49.639 Y69.452 E26.10050
G1 X48.015 Y71.763 E26.19407
G1 X46.464 Y74.123 E26.28764
G1 X44.989 Y76.532 E26.38121
G1 X43.589 Y78.985 E26.47478
G1 X42.268 Y81.481 E26.56835
G1 X41.025 Y84.017 E26.66192
G1 X39.863 Y86.591 E26.75549
G1 X38.782 Y89.201 E26.84905
G1 X37.784 Y91.843 E26.94262
G1 X36.869 Y94.515 E27.03619
G1 X36.038 Y97.214 E27.12976
G1 X35.293 Y99.939 E27.22333
G1 X34.634 Y102.685 E27.31690
G1 X34.392 Y103.852 E27.35639
G1 X30.169 Y103.852 E27.49631
G1 X29.998 Y104.676 E27.52416
G1 X29.491 Y107.586 E27.62204
G1 X29.074 Y110.511 E27.71991
G1 X28.750 Y113.447 E27.81778
G1 X28.518 Y116.392 E27.91566
G1 X28.379 Y119.343 E28.01353
G1 X28.343 Y121.662 E28.09037
G1 X32.479 Y121.662 E28.22739
G1 X32.471 Y122.132 E28.24296
G1 X27.830 Y122.132 E28.39672
G1 X27.874 Y119.327 E28.48966
G1 X28.014 Y116.361 E28.58806
G1 X28.247 Y113.400 E28.68646
G1 X28.573 Y110.447 E28.78486
G1 X28.991 Y107.507 E28.88326
G1 X29.502 Y104.581 E28.98166
G1 X29.926 Y102.532 E29.05097
G1 X30.779 Y102.532 E29.07923
G1 X30.920 Y101.855 E29.10215
G1 X31.607 Y98.992 E29.19968
G1 X32.384 Y96.153 E29.29721
G1 X33.249 Y93.339 E29.39474
G1 X33.790 Y91.759 E29.45006
G1 E27.45006 F2400.00000
G92 E0
G1 X29.939 Y103.719 F7800.000
G1 E2.00000 F2400.00000
G1 F1800.000
G1 X29.750 Y104.628 E2.02029
G1 X29.241 Y107.546 E2.08503
G1 X28.824 Y110.479 E2.14978
G1 X28.499 Y113.423 E2.21453
G1 X28.266 Y116.378 E2.27932
G1 X28.127 Y119.335 E2.34402
G1 X28.088 Y121.793 E2.39775
G1 X28.098 Y121.868 E2.39940
G1 X28.208 Y121.897 E2.40188
G1 X32.342 Y121.897 E2.49225
G1 E0.49225 F2400.00000
G92 E0
G1 X33.566 Y103.159 F7800.000
G1 E2.00000 F2400.00000
G1 F1800.000
G1 X33.866 Y102.859 E2.01418
G1 X33.966 Y102.379 E2.03055
G1 X33.187 Y103.159 E2.06738
G1 X32.808 Y103.159 E2.08005
G1 X34.086 Y101.881 E2.14046
G1 X34.206 Y101.382 E2.15760
G1 X32.429 Y103.159 E2.24159
G1 X32.050 Y103.159 E2.25426
G1 X34.325 Y100.883 E2.36182
G1 X34.445 Y100.384 E2.37897
G1 X31.671 Y103.159 E2.51011
G1 X31.381 Y103.159 E2.51979
G1 X31.405 Y103.046 E2.52364
G1 X34.565 Y99.886 E2.67303
G1 X34.696 Y99.375 E2.69064
G1 X31.504 Y102.568 E2.84155
G1 X31.605 Y102.088 E2.85794
G1 X34.839 Y98.854 E3.01084
G1 X34.982 Y98.332 E3.02892
G1 X31.724 Y101.589 E3.18290
G1 X31.844 Y101.091 E3.20004
G1 X35.124 Y97.810 E3.35511
G1 X35.267 Y97.288 E3.37319
G1 X31.964 Y100.592 E3.52934
G1 X32.084 Y100.093 E3.54649
G1 X35.416 Y96.761 E3.70402
G1 X35.584 Y96.213 E3.72316
G1 X32.203 Y99.594 E3.88299
G1 X32.332 Y99.086 E3.90050
G1 X35.753 Y95.666 E4.06219
G1 X35.921 Y95.118 E4.08134
G1 X32.475 Y98.565 E4.24425
G1 X32.618 Y98.043 E4.26233
G1 X36.090 Y94.571 E4.42645
G1 X36.265 Y94.016 E4.44591
G1 X32.760 Y97.521 E4.61160
G1 X32.903 Y96.999 E4.62968
G1 X36.463 Y93.440 E4.79795
G1 X36.660 Y92.863 E4.81831
G1 X33.046 Y96.478 E4.98916
G1 X33.214 Y95.930 E5.00831
G1 X36.857 Y92.287 E5.18052
G1 X37.055 Y91.711 E5.20089
G1 X33.383 Y95.383 E5.37447
G1 X33.551 Y94.835 E5.39361
G1 X37.271 Y91.115 E5.56947
G1 X37.501 Y90.506 E5.59124
G1 X33.719 Y94.288 E5.77001
G1 X33.888 Y93.741 E5.78916
G1 X37.731 Y89.897 E5.97086
G1 X37.962 Y89.288 E5.99263
G1 X34.082 Y93.167 E6.17601
G1 X34.280 Y92.591 E6.19637
G1 X38.200 Y88.671 E6.38168
G1 X38.468 Y88.024 E6.40509
G1 X34.477 Y92.014 E6.59373
G1 X34.674 Y91.438 E6.61409
G1 X38.736 Y87.377 E6.80608
G1 X39.004 Y86.730 E6.82949
G1 X34.725 Y91.009 E7.03176
G1 X34.346 Y91.009 E7.04443
G1 X39.278 Y86.077 E7.27757
G1 X39.590 Y85.386 E7.30291
G1 X33.967 Y91.009 E7.56872
G1 X33.939 Y91.009 E7.56966
G1 X34.063 Y90.644 E7.58255
G1 X34.131 Y90.466 E7.58892
G1 X39.902 Y84.695 E7.86172
G1 X40.214 Y84.004 E7.88707
G1 X34.361 Y89.856 E8.16374
G1 X34.591 Y89.247 E8.18551
G1 X40.545 Y83.293 E8.46697
G1 X40.909 Y82.550 E8.49463
G1 X34.821 Y88.638 E8.78242
G1 X35.052 Y88.029 E8.80419
G1 X41.273 Y81.807 E9.09830
G1 X41.637 Y81.064 E9.12596
G1 X35.311 Y87.390 E9.42502
G1 X35.579 Y86.743 E9.44843
G1 X42.060 Y80.263 E9.75479
G1 X42.486 Y79.457 E9.78525
G1 X35.847 Y86.096 E10.09911
G1 X36.115 Y85.449 E10.12252
G1 X42.913 Y78.652 E10.44387
G1 X43.401 Y77.784 E10.47715
G1 X36.408 Y84.778 E10.80775
G1 X36.720 Y84.087 E10.83309
G1 X43.905 Y76.902 E11.17274
G1 X44.408 Y76.019 E11.20671
G1 X37.032 Y83.396 E11.55541
G1 X37.344 Y82.705 E11.58075
G1 X45.008 Y75.040 E11.94306
G1 X45.608 Y74.061 E11.98143
G1 X37.691 Y81.978 E12.35568
G1 X38.055 Y81.235 E12.38333
G1 X46.273 Y73.017 E12.77182
G1 X46.999 Y71.912 E12.81599
G1 X38.419 Y80.492 E13.22157
G1 X38.739 Y79.839 E13.24588
G1 X38.791 Y79.742 E13.24957
G1 X47.787 Y70.746 E13.67482
G1 X48.683 Y69.470 E13.72693
G1 X39.217 Y78.936 E14.17439
G1 X39.644 Y78.131 E14.20486
G1 X49.711 Y68.063 E14.68078
G1 X50.869 Y66.527 E14.74507
G1 X40.070 Y77.325 E15.25553
G1 X40.565 Y76.451 E15.28909
G1 X52.396 Y64.621 E15.84834
G1 X54.588 Y62.050 E15.96128
G1 X41.068 Y75.569 E16.60038
G1 X41.571 Y74.687 E16.63433
G1 E14.63433 F2400.00000
G92 E0
G1 X56.193 Y55.896 F7800.000
G1 E2.00000 F2400.00000
G1 F1800.000
G1 X53.930 Y58.224 E2.10854
G1 X51.948 Y60.403 E2.20698
G1 X51.260 Y61.208 E2.24238
G1 X61.285 Y51.183 E2.71626
G1 X62.719 Y49.958 E2.77930
G1 X63.573 Y49.275 E2.81586
G1 X49.352 Y63.496 E3.48811
G1 X47.918 Y65.308 E3.56537
G1 X65.385 Y47.841 E4.39111
G1 X66.907 Y46.699 E4.45469
G1 X46.776 Y66.830 E5.40631
G1 X45.804 Y68.180 E5.46193
G1 X68.257 Y45.727 E6.52333
G1 X69.533 Y44.831 E6.57544
G1 X44.908 Y69.456 E7.73950
G1 X44.149 Y70.594 E7.78523
G1 X70.671 Y44.072 E9.03897
G1 X71.775 Y43.346 E9.08314
G1 X43.423 Y71.698 E10.42339
G1 X42.770 Y72.730 E10.46422
G1 X72.807 Y42.693 E11.88414
G1 X73.786 Y42.093 E11.92252
G1 X42.170 Y73.709 E13.41706
G1 X41.571 Y74.687 E13.45539
G1 X74.764 Y41.494 E15.02447
G1 X75.646 Y40.991 E15.05842
G1 X62.127 Y54.511 E15.69752
G1 X64.698 Y52.318 E15.81047
G1 X76.528 Y40.488 E16.36973
G1 X77.313 Y40.040 E16.39992
G1 X77.402 Y39.993 E16.40329
G1 X66.604 Y50.792 E16.91376
G1 X68.140 Y49.634 E16.97805
G1 X78.208 Y39.567 E17.45397
G1 X79.013 Y39.140 E17.48443
G1 X69.547 Y48.606 E17.93190
G1 X70.823 Y47.710 E17.98401
G1 X79.819 Y38.714 E18.40927
G1 X80.569 Y38.342 E18.43726
G1 X71.990 Y46.922 E18.84284
G1 X73.094 Y46.196 E18.88701
G1 X81.312 Y37.978 E19.27550
G1 X82.055 Y37.614 E19.30315
G1 X74.138 Y45.531 E19.67739
G1 X75.117 Y44.931 E19.71577
G1 X82.782 Y37.267 E20.07808
G1 X83.473 Y36.955 E20.10342
G1 X76.096 Y44.331 E20.45212
G1 X76.979 Y43.828 E20.48609
G1 X84.164 Y36.643 E20.82574
G1 X84.855 Y36.331 E20.85108
G1 X77.861 Y43.324 E21.18168
G1 X78.729 Y42.836 E21.21497
G1 X85.527 Y36.038 E21.53631
G1 X86.174 Y35.770 E21.55972
G1 X79.534 Y42.409 E21.87358
G1 X80.340 Y41.983 E21.90404
G1 X86.821 Y35.502 E22.21041
G1 X87.467 Y35.234 E22.23382
G1 X81.141 Y41.560 E22.53288
G1 X81.884 Y41.196 E22.56053
G1 X88.106 Y34.975 E22.85465
G1 X88.715 Y34.744 E22.87642
G1 X82.627 Y40.832 E23.16421
G1 X83.370 Y40.468 E23.19186
G1 X89.324 Y34.514 E23.47333
G1 X89.933 Y34.284 E23.49510
G1 X84.081 Y40.137 E23.77177
G1 X84.772 Y39.825 E23.79711
G1 X90.543 Y34.054 E24.06991
G1 X90.721 Y33.986 E24.07628
G1 X91.129 Y33.847 E24.09069
G1 X85.463 Y39.513 E24.35852
G1 X86.154 Y39.201 E24.38386
G1 X91.705 Y33.650 E24.64628
G1 X92.281 Y33.452 E24.66664
G1 X86.807 Y38.927 E24.92543
G1 X87.454 Y38.659 E24.94884
G1 X92.858 Y33.255 E25.20429
G1 X93.434 Y33.058 E25.22465
G1 X88.101 Y38.391 E25.47676
G1 X88.748 Y38.123 E25.50017
G1 X93.985 Y32.885 E25.74774
G1 X94.532 Y32.717 E25.76688
