; generated by Slic3r 1.3.1-dev (Build 2ef957d) on 2019-11-25 at 09:24:41

; external perimeters extrusion width = 0.55mm (4.37mm^3/s)
; perimeters extrusion width = 0.70mm (11.44mm^3/s)
; infill extrusion width = 0.62mm (13.45mm^3/s)
; solid infill extrusion width = 0.70mm (3.81mm^3/s)
; top infill extrusion width = 0.70mm (2.86mm^3/s)

M107
G92 E0
M104 S200 ; set temperature
G28 ; home all axes
G1 Z5 F5000 ; lift nozzle

; Filament gcode

M109 S200 ; set temperature and wait for it to be reached
G21 ; set units to millimeters
G90 ; use absolute coordinates
M82 ; use absolute distances for extrusion
G92 E0
G1 Z0.350 F7800.000
G1 E-2.00000 F2400.00000
G92 E0
G1 X78.772 Y34.991 F7800.000
G1 E2.00000 F2400.00000
G1 F1800.000
G1 X79.915 Y33.003 E2.07096
G1 X81.668 Y31.523 E2.14192
G1 X83.861 Y30.723 E2.21414
G1 X85.100 Y30.510 E2.25303
G1 X87.287 Y30.202 E2.32139
G1 X89.484 Y29.963 E2.38977
G1 X91.687 Y29.793 E2.45813
G1 X93.894 Y29.692 E2.52650
G1 X96.104 Y29.661 E2.59488
G1 X98.314 Y29.699 E2.66325
G1 X100.520 Y29.806 E2.73161
G1 X102.516 Y29.963 E2.79354
G1 X104.713 Y30.202 E2.86193
G1 X106.900 Y30.510 E2.93028
G1 X109.078 Y30.887 E2.99867
G1 X111.242 Y31.332 E3.06703
G1 X113.392 Y31.845 E3.13541
G1 X115.524 Y32.425 E3.20377
G1 X116.948 Y32.859 E3.24985
G1 X118.990 Y33.903 E3.32081
G1 X120.554 Y35.581 E3.39177
G1 X121.453 Y37.691 E3.46273
G1 X121.625 Y39.191 E3.50947
G1 X121.625 Y160.809 E7.27247
G1 X121.228 Y163.067 E7.34343
G1 X120.085 Y165.056 E7.41439
G1 X118.332 Y166.535 E7.48535
G1 X116.948 Y167.141 E7.53209
G1 X115.524 Y167.575 E7.57816
G1 X113.593 Y168.104 E7.64010
G1 X111.242 Y168.668 E7.71491
G1 X109.282 Y169.074 E7.77684
G1 X107.106 Y169.457 E7.84520
G1 X104.713 Y169.798 E7.92001
G1 X102.516 Y170.037 E7.98839
G1 X100.520 Y170.194 E8.05032
G1 X98.313 Y170.301 E8.11868
G1 X96.104 Y170.339 E8.18705
G1 X93.687 Y170.301 E8.26187
G1 X91.687 Y170.207 E8.32380
G1 X89.484 Y170.037 E8.39216
G1 X87.081 Y169.772 E8.46697
G1 X85.099 Y169.490 E8.52890
G1 X83.861 Y169.277 E8.56779
G1 X81.704 Y168.497 E8.63876
G1 X79.942 Y167.029 E8.70972
G1 X78.786 Y165.048 E8.78068
G1 X78.375 Y162.750 E8.85290
G1 X78.375 Y37.250 E12.73606
G1 X78.759 Y35.065 E12.80470
G1 E10.80470 F2400.00000
G92 E0
G1 X101.046 Y117.900 F7800.000
G1 E2.00000 F2400.00000
G1 F1800.000
G1 X102.366 Y120.034 E2.07763
G1 X102.827 Y122.500 E2.15527
G1 X102.366 Y124.966 E2.23291
G1 X101.046 Y127.100 E2.31054
G1 X99.043 Y128.612 E2.38817
G1 X96.630 Y129.298 E2.46581
G1 X94.132 Y129.067 E2.54344
G1 X91.886 Y127.948 E2.62108
G1 X90.195 Y126.094 E2.69871
G1 X89.289 Y123.755 E2.77635
G1 X89.289 Y121.245 E2.85398
G1 X90.195 Y118.906 E2.93161
G1 X91.886 Y117.052 E3.00925
G1 X94.132 Y115.933 E3.08689
G1 X96.630 Y115.702 E3.16452
G1 X99.043 Y116.388 E3.24215
G1 X100.986 Y117.855 E3.31747
G1 X100.576 Y118.329 F7800.000
G1 F1800.000
G1 X101.774 Y120.263 E3.38787
G1 X102.192 Y122.500 E3.45828
G1 X101.774 Y124.737 E3.52869
G1 X100.576 Y126.671 E3.59909
G1 X98.760 Y128.043 E3.66950
G1 X96.571 Y128.665 E3.73991
G1 X94.306 Y128.455 E3.81031
G1 X92.269 Y127.441 E3.88072
G1 X90.736 Y125.759 E3.95113
G1 X89.914 Y123.638 E4.02153
G1 X89.914 Y121.362 E4.09194
G1 X90.736 Y119.240 E4.16234
G1 X92.269 Y117.559 E4.23275
G1 X94.306 Y116.545 E4.30315
G1 X96.571 Y116.335 E4.37356
G1 X98.760 Y116.957 E4.44397
G1 X100.516 Y118.283 E4.51205
G1 X100.106 Y118.757 F7800.000
G1 F1800.000
G1 X101.181 Y120.493 E4.57523
G1 X101.556 Y122.500 E4.63841
G1 X101.181 Y124.507 E4.70159
G1 X100.106 Y126.243 E4.76476
G1 X98.477 Y127.474 E4.82794
G1 X96.513 Y128.032 E4.89112
G1 X94.480 Y127.844 E4.95430
G1 X92.652 Y126.934 E5.01747
G1 X91.276 Y125.425 E5.08065
G1 X90.539 Y123.521 E5.14383
G1 X90.539 Y121.479 E5.20701
G1 X91.276 Y119.575 E5.27018
G1 X92.652 Y118.066 E5.33336
G1 X94.480 Y117.156 E5.39654
G1 X96.513 Y116.968 E5.45971
G1 X98.477 Y117.526 E5.52289
G1 X100.046 Y118.712 E5.58375
G1 X100.106 Y118.757 F7800.000
G1 E3.58375 F2400.00000
G92 E0
G1 X96.630 Y84.298 F7800.000
G1 E2.00000 F2400.00000
G1 F1800.000
G1 X94.132 Y84.067 E2.07763
G1 X91.886 Y82.948 E2.15527
G1 X90.195 Y81.094 E2.23290
G1 X89.289 Y78.755 E2.31054
G1 X89.289 Y76.245 E2.38817
G1 X90.195 Y73.906 E2.46581
G1 X91.886 Y72.052 E2.54344
G1 X94.132 Y70.933 E2.62108
G1 X96.630 Y70.702 E2.69871
G1 X99.043 Y71.388 E2.77635
G1 X101.046 Y72.900 E2.85398
G1 X102.366 Y75.034 E2.93161
G1 X102.827 Y77.500 E3.00925
G1 X102.366 Y79.966 E3.08689
G1 X101.046 Y82.100 E3.16452
G1 X99.043 Y83.612 E3.24216
G1 X96.702 Y84.278 E3.31747
G1 X96.571 Y83.665 F7800.000
G1 F1800.000
G1 X94.306 Y83.455 E3.38788
G1 X92.269 Y82.441 E3.45828
G1 X90.736 Y80.759 E3.52869
G1 X89.914 Y78.638 E3.59909
G1 X89.914 Y76.362 E3.66950
G1 X90.736 Y74.240 E3.73990
G1 X92.269 Y72.559 E3.81031
G1 X94.306 Y71.545 E3.88072
G1 X96.571 Y71.335 E3.95112
G1 X98.760 Y71.957 E4.02153
G1 X100.576 Y73.329 E4.09194
G1 X101.774 Y75.263 E4.16234
G1 X102.192 Y77.500 E4.23275
G1 X101.774 Y79.737 E4.30316
G1 X100.576 Y81.671 E4.37356
G1 X98.760 Y83.043 E4.44397
G1 X96.643 Y83.645 E4.51205
G1 X96.513 Y83.032 F7800.000
G1 F1800.000
G1 X94.480 Y82.844 E4.57523
G1 X92.652 Y81.934 E4.63841
G1 X91.276 Y80.425 E4.70159
G1 X90.539 Y78.521 E4.76476
G1 X90.539 Y76.479 E4.82794
G1 X91.276 Y74.575 E4.89112
G1 X92.652 Y73.066 E4.95429
G1 X94.480 Y72.156 E5.01747
G1 X96.513 Y71.968 E5.08065
G1 X98.477 Y72.526 E5.14383
G1 X100.106 Y73.757 E5.20701
G1 X101.181 Y75.493 E5.27018
G1 X101.556 Y77.500 E5.33336
G1 X101.181 Y79.507 E5.39654
G1 X100.106 Y81.243 E5.45971
G1 X98.477 Y82.474 E5.52289
G1 X96.585 Y83.012 E5.58375
G1 X96.513 Y83.032 F7800.000
G1 E3.58375 F2400.00000
G92 E0
G1 X97.600 Y42.059 F7800.000
G1 E2.00000 F2400.00000
G1 F1800.000
G1 X97.600 Y37.910 E2.12837
G1 X99.900 Y38.007 E2.19961
G1 X101.846 Y38.160 E2.25999
G1 X103.785 Y38.375 E2.32037
G1 X105.717 Y38.650 E2.38074
G1 X107.639 Y38.985 E2.44112
G1 X109.550 Y39.381 E2.50150
G1 X111.447 Y39.836 E2.56187
G1 X113.400 Y40.370 E2.62452
G1 X113.400 Y159.630 E6.31455
G1 X111.447 Y160.164 E6.37719
G1 X109.550 Y160.619 E6.43756
G1 X107.639 Y161.015 E6.49794
G1 X105.717 Y161.350 E6.55832
G1 X103.785 Y161.625 E6.61869
G1 X101.846 Y161.840 E6.67907
G1 X99.900 Y161.993 E6.73945
G1 X97.600 Y162.090 E6.81069
G1 X97.600 Y157.941 E6.93906
G1 X92.800 Y157.866 E7.08758
G1 X92.800 Y162.026 E7.21630
G1 X92.100 Y161.993 E7.23800
G1 X90.154 Y161.840 E7.29837
G1 X88.215 Y161.625 E7.35875
G1 X86.600 Y161.396 E7.40923
G1 X86.600 Y38.604 E11.20855
G1 X88.215 Y38.375 E11.25902
G1 X90.154 Y38.160 E11.31940
G1 X92.096 Y38.008 E11.37965
G1 X92.800 Y37.978 E11.40147
G1 X92.800 Y42.134 E11.53007
G1 X97.525 Y42.060 E11.67627
G1 X96.975 Y41.444 F7800.000
G1 F1800.000
G1 X96.975 Y37.275 E11.80525
G1 X97.971 Y37.291 E11.83606
G1 X99.939 Y37.384 E11.89705
G1 X101.904 Y37.538 E11.95803
G1 X103.863 Y37.755 E12.01902
G1 X105.815 Y38.032 E12.08000
G1 X107.756 Y38.371 E12.14098
G1 X109.686 Y38.771 E12.20197
G1 X111.603 Y39.231 E12.26295
G1 X113.504 Y39.751 E12.32394
G1 X114.025 Y39.911 E12.34081
G1 X114.025 Y160.089 E16.05925
G1 X113.504 Y160.249 E16.07612
G1 X111.603 Y160.769 E16.13711
G1 X109.686 Y161.229 E16.19809
G1 X107.756 Y161.629 E16.25907
G1 X105.815 Y161.968 E16.32006
G1 X103.863 Y162.245 E16.38104
G1 X101.904 Y162.462 E16.44202
G1 X99.939 Y162.616 E16.50301
G1 X97.971 Y162.709 E16.56399
G1 X96.975 Y162.725 E16.59481
G1 X96.975 Y158.556 E16.72379
G1 X93.425 Y158.500 E16.83364
G1 X93.425 Y162.681 E16.96298
G1 X92.060 Y162.616 E17.00525
G1 X90.096 Y162.462 E17.06623
G1 X88.137 Y162.245 E17.12722
G1 X85.975 Y161.931 E17.19480
G1 X85.975 Y38.069 E21.02726
G1 X88.137 Y37.755 E21.09485
G1 X90.096 Y37.538 E21.15583
G1 X92.058 Y37.384 E21.21674
G1 X93.425 Y37.327 E21.25908
G1 X93.425 Y41.500 E21.38819
G1 X96.900 Y41.445 E21.49572
G1 X96.350 Y40.829 F7800.000
G1 F1800.000
G1 X96.350 Y36.640 E21.62531
G1 X97.990 Y36.666 E21.67607
G1 X99.979 Y36.760 E21.73766
G1 X101.963 Y36.916 E21.79925
G1 X103.942 Y37.135 E21.86084
G1 X105.912 Y37.415 E21.92243
G1 X107.873 Y37.757 E21.98403
G1 X109.823 Y38.161 E22.04562
G1 X111.758 Y38.626 E22.10721
G1 X113.678 Y39.151 E22.16880
G1 X114.650 Y39.450 E22.20026
G1 X114.650 Y160.550 E25.94726
G1 X113.678 Y160.849 E25.97872
G1 X111.758 Y161.374 E26.04031
G1 X109.823 Y161.839 E26.10190
G1 X107.873 Y162.243 E26.16349
G1 X105.912 Y162.585 E26.22508
G1 X103.942 Y162.865 E26.28667
G1 X101.963 Y163.084 E26.34827
G1 X99.979 Y163.240 E26.40986
G1 X97.990 Y163.334 E26.47145
G1 X96.350 Y163.360 E26.52221
G1 X96.350 Y159.171 E26.65180
G1 X94.050 Y159.135 E26.72297
G1 X94.050 Y163.336 E26.85294
G1 X92.021 Y163.240 E26.91578
G1 X90.037 Y163.084 E26.97737
G1 X88.058 Y162.865 E27.03896
G1 X86.088 Y162.585 E27.10056
G1 X85.350 Y162.456 E27.12372
G1 X85.350 Y37.544 E30.98868
G1 X86.088 Y37.415 E31.01184
G1 X88.058 Y37.135 E31.07343
G1 X90.037 Y36.916 E31.13503
G1 X92.020 Y36.760 E31.19659
G1 X94.050 Y36.675 E31.25944
G1 X94.050 Y40.865 E31.38908
G1 X96.275 Y40.830 E31.45793
G1 X96.819 Y41.002 F7800.000
G1 E29.45793 F2400.00000
G92 E0
G1 X97.982 Y42.591 F7800.000
G1 E2.00000 F2400.00000
G1 F1800.000
G1 X102.032 Y38.540 E2.17802
G1 X101.210 Y38.475 E2.20366
G1 X97.982 Y41.703 E2.34552
G1 X97.982 Y40.816 E2.37310
G1 X100.387 Y38.410 E2.47880
G1 X99.548 Y38.362 E2.50492
G1 X97.982 Y39.928 E2.57374
G1 X97.982 Y39.040 E2.60132
G1 X98.700 Y38.322 E2.63290
G1 E0.63290 F2400.00000
G92 E0
G1 X87.468 Y38.904 F7800.000
G1 E2.00000 F2400.00000
G1 F1800.000
G1 X86.982 Y39.390 E2.02138
G1 X86.982 Y40.278 E2.04896
G1 X88.503 Y38.756 E2.11580
G1 X89.502 Y38.645 E2.14704
G1 X86.982 Y41.165 E2.25779
G1 X86.982 Y42.053 E2.28537
G1 X90.498 Y38.536 E2.43989
G1 X91.461 Y38.461 E2.46992
G1 X86.982 Y42.940 E2.66678
G1 X86.982 Y43.828 E2.69436
G1 X92.418 Y38.391 E2.93329
G1 X92.418 Y39.278 E2.96087
G1 X86.982 Y44.715 E3.19980
G1 X86.982 Y45.603 E3.22738
G1 X92.418 Y40.166 E3.46630
G1 X92.418 Y41.054 E3.49388
G1 X86.982 Y46.490 E3.73281
G1 X86.982 Y47.378 E3.76039
G1 X92.418 Y41.941 E3.99931
G1 X92.418 Y42.526 E4.01749
G1 X92.726 Y42.521 E4.02704
G1 X86.982 Y48.265 E4.27948
G1 X86.982 Y49.153 E4.30706
G1 X93.627 Y42.507 E4.59912
G1 X94.529 Y42.493 E4.62714
G1 X86.982 Y50.040 E4.95883
G1 X86.982 Y50.928 E4.98641
G1 X95.431 Y42.479 E5.35773
G1 X96.333 Y42.464 E5.38575
G1 X86.982 Y51.816 E5.79669
G1 X86.982 Y52.703 E5.82427
G1 X97.234 Y42.450 E6.27485
G1 X98.136 Y42.436 E6.30287
G1 X86.982 Y53.591 E6.79307
G1 X86.982 Y54.478 E6.82065
G1 X102.832 Y38.628 E7.51720
G1 X103.631 Y38.716 E7.54219
G1 X86.982 Y55.366 E8.27387
G1 X86.982 Y56.253 E8.30145
G1 X104.417 Y38.818 E9.06766
G1 X105.194 Y38.929 E9.09204
G1 X86.982 Y57.141 E9.89240
G1 X86.982 Y58.028 E9.91998
G1 X105.968 Y39.042 E10.75435
G1 X106.723 Y39.174 E10.77819
G1 X86.982 Y58.916 E11.64577
G1 X86.982 Y59.803 E11.67335
G1 X107.479 Y39.306 E12.57413
G1 X108.222 Y39.451 E12.59765
G1 X86.982 Y60.691 E13.53109
G1 X86.982 Y61.578 E13.55867
G1 X108.957 Y39.603 E14.52442
G1 X109.692 Y39.756 E14.54773
G1 X86.982 Y62.466 E15.54575
G1 X86.982 Y63.354 E15.57333
G1 X110.407 Y39.928 E16.60280
G1 X111.123 Y40.100 E16.62568
G1 X86.982 Y64.241 E17.68660
G1 X86.982 Y65.129 E17.71418
G1 X111.831 Y40.279 E18.80621
G1 X112.528 Y40.470 E18.82866
G1 X86.982 Y66.016 E19.95131
G1 X86.982 Y66.904 E19.97889
G1 X113.018 Y40.867 E21.12311
G1 X113.018 Y41.754 E21.15069
G1 X86.982 Y67.791 E22.29491
G1 X86.982 Y68.679 E22.32249
G1 X113.018 Y42.642 E23.46671
G1 X113.018 Y43.530 E23.49429
G1 X86.982 Y69.566 E24.63851
G1 X86.982 Y70.454 E24.66609
G1 X113.018 Y44.417 E25.81031
G1 X113.018 Y45.305 E25.83789
G1 X86.982 Y71.341 E26.98211
G1 X86.982 Y72.229 E27.00969
G1 X113.018 Y46.192 E28.15391
G1 X113.018 Y47.080 E28.18149
G1 X86.982 Y73.116 E29.32571
G1 X86.982 Y74.004 E29.35329
G1 X113.018 Y47.967 E30.49751
G1 X113.018 Y48.855 E30.52509
G1 X86.982 Y74.892 E31.66931
G1 X86.982 Y75.779 E31.69689
G1 X113.018 Y49.742 E32.84111
G1 X113.018 Y50.630 E32.86869
G1 X92.458 Y71.191 E33.77226
G1 X93.715 Y70.565 E33.81589
G1 X93.997 Y70.539 E33.82471
G1 X113.018 Y51.517 E34.66062
G1 X113.018 Y52.405 E34.68820
G1 X94.975 Y70.448 E35.48113
G1 X95.954 Y70.357 E35.51165
G1 X113.018 Y53.292 E36.26159
G1 X113.018 Y54.180 E36.28917
G1 X96.789 Y70.409 E37.00239
G1 X97.480 Y70.606 E37.02472
G1 X113.018 Y55.068 E37.70757
G1 X113.018 Y55.955 E37.73515
G1 X98.171 Y70.803 E38.38765
G1 X98.862 Y70.999 E38.40997
G1 X113.018 Y56.843 E39.03210
G1 X113.018 Y57.730 E39.05968
G1 X99.427 Y71.322 E39.65697
G1 X99.933 Y71.703 E39.67666
G1 X113.018 Y58.618 E40.25173
G1 X113.018 Y59.505 E40.27931
G1 X100.438 Y72.085 E40.83215
G1 X100.944 Y72.467 E40.85184
G1 X113.018 Y60.393 E41.38247
G1 X113.018 Y61.280 E41.41005
G1 X101.391 Y72.907 E41.92102
G1 X101.731 Y73.455 E41.94105
G1 X113.018 Y62.168 E42.43710
G1 X113.018 Y63.055 E42.46468
G1 X102.070 Y74.004 E42.94581
G1 X102.410 Y74.552 E42.96585
G1 X113.018 Y63.943 E43.43207
G1 X113.018 Y64.830 E43.45965
G1 X102.730 Y75.119 E43.91180
G1 X102.869 Y75.867 E43.93544
G1 X113.018 Y65.718 E44.38144
G1 X113.018 Y66.606 E44.40902
G1 X103.009 Y76.615 E44.84889
G1 X103.149 Y77.362 E44.87253
G1 X113.018 Y67.493 E45.30625
G1 X113.018 Y68.381 E45.33383
G1 X103.120 Y78.279 E45.76883
G1 X102.916 Y79.371 E45.80334
G1 X113.018 Y69.268 E46.24731
G1 X113.018 Y70.156 E46.27489
G1 X102.686 Y80.488 E46.72897
G1 E44.72897 F2400.00000
G92 E0
G1 X89.631 Y74.018 F7800.000
G1 E2.00000 F2400.00000
G1 F1800.000
G1 X86.982 Y76.667 E2.11641
G1 X86.982 Y77.554 E2.14399
G1 X89.069 Y75.466 E2.23574
G1 X88.907 Y75.886 E2.24971
G1 X88.907 Y76.516 E2.26931
G1 X86.982 Y78.442 E2.35392
G1 X86.982 Y79.329 E2.38150
G1 X88.907 Y77.404 E2.46611
G1 X88.907 Y78.291 E2.49369
G1 X86.982 Y80.217 E2.57830
G1 X86.982 Y81.104 E2.60588
G1 X89.061 Y79.025 E2.69724
G1 X89.309 Y79.665 E2.71856
G1 X86.982 Y81.992 E2.82082
G1 X86.982 Y82.879 E2.84840
G1 X89.556 Y80.305 E2.96155
G1 X89.804 Y80.944 E2.98287
G1 X86.982 Y83.767 E3.10691
G1 X86.982 Y84.654 E3.13449
G1 X90.161 Y81.475 E3.27422
G1 X90.584 Y81.939 E3.29374
G1 X86.982 Y85.542 E3.45208
G1 X86.982 Y86.430 E3.47965
G1 X91.008 Y82.403 E3.65659
G1 X91.431 Y82.868 E3.67611
G1 X86.982 Y87.317 E3.87164
G1 X86.982 Y88.205 E3.89922
G1 X91.898 Y83.289 E4.11526
G1 X92.490 Y83.584 E4.13583
G1 X86.982 Y89.092 E4.37791
G1 X86.982 Y89.980 E4.40549
G1 X93.083 Y83.879 E4.67361
G1 X93.675 Y84.174 E4.69418
G1 X86.982 Y90.867 E4.98834
G1 X86.982 Y91.755 E5.01592
G1 X94.293 Y84.444 E5.33721
G1 X95.105 Y84.519 E5.36256
G1 X86.982 Y92.642 E5.71954
G1 X86.982 Y93.530 E5.74712
G1 X95.917 Y84.594 E6.13981
G1 X96.729 Y84.670 E6.16516
G1 X86.982 Y94.417 E6.59354
G1 X86.982 Y95.305 E6.62111
G1 X97.863 Y84.423 E7.09932
G1 X99.104 Y84.070 E7.13940
G1 X86.982 Y96.192 E7.67212
G1 X86.982 Y97.080 E7.69970
G1 X113.018 Y71.043 E8.84392
G1 X113.018 Y71.931 E8.87150
G1 X86.982 Y97.968 E10.01572
G1 X86.982 Y98.855 E10.04330
G1 X113.018 Y72.818 E11.18752
G1 X113.018 Y73.706 E11.21510
G1 X86.982 Y99.743 E12.35932
G1 X86.982 Y100.630 E12.38690
G1 X113.018 Y74.593 E13.53112
G1 X113.018 Y75.481 E13.55870
G1 X86.982 Y101.518 E14.70291
G1 X86.982 Y102.405 E14.73049
G1 X113.018 Y76.368 E15.87471
G1 X113.018 Y77.256 E15.90229
G1 X86.982 Y103.293 E17.04651
G1 X86.982 Y104.180 E17.07409
G1 X113.018 Y78.144 E18.21831
G1 X113.018 Y79.031 E18.24589
G1 X86.982 Y105.068 E19.39011
G1 X86.982 Y105.955 E19.41769
G1 X113.018 Y79.919 E20.56191
G1 X113.018 Y80.806 E20.58949
G1 X86.982 Y106.843 E21.73371
G1 X86.982 Y107.730 E21.76129
G1 X113.018 Y81.694 E22.90551
G1 X113.018 Y82.581 E22.93309
G1 X86.982 Y108.618 E24.07731
G1 X86.982 Y109.505 E24.10489
G1 X113.018 Y83.469 E25.24911
G1 X113.018 Y84.356 E25.27669
G1 X86.982 Y110.393 E26.42091
G1 X86.982 Y111.281 E26.44849
G1 X113.018 Y85.244 E27.59271
G1 X113.018 Y86.131 E27.62029
G1 X86.982 Y112.168 E28.76451
G1 X86.982 Y113.056 E28.79209
G1 X113.018 Y87.019 E29.93631
G1 X113.018 Y87.906 E29.96389
G1 X86.982 Y113.943 E31.10811
G1 X86.982 Y114.831 E31.13569
G1 X113.018 Y88.794 E32.27991
G1 X113.018 Y89.682 E32.30749
G1 X86.982 Y115.718 E33.45171
G1 X86.982 Y116.606 E33.47929
G1 X113.018 Y90.569 E34.62351
G1 X113.018 Y91.457 E34.65109
G1 X86.982 Y117.493 E35.79530
