; Gcode updated with 'stl_info' on 2019-12-03 19:09:15.505174

; stl_min_x = -115.0
; stl_max_x = 0.0
; stl_min_y = -96.01319885253906
; stl_max_y = 30.0
; stl_min_z = -630.0

; generated by Slic3r 1.3.1-dev (Build adea0d9) on 2019-12-03 at 19:09:14

; external perimeters extrusion width = 0.55mm (1.90mm^3/s)
; perimeters extrusion width = 0.70mm (2.71mm^3/s)
; infill extrusion width = 0.62mm (2.41mm^3/s)
; solid infill extrusion width = 0.70mm (2.04mm^3/s)
; top infill extrusion width = 0.70mm (2.04mm^3/s)

M107
G92 E0
;D3D:START:START
T0
M104 S215 T0

G21
G90
M107
T0
G28
G29
M109 T0 S215 T0
G0 F3000
M107
T0
G92 E0
G0 X0 Y149 Z0.1 F3600
G1 Y49 E6.5 F1200
G0 Z1
G92 E0
; Filament gcode

G21 ; set units to millimeters
G90 ; use absolute coordinates
M82 ; use absolute distances for extrusion
G92 E0
G1 Z0.090 F7800.000
G1 E-2.00000 F2400.00000
G92 E0
G1 X45.052 Y45.023 F7800.000
G1 E2.00000 F2400.00000
G1 F1800.000
G1 X48.016 Y42.323 E2.01196
G1 X51.063 Y39.716 E2.02391
G1 X54.341 Y37.089 E2.03644
G1 X57.395 Y34.796 E2.04782
G1 X60.674 Y32.488 E2.05978
G1 X64.406 Y30.049 E2.07307
G1 X73.261 Y24.956 E2.10353
G1 X74.636 Y24.232 E2.10817
G1 X78.238 Y22.470 E2.12012
G1 X81.894 Y20.823 E2.13208
G1 X85.600 Y19.291 E2.14403
G1 X89.352 Y17.876 E2.15599
G1 X93.147 Y16.580 E2.16795
G1 X96.980 Y15.404 E2.17990
G1 X100.849 Y14.349 E2.19186
G1 X104.748 Y13.416 E2.20381
G1 X108.676 Y12.606 E2.21577
G1 X112.626 Y11.919 E2.22773
G1 X116.597 Y11.357 E2.23968
G1 X120.583 Y10.920 E2.25164
G1 X124.390 Y10.620 E2.26303
G1 X127.214 Y10.484 E2.27145
G1 X128.351 Y10.537 E2.27485
G1 X133.351 Y11.244 E2.28990
G1 X135.434 Y11.939 E2.29645
G1 X137.134 Y13.329 E2.30300
G1 X138.230 Y15.232 E2.30955
G1 X138.580 Y17.264 E2.31570
G1 X138.580 Y21.424 E2.32810
G1 X138.183 Y23.584 E2.33465
G1 X136.922 Y25.597 E2.34173
G1 X26.922 Y142.179 E2.81965
G1 X25.151 Y143.478 E2.82620
G1 X22.500 Y144.086 E2.83431
G1 X17.500 Y144.086 E2.84921
G1 X15.340 Y143.690 E2.85576
G1 X13.462 Y142.551 E2.86231
G1 X12.110 Y140.820 E2.86886
G1 X11.420 Y138.007 E2.87750
G1 X11.420 Y98.644 E2.99486
G1 X11.748 Y96.675 E3.00081
G1 X12.434 Y94.679 E3.00711
G1 X13.854 Y90.929 E3.01906
G1 X15.392 Y87.225 E3.03102
G1 X17.045 Y83.572 E3.04298
G1 X18.726 Y80.141 E3.05437
G1 X19.453 Y78.761 E3.05902
G1 X24.777 Y69.531 E3.09079
G1 X26.982 Y66.181 E3.10275
G1 X29.290 Y62.902 E3.11470
G1 X31.583 Y59.848 E3.12609
G1 X34.088 Y56.717 E3.13805
G1 X36.690 Y53.666 E3.15000
G1 X39.386 Y50.698 E3.16196
G1 X42.174 Y47.816 E3.17392
G1 X44.998 Y45.076 E3.18565
G1 E1.18565 F2400.00000
G92 E0
G1 X67.749 Y36.431 F7800.000
G1 E2.00000 F2400.00000
G1 F1800.000
G1 X71.184 Y34.326 E2.01201
G1 X74.471 Y32.452 E2.02329
G1 X76.917 Y31.156 E2.03155
G1 X76.505 Y30.444 E2.03400
G1 X77.442 Y29.948 E2.03716
G1 X80.863 Y28.272 E2.04852
G1 X84.335 Y26.704 E2.05988
G1 X87.855 Y25.246 E2.07124
G1 X91.419 Y23.900 E2.08260
G1 X95.023 Y22.666 E2.09396
G1 X98.665 Y21.545 E2.10532
G1 X102.340 Y20.540 E2.11668
G1 X106.044 Y19.651 E2.12804
G1 X109.775 Y18.878 E2.13940
G1 X113.528 Y18.223 E2.15076
G1 X117.300 Y17.686 E2.16211
G1 X121.087 Y17.268 E2.17347
G1 X124.885 Y16.969 E2.18483
G1 X127.211 Y16.860 E2.19178
G1 X127.211 Y17.683 E2.19423
G1 X128.716 Y17.612 E2.19872
G1 X132.211 Y17.557 E2.20915
G1 X132.211 Y21.140 E2.21983
G1 X128.829 Y21.193 E2.22992
G1 X125.162 Y21.366 E2.24087
G1 X121.501 Y21.654 E2.25181
G1 X117.852 Y22.057 E2.26276
G1 X114.217 Y22.575 E2.27371
G1 X110.601 Y23.206 E2.28465
G1 X107.005 Y23.950 E2.29560
G1 X103.435 Y24.807 E2.30655
G1 X99.894 Y25.776 E2.31749
G1 X96.385 Y26.856 E2.32844
G1 X92.911 Y28.045 E2.33939
G1 X89.477 Y29.343 E2.35034
G1 X86.085 Y30.748 E2.36128
G1 X82.739 Y32.259 E2.37223
G1 X79.442 Y33.874 E2.38318
G1 X76.197 Y35.592 E2.39412
G1 X73.008 Y37.411 E2.40507
G1 X69.877 Y39.329 E2.41602
G1 X66.809 Y41.345 E2.42696
G1 X63.805 Y43.456 E2.43791
G1 X60.869 Y45.660 E2.44886
G1 X58.004 Y47.956 E2.45981
G1 X55.212 Y50.341 E2.47075
G1 X52.496 Y52.811 E2.48170
G1 X49.860 Y55.366 E2.49265
G1 X47.305 Y58.003 E2.50359
G1 X44.834 Y60.718 E2.51454
G1 X42.449 Y63.510 E2.52549
G1 X40.154 Y66.376 E2.53644
G1 X37.950 Y69.312 E2.54738
G1 X35.838 Y72.315 E2.55833
G1 X33.823 Y75.384 E2.56928
G1 X32.091 Y78.210 E2.57916
G1 X30.085 Y81.703 E2.59117
G1 X28.368 Y84.948 E2.60212
G1 X26.752 Y88.245 E2.61306
G1 X25.241 Y91.592 E2.62401
G1 X23.836 Y94.984 E2.63496
G1 X22.539 Y98.418 E2.64590
G1 X22.211 Y99.373 E2.64891
G1 X22.211 Y121.978 E2.71631
G1 X18.011 Y121.978 E2.72884
G1 X18.011 Y137.495 E2.77510
G1 X22.211 Y137.495 E2.78763
G1 X22.211 Y137.718 E2.78829
G1 X17.789 Y137.718 E2.80148
G1 X17.789 Y98.692 E2.91784
G1 X18.393 Y96.926 E2.92341
G1 X19.740 Y93.362 E2.93477
G1 X21.197 Y89.842 E2.94613
G1 X22.766 Y86.370 E2.95749
G1 X24.442 Y82.948 E2.96885
G1 X24.938 Y82.012 E2.97201
G1 X25.650 Y82.423 E2.97446
G1 X26.945 Y79.977 E2.98271
G1 X28.820 Y76.690 E2.99399
G1 X30.925 Y73.255 E3.00601
G1 X30.221 Y72.849 E3.00843
G1 X32.195 Y69.839 E3.01916
G1 X34.385 Y66.722 E3.03052
G1 X36.673 Y63.675 E3.04188
G1 X39.055 Y60.702 E3.05324
G1 X41.529 Y57.805 E3.06460
G1 X44.093 Y54.987 E3.07596
G1 X46.745 Y52.251 E3.08732
G1 X49.480 Y49.600 E3.09868
G1 X52.298 Y47.036 E3.11004
G1 X55.195 Y44.561 E3.12140
G1 X58.169 Y42.179 E3.13276
G1 X61.215 Y39.892 E3.14412
G1 X64.332 Y37.701 E3.15548
G1 X67.342 Y35.727 E3.16621
G1 X67.711 Y36.366 E3.16841
G1 X67.777 Y36.321 F7800.000
G1 F1800.000
G1 X71.143 Y34.258 E3.18018
G1 X74.432 Y32.382 E3.19147
G1 X76.806 Y31.125 E3.19948
G1 X76.395 Y30.412 E3.20193
G1 X77.405 Y29.877 E3.20534
G1 X80.829 Y28.200 E3.21671
G1 X84.304 Y26.631 E3.22808
G1 X87.826 Y25.172 E3.23944
G1 X91.392 Y23.825 E3.25081
G1 X94.999 Y22.590 E3.26218
G1 X98.643 Y21.469 E3.27355
G1 X102.320 Y20.463 E3.28491
G1 X106.027 Y19.573 E3.29628
G1 X109.760 Y18.800 E3.30765
G1 X113.516 Y18.144 E3.31901
G1 X117.290 Y17.607 E3.33038
G1 X121.079 Y17.189 E3.34175
G1 X124.880 Y16.890 E3.35312
G1 X127.291 Y16.776 E3.36031
G1 X127.291 Y17.599 E3.36277
G1 X128.714 Y17.532 E3.36701
G1 X132.291 Y17.476 E3.37768
G1 X132.291 Y21.219 E3.38884
G1 X128.831 Y21.273 E3.39916
G1 X125.167 Y21.446 E3.41010
G1 X121.509 Y21.734 E3.42104
G1 X117.862 Y22.136 E3.43198
G1 X114.230 Y22.653 E3.44292
G1 X110.616 Y23.284 E3.45386
G1 X107.023 Y24.028 E3.46480
G1 X103.455 Y24.885 E3.47574
G1 X99.916 Y25.853 E3.48667
G1 X96.410 Y26.932 E3.49761
G1 X92.938 Y28.120 E3.50855
G1 X89.506 Y29.417 E3.51949
G1 X86.117 Y30.821 E3.53043
G1 X82.773 Y32.331 E3.54137
G1 X79.478 Y33.945 E3.55231
G1 X76.235 Y35.662 E3.56325
G1 X73.048 Y37.480 E3.57419
G1 X69.920 Y39.397 E3.58513
G1 X66.854 Y41.411 E3.59607
G1 X63.852 Y43.521 E3.60701
G1 X60.918 Y45.723 E3.61795
G1 X58.054 Y48.017 E3.62889
G1 X55.265 Y50.400 E3.63983
G1 X52.551 Y52.870 E3.65077
G1 X49.916 Y55.423 E3.66171
G1 X47.363 Y58.058 E3.67265
G1 X44.894 Y60.771 E3.68359
G1 X42.511 Y63.561 E3.69453
G1 X40.217 Y66.425 E3.70547
G1 X38.014 Y69.358 E3.71641
G1 X35.904 Y72.360 E3.72735
G1 X33.890 Y75.427 E3.73828
G1 X32.159 Y78.251 E3.74816
G1 X30.155 Y81.742 E3.76016
G1 X28.439 Y84.984 E3.77110
G1 X26.825 Y88.279 E3.78204
G1 X25.314 Y91.623 E3.79298
G1 X23.910 Y95.013 E3.80392
G1 X22.614 Y98.445 E3.81486
G1 X22.291 Y99.386 E3.81783
G1 X22.291 Y122.058 E3.88543
G1 X18.091 Y122.058 E3.89795
G1 X18.091 Y137.415 E3.94374
G1 X22.291 Y137.415 E3.95626
G1 X22.291 Y137.798 E3.95740
G1 X17.709 Y137.798 E3.97107
G1 X17.709 Y98.678 E4.08771
G1 X18.318 Y96.899 E4.09332
G1 X19.666 Y93.332 E4.10468
G1 X21.124 Y89.810 E4.11605
G1 X22.694 Y86.336 E4.12742
G1 X24.371 Y82.912 E4.13878
G1 X24.906 Y81.902 E4.14219
G1 X25.618 Y82.313 E4.14465
G1 X26.875 Y79.939 E4.15265
G1 X28.752 Y76.650 E4.16395
G1 X30.814 Y73.283 E4.17572
G1 X30.108 Y72.876 E4.17815
G1 X32.129 Y69.794 E4.18914
G1 X34.321 Y66.675 E4.20050
G1 X36.610 Y63.626 E4.21187
G1 X38.993 Y60.651 E4.22324
G1 X41.469 Y57.752 E4.23460
G1 X44.035 Y54.932 E4.24597
G1 X46.688 Y52.195 E4.25734
G1 X49.426 Y49.542 E4.26871
G1 X52.246 Y46.976 E4.28007
G1 X55.145 Y44.500 E4.29144
G1 X58.120 Y42.116 E4.30281
G1 X61.169 Y39.827 E4.31417
G1 X64.288 Y37.635 E4.32554
G1 X67.369 Y35.614 E4.33653
G1 X67.739 Y36.256 E4.33874
G1 X67.805 Y36.210 F7800.000
G1 F1800.000
G1 X71.103 Y34.189 E4.35027
G1 X74.394 Y32.312 E4.36157
G1 X76.696 Y31.093 E4.36933
G1 X76.285 Y30.381 E4.37179
G1 X77.369 Y29.806 E4.37544
G1 X80.795 Y28.128 E4.38682
G1 X84.272 Y26.558 E4.39819
G1 X87.796 Y25.098 E4.40957
G1 X91.365 Y23.750 E4.42094
G1 X94.974 Y22.514 E4.43232
G1 X98.620 Y21.392 E4.44369
G1 X102.300 Y20.386 E4.45507
G1 X106.010 Y19.495 E4.46644
G1 X109.745 Y18.722 E4.47782
G1 X113.503 Y18.066 E4.48919
G1 X117.280 Y17.528 E4.50057
G1 X121.072 Y17.110 E4.51194
G1 X124.875 Y16.810 E4.52332
G1 X127.371 Y16.693 E4.53077
G1 X127.371 Y17.515 E4.53322
G1 X128.711 Y17.452 E4.53722
G1 X132.371 Y17.395 E4.54813
G1 X132.371 Y21.297 E4.55977
G1 X128.834 Y21.353 E4.57032
G1 X125.172 Y21.525 E4.58125
G1 X121.516 Y21.813 E4.59218
G1 X117.872 Y22.215 E4.60311
G1 X114.242 Y22.732 E4.61404
G1 X110.630 Y23.362 E4.62498
G1 X107.040 Y24.106 E4.63591
G1 X103.475 Y24.962 E4.64684
G1 X99.939 Y25.929 E4.65777
G1 X96.434 Y27.007 E4.66870
G1 X92.965 Y28.195 E4.67964
G1 X89.536 Y29.491 E4.69057
G1 X86.148 Y30.894 E4.70150
G1 X82.807 Y32.403 E4.71243
G1 X79.514 Y34.016 E4.72336
G1 X76.274 Y35.732 E4.73430
G1 X73.089 Y37.548 E4.74523
G1 X69.963 Y39.464 E4.75616
G1 X66.898 Y41.477 E4.76709
G1 X63.899 Y43.585 E4.77802
G1 X60.967 Y45.786 E4.78896
G1 X58.105 Y48.079 E4.79989
G1 X55.317 Y50.460 E4.81082
G1 X52.605 Y52.928 E4.82175
G1 X49.973 Y55.479 E4.83269
G1 X47.421 Y58.112 E4.84362
G1 X44.953 Y60.824 E4.85455
G1 X42.572 Y63.612 E4.86548
G1 X40.280 Y66.473 E4.87641
G1 X38.078 Y69.405 E4.88735
G1 X35.970 Y72.405 E4.89828
G1 X33.957 Y75.469 E4.90921
G1 X32.228 Y78.292 E4.91908
G1 X30.225 Y81.780 E4.93107
G1 X28.510 Y85.021 E4.94201
G1 X26.897 Y88.313 E4.95294
G1 X25.387 Y91.655 E4.96387
G1 X23.984 Y95.042 E4.97480
G1 X22.689 Y98.472 E4.98573
G1 X22.371 Y99.400 E4.98866
G1 X22.371 Y122.137 E5.05645
G1 X18.171 Y122.137 E5.06898
G1 X18.171 Y137.336 E5.11429
G1 X22.371 Y137.336 E5.12682
G1 X22.371 Y137.877 E5.12843
G1 X17.629 Y137.877 E5.14257
G1 X17.629 Y98.665 E5.25949
G1 X18.243 Y96.872 E5.26514
G1 X19.592 Y93.303 E5.27651
G1 X21.051 Y89.779 E5.28789
G1 X22.621 Y86.302 E5.29926
G1 X24.300 Y82.876 E5.31064
G1 X24.874 Y81.791 E5.31430
G1 X25.586 Y82.203 E5.31675
G1 X26.805 Y79.900 E5.32452
G1 X28.683 Y76.609 E5.33581
G1 X30.703 Y73.312 E5.34734
G1 X29.995 Y72.903 E5.34978
G1 X32.063 Y69.749 E5.36103
G1 X34.256 Y66.628 E5.37240
G1 X36.547 Y63.578 E5.38378
G1 X38.932 Y60.600 E5.39515
G1 X41.410 Y57.700 E5.40653
G1 X43.977 Y54.878 E5.41790
G1 X46.632 Y52.138 E5.42927
G1 X49.371 Y49.484 E5.44065
G1 X52.193 Y46.916 E5.45202
G1 X55.094 Y44.439 E5.46340
G1 X58.071 Y42.053 E5.47477
G1 X61.122 Y39.763 E5.48615
G1 X64.243 Y37.569 E5.49752
G1 X67.396 Y35.501 E5.50876
G1 X67.767 Y36.145 E5.51098
G1 X67.833 Y36.099 F7800.000
G1 F1800.000
G1 X71.062 Y34.121 E5.52227
G1 X74.355 Y32.242 E5.53358
G1 X76.586 Y31.061 E5.54110
G1 X76.174 Y30.349 E5.54355
G1 X77.333 Y29.735 E5.54746
G1 X80.761 Y28.056 E5.55885
G1 X84.240 Y26.485 E5.57023
G1 X87.767 Y25.024 E5.58161
G1 X91.338 Y23.675 E5.59299
G1 X94.950 Y22.438 E5.60437
G1 X98.598 Y21.316 E5.61576
G1 X102.280 Y20.309 E5.62714
G1 X105.992 Y19.417 E5.63852
G1 X109.730 Y18.643 E5.64990
G1 X113.491 Y17.987 E5.66128
G1 X117.270 Y17.449 E5.67267
G1 X121.064 Y17.030 E5.68405
G1 X124.870 Y16.731 E5.69543
G1 X127.450 Y16.609 E5.70313
G1 X127.450 Y17.432 E5.70559
G1 X128.709 Y17.373 E5.70934
G1 X132.450 Y17.314 E5.72050
G1 X132.450 Y21.376 E5.73261
G1 X128.836 Y21.432 E5.74339
G1 X125.177 Y21.605 E5.75431
G1 X121.524 Y21.892 E5.76524
G1 X117.882 Y22.295 E5.77616
G1 X114.255 Y22.811 E5.78709
G1 X110.645 Y23.441 E5.79801
G1 X107.058 Y24.184 E5.80894
G1 X103.495 Y25.039 E5.81986
G1 X99.961 Y26.006 E5.83079
G1 X96.459 Y27.083 E5.84171
G1 X92.992 Y28.270 E5.85263
G1 X89.565 Y29.565 E5.86356
G1 X86.180 Y30.967 E5.87448
G1 X82.841 Y32.475 E5.88541
G1 X79.550 Y34.087 E5.89633
G1 X76.312 Y35.801 E5.90726
G1 X73.130 Y37.617 E5.91818
G1 X70.006 Y39.531 E5.92911
G1 X66.943 Y41.543 E5.94003
G1 X63.946 Y43.650 E5.95096
G1 X61.016 Y45.849 E5.96188
G1 X58.156 Y48.140 E5.97281
G1 X55.370 Y50.520 E5.98373
G1 X52.660 Y52.986 E5.99466
G1 X50.029 Y55.535 E6.00558
G1 X47.479 Y58.167 E6.01650
G1 X45.013 Y60.877 E6.02743
G1 X42.634 Y63.663 E6.03835
G1 X40.343 Y66.522 E6.04928
G1 X38.143 Y69.452 E6.06020
G1 X36.036 Y72.450 E6.07113
G1 X34.025 Y75.512 E6.08205
G1 X32.296 Y78.332 E6.09191
G1 X30.294 Y81.819 E6.10390
G1 X28.581 Y85.057 E6.11482
G1 X26.969 Y88.347 E6.12575
G1 X25.460 Y91.687 E6.13668
G1 X24.059 Y95.072 E6.14760
G1 X22.764 Y98.499 E6.15852
G1 X22.450 Y99.413 E6.16140
G1 X22.450 Y122.217 E6.22940
G1 X18.251 Y122.217 E6.24192
G1 X18.251 Y137.256 E6.28676
G1 X22.450 Y137.256 E6.29929
G1 X22.450 Y137.957 E6.30138
G1 X17.549 Y137.957 E6.31599
G1 X17.549 Y98.652 E6.43318
G1 X18.168 Y96.845 E6.43888
G1 X19.517 Y93.274 E6.45026
G1 X20.978 Y89.747 E6.46164
G1 X22.549 Y86.268 E6.47303
G1 X24.229 Y82.840 E6.48441
G1 X24.842 Y81.681 E6.48832
G1 X25.554 Y82.092 E6.49077
G1 X26.735 Y79.862 E6.49829
G1 X28.614 Y76.569 E6.50960
G1 X30.593 Y73.340 E6.52089
G1 X29.882 Y72.929 E6.52334
G1 X31.997 Y69.705 E6.53483
G1 X34.192 Y66.581 E6.54622
G1 X36.484 Y63.529 E6.55760
G1 X38.871 Y60.550 E6.56898
G1 X41.350 Y57.647 E6.58036
G1 X43.919 Y54.823 E6.59175
G1 X46.575 Y52.082 E6.60313
G1 X49.317 Y49.426 E6.61451
G1 X52.140 Y46.856 E6.62589
G1 X55.043 Y44.377 E6.63727
G1 X58.022 Y41.990 E6.64866
G1 X61.075 Y39.698 E6.66004
G1 X64.198 Y37.503 E6.67142
G1 X67.423 Y35.389 E6.68292
G1 X67.796 Y36.034 E6.68514
G1 X68.257 Y36.364 F7800.000
G1 E4.68514 F2400.00000
G92 E0
G1 X66.983 Y41.146 F7800.000
G1 E2.00000 F2400.00000
G1 F1800.000
G1 X76.874 Y31.254 E2.04173
G1 X76.635 Y31.381 E2.04254
G1 X66.642 Y41.374 E2.08470
G1 X66.263 Y41.641 E2.08608
G1 X76.395 Y31.508 E2.12883
G1 X76.156 Y31.635 E2.12964
G1 X65.883 Y41.907 E2.17298
G1 X65.504 Y42.174 E2.17436
G1 X75.916 Y31.762 E2.21829
G1 X75.676 Y31.889 E2.21910
G1 X65.124 Y42.441 E2.26362
G1 X64.745 Y42.707 E2.26500
G1 X75.437 Y32.016 E2.31011
G1 X75.197 Y32.142 E2.31092
G1 X64.365 Y42.974 E2.35662
G1 X63.986 Y43.241 E2.35800
G1 X74.957 Y32.269 E2.40429
G1 X74.718 Y32.396 E2.40510
G1 X63.583 Y43.531 E2.45208
G1 X63.131 Y43.870 E2.45377
G1 X74.472 Y32.529 E2.50162
G1 X74.210 Y32.679 E2.50252
G1 X62.678 Y44.210 E2.55117
G1 X62.226 Y44.550 E2.55286
G1 X73.947 Y32.828 E2.60231
G1 X73.685 Y32.978 E2.60321
G1 X61.773 Y44.890 E2.65346
G1 X61.321 Y45.229 E2.65515
G1 X73.422 Y33.128 E2.70621
G1 X73.160 Y33.278 E2.70711
G1 X60.868 Y45.569 E2.75897
G1 X60.321 Y46.003 E2.76105
G1 X72.897 Y33.427 E2.81411
G1 X72.635 Y33.577 E2.81501
G1 X59.754 Y46.458 E2.86935
G1 X59.187 Y46.912 E2.87152
G1 X72.373 Y33.727 E2.92715
G1 X72.110 Y33.876 E2.92805
G1 X58.620 Y47.366 E2.98496
G1 X58.054 Y47.820 E2.98713
G1 X71.848 Y34.026 E3.04533
G1 X71.585 Y34.176 E3.04623
G1 X57.328 Y48.432 E3.10638
G1 X56.556 Y49.093 E3.10941
G1 X71.323 Y34.326 E3.17171
G1 X71.039 Y34.497 E3.17270
G1 X55.783 Y49.753 E3.23706
G1 X54.937 Y50.486 E3.24040
G1 X70.748 Y34.675 E3.30711
G1 X70.456 Y34.854 E3.30813
G1 X53.685 Y51.625 E3.37889
G1 X52.433 Y52.764 E3.38394
G1 X70.165 Y35.032 E3.45875
G1 X69.874 Y35.210 E3.45977
G1 X29.704 Y75.380 E3.62924
G1 X29.883 Y75.089 E3.63026
G1 X69.583 Y35.389 E3.79776
G1 X69.292 Y35.567 E3.79877
G1 X30.061 Y74.798 E3.96429
G1 X30.239 Y74.507 E3.96531
G1 X69.000 Y35.746 E4.12884
G1 X68.709 Y35.924 E4.12986
G1 X30.418 Y74.216 E4.29141
G1 X30.596 Y73.925 E4.29243
G1 X68.418 Y36.103 E4.45200
G1 X68.127 Y36.281 E4.45302
G1 X30.774 Y73.634 E4.61061
G1 X30.952 Y73.343 E4.61163
G1 X67.836 Y36.459 E4.76724
G1 X67.752 Y36.511 E4.76753
G1 X67.722 Y36.460 E4.76771
G1 X30.953 Y73.229 E4.92284
G1 X30.882 Y73.188 E4.92308
G1 X67.681 Y36.389 E5.07834
G1 X67.640 Y36.317 E5.07858
G1 X30.810 Y73.146 E5.23396
G1 X30.739 Y73.105 E5.23421
G1 X67.598 Y36.246 E5.38972
G1 X67.557 Y36.174 E5.38997
G1 X30.668 Y73.064 E5.54560
G1 X30.596 Y73.023 E5.54585
