; generated by Slic3r 1.3.1-dev (Build 2ef957d) on 2019-11-25 at 09:24:51

; external perimeters extrusion width = 0.55mm (4.37mm^3/s)
; perimeters extrusion width = 0.70mm (11.44mm^3/s)
; infill extrusion width = 0.62mm (13.45mm^3/s)
; solid infill extrusion width = 0.70mm (3.81mm^3/s)
; top infill extrusion width = 0.70mm (2.86mm^3/s)

M107
G92 E0
M104 S200 ; set temperature
G28 ; home all axes
G1 Z5 F5000 ; lift nozzle

; Filament gcode

M109 S200 ; set temperature and wait for it to be reached
G21 ; set units to millimeters
G90 ; use absolute coordinates
M82 ; use absolute distances for extrusion
G92 E0
G1 Z0.350 F7800.000
G1 E-2.00000 F2400.00000
G92 E0
G1 X31.668 Y65.274 F7800.000
G1 E2.00000 F2400.00000
G1 F1800.000
G1 X33.770 Y64.490 E2.06939
G1 X35.710 Y64.127 E2.13048
G1 X45.785 Y62.397 E2.44678
G1 X79.192 Y56.719 E3.49527
G1 X80.301 Y56.625 E3.52969
G1 X159.699 Y56.625 E5.98637
G1 X161.958 Y57.022 E6.05733
G1 X163.946 Y58.165 E6.12830
G1 X165.425 Y59.918 E6.19926
G1 X166.284 Y62.519 E6.28400
G1 X171.584 Y110.269 E7.77053
G1 X171.625 Y111.000 E7.79318
G1 X171.625 Y129.000 E8.35012
G1 X171.228 Y131.259 E8.42108
G1 X170.085 Y133.247 E8.49205
G1 X168.332 Y134.726 E8.56301
G1 X166.230 Y135.510 E8.63240
G1 X164.278 Y135.875 E8.69387
G1 X159.634 Y136.678 E8.83969
G1 X120.808 Y143.281 E10.05827
G1 X119.699 Y143.375 E10.09269
G1 X40.301 Y143.375 E12.54938
G1 X38.042 Y142.978 E12.62034
G1 X36.054 Y141.835 E12.69131
G1 X34.575 Y140.082 E12.76227
G1 X33.716 Y137.481 E12.84701
G1 X28.416 Y89.731 E14.33354
G1 X28.375 Y89.000 E14.35619
G1 X28.375 Y71.000 E14.91313
G1 X28.772 Y68.741 E14.98409
G1 X29.915 Y66.753 E15.05505
G1 X31.611 Y65.322 E15.12370
G1 E13.12370 F2400.00000
G92 E0
G1 X131.600 Y127.600 F7800.000
G1 E2.00000 F2400.00000
G1 F1800.000
G1 X131.600 Y112.400 E2.47029
G1 X111.901 Y112.400 E3.07981
G1 X111.901 Y104.850 E3.31343
G1 X119.564 Y104.850 E3.55056
G1 X158.248 Y111.429 E4.76467
G1 X163.400 Y112.328 E4.92649
G1 X163.400 Y127.672 E5.40125
G1 X158.248 Y128.571 E5.56307
G1 X119.564 Y135.150 E6.77719
G1 X111.901 Y135.150 E7.01431
G1 X111.901 Y127.600 E7.24793
G1 X131.525 Y127.600 E7.85513
G1 X130.975 Y126.975 F7800.000
G1 F1800.000
G1 X130.975 Y113.025 E8.28675
G1 X111.276 Y113.025 E8.89627
G1 X111.276 Y104.225 E9.16856
G1 X119.617 Y104.225 E9.42665
G1 X158.354 Y110.813 E10.64243
G1 X164.025 Y111.809 E10.82059
G1 X164.025 Y128.191 E11.32745
G1 X158.354 Y129.187 E11.50561
G1 X119.617 Y135.775 E12.72140
G1 X111.276 Y135.775 E12.97948
G1 X111.276 Y126.975 E13.25177
G1 X130.900 Y126.975 E13.85897
G1 X130.350 Y126.350 F7800.000
G1 F1800.000
G1 X130.350 Y113.650 E14.25192
G1 X110.651 Y113.650 E14.86144
G1 X110.651 Y103.600 E15.17240
G1 X119.670 Y103.600 E15.45145
G1 X158.460 Y110.197 E16.66890
G1 X163.066 Y110.994 E16.81354
G1 X164.650 Y111.291 E16.86341
G1 X164.650 Y128.709 E17.40237
G1 X163.066 Y129.006 E17.45224
G1 X158.460 Y129.803 E17.59688
G1 X119.670 Y136.400 E18.81432
G1 X110.651 Y136.400 E19.09338
G1 X110.651 Y126.350 E19.40434
G1 X130.275 Y126.350 E20.01153
G1 X130.844 Y126.272 F7800.000
G1 E18.01153 F2400.00000
G92 E0
G1 X131.982 Y127.751 F7800.000
G1 E2.00000 F2400.00000
G1 F1800.000
G1 X149.451 Y110.282 E2.76803
G1 X148.692 Y110.153 E2.79196
G1 X131.982 Y126.863 E3.52663
G1 X131.982 Y125.975 E3.55423
G1 X147.933 Y110.024 E4.25554
G1 X147.174 Y109.895 E4.27947
G1 X131.982 Y125.087 E4.94742
G1 X131.982 Y124.199 E4.97502
G1 X146.415 Y109.765 E5.60960
G1 X145.657 Y109.636 E5.63353
G1 X131.982 Y123.311 E6.23475
G1 X131.982 Y122.423 E6.26236
G1 X144.898 Y109.507 E6.83022
G1 X144.139 Y109.378 E6.85415
G1 X131.982 Y121.535 E7.38864
G1 X131.982 Y120.648 E7.41625
G1 X143.380 Y109.249 E7.91738
G1 X142.621 Y109.120 E7.94131
G1 X131.982 Y119.760 E8.40909
G1 X131.982 Y118.872 E8.43669
G1 X141.862 Y108.991 E8.87110
G1 X141.104 Y108.862 E8.89503
G1 X131.982 Y117.984 E9.29608
G1 X131.982 Y117.096 E9.32369
G1 X140.345 Y108.733 E9.69138
G1 X139.586 Y108.604 E9.71531
G1 X131.982 Y116.208 E10.04963
G1 X131.982 Y115.320 E10.07724
G1 X138.827 Y108.475 E10.37820
G1 X138.068 Y108.345 E10.40213
G1 X131.982 Y114.432 E10.66973
G1 X131.982 Y113.544 E10.69734
G1 X137.310 Y108.216 E10.93158
G1 X136.551 Y108.087 E10.95551
G1 X131.982 Y112.656 E11.15639
G1 X131.982 Y112.018 E11.17622
G1 X131.732 Y112.018 E11.18399
G1 X135.792 Y107.958 E11.36250
G1 X135.033 Y107.829 E11.38643
G1 X130.844 Y112.018 E11.57061
G1 X129.956 Y112.018 E11.59822
G1 X134.274 Y107.700 E11.78808
G1 X133.515 Y107.571 E11.81201
G1 X129.068 Y112.018 E12.00754
G1 X128.180 Y112.018 E12.03514
G1 X132.757 Y107.442 E12.23636
G1 X131.998 Y107.313 E12.26028
G1 X127.292 Y112.018 E12.46717
G1 X126.404 Y112.018 E12.49477
G1 X131.239 Y107.184 E12.70734
G1 X130.480 Y107.055 E12.73127
G1 X125.516 Y112.018 E12.94950
G1 X124.628 Y112.018 E12.97711
G1 X129.721 Y106.925 E13.20102
G1 X128.962 Y106.796 E13.22495
G1 X123.740 Y112.018 E13.45454
G1 X122.852 Y112.018 E13.48214
G1 X128.204 Y106.667 E13.71741
G1 X127.445 Y106.538 E13.74134
G1 X121.965 Y112.018 E13.98228
G1 X121.077 Y112.018 E14.00988
G1 X126.686 Y106.409 E14.25650
G1 X125.927 Y106.280 E14.28042
G1 X120.189 Y112.018 E14.53272
G1 X119.301 Y112.018 E14.56032
G1 X125.168 Y106.151 E14.81829
G1 X124.409 Y106.022 E14.84222
G1 X118.413 Y112.018 E15.10586
G1 X117.525 Y112.018 E15.13346
G1 X123.651 Y105.893 E15.40277
G1 X122.891 Y105.764 E15.42671
G1 X116.637 Y112.018 E15.70169
G1 X115.749 Y112.018 E15.72929
G1 X122.132 Y105.635 E16.00993
G1 X121.373 Y105.506 E16.03387
G1 X114.861 Y112.018 E16.32017
G1 X113.973 Y112.018 E16.34777
G1 X120.614 Y105.377 E16.63974
G1 X119.855 Y105.249 E16.66368
G1 X113.085 Y112.018 E16.96131
G1 X112.282 Y112.018 E16.98627
G1 X112.282 Y111.933 E16.98891
G1 X118.984 Y105.232 E17.28356
G1 X118.096 Y105.232 E17.31116
G1 X112.282 Y111.045 E17.56676
G1 X112.282 Y110.157 E17.59437
G1 X117.208 Y105.232 E17.81093
G1 X116.320 Y105.232 E17.83854
G1 X112.282 Y109.270 E18.01607
G1 X112.282 Y108.382 E18.04367
G1 X115.433 Y105.232 E18.18216
G1 X114.545 Y105.232 E18.20977
G1 X112.282 Y107.494 E18.30922
G1 X112.282 Y106.606 E18.33682
G1 X113.657 Y105.232 E18.39724
G1 X112.769 Y105.232 E18.42484
G1 X112.283 Y105.718 E18.44621
G1 E16.44621 F2400.00000
G92 E0
G1 X112.619 Y128.468 F7800.000
G1 E2.00000 F2400.00000
G1 F1800.000
G1 X112.282 Y128.468 E2.01045
G1 X112.282 Y128.804 E2.02090
G1 X113.105 Y127.982 E2.05704
G1 X113.993 Y127.982 E2.08465
G1 X112.282 Y129.692 E2.15983
G1 X112.282 Y130.580 E2.18743
G1 X114.880 Y127.982 E2.30166
G1 X115.768 Y127.982 E2.32926
G1 X112.282 Y131.468 E2.48252
G1 X112.282 Y132.355 E2.51012
G1 X116.656 Y127.982 E2.70242
G1 X117.544 Y127.982 E2.73002
G1 X112.282 Y133.243 E2.96135
G1 X112.282 Y134.131 E2.98896
G1 X118.432 Y127.982 E3.25933
G1 X119.320 Y127.982 E3.28693
G1 X112.533 Y134.768 E3.58531
G1 X113.421 Y134.768 E3.61292
G1 X120.208 Y127.982 E3.91130
G1 X121.096 Y127.982 E3.93890
G1 X114.309 Y134.768 E4.23728
G1 X115.197 Y134.768 E4.26489
G1 X121.984 Y127.982 E4.56327
G1 X122.872 Y127.982 E4.59087
G1 X116.085 Y134.768 E4.88925
G1 X116.973 Y134.768 E4.91686
G1 X123.760 Y127.982 E5.21524
G1 X124.648 Y127.982 E5.24284
G1 X117.861 Y134.768 E5.54122
G1 X118.749 Y134.768 E5.56882
G1 X125.535 Y127.982 E5.86721
G1 X126.423 Y127.982 E5.89481
G1 X119.712 Y134.693 E6.18987
G1 X120.782 Y134.511 E6.22361
G1 X127.311 Y127.982 E6.51067
G1 X128.199 Y127.982 E6.53828
G1 X121.852 Y134.329 E6.81734
G1 X122.922 Y134.147 E6.85108
G1 X129.087 Y127.982 E7.12214
G1 X129.975 Y127.982 E7.14974
G1 X123.992 Y133.965 E7.41280
G1 X125.062 Y133.783 E7.44654
G1 X130.863 Y127.982 E7.70160
G1 X131.751 Y127.982 E7.72921
G1 X126.131 Y133.601 E7.97627
G1 X127.201 Y133.419 E8.01001
G1 X150.210 Y110.411 E9.02157
G1 X150.968 Y110.540 E9.04550
G1 X128.271 Y133.237 E10.04338
G1 X129.341 Y133.055 E10.07712
G1 X151.727 Y110.669 E11.06133
G1 X152.486 Y110.798 E11.08526
G1 X130.411 Y132.873 E12.05579
G1 X131.481 Y132.691 E12.08953
G1 X153.245 Y110.927 E13.04639
G1 X154.004 Y111.056 E13.07032
G1 X132.551 Y132.509 E14.01350
G1 X133.621 Y132.327 E14.04724
G1 X154.762 Y111.185 E14.97675
G1 X155.521 Y111.315 E15.00068
G1 X134.690 Y132.145 E15.91651
G1 X135.760 Y131.963 E15.95024
G1 X156.280 Y111.444 E16.85240
G1 X157.039 Y111.573 E16.87633
G1 X136.830 Y131.782 E17.76481
G1 X137.900 Y131.600 E17.79855
G1 X157.798 Y111.702 E18.67335
G1 X158.556 Y111.832 E18.69727
G1 X138.970 Y131.418 E19.55837
G1 X140.040 Y131.236 E19.59210
G1 X159.312 Y111.964 E20.43940
G1 X160.068 Y112.095 E20.46326
G1 X141.110 Y131.054 E21.29676
G1 X142.180 Y130.872 E21.33050
G1 X160.824 Y112.227 E22.15020
G1 X161.580 Y112.359 E22.17406
G1 X143.249 Y130.690 E22.97995
G1 X144.319 Y130.508 E23.01369
G1 X162.336 Y112.491 E23.80579
G1 X163.018 Y112.610 E23.82733
G1 X163.018 Y112.697 E23.83001
G1 X145.389 Y130.326 E24.60508
G1 X146.459 Y130.144 E24.63882
G1 X163.018 Y113.585 E25.36685
G1 X163.018 Y114.473 E25.39445
G1 X147.529 Y129.962 E26.07544
G1 X148.599 Y129.780 E26.10918
G1 X163.018 Y115.360 E26.74314
G1 X163.018 Y116.248 E26.77074
G1 X149.669 Y129.598 E27.35766
G1 X150.739 Y129.416 E27.39140
G1 X163.018 Y117.136 E27.93128
G1 X163.018 Y118.024 E27.95888
G1 X151.809 Y129.234 E28.45172
G1 X152.878 Y129.052 E28.48546
G1 X163.018 Y118.912 E28.93127
G1 X163.018 Y119.800 E28.95887
G1 X153.948 Y128.870 E29.35764
G1 X155.018 Y128.688 E29.39138
G1 X163.018 Y120.688 E29.74311
G1 X163.018 Y121.576 E29.77071
G1 X156.088 Y128.506 E30.07540
G1 X157.158 Y128.324 E30.10914
G1 X163.018 Y122.464 E30.36680
G1 X163.018 Y123.352 E30.39440
G1 X158.230 Y128.141 E30.60494
G1 X159.305 Y127.953 E30.63889
G1 X163.018 Y124.240 E30.80214
G1 X163.018 Y125.128 E30.82974
G1 X160.381 Y127.765 E30.94570
G1 X161.457 Y127.577 E30.97964
G1 X163.018 Y126.015 E31.04831
G1 X163.018 Y126.903 E31.07591
G1 X162.532 Y127.390 E31.09729
G1 E29.09729 F2400.00000
G92 E0
G1 X138.400 Y87.600 F7800.000
G1 E2.00000 F2400.00000
G1 F1800.000
G1 X158.099 Y87.600 E2.60952
G1 X158.099 Y95.150 E2.84314
G1 X150.436 Y95.150 E3.08026
G1 X111.752 Y88.571 E4.29438
G1 X106.600 Y87.672 E4.45620
G1 X106.600 Y72.328 E4.93095
G1 X111.752 Y71.429 E5.09277
G1 X150.436 Y64.850 E6.30690
G1 X158.099 Y64.850 E6.54402
G1 X158.099 Y72.400 E6.77764
G1 X138.400 Y72.400 E7.38715
G1 X138.400 Y87.525 E7.85513
G1 X139.025 Y86.975 F7800.000
G1 F1800.000
G1 X158.724 Y86.975 E8.46464
G1 X158.724 Y95.775 E8.73693
G1 X150.383 Y95.775 E8.99502
G1 X111.646 Y89.187 E10.21081
G1 X105.975 Y88.191 E10.38897
G1 X105.975 Y71.809 E10.89582
G1 X111.646 Y70.813 E11.07399
G1 X150.383 Y64.225 E12.28977
G1 X158.724 Y64.225 E12.54786
G1 X158.724 Y73.025 E12.82015
G1 X139.025 Y73.025 E13.42967
G1 X139.025 Y86.900 E13.85897
G1 X139.650 Y86.350 F7800.000
G1 F1800.000
G1 X159.349 Y86.350 E14.46849
G1 X159.349 Y96.400 E14.77945
G1 X150.330 Y96.400 E15.05850
G1 X111.540 Y89.803 E16.27595
G1 X106.934 Y89.006 E16.42058
G1 X105.350 Y88.709 E16.47045
G1 X105.350 Y71.291 E17.00942
G1 X106.934 Y70.994 E17.05929
G1 X111.540 Y70.197 E17.20393
G1 X150.330 Y63.600 E18.42137
G1 X159.349 Y63.600 E18.70042
G1 X159.349 Y73.650 E19.01138
G1 X139.650 Y73.650 E19.62090
G1 X139.650 Y86.275 E20.01154
G1 X139.487 Y86.823 F7800.000
G1 E18.01154 F2400.00000
G92 E0
G1 X137.532 Y72.735 F7800.000
G1 E2.00000 F2400.00000
G1 F1800.000
G1 X137.532 Y72.018 E2.02229
G1 X138.249 Y72.018 E2.04457
G1 X143.869 Y66.399 E2.29163
G1 X144.939 Y66.217 E2.32537
G1 X139.137 Y72.018 E2.58044
G1 X140.025 Y72.018 E2.60804
G1 X146.008 Y66.035 E2.87110
G1 X147.078 Y65.853 E2.90484
G1 X140.913 Y72.018 E3.17590
G1 X141.801 Y72.018 E3.20351
G1 X148.148 Y65.671 E3.48257
G1 X149.218 Y65.489 E3.51631
G1 X142.689 Y72.018 E3.80337
G1 X143.577 Y72.018 E3.83098
G1 X150.288 Y65.307 E4.12604
G1 X150.732 Y65.232 E4.14003
G1 X151.251 Y65.232 E4.15619
G1 X144.465 Y72.018 E4.45457
G1 X145.353 Y72.018 E4.48217
G1 X152.139 Y65.232 E4.78055
G1 X153.027 Y65.232 E4.80816
G1 X146.240 Y72.018 E5.10654
G1 X147.128 Y72.018 E5.13414
G1 X153.915 Y65.232 E5.43252
G1 X154.803 Y65.232 E5.46012
G1 X148.016 Y72.018 E5.75851
G1 X148.904 Y72.018 E5.78611
G1 X155.691 Y65.232 E6.08449
G1 X156.579 Y65.232 E6.11209
G1 X149.792 Y72.018 E6.41047
G1 X150.680 Y72.018 E6.43808
G1 X157.467 Y65.232 E6.73646
G1 X157.718 Y65.232 E6.74425
G1 X157.718 Y65.869 E6.76406
G1 X151.568 Y72.018 E7.03443
G1 X152.456 Y72.018 E7.06203
G1 X157.718 Y66.757 E7.29336
G1 X157.718 Y67.645 E7.32097
G1 X153.344 Y72.018 E7.51326
G1 X154.232 Y72.018 E7.54086
G1 X157.718 Y68.533 E7.69412
G1 X157.718 Y69.420 E7.72172
G1 X155.120 Y72.018 E7.83594
G1 X156.008 Y72.018 E7.86354
G1 X157.718 Y70.308 E7.93872
G1 X157.718 Y71.196 E7.96632
G1 X156.895 Y72.018 E8.00247
G1 E6.00247 F2400.00000
G92 E0
G1 X157.231 Y94.768 F7800.000
G1 E2.00000 F2400.00000
G1 F1800.000
G1 X157.718 Y94.282 E2.02138
G1 X157.718 Y93.394 E2.04898
G1 X156.343 Y94.768 E2.10939
G1 X155.455 Y94.768 E2.13700
G1 X157.718 Y92.506 E2.23645
G1 X157.718 Y91.618 E2.26405
G1 X154.568 Y94.768 E2.40254
G1 X153.680 Y94.768 E2.43014
G1 X157.718 Y90.731 E2.60767
G1 X157.718 Y89.843 E2.63527
G1 X152.792 Y94.768 E2.85183
G1 X151.904 Y94.768 E2.87944
G1 X157.718 Y88.955 E3.13504
G1 X157.718 Y88.067 E3.16264
G1 X151.016 Y94.768 E3.45728
G1 X150.246 Y94.768 E3.48122
G1 X150.145 Y94.751 E3.48439
G1 X156.915 Y87.982 E3.78202
G1 X156.027 Y87.982 E3.80963
G1 X149.386 Y94.622 E4.10158
G1 X148.627 Y94.493 E4.12551
G1 X155.139 Y87.982 E4.41179
G1 X154.251 Y87.982 E4.43940
G1 X147.869 Y94.364 E4.72000
G1 X147.110 Y94.235 E4.74393
G1 X153.363 Y87.982 E5.01886
G1 X152.475 Y87.982 E5.04647
G1 X146.351 Y94.106 E5.31573
G1 X145.592 Y93.977 E5.33966
G1 X151.587 Y87.982 E5.60324
G1 X150.699 Y87.982 E5.63084
G1 X144.833 Y93.848 E5.88875
G1 X144.074 Y93.719 E5.91268
G1 X149.811 Y87.982 E6.16492
G1 X148.923 Y87.982 E6.19252
G1 X143.315 Y93.590 E6.43908
G1 X142.557 Y93.461 E6.46301
G1 X148.036 Y87.982 E6.70390
G1 X147.148 Y87.982 E6.73150
G1 X141.798 Y93.332 E6.96671
G1 X141.039 Y93.203 E6.99064
G1 X146.260 Y87.982 E7.22018
G1 X145.372 Y87.982 E7.24778
G1 X140.280 Y93.073 E7.47165
G1 X139.521 Y92.944 E7.49558
G1 X144.484 Y87.982 E7.71376
G1 X143.596 Y87.982 E7.74137
G1 X138.762 Y92.815 E7.95388
G1 X138.003 Y92.686 E7.97781
G1 X142.708 Y87.982 E8.18465
G1 X141.820 Y87.982 E8.21226
G1 X137.245 Y92.557 E8.41342
G1 X136.486 Y92.428 E8.43735
G1 X140.932 Y87.982 E8.63285
G1 X140.044 Y87.982 E8.66045
G1 X135.727 Y92.299 E8.85027
G1 X134.968 Y92.170 E8.87420
G1 X139.156 Y87.982 E9.05834
G1 X138.268 Y87.982 E9.08594
G1 X134.209 Y92.041 E9.26441
G1 X133.450 Y91.912 E9.28834
G1 X138.018 Y87.344 E9.48918
G1 X138.018 Y86.456 E9.51678
G1 X132.691 Y91.783 E9.75098
G1 X131.933 Y91.654 E9.77491
G1 X138.018 Y85.568 E10.04248
G1 X138.018 Y84.680 E10.07008
G1 X131.174 Y91.525 E10.37101
G1 X130.415 Y91.396 E10.39494
G1 X138.018 Y83.792 E10.72923
G1 X138.018 Y82.904 E10.75683
G1 X129.656 Y91.267 E11.12448
G1 X128.897 Y91.138 E11.14841
G1 X138.018 Y82.016 E11.54943
G1 X138.018 Y81.128 E11.57703
G1 X128.138 Y91.008 E12.01141
G1 X127.379 Y90.879 E12.03534
G1 X138.018 Y80.240 E12.50309
G1 X138.018 Y79.353 E12.53069
G1 X126.621 Y90.750 E13.03180
G1 X125.862 Y90.621 E13.05573
G1 X138.018 Y78.465 E13.59020
G1 X138.018 Y77.577 E13.61780
G1 X125.103 Y90.492 E14.18563
G1 X124.344 Y90.363 E14.20956
G1 X138.018 Y76.689 E14.81076
G1 X138.018 Y75.801 E14.83836
G1 X123.585 Y90.234 E15.47292
G1 X122.826 Y90.105 E15.49685
G1 X138.018 Y74.913 E16.16477
G1 X138.018 Y74.025 E16.19237
G1 X122.067 Y89.976 E16.89366
G1 X121.309 Y89.847 E16.91759
G1 X138.018 Y73.137 E17.65224
G1 X138.018 Y72.249 E17.67984
G1 X120.550 Y89.718 E18.44785
G1 X119.791 Y89.589 E18.47178
G1 X142.799 Y66.581 E19.48333
G1 X141.729 Y66.763 E19.51707
G1 X119.032 Y89.460 E20.51494
G1 X118.273 Y89.331 E20.53887
G1 X140.659 Y66.945 E21.52307
G1 X139.589 Y67.127 E21.55681
G1 X117.514 Y89.202 E22.52733
G1 X116.755 Y89.072 E22.55126
G1 X138.519 Y67.309 E23.50811
G1 X137.449 Y67.491 E23.54185
G1 X115.997 Y88.943 E24.48503
G1 X115.238 Y88.814 E24.50896
G1 X136.380 Y67.673 E25.43846
G1 X135.310 Y67.855 E25.47220
G1 X114.479 Y88.685 E26.38803
G1 X113.720 Y88.556 E26.41196
G1 X134.240 Y68.037 E27.31411
