; Gcode updated with 'stl_info' on 2019-12-03 19:11:13.803858

; stl_min_x = -12.5
; stl_max_x = 12.5
; stl_min_y = -12.5
; stl_max_y = 12.5
; stl_min_z = -5.0

; generated by Slic3r 1.3.1-dev (Build adea0d9) on 2019-12-03 at 19:11:13

; external perimeters extrusion width = 0.55mm (1.90mm^3/s)
; perimeters extrusion width = 0.70mm (2.71mm^3/s)
; infill extrusion width = 0.62mm (2.41mm^3/s)
; solid infill extrusion width = 0.70mm (2.04mm^3/s)
; top infill extrusion width = 0.70mm (2.04mm^3/s)

M107
G92 E0
;D3D:START:START
T0
M104 S215 T0

G21
G90
M107
T0
G28
G29
M109 T0 S215 T0
G0 F3000
M107
T0
G92 E0
G0 X0 Y149 Z0.1 F3600
G1 Y49 E6.5 F1200
G0 Z1
G92 E0
; Filament gcode

G21 ; set units to millimeters
G90 ; use absolute coordinates
M82 ; use absolute distances for extrusion
G92 E0
G1 Z0.090 F7800.000
G1 E-2.00000 F2400.00000
G92 E0
G1 X57.955 Y58.462 F7800.000
G1 E2.00000 F2400.00000
G1 F1800.000
G1 X59.687 Y57.110 E2.00655
G1 X62.500 Y56.420 E2.01519
G1 X87.500 Y56.420 E2.08973
G1 X89.660 Y56.817 E2.09628
G1 X91.538 Y57.955 E2.10282
G1 X92.890 Y59.687 E2.10937
G1 X93.580 Y62.500 E2.11801
G1 X93.580 Y87.500 E2.19255
G1 X93.183 Y89.660 E2.19910
G1 X92.045 Y91.538 E2.20565
G1 X90.313 Y92.890 E2.21220
G1 X87.500 Y93.580 E2.22083
G1 X62.500 Y93.580 E2.29537
G1 X60.340 Y93.183 E2.30192
G1 X58.462 Y92.045 E2.30847
G1 X57.110 Y90.313 E2.31502
G1 X56.420 Y87.500 E2.32366
G1 X56.420 Y62.500 E2.39820
G1 X56.817 Y60.340 E2.40475
G1 X57.917 Y58.526 E2.41107
G1 E0.41107 F2400.00000
G92 E0
G1 X87.211 Y87.211 F7800.000
G1 E2.00000 F2400.00000
G1 F1800.000
G1 X62.789 Y87.211 E2.07282
G1 X62.789 Y62.789 E2.14564
G1 X87.211 Y62.789 E2.21846
G1 X87.211 Y87.136 E2.29106
G1 X87.291 Y87.291 F7800.000
G1 F1800.000
G1 X62.709 Y87.291 E2.36436
G1 X62.709 Y62.709 E2.43765
G1 X87.291 Y62.709 E2.51095
G1 X87.291 Y87.216 E2.58402
G1 X87.371 Y87.371 F7800.000
G1 F1800.000
G1 X62.629 Y87.371 E2.65779
G1 X62.629 Y62.629 E2.73156
G1 X87.371 Y62.629 E2.80533
G1 X87.371 Y87.296 E2.87888
G1 X87.451 Y87.451 F7800.000
G1 F1800.000
G1 X62.550 Y87.451 E2.95313
G1 X62.550 Y62.550 E3.02737
G1 X87.451 Y62.550 E3.10162
G1 X87.451 Y87.376 E3.17564
G1 X86.968 Y87.321 F7800.000
G1 X87.101 Y87.163 F7800.000
G1 F1800.000
G1 X87.163 Y87.101 E3.17590
G1 X87.163 Y86.988 E3.17624
G1 X86.988 Y87.163 E3.17698
G1 X86.875 Y87.163 E3.17732
G1 X87.163 Y86.875 E3.17853
G1 X87.163 Y86.762 E3.17887
G1 X86.762 Y87.163 E3.18056
G1 X86.649 Y87.163 E3.18090
G1 X87.163 Y86.649 E3.18307
G1 X87.163 Y86.536 E3.18340
G1 X86.536 Y87.163 E3.18605
G1 X86.424 Y87.163 E3.18638
G1 X87.163 Y86.424 E3.18951
G1 X87.163 Y86.311 E3.18984
G1 X86.311 Y87.163 E3.19344
G1 X86.198 Y87.163 E3.19378
G1 X87.163 Y86.198 E3.19785
G1 X87.163 Y86.085 E3.19819
G1 X86.085 Y87.163 E3.20274
G1 X85.972 Y87.163 E3.20308
G1 X87.163 Y85.972 E3.20811
G1 X87.163 Y85.859 E3.20844
G1 X85.859 Y87.163 E3.21395
G1 X85.746 Y87.163 E3.21428
G1 X87.163 Y85.746 E3.22026
G1 X87.163 Y85.634 E3.22060
G1 X85.634 Y87.163 E3.22706
G1 X85.521 Y87.163 E3.22740
G1 X87.163 Y85.521 E3.23433
G1 X87.163 Y85.408 E3.23467
G1 X85.408 Y87.163 E3.24208
G1 X85.295 Y87.163 E3.24241
G1 X87.163 Y85.295 E3.25030
G1 X87.163 Y85.182 E3.25064
G1 X85.182 Y87.163 E3.25900
G1 X85.069 Y87.163 E3.25934
G1 X87.163 Y85.069 E3.26818
G1 X87.163 Y84.956 E3.26852
G1 X84.956 Y87.163 E3.27783
G1 X84.844 Y87.163 E3.27817
G1 X87.163 Y84.844 E3.28796
G1 X87.163 Y84.731 E3.28830
G1 X84.731 Y87.163 E3.29857
G1 X84.618 Y87.163 E3.29891
G1 X87.163 Y84.618 E3.30965
G1 X87.163 Y84.505 E3.30999
G1 X84.505 Y87.163 E3.32121
G1 X84.392 Y87.163 E3.32155
G1 X87.163 Y84.392 E3.33325
G1 X87.163 Y84.279 E3.33359
G1 X84.279 Y87.163 E3.34576
G1 X84.166 Y87.163 E3.34610
G1 X87.163 Y84.166 E3.35875
G1 X87.163 Y84.054 E3.35909
G1 X84.054 Y87.163 E3.37222
G1 X83.941 Y87.163 E3.37255
G1 X87.163 Y83.941 E3.38616
G1 X87.163 Y83.828 E3.38650
G1 X83.828 Y87.163 E3.40058
G1 X83.715 Y87.163 E3.40092
G1 X87.163 Y83.715 E3.41547
G1 X87.163 Y83.602 E3.41581
G1 X83.602 Y87.163 E3.43085
G1 X83.489 Y87.163 E3.43118
G1 X87.163 Y83.489 E3.44669
G1 X87.163 Y83.377 E3.44703
G1 X83.377 Y87.163 E3.46302
G1 X83.264 Y87.163 E3.46336
G1 X87.163 Y83.264 E3.47982
G1 X87.163 Y83.151 E3.48016
G1 X83.151 Y87.163 E3.49710
G1 X83.038 Y87.163 E3.49744
G1 X87.163 Y83.038 E3.51485
G1 X87.163 Y82.925 E3.51519
G1 X82.925 Y87.163 E3.53309
G1 X82.812 Y87.163 E3.53342
G1 X87.163 Y82.812 E3.55179
G1 X87.163 Y82.699 E3.55213
G1 X82.699 Y87.163 E3.57098
G1 X82.587 Y87.163 E3.57132
G1 X87.163 Y82.587 E3.59064
G1 X87.163 Y82.474 E3.59098
G1 X82.474 Y87.163 E3.61078
G1 X82.361 Y87.163 E3.61111
G1 X87.163 Y82.361 E3.63139
G1 X87.163 Y82.248 E3.63173
G1 X82.248 Y87.163 E3.65248
G1 X82.135 Y87.163 E3.65282
G1 X87.163 Y82.135 E3.67405
G1 X87.163 Y82.022 E3.67439
G1 X82.022 Y87.163 E3.69609
G1 X81.909 Y87.163 E3.69643
G1 X87.163 Y81.909 E3.71861
G1 X87.163 Y81.797 E3.71895
G1 X81.797 Y87.163 E3.74161
G1 X81.684 Y87.163 E3.74195
G1 X87.163 Y81.684 E3.76508
G1 X87.163 Y81.571 E3.76542
G1 X81.571 Y87.163 E3.78903
G1 X81.458 Y87.163 E3.78937
G1 X87.163 Y81.458 E3.81346
G1 X87.163 Y81.345 E3.81380
G1 X81.345 Y87.163 E3.83836
G1 X81.232 Y87.163 E3.83870
G1 X87.163 Y81.232 E3.86374
G1 X87.163 Y81.119 E3.86408
G1 X81.119 Y87.163 E3.88960
G1 X81.007 Y87.163 E3.88993
G1 X87.163 Y81.007 E3.91593
G1 X87.163 Y80.894 E3.91627
G1 X80.894 Y87.163 E3.94274
G1 X80.781 Y87.163 E3.94308
G1 X87.163 Y80.781 E3.97002
G1 X87.163 Y80.668 E3.97036
G1 X80.668 Y87.163 E3.99779
G1 X80.555 Y87.163 E3.99812
G1 X87.163 Y80.555 E4.02603
G1 X87.163 Y80.442 E4.02636
G1 X80.442 Y87.163 E4.05474
G1 X80.329 Y87.163 E4.05508
G1 X87.163 Y80.329 E4.08393
G1 X87.163 Y80.217 E4.08427
G1 X80.217 Y87.163 E4.11360
G1 X80.104 Y87.163 E4.11394
G1 X87.163 Y80.104 E4.14375
G1 X87.163 Y79.991 E4.14408
G1 X79.991 Y87.163 E4.17437
G1 X79.878 Y87.163 E4.17470
G1 X87.163 Y79.878 E4.20547
G1 X87.163 Y79.765 E4.20580
G1 X79.765 Y87.163 E4.23704
G1 X79.652 Y87.163 E4.23738
G1 X87.163 Y79.652 E4.26909
G1 X87.163 Y79.540 E4.26943
G1 X79.540 Y87.163 E4.30162
G1 X79.427 Y87.163 E4.30196
G1 X87.163 Y79.427 E4.33462
G1 X87.163 Y79.314 E4.33496
G1 X79.314 Y87.163 E4.36810
G1 X79.201 Y87.163 E4.36844
G1 X87.163 Y79.201 E4.40206
G1 X87.163 Y79.088 E4.40240
G1 X79.088 Y87.163 E4.43649
G1 X78.975 Y87.163 E4.43683
G1 X87.163 Y78.975 E4.47140
G1 X87.163 Y78.862 E4.47174
G1 X78.862 Y87.163 E4.50679
G1 X78.750 Y87.163 E4.50713
G1 X87.163 Y78.750 E4.54265
G1 X87.163 Y78.637 E4.54299
G1 X78.637 Y87.163 E4.57899
G1 X78.524 Y87.163 E4.57933
G1 X87.163 Y78.524 E4.61581
G1 X87.163 Y78.411 E4.61615
G1 X78.411 Y87.163 E4.65310
G1 X78.298 Y87.163 E4.65344
G1 X87.163 Y78.298 E4.69087
G1 X87.163 Y78.185 E4.69121
G1 X78.185 Y87.163 E4.72912
G1 X78.072 Y87.163 E4.72946
G1 X87.163 Y78.072 E4.76784
G1 X87.163 Y77.960 E4.76818
G1 X77.960 Y87.163 E4.80704
G1 X77.847 Y87.163 E4.80738
G1 X87.163 Y77.847 E4.84672
G1 X87.163 Y77.734 E4.84705
G1 X77.734 Y87.163 E4.88687
G1 X77.621 Y87.163 E4.88721
G1 X87.163 Y77.621 E4.92750
G1 X87.163 Y77.508 E4.92784
G1 X77.508 Y87.163 E4.96860
G1 X77.395 Y87.163 E4.96894
G1 X87.163 Y77.395 E5.01019
G1 X87.163 Y77.282 E5.01052
G1 X77.282 Y87.163 E5.05224
G1 X77.170 Y87.163 E5.05258
G1 X87.163 Y77.170 E5.09478
G1 X87.163 Y77.057 E5.09512
G1 X77.057 Y87.163 E5.13779
G1 X76.944 Y87.163 E5.13813
G1 X87.163 Y76.944 E5.18128
G1 X87.163 Y76.831 E5.18162
G1 X76.831 Y87.163 E5.22524
G1 X76.718 Y87.163 E5.22558
G1 X87.163 Y76.718 E5.26968
G1 X87.163 Y76.605 E5.27002
G1 X76.605 Y87.163 E5.31460
G1 X76.492 Y87.163 E5.31494
G1 X87.163 Y76.492 E5.36000
G1 X87.163 Y76.380 E5.36033
G1 X76.380 Y87.163 E5.40587
G1 X76.267 Y87.163 E5.40620
G1 X87.163 Y76.267 E5.45221
G1 X87.163 Y76.154 E5.45255
G1 X76.154 Y87.163 E5.49904
G1 X76.041 Y87.163 E5.49938
G1 X87.163 Y76.041 E5.54634
G1 X87.163 Y75.928 E5.54668
G1 X75.928 Y87.163 E5.59412
G1 X75.815 Y87.163 E5.59445
G1 X87.163 Y75.815 E5.64237
G1 X87.163 Y75.703 E5.64271
G1 X75.703 Y87.163 E5.69110
G1 X75.590 Y87.163 E5.69144
G1 X87.163 Y75.590 E5.74031
G1 X87.163 Y75.477 E5.74064
G1 X75.477 Y87.163 E5.78999
G1 X75.364 Y87.163 E5.79033
G1 X87.163 Y75.364 E5.84015
G1 X87.163 Y75.251 E5.84049
G1 X75.251 Y87.163 E5.89079
G1 X75.138 Y87.163 E5.89112
G1 X87.163 Y75.138 E5.94190
G1 X87.163 Y75.025 E5.94223
G1 X75.025 Y87.163 E5.99349
G1 X74.913 Y87.163 E5.99382
G1 X87.163 Y74.913 E6.04555
G1 X87.163 Y74.800 E6.04589
G1 X74.800 Y87.163 E6.09810
G1 X74.687 Y87.163 E6.09843
G1 X87.163 Y74.687 E6.15111
G1 X87.163 Y74.574 E6.15145
G1 X74.574 Y87.163 E6.20461
G1 X74.461 Y87.163 E6.20495
G1 X87.163 Y74.461 E6.25858
G1 X87.163 Y74.348 E6.25892
G1 X74.348 Y87.163 E6.31303
G1 X74.235 Y87.163 E6.31337
G1 X87.163 Y74.235 E6.36796
G1 X87.163 Y74.123 E6.36829
G1 X74.123 Y87.163 E6.42336
G1 X74.010 Y87.163 E6.42369
G1 X87.163 Y74.010 E6.47924
G1 X87.163 Y73.897 E6.47957
G1 X73.897 Y87.163 E6.53559
G1 X73.784 Y87.163 E6.53593
G1 X87.163 Y73.784 E6.59242
G1 X87.163 Y73.671 E6.59276
G1 X73.671 Y87.163 E6.64973
G1 X73.558 Y87.163 E6.65007
G1 X87.163 Y73.558 E6.70751
G1 X87.163 Y73.445 E6.70785
G1 X73.445 Y87.163 E6.76577
G1 X73.333 Y87.163 E6.76611
G1 X87.163 Y73.333 E6.82451
G1 X87.163 Y73.220 E6.82485
G1 X73.220 Y87.163 E6.88373
G1 X73.107 Y87.163 E6.88406
G1 X87.163 Y73.107 E6.94342
G1 X87.163 Y72.994 E6.94375
G1 X72.994 Y87.163 E7.00358
G1 X72.881 Y87.163 E7.00392
G1 X87.163 Y72.881 E7.06423
G1 X87.163 Y72.768 E7.06456
G1 X72.768 Y87.163 E7.12535
G1 X72.655 Y87.163 E7.12568
G1 X87.163 Y72.655 E7.18694
G1 X87.163 Y72.543 E7.18728
G1 X72.543 Y87.163 E7.24902
G1 X72.430 Y87.163 E7.24935
G1 X87.163 Y72.430 E7.31157
G1 X87.163 Y72.317 E7.31190
G1 X72.317 Y87.163 E7.37459
G1 X72.204 Y87.163 E7.37493
G1 X87.163 Y72.204 E7.43810
G1 X87.163 Y72.091 E7.43843
G1 X72.091 Y87.163 E7.50208
G1 X71.978 Y87.163 E7.50241
G1 X87.163 Y71.978 E7.56653
G1 X87.163 Y71.866 E7.56687
G1 X71.866 Y87.163 E7.63146
G1 X71.753 Y87.163 E7.63180
G1 X87.163 Y71.753 E7.69687
G1 X87.163 Y71.640 E7.69721
G1 X71.640 Y87.163 E7.76276
G1 X71.527 Y87.163 E7.76310
G1 X87.163 Y71.527 E7.82912
G1 X87.163 Y71.414 E7.82946
G1 X71.414 Y87.163 E7.89596
G1 X71.301 Y87.163 E7.89630
G1 X87.163 Y71.301 E7.96327
G1 X87.163 Y71.188 E7.96361
G1 X71.188 Y87.163 E8.03107
G1 X71.076 Y87.163 E8.03140
G1 X87.163 Y71.076 E8.09933
G1 X87.163 Y70.963 E8.09967
G1 X70.963 Y87.163 E8.16808
G1 X70.850 Y87.163 E8.16842
G1 X87.163 Y70.850 E8.23730
G1 X87.163 Y70.737 E8.23764
G1 X70.737 Y87.163 E8.30700
G1 X70.624 Y87.163 E8.30734
G1 X87.163 Y70.624 E8.37717
G1 X87.163 Y70.511 E8.37751
G1 X70.511 Y87.163 E8.44782
G1 X70.398 Y87.163 E8.44816
G1 X87.163 Y70.398 E8.51895
G1 X87.163 Y70.286 E8.51929
G1 X70.286 Y87.163 E8.59056
G1 X70.173 Y87.163 E8.59089
G1 X87.163 Y70.173 E8.66264
G1 X87.163 Y70.060 E8.66297
G1 X70.060 Y87.163 E8.73519
G1 X69.947 Y87.163 E8.73553
G1 X87.163 Y69.947 E8.80823
G1 X87.163 Y69.834 E8.80856
G1 X69.834 Y87.163 E8.88174
G1 X69.721 Y87.163 E8.88207
G1 X87.163 Y69.721 E8.95572
G1 X87.163 Y69.608 E8.95606
G1 X69.608 Y87.163 E9.03019
G1 X69.496 Y87.163 E9.03052
G1 X87.163 Y69.496 E9.10513
G1 X87.163 Y69.383 E9.10546
G1 X69.383 Y87.163 E9.18054
G1 X69.270 Y87.163 E9.18088
G1 X87.163 Y69.270 E9.25644
G1 X87.163 Y69.157 E9.25677
G1 X69.157 Y87.163 E9.33281
G1 X69.044 Y87.163 E9.33314
G1 X87.163 Y69.044 E9.40965
G1 X87.163 Y68.931 E9.40999
G1 X68.931 Y87.163 E9.48697
G1 X68.818 Y87.163 E9.48731
G1 X87.163 Y68.818 E9.56477
G1 X87.163 Y68.706 E9.56511
G1 X68.706 Y87.163 E9.64305
G1 X68.593 Y87.163 E9.64339
G1 X87.163 Y68.593 E9.72180
G1 X87.163 Y68.480 E9.72214
G1 X68.480 Y87.163 E9.80103
G1 X68.367 Y87.163 E9.80137
G1 X87.163 Y68.367 E9.88074
G1 X87.163 Y68.254 E9.88107
G1 X68.254 Y87.163 E9.96092
G1 X68.141 Y87.163 E9.96125
G1 X87.163 Y68.141 E10.04158
G1 X87.163 Y68.029 E10.04191
G1 X68.029 Y87.163 E10.12271
G1 X67.916 Y87.163 E10.12305
G1 X87.163 Y67.916 E10.20432
G1 X87.163 Y67.803 E10.20466
G1 X67.803 Y87.163 E10.28641
G1 X67.690 Y87.163 E10.28675
G1 X87.163 Y67.690 E10.36897
G1 X87.163 Y67.577 E10.36931
G1 X67.577 Y87.163 E10.45202
G1 X67.464 Y87.163 E10.45235
G1 X87.163 Y67.464 E10.53553
G1 X87.163 Y67.351 E10.53587
G1 X67.351 Y87.163 E10.61953
G1 X67.239 Y87.163 E10.61986
G1 X87.163 Y67.239 E10.70400
G1 X87.163 Y67.126 E10.70433
G1 X67.126 Y87.163 E10.78895
G1 X67.013 Y87.163 E10.78928
G1 X87.163 Y67.013 E10.87437
G1 X87.163 Y66.900 E10.87471
G1 X66.900 Y87.163 E10.96027
G1 X66.787 Y87.163 E10.96061
G1 X87.163 Y66.787 E11.04665
G1 X87.163 Y66.674 E11.04698
G1 X66.674 Y87.163 E11.13350
G1 X66.561 Y87.163 E11.13384
G1 X87.163 Y66.561 E11.22083
G1 X87.163 Y66.449 E11.22117
G1 X66.449 Y87.163 E11.30864
G1 X66.336 Y87.163 E11.30897
G1 X87.163 Y66.336 E11.39692
G1 X87.163 Y66.223 E11.39726
G1 X66.223 Y87.163 E11.48568
G1 X66.110 Y87.163 E11.48602
G1 X87.163 Y66.110 E11.57491
G1 X87.163 Y65.997 E11.57525
G1 X65.997 Y87.163 E11.66463
G1 X65.884 Y87.163 E11.66496
G1 X87.163 Y65.884 E11.75482
G1 X87.163 Y65.771 E11.75515
G1 X65.771 Y87.163 E11.84548
G1 X65.659 Y87.163 E11.84582
G1 X87.163 Y65.659 E11.93662
G1 X87.163 Y65.546 E11.93696
G1 X65.546 Y87.163 E12.02824
G1 X65.433 Y87.163 E12.02858
G1 X87.163 Y65.433 E12.12034
G1 X87.163 Y65.320 E12.12068
G1 X65.320 Y87.163 E12.21291
G1 X65.207 Y87.163 E12.21325
G1 X87.163 Y65.207 E12.30596
G1 X87.163 Y65.094 E12.30630
G1 X65.094 Y87.163 E12.39948
G1 X64.981 Y87.163 E12.39982
G1 X87.163 Y64.981 E12.49349
G1 X87.163 Y64.869 E12.49382
G1 X64.869 Y87.163 E12.58796
G1 X64.756 Y87.163 E12.58830
G1 X87.163 Y64.756 E12.68292
G1 X87.163 Y64.643 E12.68326
G1 X64.643 Y87.163 E12.77835
G1 X64.530 Y87.163 E12.77869
G1 X87.163 Y64.530 E12.87426
G1 X87.163 Y64.417 E12.87459
G1 X64.417 Y87.163 E12.97064
G1 X64.304 Y87.163 E12.97098
G1 X87.163 Y64.304 E13.06750
G1 X87.163 Y64.192 E13.06784
G1 X64.192 Y87.163 E13.16484
G1 X64.079 Y87.163 E13.16518
G1 X87.163 Y64.079 E13.26265
G1 X87.163 Y63.966 E13.26299
G1 X63.966 Y87.163 E13.36094
G1 X63.853 Y87.163 E13.36128
G1 X87.163 Y63.853 E13.45971
G1 X87.163 Y63.740 E13.46005
G1 X63.740 Y87.163 E13.55895
G1 X63.627 Y87.163 E13.55929
G1 X87.163 Y63.627 E13.65868
G1 X87.163 Y63.514 E13.65901
G1 X63.514 Y87.163 E13.75887
G1 X63.402 Y87.163 E13.75921
G1 X87.163 Y63.402 E13.85954
G1 X87.163 Y63.289 E13.85988
G1 X63.289 Y87.163 E13.96069
G1 X63.176 Y87.163 E13.96103
G1 X87.163 Y63.176 E14.06232
G1 X87.163 Y63.063 E14.06266
G1 X63.063 Y87.163 E14.16442
G1 X62.950 Y87.163 E14.16476
G1 X87.163 Y62.950 E14.26700
G1 X87.163 Y62.837 E14.26734
G1 X62.837 Y87.163 E14.37006
G1 X62.837 Y87.050 E14.37040
G1 X87.050 Y62.837 E14.47264
G1 X86.937 Y62.837 E14.47298
G1 X62.837 Y86.937 E14.57474
G1 X62.837 Y86.824 E14.57508
G1 X86.824 Y62.837 E14.67637
G1 X86.711 Y62.837 E14.67671
G1 X62.837 Y86.711 E14.77752
G1 X62.837 Y86.599 E14.77786
G1 X86.599 Y62.837 E14.87819
G1 X86.486 Y62.837 E14.87853
G1 X62.837 Y86.486 E14.97839
G1 X62.837 Y86.373 E14.97873
G1 X86.373 Y62.837 E15.07811
G1 X86.260 Y62.837 E15.07845
G1 X62.837 Y86.260 E15.17735
G1 X62.837 Y86.147 E15.17769
G1 X86.147 Y62.837 E15.27612
G1 X86.034 Y62.837 E15.27646
G1 X62.837 Y86.034 E15.37441
G1 X62.837 Y85.921 E15.37475
G1 X85.921 Y62.837 E15.47223
G1 X85.809 Y62.837 E15.47256
G1 X62.837 Y85.809 E15.56956
G1 X62.837 Y85.696 E15.56990
G1 X85.696 Y62.837 E15.66643
G1 X85.583 Y62.837 E15.66676
G1 X62.837 Y85.583 E15.76281
G1 X62.837 Y85.470 E15.76315
G1 X85.470 Y62.837 E15.85872
G1 X85.357 Y62.837 E15.85906
G1 X62.837 Y85.357 E15.95415
G1 X62.837 Y85.244 E15.95449
G1 X85.244 Y62.837 E16.04911
G1 X85.131 Y62.837 E16.04944
G1 X62.837 Y85.131 E16.14358
G1 X62.837 Y85.019 E16.14392
G1 X85.019 Y62.837 E16.23759
G1 X84.906 Y62.837 E16.23792
G1 X62.837 Y84.906 E16.33111
G1 X62.837 Y84.793 E16.33145
G1 X84.793 Y62.837 E16.42416
G1 X84.680 Y62.837 E16.42450
G1 X62.837 Y84.680 E16.51673
G1 X62.837 Y84.567 E16.51707
G1 X84.567 Y62.837 E16.60883
G1 X84.454 Y62.837 E16.60917
G1 X62.837 Y84.454 E16.70045
G1 X62.837 Y84.342 E16.70079
G1 X84.342 Y62.837 E16.79159
G1 X84.229 Y62.837 E16.79193
G1 X62.837 Y84.229 E16.88226
G1 X62.837 Y84.116 E16.88260
G1 X84.116 Y62.837 E16.97245
G1 X84.003 Y62.837 E16.97279
G1 X62.837 Y84.003 E17.06216
