; generated by Slic3r 1.3.1-dev (Build 2ef957d) on 2019-11-25 at 09:24:53

; external perimeters extrusion width = 0.55mm (4.37mm^3/s)
; perimeters extrusion width = 0.70mm (11.44mm^3/s)
; infill extrusion width = 0.62mm (13.45mm^3/s)
; solid infill extrusion width = 0.70mm (3.81mm^3/s)
; top infill extrusion width = 0.70mm (2.86mm^3/s)

M107
G92 E0
M104 S200 ; set temperature
G28 ; home all axes
G1 Z5 F5000 ; lift nozzle

; Filament gcode

M109 S200 ; set temperature and wait for it to be reached
G21 ; set units to millimeters
G90 ; use absolute coordinates
M82 ; use absolute distances for extrusion
G92 E0
G1 Z0.350 F7800.000
G1 E-2.00000 F2400.00000
G92 E0
G1 X82.415 Y83.253 F7800.000
G1 E2.00000 F2400.00000
G1 F1800.000
G1 X84.168 Y81.774 E2.07096
G1 X86.320 Y80.981 E2.14192
G1 X87.500 Y80.875 E2.17858
G1 X112.500 Y80.875 E2.95211
G1 X114.759 Y81.272 E3.02307
G1 X116.747 Y82.415 E3.09403
G1 X118.226 Y84.168 E3.16500
G1 X119.019 Y86.320 E3.23596
G1 X119.125 Y87.500 E3.27261
G1 X119.125 Y112.500 E4.04614
G1 X118.728 Y114.759 E4.11710
G1 X117.585 Y116.747 E4.18807
G1 X115.832 Y118.226 E4.25903
G1 X113.680 Y119.019 E4.32999
G1 X112.500 Y119.125 E4.36664
G1 X87.500 Y119.125 E5.14017
G1 X85.241 Y118.728 E5.21114
G1 X83.253 Y117.585 E5.28210
G1 X81.774 Y115.832 E5.35306
G1 X80.981 Y113.680 E5.42402
G1 X80.875 Y112.500 E5.46068
G1 X80.875 Y87.500 E6.23421
G1 X81.272 Y85.241 E6.30517
G1 X82.378 Y83.318 E6.37381
G1 E4.37381 F2400.00000
G92 E0
G1 X110.900 Y110.900 F7800.000
G1 E2.00000 F2400.00000
G1 F1800.000
G1 X89.100 Y110.900 E2.67453
G1 X89.100 Y89.100 E3.34907
G1 X110.900 Y89.100 E4.02360
G1 X110.900 Y110.825 E4.69582
G1 X111.525 Y111.525 F7800.000
G1 F1800.000
G1 X88.475 Y111.525 E5.40902
G1 X88.475 Y88.475 E6.12223
G1 X111.525 Y88.475 E6.83543
G1 X111.525 Y111.450 E7.54631
G1 X112.150 Y112.150 F7800.000
G1 F1800.000
G1 X87.850 Y112.150 E8.29819
G1 X87.850 Y87.850 E9.05006
G1 X112.150 Y87.850 E9.80194
G1 X112.150 Y112.075 E10.55149
G1 X111.667 Y112.021 F7800.000
G1 E8.55149 F2400.00000
G92 E0
G1 X110.032 Y110.518 F7800.000
G1 E2.00000 F2400.00000
G1 F1800.000
G1 X110.518 Y110.032 E2.02151
G1 X110.518 Y109.139 E2.04946
G1 X109.139 Y110.518 E2.11050
G1 X108.245 Y110.518 E2.13845
G1 X110.518 Y108.245 E2.23902
G1 X110.518 Y107.352 E2.26698
G1 X107.352 Y110.518 E2.40708
G1 X106.458 Y110.518 E2.43503
G1 X110.518 Y106.458 E2.61466
G1 X110.518 Y105.565 E2.64261
G1 X105.565 Y110.518 E2.86177
G1 X104.671 Y110.518 E2.88972
G1 X110.518 Y104.671 E3.14841
G1 X110.518 Y103.778 E3.17636
G1 X103.778 Y110.518 E3.47458
G1 X102.884 Y110.518 E3.50254
G1 X110.518 Y102.884 E3.84029
G1 X110.518 Y101.991 E3.86824
G1 X101.991 Y110.518 E4.24552
G1 X101.097 Y110.518 E4.27347
G1 X110.518 Y101.097 E4.69028
G1 X110.518 Y100.204 E4.71823
G1 X100.204 Y110.518 E5.17458
G1 X99.310 Y110.518 E5.20253
G1 X110.518 Y99.310 E5.69840
G1 X110.518 Y98.417 E5.72635
G1 X98.417 Y110.518 E6.26175
G1 X97.523 Y110.518 E6.28970
G1 X110.518 Y97.523 E6.86463
G1 X110.518 Y96.630 E6.89259
G1 X96.630 Y110.518 E7.50705
G1 X95.736 Y110.518 E7.53500
G1 X110.518 Y95.736 E8.18899
G1 X110.518 Y94.843 E8.21694
G1 X94.843 Y110.518 E8.91046
G1 X93.949 Y110.518 E8.93841
G1 X110.518 Y93.949 E9.67147
G1 X110.518 Y93.056 E9.69942
G1 X93.056 Y110.518 E10.47200
G1 X92.162 Y110.518 E10.49995
G1 X110.518 Y92.162 E11.31206
G1 X110.518 Y91.269 E11.34001
G1 X91.269 Y110.518 E12.19166
G1 X90.375 Y110.518 E12.21961
G1 X110.518 Y90.375 E13.11078
G1 X110.518 Y89.482 E13.13873
G1 X89.482 Y110.518 E14.06943
G1 X89.482 Y109.625 E14.09738
G1 X109.625 Y89.482 E14.98856
G1 X108.731 Y89.482 E15.01651
G1 X89.482 Y108.731 E15.86815
G1 X89.482 Y107.838 E15.89610
G1 X107.838 Y89.482 E16.70821
G1 X106.944 Y89.482 E16.73616
G1 X89.482 Y106.944 E17.50875
G1 X89.482 Y106.051 E17.53670
G1 X106.051 Y89.482 E18.26975
G1 X105.157 Y89.482 E18.29770
G1 X89.482 Y105.157 E18.99122
G1 X89.482 Y104.264 E19.01917
G1 X104.264 Y89.482 E19.67317
G1 X103.370 Y89.482 E19.70112
G1 X89.482 Y103.370 E20.31558
G1 X89.482 Y102.477 E20.34353
G1 X102.477 Y89.482 E20.91846
G1 X101.583 Y89.482 E20.94641
G1 X89.482 Y101.583 E21.48181
G1 X89.482 Y100.690 E21.50977
G1 X100.690 Y89.482 E22.00564
G1 X99.796 Y89.482 E22.03359
G1 X89.482 Y99.796 E22.48993
G1 X89.482 Y98.903 E22.51788
G1 X98.903 Y89.482 E22.93469
G1 X98.009 Y89.482 E22.96264
G1 X89.482 Y98.009 E23.33993
G1 X89.482 Y97.116 E23.36788
G1 X97.116 Y89.482 E23.70563
G1 X96.222 Y89.482 E23.73358
G1 X89.482 Y96.222 E24.03180
G1 X89.482 Y95.329 E24.05975
G1 X95.329 Y89.482 E24.31844
G1 X94.435 Y89.482 E24.34639
G1 X89.482 Y94.435 E24.56555
G1 X89.482 Y93.542 E24.59351
G1 X93.542 Y89.482 E24.77314
G1 X92.648 Y89.482 E24.80109
G1 X89.482 Y92.648 E24.94119
G1 X89.482 Y91.755 E24.96914
G1 X91.755 Y89.482 E25.06971
G1 X90.861 Y89.482 E25.09766
G1 X89.482 Y90.861 E25.15870
G1 X89.482 Y89.968 E25.18666
G1 X89.968 Y89.482 E25.20817
G1 Z0.650 F7800.000
G1 X111.029 Y111.029 F7800.000
G1 F3600.000
G1 X88.971 Y111.029 E25.80320
G1 X88.971 Y88.971 E26.39824
G1 X111.029 Y88.971 E26.99327
G1 X111.029 Y110.954 E27.58628
G1 X111.664 Y111.664 F7800.000
G1 F3600.000
G1 X88.336 Y111.664 E28.21561
G1 X88.336 Y88.336 E28.84494
G1 X111.664 Y88.336 E29.47427
G1 X111.664 Y111.589 E30.10158
G1 X112.225 Y112.225 F7800.000
G1 F1800.000
G1 X87.775 Y112.225 E30.60550
G1 X87.775 Y87.775 E31.10942
G1 X112.225 Y87.775 E31.61334
G1 X112.225 Y112.150 E32.11572
G1 X111.742 Y112.096 F7800.000
G1 X110.640 Y89.854 F7800.000
G1 F1200.000
G1 X110.146 Y89.360 E32.13469
G1 X109.242 Y89.360 E32.15920
G1 X110.640 Y90.758 E32.21283
G1 X110.640 Y91.662 E32.23734
G1 X108.338 Y89.360 E32.32564
G1 X107.435 Y89.360 E32.35015
G1 X110.640 Y92.565 E32.47311
G1 X110.640 Y93.469 E32.49763
G1 X106.531 Y89.360 E32.65525
G1 X105.627 Y89.360 E32.67976
G1 X110.640 Y94.373 E32.87205
G1 X110.640 Y95.277 E32.89656
G1 X104.723 Y89.360 E33.12352
G1 X103.820 Y89.360 E33.14803
G1 X110.640 Y96.180 E33.40965
G1 X110.640 Y97.084 E33.43416
G1 X102.916 Y89.360 E33.73044
G1 X102.012 Y89.360 E33.75495
G1 X110.640 Y97.988 E34.08590
G1 X110.640 Y98.892 E34.11041
G1 X101.108 Y89.360 E34.47602
G1 X100.205 Y89.360 E34.50053
G1 X110.640 Y99.795 E34.90081
G1 X110.640 Y100.699 E34.92532
G1 X99.301 Y89.360 E35.36026
G1 X98.397 Y89.360 E35.38477
G1 X110.640 Y101.603 E35.85437
G1 X110.640 Y102.507 E35.87888
G1 X97.493 Y89.360 E36.38315
G1 X96.590 Y89.360 E36.40766
G1 X110.640 Y103.410 E36.94660
G1 X110.640 Y104.314 E36.97111
G1 X95.686 Y89.360 E37.54470
G1 X94.782 Y89.360 E37.56922
G1 X110.640 Y105.218 E38.17748
G1 X110.640 Y106.122 E38.20199
G1 X93.878 Y89.360 E38.84491
G1 X92.975 Y89.360 E38.86942
G1 X110.640 Y107.025 E39.54701
G1 X110.640 Y107.929 E39.57152
G1 X92.071 Y89.360 E40.28378
G1 X91.167 Y89.360 E40.30829
G1 X110.640 Y108.833 E41.05521
G1 X110.640 Y109.737 E41.07972
G1 X90.263 Y89.360 E41.86130
G1 X89.360 Y89.360 E41.88581
G1 X110.640 Y110.640 E42.70206
G1 X109.737 Y110.640 E42.72657
G1 X89.360 Y90.263 E43.50815
G1 X89.360 Y91.167 E43.53266
G1 X108.833 Y110.640 E44.27958
G1 X107.929 Y110.640 E44.30409
G1 X89.360 Y92.071 E45.01635
G1 X89.360 Y92.975 E45.04086
G1 X107.025 Y110.640 E45.71845
G1 X106.122 Y110.640 E45.74296
G1 X89.360 Y93.878 E46.38589
G1 X89.360 Y94.782 E46.41040
G1 X105.218 Y110.640 E47.01867
G1 X104.314 Y110.640 E47.04318
G1 X89.360 Y95.686 E47.61678
G1 X89.360 Y96.590 E47.64129
G1 X103.410 Y110.640 E48.18022
G1 X102.507 Y110.640 E48.20473
G1 X89.360 Y97.493 E48.70900
G1 X89.360 Y98.397 E48.73351
G1 X101.603 Y110.640 E49.20312
G1 X100.699 Y110.640 E49.22763
G1 X89.360 Y99.301 E49.66257
G1 X89.360 Y100.205 E49.68708
G1 X99.795 Y110.640 E50.08736
G1 X98.892 Y110.640 E50.11187
G1 X89.360 Y101.108 E50.47748
G1 X89.360 Y102.012 E50.50200
G1 X97.988 Y110.640 E50.83294
G1 X97.084 Y110.640 E50.85746
G1 X89.360 Y102.916 E51.15374
G1 X89.360 Y103.820 E51.17825
G1 X96.180 Y110.640 E51.43987
G1 X95.277 Y110.640 E51.46438
G1 X89.360 Y104.723 E51.69134
G1 X89.360 Y105.627 E51.71585
G1 X94.373 Y110.640 E51.90814
G1 X93.469 Y110.640 E51.93265
G1 X89.360 Y106.531 E52.09028
G1 X89.360 Y107.435 E52.11479
G1 X92.565 Y110.640 E52.23776
G1 X91.662 Y110.640 E52.26227
G1 X89.360 Y108.338 E52.35057
G1 X89.360 Y109.242 E52.37508
G1 X90.758 Y110.640 E52.42871
G1 X89.854 Y110.640 E52.45322
G1 X89.360 Y110.146 E52.47219
G1 Z0.950 F7800.000
G1 X111.029 Y111.029 F7800.000
G1 F3600.000
G1 X88.971 Y111.029 E53.06723
G1 X88.971 Y88.971 E53.66227
G1 X111.029 Y88.971 E54.25730
G1 X111.029 Y110.954 E54.85031
G1 X111.664 Y111.664 F7800.000
G1 F3600.000
G1 X88.336 Y111.664 E55.47964
G1 X88.336 Y88.336 E56.10897
G1 X111.664 Y88.336 E56.73830
G1 X111.664 Y111.589 E57.36561
G1 X112.225 Y112.225 F7800.000
G1 F1800.000
G1 X87.775 Y112.225 E57.86953
G1 X87.775 Y87.775 E58.37345
G1 X112.225 Y87.775 E58.87737
G1 X112.225 Y112.150 E59.37975
G1 X111.742 Y112.096 F7800.000
G1 X110.146 Y110.640 F7800.000
G1 F1200.000
G1 X110.640 Y110.146 E59.39872
G1 X110.640 Y109.242 E59.42323
G1 X109.242 Y110.640 E59.47686
G1 X108.338 Y110.640 E59.50137
G1 X110.640 Y108.338 E59.58967
G1 X110.640 Y107.435 E59.61418
G1 X107.435 Y110.640 E59.73714
G1 X106.531 Y110.640 E59.76166
G1 X110.640 Y106.531 E59.91928
G1 X110.640 Y105.627 E59.94379
G1 X105.627 Y110.640 E60.13608
G1 X104.723 Y110.640 E60.16059
G1 X110.640 Y104.723 E60.38755
G1 X110.640 Y103.820 E60.41206
G1 X103.820 Y110.640 E60.67368
G1 X102.916 Y110.640 E60.69819
G1 X110.640 Y102.916 E60.99447
G1 X110.640 Y102.012 E61.01898
G1 X102.012 Y110.640 E61.34993
G1 X101.108 Y110.640 E61.37444
G1 X110.640 Y101.108 E61.74005
G1 X110.640 Y100.205 E61.76456
G1 X100.205 Y110.640 E62.16484
G1 X99.301 Y110.640 E62.18935
G1 X110.640 Y99.301 E62.62429
G1 X110.640 Y98.397 E62.64880
G1 X98.397 Y110.640 E63.11840
G1 X97.493 Y110.640 E63.14291
G1 X110.640 Y97.493 E63.64718
G1 X110.640 Y96.590 E63.67169
G1 X96.590 Y110.640 E64.21063
G1 X95.686 Y110.640 E64.23514
G1 X110.640 Y95.686 E64.80873
G1 X110.640 Y94.782 E64.83324
G1 X94.782 Y110.640 E65.44151
G1 X93.878 Y110.640 E65.46602
G1 X110.640 Y93.878 E66.10894
G1 X110.640 Y92.975 E66.13345
G1 X92.975 Y110.640 E66.81104
G1 X92.071 Y110.640 E66.83555
G1 X110.640 Y92.071 E67.54781
G1 X110.640 Y91.167 E67.57232
G1 X91.167 Y110.640 E68.31924
G1 X90.263 Y110.640 E68.34375
G1 X110.640 Y90.263 E69.12533
G1 X110.640 Y89.360 E69.14984
G1 X89.360 Y110.640 E69.96609
G1 X89.360 Y109.737 E69.99060
G1 X109.737 Y89.360 E70.77218
G1 X108.833 Y89.360 E70.79669
G1 X89.360 Y108.833 E71.54361
G1 X89.360 Y107.929 E71.56812
G1 X107.929 Y89.360 E72.28038
G1 X107.025 Y89.360 E72.30489
G1 X89.360 Y107.025 E72.98248
G1 X89.360 Y106.122 E73.00699
G1 X106.122 Y89.360 E73.64992
G1 X105.218 Y89.360 E73.67443
G1 X89.360 Y105.218 E74.28269
G1 X89.360 Y104.314 E74.30720
G1 X104.314 Y89.360 E74.88080
G1 X103.410 Y89.360 E74.90531
G1 X89.360 Y103.410 E75.44425
G1 X89.360 Y102.507 E75.46876
G1 X102.507 Y89.360 E75.97303
G1 X101.603 Y89.360 E75.99754
G1 X89.360 Y101.603 E76.46715
G1 X89.360 Y100.699 E76.49166
G1 X100.699 Y89.360 E76.92660
G1 X99.795 Y89.360 E76.95111
G1 X89.360 Y99.795 E77.35139
G1 X89.360 Y98.892 E77.37590
G1 X98.892 Y89.360 E77.74151
G1 X97.988 Y89.360 E77.76602
G1 X89.360 Y97.988 E78.09697
G1 X89.360 Y97.084 E78.12148
G1 X97.084 Y89.360 E78.41777
G1 X96.180 Y89.360 E78.44228
G1 X89.360 Y96.180 E78.70390
G1 X89.360 Y95.277 E78.72841
G1 X95.277 Y89.360 E78.95537
G1 X94.373 Y89.360 E78.97988
G1 X89.360 Y94.373 E79.17217
G1 X89.360 Y93.469 E79.19668
G1 X93.469 Y89.360 E79.35431
G1 X92.565 Y89.360 E79.37882
G1 X89.360 Y92.565 E79.50178
G1 X89.360 Y91.662 E79.52629
G1 X91.662 Y89.360 E79.61459
G1 X90.758 Y89.360 E79.63910
G1 X89.360 Y90.758 E79.69274
G1 X89.360 Y89.854 E79.71725
G1 X89.854 Y89.360 E79.73622
M106 S242.25
G1 Z1.250 F7800.000
G1 X111.029 Y111.029 F7800.000
G1 F3600.000
G1 X88.971 Y111.029 E80.33126
G1 X88.971 Y88.971 E80.92629
G1 X111.029 Y88.971 E81.52133
G1 X111.029 Y110.954 E82.11434
G1 X111.664 Y111.664 F7800.000
G1 F3600.000
G1 X88.336 Y111.664 E82.74367
G1 X88.336 Y88.336 E83.37300
G1 X111.664 Y88.336 E84.00233
G1 X111.664 Y111.589 E84.62963
G1 X112.225 Y112.225 F7800.000
G1 F1800.000
G1 X87.775 Y112.225 E85.13356
G1 X87.775 Y87.775 E85.63748
G1 X112.225 Y87.775 E86.14140
G1 X112.225 Y112.150 E86.64378
G1 X111.742 Y112.096 F7800.000
G1 X110.748 Y110.179 F7800.000
G1 F4800.000
G1 X109.491 Y110.516 E86.67475
G1 X105.826 Y110.748 F7800.000
G1 F4800.000
G1 X110.516 Y93.245 E87.10590
G1 X110.748 Y92.767 F7800.000
G1 F4800.000
G1 X89.252 Y98.527 E87.63542
G1 X89.337 Y101.229 F7800.000
G1 F4800.000
G1 X98.771 Y110.663 E87.95287
G1 X110.663 Y110.663 E88.23583
G1 X89.337 Y89.337 E88.95345
G1 X101.229 Y89.337 E89.23641
G1 X110.663 Y98.771 E89.55386
G1 X110.748 Y101.473 F7800.000
G1 F4800.000
G1 X89.252 Y107.233 E90.08338
G1 X89.484 Y106.755 F7800.000
G1 F4800.000
G1 X94.174 Y89.252 E90.51453
G1 X90.509 Y89.484 F7800.000
G1 F4800.000
G1 X89.252 Y89.821 E90.54550
G1 X102.880 Y89.252 F7800.000
G1 F4800.000
G1 X97.120 Y110.748 E91.07503
G1 Z1.550 F7800.000
G1 X111.029 Y111.029 F7800.000
G1 F3600.000
G1 X88.971 Y111.029 E91.67006
G1 X88.971 Y88.971 E92.26510
G1 X111.029 Y88.971 E92.86013
G1 X111.029 Y110.954 E93.45315
G1 X111.664 Y111.664 F7800.000
G1 F3600.000
G1 X88.336 Y111.664 E94.08248
G1 X88.336 Y88.336 E94.71180
G1 X111.664 Y88.336 E95.34113
G1 X111.664 Y111.589 E95.96844
G1 X112.225 Y112.225 F7800.000
G1 F1800.000
G1 X87.775 Y112.225 E96.47236
G1 X87.775 Y87.775 E96.97628
G1 X112.225 Y87.775 E97.48021
G1 X112.225 Y112.150 E97.98258
G1 X111.742 Y112.096 F7800.000
G1 X110.748 Y110.179 F7800.000
G1 F4800.000
G1 X109.491 Y110.516 E98.01356
G1 X105.826 Y110.748 F7800.000
G1 F4800.000
G1 X110.516 Y93.245 E98.44470
G1 X110.748 Y92.767 F7800.000
G1 F4800.000
G1 X89.252 Y98.527 E98.97423
G1 X89.337 Y101.229 F7800.000
G1 F4800.000
G1 X98.771 Y110.663 E99.29167
G1 X110.663 Y110.663 E99.57464
G1 X89.337 Y89.337 E100.29225
G1 X101.229 Y89.337 E100.57522
G1 X110.663 Y98.771 E100.89266
G1 X110.748 Y101.473 F7800.000
G1 F4800.000
G1 X89.252 Y107.233 E101.42219
G1 X89.484 Y106.755 F7800.000
G1 F4800.000
G1 X94.174 Y89.252 E101.85333
G1 X90.509 Y89.484 F7800.000
G1 F4800.000
G1 X89.252 Y89.821 E101.88431
G1 X102.880 Y89.252 F7800.000
G1 F4800.000
G1 X97.120 Y110.748 E102.41383
G1 Z1.850 F7800.000
G1 X111.029 Y111.029 F7800.000
G1 F3600.000
G1 X88.971 Y111.029 E103.00887
G1 X88.971 Y88.971 E103.60391
G1 X111.029 Y88.971 E104.19894
G1 X111.029 Y110.954 E104.79195
G1 X111.664 Y111.664 F7800.000
G1 F3600.000
G1 X88.336 Y111.664 E105.42128
G1 X88.336 Y88.336 E106.05061
G1 X111.664 Y88.336 E106.67994
G1 X111.664 Y111.589 E107.30725
G1 X112.225 Y112.225 F7800.000
G1 F1800.000
G1 X87.775 Y112.225 E107.81117
G1 X87.775 Y87.775 E108.31509
G1 X112.225 Y87.775 E108.81901
G1 X112.225 Y112.150 E109.32139
G1 X111.742 Y112.096 F7800.000
G1 X110.748 Y110.179 F7800.000
G1 F4800.000
G1 X109.491 Y110.516 E109.35236
G1 X105.826 Y110.748 F7800.000
G1 F4800.000
G1 X110.516 Y93.245 E109.78351
G1 X110.748 Y92.767 F7800.000
G1 F4800.000
G1 X89.252 Y98.527 E110.31304
G1 X89.337 Y101.229 F7800.000
G1 F4800.000
G1 X98.771 Y110.663 E110.63048
G1 X110.663 Y110.663 E110.91344
G1 X89.337 Y89.337 E111.63106
G1 X101.229 Y89.337 E111.91402
G1 X110.663 Y98.771 E112.23147
G1 X110.748 Y101.473 F7800.000
G1 F4800.000
G1 X89.252 Y107.233 E112.76100
G1 X89.484 Y106.755 F7800.000
G1 F4800.000
G1 X94.174 Y89.252 E113.19214
G1 X90.509 Y89.484 F7800.000
G1 F4800.000
G1 X89.252 Y89.821 E113.22312
G1 X102.880 Y89.252 F7800.000
G1 F4800.000
G1 X97.120 Y110.748 E113.75264
G1 Z2.150 F7800.000
G1 X111.029 Y111.029 F7800.000
G1 F3600.000
G1 X88.971 Y111.029 E114.34768
G1 X88.971 Y88.971 E114.94271
G1 X111.029 Y88.971 E115.53775
G1 X111.029 Y110.954 E116.13076
G1 X111.664 Y111.664 F7800.000
G1 F3600.000
G1 X88.336 Y111.664 E116.76009
G1 X88.336 Y88.336 E117.38942
G1 X111.664 Y88.336 E118.01875
G1 X111.664 Y111.589 E118.64605
G1 X112.225 Y112.225 F7800.000
G1 F1800.000
G1 X87.775 Y112.225 E119.14998
G1 X87.775 Y87.775 E119.65390
G1 X112.225 Y87.775 E120.15782
G1 X112.225 Y112.150 E120.66020
G1 X111.742 Y112.096 F7800.000
G1 X110.748 Y110.179 F7800.000
G1 F4800.000
