; generated by Slic3r 1.3.1-dev (Build 2ef957d) on 2019-11-25 at 15:45:22

; external perimeters extrusion width = 0.55mm (4.37mm^3/s)
; perimeters extrusion width = 0.70mm (11.44mm^3/s)
; infill extrusion width = 0.62mm (13.45mm^3/s)
; solid infill extrusion width = 0.70mm (3.81mm^3/s)
; top infill extrusion width = 0.70mm (2.86mm^3/s)

M107
G92 E0
M104 S200 ; set temperature
G28 ; home all axes
G1 Z5 F5000 ; lift nozzle

; Filament gcode

M109 S200 ; set temperature and wait for it to be reached
G21 ; set units to millimeters
G90 ; use absolute coordinates
M82 ; use absolute distances for extrusion
G92 E0
G1 Z0.350 F7800.000
G1 E-2.00000 F2400.00000
G92 E0
G1 X73.353 Y41.811 F7800.000
G1 E2.00000 F2400.00000
G1 F1800.000
G1 X74.655 Y39.923 E2.07096
G1 X76.522 Y38.592 E2.14192
G1 X79.375 Y37.946 E2.23243
G1 X104.375 Y37.946 E3.00596
G1 X106.634 Y38.343 E3.07692
G1 X108.622 Y39.487 E3.14788
G1 X110.101 Y41.239 E3.21885
G1 X110.978 Y44.028 E3.30930
G1 X119.274 Y144.944 E6.44229
G1 X119.362 Y146.391 E6.48716
G1 X119.370 Y146.986 E6.50557
G1 X119.330 Y148.331 E6.54719
G1 X119.290 Y148.883 E6.56433
G1 X119.207 Y149.608 E6.58691
G1 X118.556 Y151.808 E6.65788
G1 X117.194 Y153.653 E6.72884
G1 X115.285 Y154.923 E6.79980
G1 X112.625 Y155.481 E6.88388
G1 X71.125 Y155.481 E8.16795
G1 X68.866 Y155.084 E8.23891
G1 X66.878 Y153.940 E8.30987
G1 X65.399 Y152.188 E8.38083
G1 X64.606 Y150.036 E8.45180
G1 X64.500 Y148.856 E8.48845
G1 X64.500 Y145.193 E8.60178
G1 X64.522 Y144.652 E8.61854
G1 X72.772 Y44.030 E11.74236
G1 X73.334 Y41.884 E11.81100
G1 E9.81100 F2400.00000
G92 E0
G1 X100.279 Y114.086 F7800.000
G1 E2.00000 F2400.00000
G1 F1800.000
G1 X100.755 Y114.736 E2.02493
G1 X101.195 Y115.420 E2.05011
G1 X101.599 Y116.136 E2.07554
G1 X101.964 Y116.880 E2.10120
G1 X102.290 Y117.650 E2.12706
G1 X102.575 Y118.443 E2.15313
G1 X102.817 Y119.256 E2.17936
G1 X103.017 Y120.084 E2.20574
G1 X103.173 Y120.926 E2.23224
G1 X103.285 Y121.778 E2.25882
G1 X103.353 Y122.637 E2.28547
G1 X103.375 Y123.499 E2.31215
G1 X103.353 Y124.361 E2.33883
G1 X103.285 Y125.220 E2.36548
G1 X103.173 Y126.072 E2.39207
G1 X103.017 Y126.914 E2.41857
G1 X102.817 Y127.742 E2.44494
G1 X102.575 Y128.555 E2.47118
G1 X102.290 Y129.347 E2.49724
G1 X101.964 Y130.118 E2.52311
G1 X101.599 Y130.862 E2.54877
G1 X101.195 Y131.578 E2.57419
G1 X100.755 Y132.262 E2.59938
G1 X100.279 Y132.912 E2.62431
G1 X99.770 Y133.526 E2.64897
G1 X99.229 Y134.100 E2.67338
G1 X98.659 Y134.633 E2.69752
G1 X98.062 Y135.122 E2.72141
G1 X97.440 Y135.566 E2.74505
G1 X96.795 Y135.962 E2.76846
G1 X96.130 Y136.308 E2.79166
G1 X95.448 Y136.604 E2.81467
G1 X94.751 Y136.848 E2.83751
G1 X94.043 Y137.039 E2.86022
G1 X93.325 Y137.176 E2.88282
G1 X92.602 Y137.259 E2.90536
G1 X91.875 Y137.286 E2.92785
G1 X91.148 Y137.259 E2.95035
G1 X90.425 Y137.176 E2.97288
G1 X89.707 Y137.039 E2.99549
G1 X88.999 Y136.848 E3.01820
G1 X88.302 Y136.604 E3.04104
G1 X87.620 Y136.308 E3.06405
G1 X86.955 Y135.962 E3.08725
G1 X86.310 Y135.566 E3.11066
G1 X85.688 Y135.122 E3.13430
G1 X85.091 Y134.633 E3.15819
G1 X84.521 Y134.100 E3.18233
G1 X83.980 Y133.526 E3.20674
G1 X83.471 Y132.912 E3.23140
G1 X82.995 Y132.262 E3.25633
G1 X82.555 Y131.578 E3.28151
G1 X82.151 Y130.862 E3.30694
G1 X81.786 Y130.118 E3.33260
G1 X81.460 Y129.347 E3.35847
G1 X81.175 Y128.555 E3.38453
G1 X80.933 Y127.742 E3.41076
G1 X80.733 Y126.914 E3.43714
G1 X80.577 Y126.072 E3.46364
G1 X80.465 Y125.220 E3.49023
G1 X80.397 Y124.361 E3.51688
G1 X80.375 Y123.499 E3.54356
G1 X80.397 Y122.637 E3.57024
G1 X80.465 Y121.778 E3.59689
G1 X80.577 Y120.926 E3.62347
G1 X80.733 Y120.084 E3.64997
G1 X80.933 Y119.256 E3.67635
G1 X81.175 Y118.443 E3.70258
G1 X81.460 Y117.650 E3.72864
G1 X81.786 Y116.880 E3.75451
G1 X82.151 Y116.136 E3.78017
G1 X82.555 Y115.420 E3.80560
G1 X82.995 Y114.736 E3.83078
G1 X83.471 Y114.086 E3.85571
G1 X83.980 Y113.472 E3.88038
G1 X84.521 Y112.898 E3.90478
G1 X85.091 Y112.365 E3.92893
G1 X85.688 Y111.876 E3.95281
G1 X86.310 Y111.432 E3.97646
G1 X86.955 Y111.036 E3.99987
G1 X87.620 Y110.690 E4.02307
G1 X88.302 Y110.394 E4.04607
G1 X88.999 Y110.150 E4.06892
G1 X89.707 Y109.959 E4.09162
G1 X90.425 Y109.822 E4.11423
G1 X91.148 Y109.739 E4.13676
G1 X91.875 Y109.712 E4.15926
G1 X92.602 Y109.739 E4.18176
G1 X93.325 Y109.822 E4.20429
G1 X94.043 Y109.959 E4.22689
G1 X94.751 Y110.150 E4.24960
G1 X95.448 Y110.394 E4.27244
G1 X96.130 Y110.690 E4.29545
G1 X96.795 Y111.036 E4.31865
G1 X97.440 Y111.432 E4.34206
G1 X98.062 Y111.876 E4.36570
G1 X98.659 Y112.365 E4.38959
G1 X99.229 Y112.898 E4.41373
G1 X99.770 Y113.472 E4.43814
G1 X100.231 Y114.028 E4.46049
G1 X100.279 Y114.086 F7800.000
G1 E2.46049 F2400.00000
G92 E0
G1 X102.495 Y115.181 F7800.000
G1 E2.00000 F2400.00000
G1 F1800.000
G1 X102.266 Y114.774 E2.01445
G1 X101.786 Y114.028 E2.04192
G1 X101.265 Y113.317 E2.06918
G1 X100.707 Y112.644 E2.09624
G1 X100.112 Y112.012 E2.12309
G1 X99.483 Y111.424 E2.14974
G1 X98.822 Y110.882 E2.17619
G1 X98.130 Y110.390 E2.20245
G1 X97.412 Y109.948 E2.22854
G1 X96.669 Y109.561 E2.25447
G1 X95.904 Y109.229 E2.28027
G1 X95.121 Y108.955 E2.30594
G1 X94.323 Y108.740 E2.33151
G1 X93.513 Y108.585 E2.35701
G1 X92.696 Y108.492 E2.38246
G1 X91.875 Y108.461 E2.40789
G1 X91.054 Y108.492 E2.43331
G1 X90.237 Y108.585 E2.45876
G1 X89.427 Y108.740 E2.48426
G1 X88.629 Y108.955 E2.50983
G1 X87.846 Y109.229 E2.53550
G1 X87.081 Y109.561 E2.56130
G1 X86.338 Y109.948 E2.58723
G1 X85.620 Y110.390 E2.61332
G1 X84.928 Y110.882 E2.63958
G1 X84.267 Y111.424 E2.66603
G1 X83.638 Y112.012 E2.69268
G1 X83.043 Y112.644 E2.71953
G1 X82.485 Y113.317 E2.74659
G1 X81.964 Y114.028 E2.77385
G1 X81.484 Y114.774 E2.80132
G1 X81.255 Y115.181 E2.81577
G1 X80.975 Y115.108 E2.82472
G1 X80.975 Y46.171 E4.95772
G1 X102.775 Y46.171 E5.63225
G1 X102.775 Y115.108 E7.76525
G1 X102.568 Y115.162 E7.77187
G1 E5.77187 F2400.00000
G92 E0
G1 X103.089 Y118.028 F7800.000
G1 E2.00000 F2400.00000
G1 F1800.000
G1 X102.872 Y117.423 E2.01989
G1 X102.533 Y116.621 E2.04684
G1 X102.152 Y115.845 E2.07359
G1 X101.731 Y115.097 E2.10014
G1 X101.270 Y114.382 E2.12647
G1 X100.772 Y113.701 E2.15256
G1 X100.238 Y113.058 E2.17842
G1 X99.671 Y112.455 E2.20405
G1 X99.071 Y111.894 E2.22945
G1 X98.442 Y111.379 E2.25461
G1 X97.785 Y110.911 E2.27957
G1 X97.103 Y110.492 E2.30432
G1 X96.400 Y110.125 E2.32888
G1 X95.676 Y109.811 E2.35328
G1 X94.936 Y109.552 E2.37754
G1 X94.183 Y109.349 E2.40168
G1 X93.419 Y109.204 E2.42573
G1 X92.649 Y109.116 E2.44973
G1 X91.875 Y109.087 E2.47369
G1 X91.101 Y109.116 E2.49764
G1 X90.331 Y109.204 E2.52164
G1 X89.567 Y109.349 E2.54569
G1 X88.814 Y109.552 E2.56983
G1 X88.074 Y109.811 E2.59409
G1 X87.350 Y110.125 E2.61849
G1 X86.646 Y110.492 E2.64305
G1 X85.965 Y110.911 E2.66780
G1 X85.308 Y111.379 E2.69276
G1 X84.679 Y111.894 E2.71793
G1 X84.079 Y112.455 E2.74332
G1 X83.512 Y113.058 E2.76895
G1 X82.978 Y113.701 E2.79481
G1 X82.480 Y114.382 E2.82090
G1 X82.019 Y115.097 E2.84723
G1 X81.598 Y115.845 E2.87378
G1 X81.217 Y116.621 E2.90053
G1 X80.878 Y117.423 E2.92748
G1 X80.661 Y118.028 E2.94737
G1 X80.350 Y117.974 E2.95713
G1 X80.350 Y45.546 E5.19814
G1 X103.400 Y45.546 E5.91134
G1 X103.400 Y117.974 E8.15236
G1 X103.163 Y118.015 E8.15979
G1 E6.15979 F2400.00000
G92 E0
G1 X102.775 Y146.706 F7800.000
G1 E2.00000 F2400.00000
G1 F1800.000
G1 X111.151 Y146.706 E2.25914
G1 X111.134 Y147.256 E2.27616
G1 X72.725 Y147.256 E3.46459
G1 X72.725 Y146.706 E3.48159
G1 X80.975 Y146.706 E3.73686
G1 X80.975 Y131.890 E4.19529
G1 X81.255 Y131.817 E4.20424
G1 X81.484 Y132.224 E4.21870
G1 X81.964 Y132.970 E4.24617
G1 X82.485 Y133.681 E4.27343
G1 X83.043 Y134.354 E4.30048
G1 X83.638 Y134.986 E4.32734
G1 X84.267 Y135.574 E4.35398
G1 X84.928 Y136.116 E4.38043
G1 X85.620 Y136.608 E4.40670
G1 X86.338 Y137.050 E4.43278
G1 X87.081 Y137.437 E4.45872
G1 X87.846 Y137.769 E4.48451
G1 X88.629 Y138.043 E4.51018
G1 X89.427 Y138.258 E4.53575
G1 X90.237 Y138.413 E4.56126
G1 X91.054 Y138.506 E4.58671
G1 X91.875 Y138.537 E4.61213
G1 X92.696 Y138.506 E4.63755
G1 X93.513 Y138.413 E4.66300
G1 X94.323 Y138.258 E4.68850
G1 X95.121 Y138.043 E4.71407
G1 X95.904 Y137.769 E4.73975
G1 X96.669 Y137.437 E4.76554
G1 X97.412 Y137.050 E4.79147
G1 X98.130 Y136.608 E4.81756
G1 X98.822 Y136.116 E4.84383
G1 X99.483 Y135.574 E4.87027
G1 X100.112 Y134.986 E4.89692
G1 X100.707 Y134.354 E4.92377
G1 X101.265 Y133.681 E4.95083
G1 X101.786 Y132.970 E4.97809
G1 X102.266 Y132.224 E5.00556
G1 X102.495 Y131.817 E5.02001
G1 X102.775 Y131.890 E5.02896
G1 X102.775 Y146.631 E5.48508
G1 X103.400 Y146.081 F7800.000
G1 F1800.000
G1 X111.730 Y146.081 E5.74281
G1 X111.773 Y146.800 E5.76509
G1 X111.740 Y147.881 E5.79854
G1 X72.100 Y147.881 E7.02507
G1 X72.100 Y146.081 E7.08074
G1 X80.350 Y146.081 E7.33601
G1 X80.350 Y129.024 E7.86379
G1 X80.661 Y128.970 E7.87355
G1 X80.878 Y129.575 E7.89344
G1 X81.217 Y130.377 E7.92038
G1 X81.598 Y131.153 E7.94714
G1 X82.019 Y131.901 E7.97369
G1 X82.480 Y132.616 E8.00001
G1 X82.978 Y133.297 E8.02611
G1 X83.511 Y133.940 E8.05197
G1 X84.079 Y134.543 E8.07760
G1 X84.679 Y135.104 E8.10299
G1 X85.308 Y135.619 E8.12816
G1 X85.965 Y136.087 E8.15311
G1 X86.646 Y136.506 E8.17786
G1 X87.350 Y136.873 E8.20243
G1 X88.074 Y137.187 E8.22683
G1 X88.814 Y137.446 E8.25109
G1 X89.567 Y137.649 E8.27523
G1 X90.331 Y137.794 E8.29928
G1 X91.101 Y137.882 E8.32327
G1 X91.875 Y137.911 E8.34723
G1 X92.649 Y137.882 E8.37119
G1 X93.419 Y137.794 E8.39518
G1 X94.183 Y137.649 E8.41924
G1 X94.936 Y137.446 E8.44337
G1 X95.676 Y137.187 E8.46763
G1 X96.400 Y136.873 E8.49203
G1 X97.103 Y136.506 E8.51660
G1 X97.785 Y136.087 E8.54135
G1 X98.442 Y135.619 E8.56630
G1 X99.071 Y135.104 E8.59147
G1 X99.671 Y134.543 E8.61687
G1 X100.238 Y133.940 E8.64250
G1 X100.772 Y133.297 E8.66836
G1 X101.270 Y132.616 E8.69445
G1 X101.731 Y131.901 E8.72078
G1 X102.152 Y131.153 E8.74732
G1 X102.533 Y130.377 E8.77408
G1 X102.872 Y129.575 E8.80103
G1 X103.089 Y128.970 E8.82092
G1 X103.400 Y129.024 E8.83067
G1 X103.400 Y146.006 E9.35613
G1 X104.025 Y145.457 F7800.000
G1 F1800.000
G1 X112.319 Y145.457 E9.61275
G1 X112.398 Y146.791 E9.65412
G1 X112.359 Y148.105 E9.69480
G1 X112.313 Y148.506 E9.70727
G1 X71.475 Y148.506 E10.97084
G1 X71.475 Y145.457 E11.06519
G1 X79.725 Y145.457 E11.32046
G1 X79.725 Y44.921 E14.43115
G1 X104.025 Y44.921 E15.18302
G1 X104.025 Y145.382 E18.29140
G1 X104.064 Y145.955 F7800.000
G1 E16.29140 F2400.00000
G92 E0
G1 X101.907 Y146.874 F7800.000
G1 E2.00000 F2400.00000
G1 F1800.000
G1 X102.393 Y146.388 E2.02140
G1 X102.393 Y145.499 E2.04906
G1 X101.018 Y146.874 E2.10958
G1 X100.129 Y146.874 E2.13725
G1 X102.393 Y144.610 E2.23689
G1 X102.393 Y143.721 E2.26456
G1 X99.241 Y146.874 E2.40333
G1 X98.352 Y146.874 E2.43099
G1 X102.393 Y142.832 E2.60888
G1 X102.393 Y141.944 E2.63654
G1 X97.463 Y146.874 E2.85356
G1 X96.574 Y146.874 E2.88122
G1 X102.393 Y141.055 E3.13736
G1 X102.393 Y140.166 E3.16502
G1 X95.685 Y146.874 E3.46028
G1 X94.796 Y146.874 E3.48794
G1 X102.393 Y139.277 E3.82233
G1 X102.393 Y138.388 E3.84999
G1 X93.907 Y146.874 E4.22350
G1 X93.018 Y146.874 E4.25116
G1 X102.393 Y137.499 E4.66379
G1 X102.393 Y136.610 E4.69145
G1 X92.129 Y146.874 E5.14320
G1 X91.241 Y146.874 E5.17087
G1 X102.393 Y135.721 E5.66174
G1 X102.393 Y134.832 E5.68941
G1 X90.352 Y146.874 E6.21940
G1 X89.463 Y146.874 E6.24707
G1 X102.312 Y134.024 E6.81263
G1 X101.932 Y133.906 E6.82503
G1 X101.418 Y134.525 E6.85005
G1 X100.796 Y135.186 E6.87829
G1 X100.138 Y135.802 E6.90636
G1 X99.444 Y136.369 E6.93425
G1 X98.719 Y136.887 E6.96198
G1 X98.311 Y137.137 E6.97686
G1 X88.574 Y146.874 E7.40544
G1 X87.685 Y146.874 E7.43310
G1 X96.509 Y138.050 E7.82149
G1 X95.549 Y138.397 E7.85328
G1 X95.171 Y138.499 E7.86545
G1 X86.796 Y146.874 E8.23406
G1 X85.907 Y146.874 E8.26172
G1 X94.027 Y138.754 E8.61912
G1 X93.009 Y138.884 E8.65107
G1 X85.018 Y146.874 E9.00277
G1 X84.129 Y146.874 E9.03043
G1 X92.086 Y138.918 E9.38062
G1 X91.231 Y138.884 E9.40725
G1 X83.241 Y146.874 E9.75892
G1 X82.352 Y146.874 E9.78659
G1 X90.433 Y138.793 E10.14226
G1 X89.683 Y138.654 E10.16598
G1 X81.463 Y146.874 E10.52780
G1 X81.357 Y146.874 E10.53110
G1 X81.357 Y146.091 E10.55546
G1 X88.974 Y138.474 E10.89070
G1 X88.687 Y138.397 E10.89993
G1 X88.298 Y138.261 E10.91277
G1 X81.357 Y145.202 E11.21828
G1 X81.357 Y144.314 E11.24594
G1 X87.653 Y138.018 E11.52305
G1 X87.034 Y137.747 E11.54406
G1 X81.357 Y143.425 E11.79393
G1 X81.357 Y142.536 E11.82160
G1 X86.450 Y137.443 E12.04576
G1 X85.889 Y137.115 E12.06598
G1 X81.357 Y141.647 E12.26546
G1 X81.357 Y140.758 E12.29312
G1 X85.348 Y136.766 E12.46882
G1 X84.829 Y136.396 E12.48865
G1 X81.357 Y139.869 E12.64150
G1 X81.357 Y138.980 E12.66917
G1 X84.339 Y135.998 E12.80041
G1 X83.865 Y135.583 E12.82002
G1 X81.357 Y138.091 E12.93041
G1 X81.357 Y137.202 E12.95807
G1 X83.407 Y135.152 E13.04833
G1 X82.976 Y134.694 E13.06790
G1 X81.357 Y136.314 E13.13920
G1 X81.357 Y135.425 E13.16686
G1 X82.563 Y134.218 E13.21996
G1 X82.304 Y133.906 E13.23258
G1 X81.843 Y134.049 E13.24761
G1 X81.357 Y134.536 E13.26900
G1 X81.627 Y133.630 F7800.000
G1 F1800.000
G1 X81.307 Y132.601 E13.28977
G1 X81.019 Y131.555 F7800.000
G1 F1800.000
G1 X80.689 Y130.035 E13.30593
G1 X80.662 Y131.128 F7800.000
G1 F1800.000
G1 X81.403 Y131.455 E13.31437
G1 E11.31437 F2400.00000
G92 E0
G1 X80.454 Y128.689 F7800.000
G1 E2.00000 F2400.00000
G1 F1800.000
G1 X80.378 Y128.170 E2.01695
G1 F1800.000
G1 X80.318 Y127.720 E2.02979
G1 F1800.000
G1 X80.276 Y127.373 E2.03821
G1 F1800.000
G1 X80.235 Y127.025 E2.04519
G1 F1800.000
G1 X80.194 Y126.578 E2.05231
G1 F1800.000
G1 X80.154 Y126.142 E2.05746
G1 F1800.000
G1 X80.115 Y125.552 E2.06207
G1 F1800.000
G1 X80.078 Y124.799 E2.06506
G1 E0.06506 F2400.00000
G92 E0
G1 X80.078 Y122.199 F7800.000
G1 E2.00000 F2400.00000
G1 F1800.000
G1 X80.115 Y121.446 E2.00299
G1 F1800.000
G1 X80.154 Y120.856 E2.00759
G1 F1800.000
G1 X80.194 Y120.420 E2.01275
G1 F1800.000
G1 X80.235 Y119.973 E2.01986
G1 F1800.000
G1 X80.276 Y119.625 E2.02685
G1 F1800.000
G1 X80.318 Y119.278 E2.03526
G1 F1800.000
G1 X80.378 Y118.828 E2.04810
G1 F1800.000
G1 X80.454 Y118.309 E2.06506
G1 X80.689 Y116.963 F7800.000
G1 F1800.000
G1 X81.019 Y115.443 E2.08121
G1 X81.403 Y115.543 F7800.000
G1 F1800.000
G1 X80.662 Y115.870 E2.08966
G1 X81.307 Y114.397 F7800.000
G1 F1800.000
G1 X81.627 Y113.368 E2.11043
G1 E0.11043 F2400.00000
G92 E0
G1 X101.907 Y112.948 F7800.000
G1 E2.00000 F2400.00000
G1 F1800.000
G1 X102.393 Y112.462 E2.02146
G1 X102.393 Y111.571 E2.04928
G1 X101.186 Y112.778 E2.10257
G1 X100.771 Y112.302 E2.12229
G1 X102.393 Y110.680 E2.19389
G1 X102.393 Y109.788 E2.22170
G1 X100.339 Y111.843 E2.31237
G1 X99.880 Y111.410 E2.33205
G1 X102.393 Y108.897 E2.44297
G1 X102.393 Y108.006 E2.47078
G1 X99.405 Y110.994 E2.60269
G1 X98.912 Y110.596 E2.62246
G1 X102.393 Y107.114 E2.77611
G1 X102.393 Y106.223 E2.80393
G1 X98.392 Y110.225 E2.98055
G1 X97.849 Y109.876 E3.00068
G1 X102.393 Y105.331 E3.20124
G1 X102.393 Y104.440 E3.22906
G1 X97.286 Y109.548 E3.45448
G1 X96.700 Y109.242 E3.47509
G1 X102.393 Y103.549 E3.72637
G1 X102.393 Y102.657 E3.75418
G1 X96.079 Y108.972 E4.03288
G1 X95.430 Y108.729 E4.05449
G1 X102.393 Y101.766 E4.36180
G1 X102.393 Y100.875 E4.38962
G1 X94.751 Y108.517 E4.72689
G1 X94.038 Y108.339 E4.74984
G1 X102.393 Y99.983 E5.11860
G1 X102.393 Y99.092 E5.14642
G1 X93.284 Y108.201 E5.54844
G1 X92.483 Y108.111 E5.57360
G1 X102.393 Y98.201 E6.01099
G1 X102.393 Y97.309 E6.03881
G1 X91.624 Y108.079 E6.51413
G1 X90.691 Y108.120 E6.54325
G1 X102.393 Y96.418 E7.05971
G1 X102.393 Y95.527 E7.08752
G1 X89.665 Y108.255 E7.64928
G1 X89.044 Y108.374 E7.66901
G1 X88.512 Y108.517 E7.68621
G1 X102.393 Y94.635 E8.29886
G1 X102.393 Y93.744 E8.32668
G1 X87.150 Y108.987 E8.99943
G1 X86.569 Y109.239 E9.01920
G1 X85.787 Y109.648 E9.04673
G1 X85.299 Y109.947 E9.06458
G1 X102.393 Y92.853 E9.81902
G1 X102.393 Y91.961 E9.84683
G1 X81.395 Y112.960 E10.77360
G1 X81.357 Y112.948 E10.77485
G1 X81.357 Y112.107 E10.80111
G1 X102.393 Y91.070 E11.72956
G1 X102.393 Y90.179 E11.75737
G1 X81.357 Y111.216 E12.68582
G1 X81.357 Y110.324 E12.71363
G1 X102.393 Y89.287 E13.64208
G1 X102.393 Y88.396 E13.66990
G1 X81.357 Y109.433 E14.59834
