; generated by Slic3r 1.3.1-dev (Build 2ef957d) on 2019-11-25 at 09:19:37

; external perimeters extrusion width = 0.55mm (4.37mm^3/s)
; perimeters extrusion width = 0.70mm (11.44mm^3/s)
; infill extrusion width = 0.62mm (13.45mm^3/s)
; solid infill extrusion width = 0.70mm (3.81mm^3/s)
; top infill extrusion width = 0.70mm (2.86mm^3/s)

M107
G92 E0
M104 S200 ; set temperature
G28 ; home all axes
G1 Z5 F5000 ; lift nozzle

; Filament gcode

M109 S200 ; set temperature and wait for it to be reached
G21 ; set units to millimeters
G90 ; use absolute coordinates
M82 ; use absolute distances for extrusion
G92 E0
G1 Z0.350 F7800.000
G1 E-2.00000 F2400.00000
G92 E0
G1 X25.366 Y23.194 F7800.000
G1 E2.00000 F2400.00000
G1 F1800.000
G1 X26.099 Y22.744 E2.02662
G1 X28.569 Y21.837 E2.10803
G1 X29.566 Y21.685 E2.13925
G1 X31.328 Y21.653 E2.19376
G1 X32.587 Y21.798 E2.23298
G1 X33.682 Y22.020 E2.26754
G1 X35.198 Y22.462 E2.31642
G1 X35.893 Y22.708 E2.33923
G1 X37.661 Y23.445 E2.39849
G1 X38.129 Y23.662 E2.41447
G1 X40.475 Y24.875 E2.49619
G1 X42.973 Y26.349 E2.58593
G1 X45.446 Y27.953 E2.67712
G1 X48.490 Y30.082 E2.79205
G1 X51.513 Y32.339 E2.90879
G1 X54.708 Y34.849 E3.03450
G1 X57.969 Y37.526 E3.16504
G1 X61.576 Y40.604 E3.31177
G1 X65.228 Y43.829 E3.46252
G1 X69.009 Y47.272 E3.62072
G1 X72.845 Y50.862 E3.78329
G1 X76.903 Y54.754 E3.95727
G1 X80.990 Y58.763 E4.13440
G1 X85.107 Y62.886 E4.31470
G1 X89.372 Y67.236 E4.50318
G1 X93.639 Y71.663 E4.69343
G1 X97.938 Y76.192 E4.88664
G1 X102.255 Y80.803 E5.08208
G1 X106.548 Y85.449 E5.27781
G1 X110.859 Y90.166 E5.47554
G1 X115.165 Y94.929 E5.67419
G1 X119.407 Y99.666 E5.87097
G1 X123.578 Y104.365 E6.06534
G1 X127.698 Y109.045 E6.25827
G1 X131.750 Y113.682 E6.44881
G1 X139.505 Y122.647 E6.81559
G1 X143.222 Y126.986 E6.99235
G1 X150.206 Y135.210 E7.32619
G1 X156.530 Y142.739 E7.63043
G1 X162.138 Y149.484 E7.90185
G1 X168.979 Y157.804 E8.23513
G1 X173.790 Y163.721 E8.47110
G1 X176.931 Y167.617 E8.62595
G1 X178.036 Y169.627 E8.69691
G1 X178.390 Y171.893 E8.76787
G1 X177.950 Y174.144 E8.83884
G1 X176.768 Y176.110 E8.90980
G1 X174.987 Y177.555 E8.98076
G1 X172.821 Y178.307 E9.05172
G1 X170.527 Y178.274 E9.12268
G1 X167.617 Y176.931 E9.22186
G1 X165.097 Y174.902 E9.32195
G1 X157.804 Y168.979 E9.61267
G1 X149.484 Y162.138 E9.94595
G1 X142.739 Y156.530 E10.21736
G1 X135.197 Y150.194 E10.52214
G1 X126.971 Y143.209 E10.85604
G1 X118.222 Y135.690 E11.21300
G1 X109.063 Y127.714 E11.58876
G1 X104.385 Y123.595 E11.78163
G1 X99.645 Y119.388 E11.97773
G1 X94.929 Y115.165 E12.17360
G1 X90.192 Y110.882 E12.37119
G1 X85.449 Y106.548 E12.56999
G1 X80.772 Y102.226 E12.76702
G1 X76.192 Y97.938 E12.96115
G1 X71.663 Y93.639 E13.15437
G1 X67.236 Y89.372 E13.34462
G1 X62.930 Y85.151 E13.53119
G1 X58.716 Y80.942 E13.71549
G1 X54.754 Y76.903 E13.89053
G1 X50.918 Y72.905 E14.06196
G1 X47.210 Y68.942 E14.22988
G1 X43.829 Y65.228 E14.38528
G1 X40.604 Y61.576 E14.53603
G1 X37.526 Y57.969 E14.68275
G1 X34.759 Y54.596 E14.81774
G1 X32.339 Y51.513 E14.93901
G1 X30.082 Y48.490 E15.05575
G1 X27.953 Y45.446 E15.17067
G1 X26.349 Y42.973 E15.26187
G1 X24.875 Y40.475 E15.35161
G1 X23.662 Y38.129 E15.43333
G1 X23.445 Y37.661 E15.44930
G1 X22.708 Y35.893 E15.50856
G1 X22.462 Y35.198 E15.53138
G1 X22.020 Y33.682 E15.58025
G1 X21.798 Y32.587 E15.61481
G1 X21.653 Y31.328 E15.65403
G1 X21.685 Y29.566 E15.70854
G1 X21.837 Y28.569 E15.73976
G1 X22.744 Y26.099 E15.82118
G1 X23.194 Y25.366 E15.84780
G1 X25.313 Y23.247 E15.94050
G1 E13.94050 F2400.00000
G92 E0
G1 X121.473 Y120.957 F7800.000
G1 E2.00000 F2400.00000
G1 F1800.000
G1 X122.102 Y120.586 E2.02259
G1 X122.754 Y120.396 E2.04360
G1 X123.218 Y120.352 E2.05802
G1 X123.894 Y120.416 E2.07904
G1 X124.533 Y120.646 E2.10005
G1 X124.934 Y120.883 E2.11445
G1 X125.405 Y121.299 E2.13390
G1 X125.690 Y121.667 E2.14831
G1 X125.976 Y122.227 E2.16775
G1 X126.106 Y122.674 E2.18216
G1 X126.165 Y123.299 E2.20160
G1 X126.126 Y123.713 E2.21445
G1 X126.035 Y124.118 E2.22728
G1 X125.765 Y124.741 E2.24831
G1 X125.318 Y125.318 E2.27089
G1 X124.741 Y125.765 E2.29347
G1 X124.118 Y126.035 E2.31450
G1 X123.713 Y126.126 E2.32734
G1 X123.299 Y126.165 E2.34018
G1 X122.674 Y126.106 E2.35962
G1 X122.227 Y125.976 E2.37403
G1 X121.667 Y125.690 E2.39348
G1 X121.299 Y125.405 E2.40788
G1 X120.883 Y124.934 E2.42733
G1 X120.646 Y124.533 E2.44174
G1 X120.416 Y123.894 E2.46275
G1 X120.352 Y123.218 E2.48377
G1 X120.391 Y122.804 E2.49662
G1 X120.482 Y122.399 E2.50946
G1 X120.731 Y121.823 E2.52890
G1 X120.993 Y121.437 E2.54331
G1 X121.420 Y121.010 E2.56200
G1 X121.859 Y121.455 F7800.000
G1 F1800.000
G1 X122.352 Y121.164 E2.57970
G1 X122.872 Y121.013 E2.59645
G1 X123.218 Y120.980 E2.60720
G1 X123.757 Y121.031 E2.62395
G1 X124.266 Y121.214 E2.64070
G1 X124.565 Y121.391 E2.65145
G1 X124.948 Y121.729 E2.66724
G1 X125.161 Y122.003 E2.67799
G1 X125.392 Y122.458 E2.69377
G1 X125.489 Y122.792 E2.70453
G1 X125.537 Y123.299 E2.72031
G1 X125.507 Y123.615 E2.73012
G1 X125.438 Y123.924 E2.73991
G1 X125.223 Y124.421 E2.75666
G1 X124.873 Y124.873 E2.77436
G1 X124.421 Y125.223 E2.79206
G1 X123.924 Y125.438 E2.80881
G1 X123.615 Y125.507 E2.81861
G1 X123.299 Y125.537 E2.82841
G1 X122.792 Y125.489 E2.84420
G1 X122.458 Y125.392 E2.85495
G1 X122.003 Y125.161 E2.87074
G1 X121.729 Y124.948 E2.88149
G1 X121.391 Y124.565 E2.89728
G1 X121.214 Y124.266 E2.90803
G1 X121.031 Y123.757 E2.92477
G1 X120.980 Y123.218 E2.94152
G1 X121.010 Y122.902 E2.95133
G1 X121.079 Y122.593 E2.96112
G1 X121.281 Y122.125 E2.97691
G1 X121.477 Y121.838 E2.98766
G1 X121.806 Y121.508 E3.00209
G1 X122.245 Y121.953 F7800.000
G1 F1800.000
G1 X122.602 Y121.742 E3.01491
G1 X122.989 Y121.629 E3.02738
G1 X123.218 Y121.608 E3.03448
G1 X123.619 Y121.646 E3.04696
G1 X123.998 Y121.782 E3.05943
G1 X124.196 Y121.899 E3.06653
G1 X124.490 Y122.158 E3.07866
G1 X124.631 Y122.339 E3.08576
G1 X124.809 Y122.689 E3.09789
G1 X124.873 Y122.909 E3.10499
G1 X124.909 Y123.299 E3.11711
G1 X124.889 Y123.517 E3.12387
G1 X124.841 Y123.730 E3.13063
G1 X124.681 Y124.100 E3.14311
G1 X124.427 Y124.427 E3.15592
G1 X124.100 Y124.681 E3.16874
G1 X123.730 Y124.841 E3.18122
G1 X123.517 Y124.889 E3.18797
G1 X123.299 Y124.909 E3.19473
G1 X122.909 Y124.873 E3.20686
G1 X122.689 Y124.809 E3.21396
G1 X122.339 Y124.631 E3.22609
G1 X122.158 Y124.490 E3.23318
G1 X121.899 Y124.196 E3.24532
G1 X121.782 Y123.998 E3.25241
G1 X121.646 Y123.619 E3.26489
G1 X121.608 Y123.218 E3.27736
G1 X121.628 Y123.000 E3.28412
G1 X121.676 Y122.787 E3.29088
G1 X121.831 Y122.427 E3.30301
G1 X121.960 Y122.238 E3.31011
G1 X122.192 Y122.006 E3.32026
G1 X122.245 Y121.953 F7800.000
G1 E1.32026 F2400.00000
G92 E0
G1 X159.690 Y159.450 F7800.000
G1 E2.00000 F2400.00000
G1 F1800.000
G1 X159.450 Y159.690 E2.01050
G1 X148.018 Y150.223 E2.46976
G1 X140.509 Y143.916 E2.77319
G1 X132.320 Y136.962 E3.10560
G1 X123.594 Y129.462 E3.46162
G1 X114.476 Y121.522 E3.83571
G1 X109.822 Y117.424 E4.02758
G1 X105.129 Y113.258 E4.22175
G1 X100.418 Y109.040 E4.41739
G1 X95.711 Y104.784 E4.61375
G1 X91.028 Y100.505 E4.81003
G1 X86.389 Y96.218 E5.00546
G1 X81.817 Y91.938 E5.19927
G1 X77.330 Y87.678 E5.39069
G1 X72.949 Y83.455 E5.57897
G1 X68.693 Y79.283 E5.76338
G1 X64.581 Y75.176 E5.94319
G1 X60.631 Y71.150 E6.11770
G1 X56.861 Y67.219 E6.28625
G1 X53.285 Y63.397 E6.44817
G1 X49.920 Y59.700 E6.60286
G1 X46.778 Y56.143 E6.74971
G1 X43.874 Y52.739 E6.88816
G1 X41.217 Y49.503 E7.01769
G1 X38.820 Y46.450 E7.13781
G1 X36.691 Y43.593 E7.24805
G1 X34.838 Y40.948 E7.34797
G1 X33.270 Y38.529 E7.43718
G1 X31.992 Y36.352 E7.51527
G1 X31.012 Y34.437 E7.58184
G1 X30.333 Y32.809 E7.63642
G1 X29.953 Y31.508 E7.67834
G1 X29.848 Y30.597 E7.70673
G1 X29.919 Y30.132 E7.72128
G1 X30.000 Y30.000 E7.72608
G1 X30.132 Y29.919 E7.73088
G1 X30.597 Y29.848 E7.74543
G1 X31.508 Y29.953 E7.77382
G1 X32.809 Y30.333 E7.81575
G1 X34.437 Y31.012 E7.87032
G1 X36.352 Y31.992 E7.93689
G1 X38.529 Y33.270 E8.01498
G1 X40.948 Y34.838 E8.10419
G1 X43.593 Y36.691 E8.20411
G1 X46.450 Y38.820 E8.31435
G1 X49.503 Y41.217 E8.43447
G1 X52.739 Y43.874 E8.56400
G1 X56.143 Y46.778 E8.70245
G1 X59.700 Y49.920 E8.84930
G1 X63.397 Y53.285 E9.00399
G1 X67.219 Y56.861 E9.16591
G1 X71.150 Y60.631 E9.33446
G1 X75.176 Y64.581 E9.50897
G1 X79.283 Y68.693 E9.68878
G1 X83.455 Y72.949 E9.87319
G1 X87.678 Y77.330 E10.06147
G1 X91.938 Y81.817 E10.25289
G1 X96.218 Y86.389 E10.44670
G1 X100.505 Y91.028 E10.64213
G1 X104.784 Y95.711 E10.83841
G1 X109.040 Y100.418 E11.03477
G1 X113.258 Y105.129 E11.23041
G1 X117.423 Y109.821 E11.42454
G1 X125.541 Y119.076 E11.80544
G1 X129.461 Y123.593 E11.99050
G1 X136.963 Y132.321 E12.34660
G1 X140.513 Y136.490 E12.51602
G1 X147.156 Y144.357 E12.83462
G1 X153.108 Y151.479 E13.12181
G1 X159.643 Y159.392 E13.43934
G1 E11.43934 F2400.00000
G92 E0
G1 X164.148 Y163.908 F7800.000
G1 E2.00000 F2400.00000
G1 F1800.000
G1 X163.908 Y164.148 E2.01050
G1 X157.336 Y158.767 E2.27332
G1 X147.618 Y150.703 E2.66406
G1 X140.106 Y144.393 E2.96759
G1 X131.914 Y137.437 E3.30012
G1 X123.185 Y129.935 E3.65626
G1 X114.065 Y121.992 E4.03046
G1 X109.408 Y117.893 E4.22242
G1 X104.713 Y113.725 E4.41667
G1 X100.000 Y109.505 E4.61241
G1 X95.291 Y105.247 E4.80886
G1 X90.605 Y100.965 E5.00525
G1 X85.964 Y96.676 E5.20079
G1 X81.388 Y92.392 E5.39473
G1 X76.898 Y88.130 E5.58629
G1 X72.513 Y83.903 E5.77473
G1 X68.253 Y79.727 E5.95931
G1 X64.137 Y75.616 E6.13931
G1 X60.183 Y71.585 E6.31403
G1 X56.407 Y67.648 E6.48280
G1 X52.826 Y63.821 E6.64498
G1 X49.454 Y60.118 E6.79994
G1 X46.306 Y56.552 E6.94710
G1 X43.394 Y53.140 E7.08590
G1 X40.730 Y49.894 E7.21583
G1 X38.324 Y46.829 E7.33640
G1 X36.184 Y43.959 E7.44717
G1 X34.320 Y41.297 E7.54772
G1 X32.738 Y38.857 E7.63771
G1 X31.444 Y36.653 E7.71679
G1 X30.444 Y34.700 E7.78467
G1 X29.742 Y33.018 E7.84107
G1 X29.338 Y31.633 E7.88571
G1 X29.217 Y30.585 E7.91833
G1 X29.320 Y29.912 E7.93939
G1 X29.546 Y29.546 E7.95272
G1 X29.912 Y29.320 E7.96604
G1 X30.585 Y29.217 E7.98710
G1 X31.633 Y29.338 E8.01972
G1 X33.018 Y29.742 E8.06436
G1 X34.700 Y30.444 E8.12076
G1 X36.653 Y31.444 E8.18865
G1 X38.857 Y32.738 E8.26773
G1 X41.297 Y34.320 E8.35771
G1 X43.959 Y36.184 E8.45827
G1 X46.829 Y38.324 E8.56903
G1 X49.894 Y40.730 E8.68960
G1 X53.140 Y43.394 E8.81953
G1 X56.552 Y46.306 E8.95833
G1 X60.118 Y49.454 E9.10549
G1 X63.821 Y52.826 E9.26045
G1 X67.648 Y56.407 E9.42263
G1 X71.585 Y60.183 E9.59140
G1 X75.616 Y64.137 E9.76612
G1 X79.727 Y68.253 E9.94612
G1 X83.903 Y72.513 E10.13070
G1 X88.130 Y76.898 E10.31914
G1 X92.392 Y81.388 E10.51070
G1 X96.676 Y85.964 E10.70464
G1 X100.965 Y90.605 E10.90018
G1 X105.247 Y95.291 E11.09657
G1 X109.505 Y100.000 E11.29302
G1 X113.725 Y104.713 E11.48876
G1 X117.892 Y109.408 E11.68298
G1 X126.012 Y118.665 E12.06400
G1 X129.934 Y123.184 E12.24915
G1 X137.437 Y131.915 E12.60534
G1 X140.990 Y136.086 E12.77485
G1 X147.635 Y143.955 E13.09354
G1 X153.589 Y151.079 E13.38082
G1 X158.766 Y157.336 E13.63209
G1 X164.101 Y163.850 E13.89261
G1 E11.89261 F2400.00000
G92 E0
G1 X168.405 Y168.167 F7800.000
G1 E2.00000 F2400.00000
G1 F1800.000
G1 X168.167 Y168.405 E2.01044
G1 X164.466 Y165.413 E2.15770
G1 X156.939 Y159.249 E2.45872
G1 X147.217 Y151.182 E2.84958
G1 X139.703 Y144.871 E3.15322
G1 X131.508 Y137.912 E3.48586
G1 X122.776 Y130.407 E3.84212
G1 X113.653 Y122.462 E4.21644
G1 X108.994 Y118.361 E4.40849
G1 X104.297 Y114.191 E4.60282
G1 X99.582 Y109.969 E4.79865
G1 X94.870 Y105.709 E4.99519
G1 X90.182 Y101.426 E5.19169
G1 X85.538 Y97.133 E5.38735
G1 X80.959 Y92.847 E5.58142
G1 X76.466 Y88.581 E5.77312
G1 X72.078 Y84.351 E5.96171
G1 X67.814 Y80.171 E6.14646
G1 X63.693 Y76.056 E6.32665
G1 X59.734 Y72.020 E6.50158
G1 X55.953 Y68.078 E6.67058
G1 X52.367 Y64.245 E6.83301
G1 X48.989 Y60.535 E6.98825
G1 X45.834 Y56.962 E7.13572
G1 X42.915 Y53.541 E7.27487
G1 X40.243 Y50.285 E7.40520
G1 X37.827 Y47.209 E7.52622
G1 X35.678 Y44.325 E7.63751
G1 X33.802 Y41.647 E7.73870
G1 X32.206 Y39.185 E7.82946
G1 X30.896 Y36.954 E7.90952
G1 X29.877 Y34.963 E7.97872
G1 X29.152 Y33.226 E8.03695
G1 X28.724 Y31.757 E8.08431
G1 X28.587 Y30.574 E8.12116
G1 X28.722 Y29.693 E8.14873
G1 X29.092 Y29.092 E8.17057
G1 X29.693 Y28.722 E8.19242
G1 X30.574 Y28.587 E8.21999
G1 X31.757 Y28.724 E8.25684
G1 X33.226 Y29.152 E8.30420
G1 X34.963 Y29.877 E8.36243
G1 X36.954 Y30.896 E8.43163
G1 X39.185 Y32.206 E8.51169
G1 X41.647 Y33.802 E8.60245
G1 X44.325 Y35.678 E8.70364
G1 X47.209 Y37.827 E8.81493
G1 X50.285 Y40.243 E8.93595
G1 X53.541 Y42.915 E9.06628
G1 X56.962 Y45.834 E9.20543
G1 X60.535 Y48.989 E9.35290
G1 X64.245 Y52.367 E9.50814
G1 X68.078 Y55.953 E9.67057
G1 X72.020 Y59.734 E9.83957
G1 X76.056 Y63.693 E10.01450
G1 X80.171 Y67.814 E10.19469
G1 X84.351 Y72.078 E10.37944
G1 X88.581 Y76.466 E10.56803
G1 X92.847 Y80.959 E10.75973
G1 X97.133 Y85.538 E10.95380
G1 X101.426 Y90.182 E11.14946
G1 X105.709 Y94.870 E11.34596
G1 X109.969 Y99.582 E11.54250
G1 X114.191 Y104.297 E11.73833
G1 X118.360 Y108.994 E11.93265
G1 X126.483 Y118.254 E12.31377
G1 X130.407 Y122.776 E12.49902
G1 X137.912 Y131.509 E12.85530
G1 X141.466 Y135.681 E13.02490
G1 X148.113 Y143.553 E13.34368
G1 X154.069 Y150.680 E13.63105
G1 X159.249 Y156.939 E13.88242
G1 X165.413 Y164.466 E14.18345
G1 X168.358 Y168.108 E14.32839
G1 X168.077 Y168.243 F7800.000
G1 X168.286 Y168.286 F7800.000
G1 F1800.000
G1 X168.485 Y168.485 E14.33945
G1 F1800.000
G1 X168.882 Y168.882 E14.35896
G1 F1800.000
G1 X169.279 Y169.279 E14.37585
G1 F1800.000
G1 X169.676 Y169.676 E14.39014
G1 F1800.000
G1 X170.073 Y170.073 E14.40182
G1 F1800.000
G1 X170.471 Y170.471 E14.41089
G1 F1800.000
G1 X170.868 Y170.868 E14.41735
G1 F1800.000
G1 X171.265 Y171.265 E14.42120
G1 E12.42120 F2400.00000
G92 E0
G1 X167.061 Y167.061 F7800.000
G1 E2.00000 F2400.00000
G1 F1800.000
G1 X166.727 Y166.727 E2.00135
G1 F1800.000
G1 X166.393 Y166.393 E2.00500
G1 F1800.000
G1 X166.059 Y166.059 E2.01093
G1 F1800.000
G1 X165.725 Y165.725 E2.01916
G1 F1800.000
G1 X165.392 Y165.392 E2.02967
G1 F1800.000
G1 X165.058 Y165.058 E2.04248
G1 F1800.000
G1 X164.570 Y164.570 E2.06453
G1 F1800.000
G1 X164.249 Y164.249 E2.08125
G1 E0.08125 F2400.00000
G92 E0
G1 X162.734 Y162.734 F7800.000
G1 E2.00000 F2400.00000
G1 F1800.000
G1 X162.342 Y162.342 E2.00159
G1 F1800.000
G1 X161.949 Y161.949 E2.00588
G1 F1800.000
G1 X161.557 Y161.557 E2.01286
G1 F1800.000
G1 X161.164 Y161.164 E2.02253
G1 F1800.000
G1 X160.772 Y160.772 E2.03490
G1 F1800.000
G1 X160.380 Y160.380 E2.04997
G1 F1800.000
G1 X159.987 Y159.987 E2.06773
G1 F1800.000
G1 X159.791 Y159.791 E2.07795
G1 E0.07795 F2400.00000
G92 E0
G1 X158.276 Y158.276 F7800.000
G1 E2.00000 F2400.00000
G1 F1800.000
G1 X157.982 Y157.982 E2.00094
G1 F1800.000
G1 X157.577 Y157.576 E2.00466
G1 F1800.000
G1 X157.172 Y157.171 E2.01110
G1 F1800.000
G1 X156.767 Y156.765 E2.02026
G1 F1800.000
G1 X156.361 Y156.359 E2.03214
G1 F1800.000
G1 X155.956 Y155.954 E2.04675
G1 F1800.000
G1 X155.551 Y155.548 E2.06407
G1 F1800.000
G1 X155.146 Y155.143 E2.08411
G1 X154.489 Y154.917 F7800.000
G1 F1800.000
G1 X155.086 Y154.319 E2.11046
G1 X154.684 Y153.831 E2.13017
G1 X153.839 Y154.676 E2.16741
G1 X153.352 Y154.273 E2.18711
G1 X154.281 Y153.344 E2.22807
G1 X153.879 Y152.856 E2.24778
G1 X152.865 Y153.870 E2.29246
G1 X152.378 Y153.466 E2.31217
G1 X153.476 Y152.368 E2.36056
G1 X153.073 Y151.881 E2.38027
G1 X151.891 Y153.063 E2.43238
G1 X151.404 Y152.660 E2.45209
G1 X152.669 Y151.395 E2.50786
G1 X152.264 Y150.910 E2.52755
G1 X150.917 Y152.257 E2.58692
G1 X150.430 Y151.853 E2.60663
G1 X151.859 Y150.425 E2.66960
G1 X151.453 Y149.940 E2.68930
G1 X149.943 Y151.450 E2.75587
G1 X149.456 Y151.047 E2.77558
G1 X151.048 Y149.455 E2.84575
G1 X150.643 Y148.970 E2.86545
G1 X148.969 Y150.644 E2.93922
G1 X148.482 Y150.240 E2.95892
G1 X150.238 Y148.485 E3.03630
G1 X149.832 Y148.000 E3.05599
G1 X147.997 Y149.836 E3.13691
G1 X147.513 Y149.429 E3.15661
G1 X149.427 Y147.515 E3.24099
G1 X149.022 Y147.030 E3.26069
G1 X147.029 Y149.023 E3.34854
G1 X146.545 Y148.617 E3.36823
G1 X148.617 Y146.545 E3.45954
G1 X148.211 Y146.060 E3.47924
G1 X146.061 Y148.210 E3.57401
G1 X145.577 Y147.804 E3.59370
G1 X147.806 Y145.575 E3.69193
G1 X147.401 Y145.090 E3.71163
