; generated by Slic3r 1.3.1-dev (Build 2ef957d) on 2019-11-25 at 09:24:24

; external perimeters extrusion width = 0.55mm (4.37mm^3/s)
; perimeters extrusion width = 0.70mm (11.44mm^3/s)
; infill extrusion width = 0.62mm (13.45mm^3/s)
; solid infill extrusion width = 0.70mm (3.81mm^3/s)
; top infill extrusion width = 0.70mm (2.86mm^3/s)

M107
G92 E0
M104 S200 ; set temperature
G28 ; home all axes
G1 Z5 F5000 ; lift nozzle

; Filament gcode

M109 S200 ; set temperature and wait for it to be reached
G21 ; set units to millimeters
G90 ; use absolute coordinates
M82 ; use absolute distances for extrusion
G92 E0
G1 Z0.350 F7800.000
G1 E-2.00000 F2400.00000
G92 E0
G1 X59.275 Y72.383 F7800.000
G1 E2.00000 F2400.00000
G1 F1800.000
G1 X61.427 Y71.590 E2.07096
G1 X62.711 Y71.485 E2.11082
G1 X65.602 Y71.534 E2.20028
G1 X68.490 Y71.673 E2.28973
G1 X71.372 Y71.903 E2.37919
G1 X74.039 Y72.198 E2.46221
G1 X76.901 Y72.602 E2.55166
G1 X79.954 Y73.135 E2.64755
G1 X82.581 Y73.679 E2.73057
G1 X84.084 Y74.036 E2.77835
G1 X84.494 Y74.149 E2.79152
G1 X94.994 Y77.396 E3.13158
G1 X96.583 Y77.986 E3.18402
G1 X99.062 Y79.013 E3.26704
G1 X101.698 Y80.200 E3.35650
G1 X104.481 Y81.563 E3.45239
G1 X107.035 Y82.919 E3.54185
G1 X109.365 Y84.248 E3.62487
G1 X111.832 Y85.756 E3.71432
G1 X114.250 Y87.340 E3.80377
G1 X116.786 Y89.123 E3.89967
G1 X119.096 Y90.861 E3.98912
G1 X121.190 Y92.539 E4.07214
G1 X123.547 Y94.551 E4.16804
G1 X125.531 Y96.357 E4.25106
G1 X127.610 Y98.367 E4.34051
G1 X129.624 Y100.441 E4.42997
G1 X131.710 Y102.733 E4.52586
G1 X133.585 Y104.934 E4.61532
G1 X135.263 Y107.028 E4.69834
G1 X137.123 Y109.506 E4.79423
G1 X138.783 Y111.873 E4.88369
G1 X140.368 Y114.292 E4.97315
G1 X141.770 Y116.579 E5.05617
G1 X143.003 Y118.734 E5.13299
G1 X143.777 Y120.893 E5.20395
G1 X143.769 Y123.187 E5.27491
G1 X142.979 Y125.340 E5.34587
G1 X141.503 Y127.095 E5.41684
G1 X139.517 Y128.241 E5.48780
G1 X137.248 Y128.642 E5.55907
G1 X62.607 Y128.642 E7.86857
G1 X60.348 Y128.245 E7.93953
G1 X58.360 Y127.101 E8.01050
G1 X56.881 Y125.349 E8.08146
G1 X56.088 Y123.197 E8.15242
G1 X55.982 Y122.017 E8.18907
G1 X55.982 Y78.109 E9.54764
G1 X56.379 Y75.850 E9.61860
G1 X57.522 Y73.862 E9.68956
G1 X59.218 Y72.431 E9.75820
G1 E7.75820 F2400.00000
G92 E0
G1 X94.637 Y87.090 F7800.000
G1 E2.00000 F2400.00000
G1 F1800.000
G1 X94.637 Y86.082 E2.03119
G1 X95.891 Y86.602 E2.07320
G1 X98.291 Y87.685 E2.15466
G1 X100.655 Y88.843 E2.23612
G1 X102.982 Y90.075 E2.31759
G1 X105.269 Y91.380 E2.39905
G1 X107.514 Y92.755 E2.48051
G1 X109.714 Y94.201 E2.56197
G1 X111.868 Y95.715 E2.64344
G1 X113.973 Y97.296 E2.72490
G1 X116.028 Y98.942 E2.80636
G1 X118.030 Y100.652 E2.88782
G1 X119.977 Y102.423 E2.96928
G1 X121.868 Y104.256 E3.05075
G1 X123.700 Y106.146 E3.13221
G1 X125.472 Y108.094 E3.21367
G1 X127.182 Y110.096 E3.29513
G1 X128.828 Y112.150 E3.37659
G1 X130.409 Y114.256 E3.45806
G1 X131.923 Y116.410 E3.53952
G1 X133.368 Y118.610 E3.62098
G1 X134.475 Y120.417 E3.68654
G1 X130.453 Y120.417 E3.81100
G1 X129.087 Y118.337 E3.88800
G1 X127.635 Y116.271 E3.96612
G1 X126.119 Y114.252 E4.04425
G1 X124.540 Y112.281 E4.12238
G1 X122.900 Y110.361 E4.20051
G1 X121.201 Y108.494 E4.27864
G1 X119.444 Y106.680 E4.35677
G1 X117.630 Y104.923 E4.43490
G1 X115.763 Y103.224 E4.51303
G1 X113.843 Y101.584 E4.59116
G1 X111.872 Y100.005 E4.66929
G1 X109.853 Y98.489 E4.74742
G1 X107.787 Y97.037 E4.82554
G1 X105.676 Y95.651 E4.90367
G1 X103.523 Y94.331 E4.98180
G1 X101.330 Y93.080 E5.05993
G1 X99.098 Y91.899 E5.13806
G1 X96.831 Y90.788 E5.21619
G1 X94.529 Y89.749 E5.29432
G1 X92.196 Y88.782 E5.37245
G1 X89.834 Y87.890 E5.45058
G1 X87.445 Y87.072 E5.52871
G1 X85.032 Y86.329 E5.60684
G1 X82.487 Y85.633 E5.68849
G1 X82.487 Y83.122 E5.76618
G1 X83.205 Y83.294 E5.78903
G1 X85.714 Y83.981 E5.86953
G1 X88.201 Y84.746 E5.95004
G1 X90.663 Y85.589 E6.03055
G1 X94.567 Y87.064 E6.15967
G1 X94.012 Y86.186 F7800.000
G1 F1800.000
G1 X94.012 Y85.147 E6.19182
G1 X96.139 Y86.028 E6.26307
G1 X98.557 Y87.120 E6.34514
G1 X100.939 Y88.287 E6.42721
G1 X103.283 Y89.528 E6.50928
G1 X105.587 Y90.842 E6.59135
G1 X107.848 Y92.228 E6.67342
G1 X110.065 Y93.684 E6.75549
G1 X112.235 Y95.209 E6.83756
G1 X114.356 Y96.802 E6.91963
G1 X116.427 Y98.460 E7.00170
G1 X118.443 Y100.183 E7.08377
G1 X120.405 Y101.968 E7.16584
G1 X122.310 Y103.814 E7.24791
G1 X124.156 Y105.719 E7.32998
G1 X125.941 Y107.680 E7.41205
G1 X127.664 Y109.697 E7.49411
G1 X129.322 Y111.767 E7.57619
G1 X130.915 Y113.888 E7.65825
G1 X132.440 Y116.059 E7.74032
G1 X133.896 Y118.275 E7.82239
G1 X135.282 Y120.537 E7.90446
G1 X135.570 Y121.042 E7.92245
G1 X130.116 Y121.042 E8.09120
G1 X128.570 Y118.688 E8.17832
G1 X127.129 Y116.639 E8.25584
G1 X125.625 Y114.635 E8.33337
G1 X124.059 Y112.680 E8.41089
G1 X122.431 Y110.774 E8.48841
G1 X120.745 Y108.921 E8.56593
G1 X119.002 Y107.122 E8.64345
G1 X117.202 Y105.379 E8.72098
G1 X115.349 Y103.692 E8.79850
G1 X113.444 Y102.065 E8.87602
G1 X111.489 Y100.499 E8.95354
G1 X109.485 Y98.994 E9.03106
G1 X107.435 Y97.554 E9.10858
G1 X105.341 Y96.178 E9.18611
G1 X103.205 Y94.869 E9.26363
G1 X101.029 Y93.628 E9.34115
G1 X98.815 Y92.455 E9.41867
G1 X96.565 Y91.353 E9.49619
G1 X94.281 Y90.322 E9.57372
G1 X91.966 Y89.363 E9.65124
G1 X89.623 Y88.478 E9.72876
G1 X87.252 Y87.666 E9.80628
G1 X84.858 Y86.929 E9.88380
G1 X82.441 Y86.268 E9.96132
G1 X81.862 Y86.129 E9.97975
G1 X81.862 Y82.329 E10.09733
G1 X83.360 Y82.689 E10.14501
G1 X85.889 Y83.381 E10.22612
G1 X88.394 Y84.151 E10.30723
G1 X90.875 Y85.001 E10.38835
G1 X93.942 Y86.160 E10.48980
G1 X93.387 Y85.282 F7800.000
G1 F1800.000
G1 X93.387 Y84.231 E10.52231
G1 X93.919 Y84.432 E10.53991
G1 X96.388 Y85.455 E10.62258
G1 X98.823 Y86.554 E10.70526
G1 X101.222 Y87.730 E10.78794
G1 X103.584 Y88.980 E10.87061
G1 X105.905 Y90.304 E10.95329
G1 X108.183 Y91.700 E11.03597
G1 X110.417 Y93.167 E11.11864
G1 X112.603 Y94.704 E11.20132
G1 X114.739 Y96.308 E11.28400
G1 X116.825 Y97.979 E11.36668
G1 X118.857 Y99.714 E11.44935
G1 X120.833 Y101.512 E11.53203
G1 X122.752 Y103.372 E11.61471
G1 X124.611 Y105.291 E11.69738
G1 X126.410 Y107.267 E11.78006
G1 X128.145 Y109.299 E11.86274
G1 X129.816 Y111.384 E11.94542
G1 X131.420 Y113.521 E12.02809
G1 X132.957 Y115.707 E12.11077
G1 X134.424 Y117.941 E12.19345
G1 X135.820 Y120.219 E12.27612
G1 X136.646 Y121.667 E12.32770
G1 X129.779 Y121.667 E12.54017
G1 X128.053 Y119.040 E12.63743
G1 X126.624 Y117.006 E12.71434
G1 X125.131 Y115.018 E12.79125
G1 X123.577 Y113.078 E12.86817
G1 X121.963 Y111.188 E12.94508
G1 X120.290 Y109.349 E13.02200
G1 X118.560 Y107.564 E13.09891
G1 X116.775 Y105.834 E13.17583
G1 X114.936 Y104.161 E13.25274
G1 X113.046 Y102.547 E13.32965
G1 X111.106 Y100.993 E13.40657
G1 X109.118 Y99.500 E13.48348
G1 X107.084 Y98.071 E13.56040
G1 X105.007 Y96.706 E13.63731
G1 X102.887 Y95.407 E13.71423
G1 X100.728 Y94.175 E13.79114
G1 X98.531 Y93.012 E13.86805
G1 X96.299 Y91.919 E13.94497
G1 X94.033 Y90.896 E14.02188
G1 X91.736 Y89.944 E14.09880
G1 X89.411 Y89.066 E14.17571
G1 X87.059 Y88.261 E14.25263
G1 X84.683 Y87.530 E14.32954
G1 X82.286 Y86.874 E14.40646
G1 X81.237 Y86.622 E14.43982
G1 X81.237 Y80.525 E14.62845
G1 X82.187 Y80.754 E14.65868
G1 X82.187 Y81.765 E14.68996
G1 X83.516 Y82.084 E14.73224
G1 X86.063 Y82.780 E14.81396
G1 X88.587 Y83.557 E14.89568
G1 X91.086 Y84.413 E14.97740
G1 X93.317 Y85.255 E15.05118
G1 X93.884 Y85.339 F7800.000
G1 E13.05118 F2400.00000
G92 E0
G1 X81.237 Y80.668 F7800.000
G1 E2.00000 F2400.00000
G1 F1800.000
G1 X78.511 Y80.103 E2.12515
G1 X75.891 Y79.646 E2.24473
G1 X73.242 Y79.269 E2.36502
G1 X70.598 Y78.977 E2.48460
G1 X67.939 Y78.768 E2.60453
G1 X65.274 Y78.642 E2.72446
G1 X63.415 Y78.613 E2.80808
G1 X63.276 Y78.631 E2.81436
G1 F1800.000
G1 X63.137 Y78.648 E2.82118
G1 X63.094 Y78.800 E2.82891
G1 F1800.000
G1 X63.050 Y78.952 E2.83596
G1 F1800.000
G1 X63.007 Y79.105 E2.84232
G1 F1800.000
G1 X63.007 Y84.744 E3.04473
G1 E1.04473 F2400.00000
G92 E0
G1 X62.607 Y121.617 F7800.000
G1 E2.00000 F2400.00000
G1 F1800.000
G1 X129.746 Y121.617 E4.40981
G1 E2.40981 F2400.00000
G92 E0
G1 X133.117 Y120.035 F7800.000
G1 E2.00000 F2400.00000
G1 F1800.000
G1 X133.603 Y119.549 E2.02137
G1 X133.265 Y118.999 E2.04144
G1 X132.229 Y120.035 E2.08702
G1 X131.341 Y120.035 E2.11462
G1 X132.921 Y118.455 E2.18410
G1 X132.569 Y117.919 E2.20403
G1 X130.510 Y119.978 E2.29456
G1 X130.158 Y119.442 E2.31449
G1 X132.217 Y117.383 E2.40502
G1 X131.865 Y116.847 E2.42495
G1 X129.806 Y118.906 E2.51549
G1 X129.454 Y118.371 E2.53542
G1 X131.508 Y116.317 E2.62571
G1 X131.141 Y115.795 E2.64552
G1 X129.091 Y117.845 E2.73564
G1 X128.725 Y117.324 E2.75545
G1 X130.775 Y115.274 E2.84557
G1 X130.408 Y114.753 E2.86538
G1 X128.358 Y116.803 E2.95550
G1 X127.992 Y116.281 E2.97531
G1 X130.038 Y114.235 E3.06525
G1 X129.657 Y113.728 E3.08496
G1 X127.615 Y115.770 E3.17474
G1 X127.234 Y115.263 E3.19445
G1 X129.276 Y113.221 E3.28423
G1 X128.895 Y112.714 E3.30394
G1 X126.853 Y114.756 E3.39372
G1 X126.473 Y114.249 E3.41343
G1 X128.512 Y112.209 E3.50310
G1 X128.117 Y111.716 E3.52274
G1 X126.081 Y113.752 E3.61224
G1 X125.687 Y113.259 E3.63188
G1 X127.723 Y111.223 E3.72139
G1 X127.328 Y110.730 E3.74102
G1 X125.292 Y112.766 E3.83053
G1 X124.897 Y112.273 E3.85016
G1 X126.932 Y110.238 E3.93965
G1 X126.523 Y109.759 E3.95923
G1 X124.492 Y111.790 E4.04854
G1 X124.083 Y111.311 E4.06811
G1 X126.114 Y109.280 E4.15742
G1 X125.705 Y108.801 E4.17699
G1 X123.674 Y110.833 E4.26630
G1 X123.265 Y110.354 E4.28588
G1 X125.296 Y108.322 E4.37518
G1 X124.875 Y107.856 E4.39472
G1 X122.847 Y109.884 E4.48389
G1 X122.424 Y109.419 E4.50343
G1 X124.452 Y107.391 E4.59260
G1 X124.029 Y106.926 E4.61214
G1 X122.001 Y108.954 E4.70131
G1 X121.578 Y108.489 E4.72085
G1 X123.606 Y106.461 E4.81002
G1 X123.173 Y106.006 E4.82954
G1 X121.146 Y108.033 E4.91865
G1 X120.709 Y107.582 E4.93817
G1 X122.736 Y105.555 E5.02727
G1 X122.299 Y105.104 E5.04679
G1 X120.272 Y107.131 E5.13589
G1 X119.835 Y106.680 E5.15541
G1 X121.862 Y104.654 E5.24451
G1 X121.669 Y104.455 E5.25313
G1 X121.417 Y104.210 E5.26403
G1 X119.391 Y106.237 E5.35314
G1 X118.940 Y105.800 E5.37265
G1 X120.966 Y103.773 E5.46176
G1 X120.516 Y103.337 E5.48128
G1 X118.489 Y105.363 E5.57038
G1 X118.038 Y104.926 E5.58990
G1 X120.065 Y102.900 E5.67900
G1 X119.793 Y102.636 E5.69077
G1 X119.608 Y102.468 E5.69853
G1 X117.580 Y104.496 E5.78770
G1 X117.115 Y104.073 E5.80724
G1 X119.143 Y102.045 E5.89641
G1 X118.678 Y101.622 E5.91595
G1 X116.650 Y103.650 E6.00512
G1 X116.185 Y103.227 E6.02466
G1 X118.214 Y101.199 E6.11383
G1 X117.860 Y100.877 E6.12869
G1 X117.745 Y100.779 E6.13338
G1 X115.714 Y102.811 E6.22268
G1 X115.235 Y102.402 E6.24226
G1 X117.266 Y100.370 E6.33156
G1 X116.788 Y99.961 E6.35114
G1 X114.756 Y101.993 E6.44044
G1 X114.277 Y101.584 E6.46002
G1 X116.309 Y99.552 E6.54933
G1 X115.829 Y99.145 E6.56891
G1 X113.793 Y101.181 E6.65841
G1 X113.300 Y100.786 E6.67805
G1 X115.336 Y98.750 E6.76756
G1 X114.843 Y98.355 E6.78719
G1 X112.807 Y100.391 E6.87670
G1 X112.314 Y99.996 E6.89633
G1 X114.350 Y97.960 E6.98584
G1 X113.857 Y97.565 E7.00548
G1 X111.815 Y99.607 E7.09522
G1 X111.308 Y99.226 E7.11494
G1 X113.350 Y97.184 E7.20471
G1 X112.843 Y96.803 E7.22443
G1 X110.801 Y98.845 E7.31420
G1 X110.294 Y98.464 E7.33392
G1 X112.336 Y96.422 E7.42369
G1 X111.829 Y96.041 E7.44341
G1 X109.782 Y98.089 E7.53342
G1 X109.260 Y97.722 E7.55323
G1 X111.310 Y95.673 E7.64335
G1 X110.789 Y95.306 E7.66316
G1 X108.739 Y97.356 E7.75328
G1 X108.217 Y96.990 E7.77309
G1 X110.267 Y94.940 E7.86321
G1 X109.746 Y94.573 E7.88302
G1 X107.690 Y96.629 E7.97338
G1 X107.154 Y96.277 E7.99331
G1 X109.214 Y94.217 E8.08384
G1 X108.678 Y93.865 E8.10378
G1 X106.619 Y95.925 E8.19431
G1 X106.083 Y95.573 E8.21424
G1 X108.142 Y93.513 E8.30477
G1 X107.606 Y93.161 E8.32470
G1 X105.541 Y95.227 E8.41550
G1 X104.990 Y94.889 E8.43557
G1 X107.061 Y92.819 E8.52659
G1 X106.510 Y92.482 E8.54666
G1 X104.440 Y94.552 E8.63768
G1 X103.889 Y94.215 E8.65775
G1 X105.960 Y92.144 E8.74877
G1 X105.409 Y91.807 E8.76884
G1 X103.332 Y93.884 E8.86016
G1 X102.766 Y93.562 E8.88040
G1 X104.850 Y91.479 E8.97198
G1 X104.284 Y91.156 E8.99221
G1 X102.201 Y93.239 E9.08379
G1 X101.636 Y92.917 E9.10403
G1 X103.719 Y90.834 E9.19561
G1 X103.153 Y90.511 E9.21584
G1 X101.062 Y92.603 E9.30780
G1 X100.481 Y92.295 E9.32822
G1 X102.579 Y90.198 E9.42044
G1 X101.999 Y89.890 E9.44086
G1 X99.901 Y91.988 E9.53309
G1 X99.320 Y91.681 E9.55350
G1 X101.418 Y89.583 E9.64573
G1 X100.838 Y89.275 E9.66615
G1 X98.729 Y91.384 E9.75884
G1 X98.133 Y91.092 E9.77947
G1 X100.248 Y88.978 E9.87242
G1 X99.652 Y88.686 E9.89305
G1 X97.537 Y90.800 E9.98600
G1 X96.941 Y90.508 E10.00663
G1 X99.056 Y88.394 E10.09958
G1 X98.460 Y88.102 E10.12021
G1 X96.332 Y90.230 E10.21376
G1 X95.720 Y89.953 E10.23462
G1 X97.853 Y87.821 E10.32839
G1 X97.241 Y87.544 E10.34925
G1 X95.109 Y89.677 E10.44302
G1 X94.496 Y89.402 E10.46390
G1 X96.630 Y87.268 E10.55771
G1 X96.018 Y86.992 E10.57857
G1 X95.019 Y87.991 E10.62251
G1 X95.019 Y87.260 E10.64524
G1 X95.532 Y87.478 E10.66257
G1 E8.66257 F2400.00000
G92 E0
G1 X93.868 Y89.142 F7800.000
G1 E2.00000 F2400.00000
G1 F1800.000
G1 X95.326 Y87.684 E2.06410
G1 X94.682 Y87.440 E2.08551
G1 X93.240 Y88.882 E2.14889
G1 X92.612 Y88.622 E2.17001
G1 X94.037 Y87.197 E2.23266
G1 X93.393 Y86.953 E2.25407
G1 X91.979 Y88.367 E2.31622
G1 X91.335 Y88.124 E2.33763
G1 X92.749 Y86.710 E2.39978
G1 X92.104 Y86.466 E2.42119
G1 X90.691 Y87.880 E2.48334
G1 X90.046 Y87.637 E2.50475
G1 X91.460 Y86.223 E2.56690
G1 X90.816 Y85.979 E2.58832
G1 X89.391 Y87.404 E2.65093
G1 X88.730 Y87.177 E2.67267
G1 X90.157 Y85.750 E2.73542
G1 X89.496 Y85.523 E2.75715
G1 X88.068 Y86.951 E2.81991
G1 X87.407 Y86.724 E2.84164
G1 X88.834 Y85.297 E2.90440
G1 X88.171 Y85.073 E2.92617
G1 X86.728 Y86.515 E2.98959
G1 X86.049 Y86.306 E3.01168
G1 X87.492 Y84.864 E3.07510
G1 X86.813 Y84.655 E3.09718
G1 X85.370 Y86.097 E3.16061
G1 X84.684 Y85.896 E3.18284
G1 X86.134 Y84.446 E3.24659
G1 X85.446 Y84.246 E3.26885
G1 X83.987 Y85.705 E3.33301
G1 X83.290 Y85.514 E3.35548
G1 X84.749 Y84.055 E3.41963
G1 X84.052 Y83.864 E3.44210
G1 X82.869 Y85.048 E3.49412
G1 X82.869 Y84.160 E3.52172
G1 X83.355 Y83.674 E3.54310
G1 E1.54310 F2400.00000
G92 E0
G1 X81.712 Y81.972 F7800.000
G1 E2.00000 F2400.00000
G1 F1800.000
G1 X81.712 Y80.961 E2.01252
G1 Z0.650 F7800.000
G1 E0.01252 F2400.00000
G92 E0
G1 X94.508 Y87.153 F7800.000
G1 E2.00000 F2400.00000
G1 F3600.000
G1 X94.508 Y86.143 E2.02727
G1 X95.849 Y86.698 E2.06643
G1 X98.246 Y87.780 E2.13736
G1 X100.607 Y88.937 E2.20830
G1 X102.931 Y90.167 E2.27923
G1 X105.215 Y91.470 E2.35017
G1 X107.457 Y92.844 E2.42110
G1 X109.655 Y94.288 E2.49203
G1 X111.806 Y95.800 E2.56297
G1 X113.909 Y97.379 E2.63390
G1 X115.961 Y99.023 E2.70484
G1 X117.961 Y100.730 E2.77577
G1 X119.906 Y102.500 E2.84671
G1 X121.794 Y104.330 E2.91764
G1 X123.624 Y106.218 E2.98858
G1 X125.393 Y108.163 E3.05951
G1 X127.101 Y110.163 E3.13045
G1 X128.745 Y112.215 E3.20138
G1 X130.324 Y114.317 E3.27232
G1 X131.836 Y116.469 E3.34325
G1 X133.280 Y118.667 E3.41419
G1 X134.431 Y120.546 E3.47364
G1 X130.109 Y120.546 E3.59024
G1 X128.790 Y118.539 E3.65501
G1 X127.345 Y116.482 E3.72283
G1 X125.836 Y114.472 E3.79064
G1 X124.264 Y112.510 E3.85846
G1 X122.631 Y110.598 E3.92627
G1 X120.939 Y108.739 E3.99408
G1 X119.190 Y106.934 E4.06190
G1 X117.385 Y105.184 E4.12971
G1 X115.526 Y103.492 E4.19753
G1 X113.614 Y101.860 E4.26534
G1 X111.652 Y100.288 E4.33316
G1 X109.642 Y98.779 E4.40097
G1 X107.585 Y97.333 E4.46878
G1 X105.484 Y95.953 E4.53660
G1 X103.341 Y94.640 E4.60441
G1 X101.157 Y93.394 E4.67222
G1 X98.936 Y92.218 E4.74004
G1 X96.678 Y91.112 E4.80785
G1 X94.387 Y90.078 E4.87567
G1 X92.065 Y89.116 E4.94348
G1 X89.713 Y88.227 E5.01130
G1 X87.335 Y87.413 E5.07911
G1 X84.932 Y86.674 E5.14692
G1 X82.358 Y85.974 E5.21887
G1 X82.358 Y83.198 E5.29376
G1 X83.179 Y83.395 E5.31652
G1 X85.685 Y84.081 E5.38662
G1 X88.169 Y84.845 E5.45673
G1 X90.627 Y85.687 E5.52683
G1 X94.438 Y87.127 E5.63672
G1 X93.873 Y86.234 F7800.000
G1 F3600.000
G1 X93.873 Y85.191 E5.66484
G1 X96.102 Y86.115 E5.72993
G1 X98.517 Y87.205 E5.80140
G1 X100.896 Y88.371 E5.87288
G1 X103.237 Y89.610 E5.94435
