; generated by Slic3r 1.3.1-dev (Build 2ef957d) on 2019-11-25 at 09:24:51

; external perimeters extrusion width = 0.55mm (4.37mm^3/s)
; perimeters extrusion width = 0.70mm (11.44mm^3/s)
; infill extrusion width = 0.62mm (13.45mm^3/s)
; solid infill extrusion width = 0.70mm (3.81mm^3/s)
; top infill extrusion width = 0.70mm (2.86mm^3/s)

M107
G92 E0
M104 S200 ; set temperature
G28 ; home all axes
G1 Z5 F5000 ; lift nozzle

; Filament gcode

M109 S200 ; set temperature and wait for it to be reached
G21 ; set units to millimeters
G90 ; use absolute coordinates
M82 ; use absolute distances for extrusion
G92 E0
G1 Z0.350 F7800.000
G1 E-2.00000 F2400.00000
G92 E0
G1 X46.668 Y76.774 F7800.000
G1 E2.00000 F2400.00000
G1 F1800.000
G1 X48.820 Y75.981 E2.07096
G1 X50.000 Y75.875 E2.10761
G1 X150.000 Y75.875 E5.20174
G1 X152.259 Y76.272 E5.27271
G1 X154.247 Y77.415 E5.34367
G1 X155.726 Y79.168 E5.41463
G1 X156.519 Y81.320 E5.48559
G1 X156.625 Y82.500 E5.52225
G1 X156.625 Y117.500 E6.60519
G1 X156.228 Y119.759 E6.67615
G1 X155.085 Y121.747 E6.74712
G1 X153.332 Y123.226 E6.81808
G1 X151.180 Y124.019 E6.88904
G1 X150.000 Y124.125 E6.92569
G1 X50.000 Y124.125 E10.01982
G1 X47.741 Y123.728 E10.09079
G1 X45.753 Y122.585 E10.16175
G1 X44.274 Y120.832 E10.23271
G1 X43.481 Y118.680 E10.30367
G1 X43.375 Y117.500 E10.34032
G1 X43.375 Y82.500 E11.42327
G1 X43.772 Y80.241 E11.49423
G1 X44.915 Y78.253 E11.56519
G1 X46.611 Y76.822 E11.63384
G1 E9.63384 F2400.00000
G92 E0
G1 X136.183 Y112.547 F7800.000
G1 E2.00000 F2400.00000
G1 F1800.000
G1 X135.518 Y110.500 E2.06659
G1 X136.183 Y108.453 E2.13318
G1 X137.924 Y107.188 E2.19976
G1 X140.076 Y107.188 E2.26635
G1 X141.817 Y108.453 E2.33294
G1 X142.482 Y110.500 E2.39952
G1 X141.817 Y112.547 E2.46611
G1 X140.076 Y113.812 E2.53270
G1 X137.924 Y113.812 E2.59929
G1 X136.244 Y112.591 E2.66355
G1 X136.715 Y112.161 F7800.000
G1 F1800.000
G1 X136.175 Y110.500 E2.71757
G1 X136.715 Y108.839 E2.77160
G1 X138.127 Y107.813 E2.82562
G1 X139.873 Y107.813 E2.87964
G1 X141.285 Y108.839 E2.93366
G1 X141.825 Y110.500 E2.98769
G1 X141.285 Y112.161 E3.04171
G1 X139.873 Y113.187 E3.09573
G1 X138.127 Y113.187 E3.14976
G1 X136.775 Y112.205 E3.20146
G1 X137.246 Y111.774 F7800.000
G1 F1800.000
G1 X136.832 Y110.500 E3.24292
G1 X137.246 Y109.226 E3.28437
G1 X138.330 Y108.438 E3.32583
G1 X139.670 Y108.438 E3.36729
G1 X140.754 Y109.226 E3.40875
G1 X141.168 Y110.500 E3.45021
G1 X140.754 Y111.774 E3.49166
G1 X139.670 Y112.562 E3.53312
G1 X138.330 Y112.562 E3.57458
G1 X137.307 Y111.818 E3.61372
G1 X137.246 Y111.774 F7800.000
G1 E1.61372 F2400.00000
G92 E0
G1 X121.817 Y96.547 F7800.000
G1 E2.00000 F2400.00000
G1 F1800.000
G1 X120.076 Y97.812 E2.06659
G1 X117.924 Y97.812 E2.13317
G1 X116.183 Y96.547 E2.19976
G1 X115.518 Y94.500 E2.26635
G1 X116.183 Y92.453 E2.33294
G1 X117.924 Y91.188 E2.39952
G1 X120.076 Y91.188 E2.46611
G1 X121.817 Y92.453 E2.53270
G1 X122.482 Y94.500 E2.59928
G1 X121.840 Y96.475 E2.66355
G1 X121.285 Y96.161 F7800.000
G1 F1800.000
G1 X119.873 Y97.187 E2.71757
G1 X118.127 Y97.187 E2.77160
G1 X116.715 Y96.161 E2.82562
G1 X116.175 Y94.500 E2.87964
G1 X116.715 Y92.839 E2.93366
G1 X118.127 Y91.813 E2.98769
G1 X119.873 Y91.813 E3.04171
G1 X121.285 Y92.839 E3.09573
G1 X121.825 Y94.500 E3.14975
G1 X121.309 Y96.089 E3.20146
G1 X120.754 Y95.774 F7800.000
G1 F1800.000
G1 X119.670 Y96.562 E3.24292
G1 X118.330 Y96.562 E3.28437
G1 X117.246 Y95.774 E3.32583
G1 X116.832 Y94.500 E3.36729
G1 X117.246 Y93.226 E3.40875
G1 X118.330 Y92.438 E3.45021
G1 X119.670 Y92.438 E3.49166
G1 X120.754 Y93.226 E3.53312
G1 X121.168 Y94.500 E3.57458
G1 X120.777 Y95.703 E3.61372
G1 X120.754 Y95.774 F7800.000
G1 E1.61372 F2400.00000
G92 E0
G1 X105.154 Y91.296 F7800.000
G1 E2.00000 F2400.00000
G1 F1800.000
G1 X105.154 Y103.911 E2.39035
G1 X103.018 Y104.132 E2.45682
G1 X101.999 Y104.184 E2.48836
G1 X100.707 Y104.206 E2.52836
G1 X99.977 Y104.180 E2.55096
G1 X99.263 Y104.096 E2.57319
G1 X98.579 Y103.950 E2.59485
G1 X97.933 Y103.739 E2.61588
G1 X97.334 Y103.468 E2.63621
G1 X96.781 Y103.137 E2.65616
G1 X96.273 Y102.744 E2.67602
G1 X95.826 Y102.295 E2.69563
G1 X95.444 Y101.806 E2.71483
G1 X95.124 Y101.281 E2.73386
G1 X94.861 Y100.723 E2.75295
G1 X94.659 Y100.142 E2.77198
G1 X94.511 Y99.552 E2.79080
G1 X94.409 Y98.952 E2.80964
G1 X94.349 Y98.336 E2.82879
G1 X94.329 Y97.703 E2.84836
G1 X94.348 Y97.113 E2.86664
G1 X94.405 Y96.529 E2.88480
G1 X94.501 Y95.952 E2.90289
G1 X94.639 Y95.372 E2.92134
G1 X94.832 Y94.784 E2.94048
G1 X95.089 Y94.211 E2.95991
G1 X95.406 Y93.670 E2.97930
G1 X95.783 Y93.161 E2.99893
G1 X96.227 Y92.686 E3.01904
G1 X96.734 Y92.263 E3.03946
G1 X97.289 Y91.899 E3.06000
G1 X97.901 Y91.585 E3.08129
G1 X98.584 Y91.330 E3.10385
G1 X99.321 Y91.154 E3.12730
G1 X100.093 Y91.053 E3.15137
G1 X100.885 Y91.022 E3.17591
G1 X103.122 Y91.116 E3.24518
G1 X105.080 Y91.289 E3.30599
G1 X104.530 Y91.868 F7800.000
G1 F1800.000
G1 X104.530 Y103.348 E3.66120
G1 X102.970 Y103.508 E3.70972
G1 X101.978 Y103.559 E3.74045
G1 X100.713 Y103.581 E3.77960
G1 X100.025 Y103.556 E3.80090
G1 X99.365 Y103.479 E3.82145
G1 X98.741 Y103.346 E3.84118
G1 X98.160 Y103.156 E3.86012
G1 X97.624 Y102.913 E3.87830
G1 X97.133 Y102.620 E3.89599
G1 X96.688 Y102.275 E3.91344
G1 X96.295 Y101.881 E3.93064
G1 X95.959 Y101.450 E3.94757
G1 X95.675 Y100.985 E3.96443
G1 X95.441 Y100.487 E3.98145
G1 X95.259 Y99.963 E3.99861
G1 X95.123 Y99.423 E4.01582
G1 X95.029 Y98.869 E4.03324
G1 X94.973 Y98.295 E4.05105
G1 X94.954 Y97.704 E4.06937
G1 X94.972 Y97.154 E4.08640
G1 X95.025 Y96.611 E4.10328
G1 X95.114 Y96.076 E4.12006
G1 X95.241 Y95.542 E4.13704
G1 X95.415 Y95.010 E4.15435
G1 X95.645 Y94.498 E4.17173
G1 X95.928 Y94.015 E4.18904
G1 X96.264 Y93.562 E4.20650
G1 X96.657 Y93.141 E4.22431
G1 X97.107 Y92.766 E4.24243
G1 X97.604 Y92.440 E4.26083
G1 X98.154 Y92.157 E4.27995
G1 X98.767 Y91.929 E4.30020
G1 X99.435 Y91.769 E4.32145
G1 X100.146 Y91.676 E4.34363
G1 X100.892 Y91.647 E4.36673
G1 X103.079 Y91.739 E4.43448
G1 X104.455 Y91.861 E4.47721
G1 X103.905 Y92.440 F7800.000
G1 F1800.000
G1 X103.905 Y102.784 E4.79727
G1 X102.922 Y102.885 E4.82785
G1 X101.956 Y102.934 E4.85775
G1 X100.718 Y102.956 E4.89606
G1 X100.072 Y102.933 E4.91606
G1 X99.467 Y102.862 E4.93493
G1 X98.904 Y102.742 E4.95273
G1 X98.387 Y102.573 E4.96958
G1 X97.915 Y102.358 E4.98562
G1 X97.486 Y102.103 E5.00105
G1 X97.102 Y101.805 E5.01609
G1 X96.765 Y101.467 E5.03087
G1 X96.474 Y101.093 E5.04553
G1 X96.226 Y100.688 E5.06023
G1 X96.020 Y100.251 E5.07518
G1 X95.858 Y99.784 E5.09046
G1 X95.735 Y99.295 E5.10607
G1 X95.649 Y98.786 E5.12206
G1 X95.597 Y98.255 E5.13854
G1 X95.580 Y97.704 E5.15561
G1 X95.596 Y97.194 E5.17139
G1 X95.645 Y96.692 E5.18699
G1 X95.727 Y96.199 E5.20246
G1 X95.843 Y95.712 E5.21796
G1 X95.999 Y95.236 E5.23344
G1 X96.202 Y94.784 E5.24877
G1 X96.450 Y94.360 E5.26399
G1 X96.744 Y93.962 E5.27929
G1 X97.087 Y93.596 E5.29481
G1 X97.480 Y93.268 E5.31063
G1 X97.919 Y92.980 E5.32688
G1 X98.406 Y92.730 E5.34383
G1 X98.949 Y92.528 E5.36177
G1 X99.548 Y92.385 E5.38082
G1 X100.199 Y92.300 E5.40112
G1 X100.898 Y92.272 E5.42277
G1 X103.037 Y92.363 E5.48900
G1 X103.830 Y92.433 E5.51365
G1 X104.405 Y92.450 F7800.000
G1 E3.51365 F2400.00000
G92 E0
G1 X100.076 Y107.188 F7800.000
G1 E2.00000 F2400.00000
G1 F1800.000
G1 X101.817 Y108.453 E2.06659
G1 X102.482 Y110.500 E2.13317
G1 X101.817 Y112.547 E2.19976
G1 X100.076 Y113.812 E2.26635
G1 X97.924 Y113.812 E2.33294
G1 X96.183 Y112.547 E2.39952
G1 X95.518 Y110.500 E2.46611
G1 X96.183 Y108.453 E2.53270
G1 X97.924 Y107.188 E2.59929
G1 X100.001 Y107.188 E2.66355
G1 X99.873 Y107.813 F7800.000
G1 F1800.000
G1 X101.285 Y108.839 E2.71757
G1 X101.825 Y110.500 E2.77160
G1 X101.285 Y112.161 E2.82562
G1 X99.873 Y113.187 E2.87964
G1 X98.127 Y113.187 E2.93366
G1 X96.715 Y112.161 E2.98769
G1 X96.175 Y110.500 E3.04171
G1 X96.715 Y108.839 E3.09573
G1 X98.127 Y107.813 E3.14976
G1 X99.798 Y107.813 E3.20146
G1 X99.670 Y108.438 F7800.000
G1 F1800.000
G1 X100.754 Y109.226 E3.24292
G1 X101.168 Y110.500 E3.28437
G1 X100.754 Y111.774 E3.32583
G1 X99.670 Y112.562 E3.36729
G1 X98.330 Y112.562 E3.40875
G1 X97.246 Y111.774 E3.45021
G1 X96.832 Y110.500 E3.49166
G1 X97.246 Y109.226 E3.53312
G1 X98.330 Y108.438 E3.57458
G1 X99.595 Y108.438 E3.61372
G1 X99.670 Y108.438 F7800.000
G1 E1.61372 F2400.00000
G92 E0
G1 X94.892 Y103.525 F7800.000
G1 E2.00000 F2400.00000
G1 F1800.000
G1 X91.993 Y111.653 E2.26700
G1 X89.032 Y111.653 E2.35861
G1 X88.751 Y110.865 E2.38450
G1 X88.396 Y111.185 E2.39929
G1 X87.430 Y111.604 E2.43187
G1 X86.441 Y111.723 E2.46269
G1 X85.853 Y111.687 E2.48092
G1 X85.318 Y111.580 E2.49781
G1 X84.804 Y111.390 E2.51475
G1 X84.334 Y111.123 E2.53147
G1 X84.024 Y110.875 E2.54376
G1 X83.747 Y111.653 E2.56932
G1 X80.786 Y111.653 E2.66093
G1 X80.187 Y109.972 E2.71614
G1 X79.555 Y110.200 E2.73692
G1 X79.043 Y110.253 E2.75284
G1 X78.528 Y110.202 E2.76886
G1 X77.995 Y110.016 E2.78632
G1 X77.675 Y109.789 E2.79846
G1 X75.266 Y111.717 E2.89394
G1 X72.596 Y111.717 E2.97655
G1 X72.596 Y107.700 E3.10084
G1 X71.991 Y107.762 E3.11964
G1 X71.991 Y111.589 E3.23804
G1 X66.392 Y111.589 E3.41129
G1 X66.392 Y107.702 E3.53155
G1 X66.317 Y107.452 E3.53963
G1 X66.251 Y107.054 E3.55211
G1 X66.229 Y106.651 E3.56462
G1 X66.256 Y106.193 E3.57879
G1 X66.346 Y105.730 E3.59338
G1 X66.504 Y105.286 E3.60797
G1 X66.721 Y104.879 E3.62223
G1 X66.995 Y104.511 E3.63645
G1 X67.321 Y104.190 E3.65059
G1 X67.680 Y103.928 E3.66434
G1 X68.063 Y103.723 E3.67779
G1 X68.461 Y103.572 E3.69096
G1 X68.863 Y103.471 E3.70378
G1 X69.266 Y103.414 E3.71639
G1 X69.685 Y103.395 E3.72936
G1 X70.277 Y103.431 E3.74771
G1 X70.871 Y103.545 E3.76643
G1 X71.140 Y103.641 E3.77525
G1 X71.521 Y103.505 E3.78776
G1 X72.043 Y103.453 E3.80400
G1 X72.609 Y103.525 E3.82166
G1 X77.629 Y103.525 E3.97699
G1 X77.629 Y103.953 E3.99024
G1 X77.984 Y103.697 E4.00378
G1 X78.521 Y103.505 E4.02143
G1 X79.043 Y103.453 E4.03767
G1 X79.610 Y103.525 E4.05533
G1 X85.326 Y103.525 E4.23220
G1 X86.345 Y103.391 E4.26401
G1 X86.936 Y103.427 E4.28233
G1 X87.431 Y103.525 E4.29793
G1 X94.817 Y103.525 E4.52648
G1 X94.006 Y104.150 F7800.000
G1 F1800.000
G1 X91.552 Y111.028 E4.75242
G1 X89.473 Y111.028 E4.81677
G1 X88.967 Y109.610 E4.86334
G1 X88.692 Y110.076 E4.88007
G1 X88.054 Y110.652 E4.90670
G1 X87.265 Y110.994 E4.93329
G1 X86.422 Y111.095 E4.95955
G1 X85.934 Y111.066 E4.97470
G1 X85.489 Y110.977 E4.98875
G1 X85.068 Y110.821 E5.00261
G1 X84.686 Y110.604 E5.01621
G1 X84.346 Y110.331 E5.02970
G1 X84.057 Y110.010 E5.04307
G1 X83.806 Y109.628 E5.05722
G1 X83.306 Y111.028 E5.10322
G1 X81.226 Y111.028 E5.16757
G1 X80.437 Y108.813 E5.24034
G1 X80.126 Y109.210 E5.25595
G1 X79.789 Y109.451 E5.26878
G1 X79.415 Y109.586 E5.28108
G1 X79.042 Y109.625 E5.29268
G1 X78.663 Y109.588 E5.30444
G1 X78.285 Y109.455 E5.31686
G1 X77.943 Y109.213 E5.32983
G1 X77.731 Y108.944 E5.34042
G1 X75.046 Y111.092 E5.44680
G1 X73.221 Y111.092 E5.50329
G1 X73.221 Y106.868 E5.63399
G1 X72.910 Y106.868 E5.64359
G1 X72.788 Y106.955 E5.64825
G1 X72.414 Y107.090 E5.66054
G1 X72.041 Y107.129 E5.67214
G1 X71.663 Y107.092 E5.68391
G1 X71.367 Y106.988 E5.69361
G1 X71.367 Y110.964 E5.81663
G1 X67.017 Y110.964 E5.95122
G1 X67.017 Y108.182 E6.03729
G1 X67.270 Y108.182 E6.04512
G1 X67.021 Y107.624 E6.06404
G1 X66.927 Y107.310 E6.07416
G1 X66.873 Y106.986 E6.08434
G1 X66.855 Y106.653 E6.09467
G1 X66.878 Y106.271 E6.10648
G1 X66.951 Y105.895 E6.11834
G1 X67.077 Y105.539 E6.13003
G1 X67.251 Y105.215 E6.14142
G1 X67.468 Y104.922 E6.15269
G1 X67.726 Y104.668 E6.16391
G1 X68.013 Y104.458 E6.17490
G1 X68.322 Y104.293 E6.18576
G1 X68.648 Y104.169 E6.19654
G1 X68.983 Y104.085 E6.20722
G1 X69.324 Y104.037 E6.21788
G1 X69.680 Y104.021 E6.22891
G1 X70.199 Y104.052 E6.24500
G1 X70.706 Y104.149 E6.26096
G1 X71.186 Y104.321 E6.27673
G1 X71.277 Y104.256 E6.28020
G1 X71.659 Y104.120 E6.29275
G1 X72.041 Y104.081 E6.30464
G1 X72.418 Y104.121 E6.31637
G1 X72.498 Y104.150 E6.31899
G1 X77.004 Y104.150 E6.45844
G1 X77.004 Y106.868 E6.54253
G1 X76.046 Y106.868 E6.57218
G1 X77.251 Y108.496 E6.63486
G1 X77.518 Y108.391 E6.64375
G1 X77.487 Y108.105 E6.65265
G1 X77.529 Y107.717 E6.66474
G1 X77.677 Y107.334 E6.67745
G1 X77.935 Y106.999 E6.69053
G1 X78.136 Y106.854 E6.69819
G1 X77.943 Y106.717 E6.70553
G1 X77.681 Y106.384 E6.71864
G1 X77.530 Y105.999 E6.73144
G1 X77.487 Y105.609 E6.74355
G1 X77.529 Y105.221 E6.75564
G1 X77.677 Y104.838 E6.76835
G1 X77.935 Y104.503 E6.78143
G1 X78.278 Y104.256 E6.79450
G1 X78.660 Y104.120 E6.80704
G1 X79.042 Y104.081 E6.81893
G1 X79.419 Y104.121 E6.83066
G1 X79.498 Y104.150 E6.83329
G1 X81.846 Y104.150 E6.90594
G1 X82.160 Y105.024 E6.93466
G1 X82.427 Y105.021 E6.94290
G1 X82.722 Y104.150 E6.97136
G1 X85.456 Y104.150 E7.05594
G1 X85.525 Y104.120 E7.05828
G1 X86.364 Y104.019 E7.08443
G1 X86.856 Y104.048 E7.09969
G1 X87.339 Y104.150 E7.11495
G1 X90.093 Y104.150 E7.20015
G1 X90.407 Y105.024 E7.22888
G1 X90.673 Y105.021 E7.23711
G1 X90.968 Y104.150 E7.26558
G1 X93.931 Y104.150 E7.35725
G1 X93.119 Y104.775 F7800.000
G1 F1800.000
G1 X91.112 Y110.403 E7.54213
G1 X89.913 Y110.403 E7.57922
G1 X89.075 Y108.052 E7.65644
G1 X88.774 Y108.092 E7.66582
G1 X88.752 Y108.377 E7.67466
G1 X88.551 Y109.085 E7.69744
G1 X88.203 Y109.676 E7.71866
G1 X87.711 Y110.120 E7.73916
G1 X87.100 Y110.385 E7.75976
G1 X86.404 Y110.468 E7.78146
G1 X86.014 Y110.445 E7.79353
G1 X85.659 Y110.373 E7.80473
G1 X85.333 Y110.252 E7.81552
G1 X85.038 Y110.085 E7.82601
G1 X84.777 Y109.876 E7.83635
G1 X84.554 Y109.627 E7.84670
G1 X84.368 Y109.346 E7.85713
G1 X84.220 Y109.034 E7.86780
G1 X84.109 Y108.697 E7.87880
G1 X84.032 Y108.337 E7.89018
G1 X84.001 Y108.080 E7.89817
G1 X83.706 Y108.047 E7.90736
G1 X82.866 Y110.403 E7.98474
G1 X81.667 Y110.403 E8.02183
G1 X80.033 Y105.819 E8.17241
G1 X79.689 Y106.258 E8.18968
G1 X79.495 Y106.397 E8.19705
G1 X79.275 Y106.477 E8.20431
G1 X79.040 Y106.501 E8.21160
G1 X78.799 Y106.477 E8.21909
G1 X78.574 Y106.398 E8.22648
G1 X78.378 Y106.259 E8.23392
G1 X78.229 Y106.070 E8.24137
G1 X78.142 Y105.848 E8.24876
G1 X78.115 Y105.609 E8.25618
G1 X78.142 Y105.370 E8.26361
G1 X78.228 Y105.148 E8.27100
G1 X78.375 Y104.956 E8.27848
G1 X78.571 Y104.814 E8.28597
G1 X78.798 Y104.734 E8.29341
G1 X79.040 Y104.709 E8.30095
G1 X79.276 Y104.734 E8.30828
G1 X79.387 Y104.775 E8.31195
G1 X81.407 Y104.775 E8.37445
G1 X81.798 Y105.863 E8.41022
G1 X82.801 Y105.863 E8.44125
G1 X83.170 Y104.775 E8.47680
G1 X84.873 Y104.775 E8.52951
G1 X84.743 Y105.140 E8.54150
G1 X85.690 Y104.729 E8.57345
G1 X86.383 Y104.646 E8.59503
G1 X86.776 Y104.669 E8.60722
G1 X87.133 Y104.740 E8.61849
G1 X87.462 Y104.861 E8.62933
G1 X88.058 Y105.199 E8.65051
G1 X87.907 Y104.775 E8.66443
G1 X89.653 Y104.775 E8.71847
G1 X90.044 Y105.863 E8.75425
G1 X91.047 Y105.863 E8.78528
G1 X91.416 Y104.775 E8.82083
G1 X93.044 Y104.775 E8.87121
G1 X93.618 Y104.809 F7800.000
G1 E6.87121 F2400.00000
G92 E0
G1 X79.923 Y107.867 F7800.000
G1 E2.00000 F2400.00000
G1 F1800.000
G1 X79.950 Y108.105 E2.00742
G1 X79.923 Y108.343 E2.01482
G1 X79.837 Y108.565 E2.02220
G1 X79.689 Y108.754 E2.02962
G1 X79.495 Y108.893 E2.03700
G1 X79.275 Y108.973 E2.04426
G1 X79.040 Y108.997 E2.05154
G1 X78.799 Y108.973 E2.05904
G1 X78.574 Y108.894 E2.06643
G1 X78.378 Y108.755 E2.07386
G1 X78.229 Y108.566 E2.08131
G1 X78.142 Y108.344 E2.08871
G1 X78.115 Y108.105 E2.09613
G1 X78.142 Y107.866 E2.10356
G1 X78.228 Y107.644 E2.11095
G1 X78.375 Y107.452 E2.11843
G1 X78.571 Y107.310 E2.12592
G1 X78.798 Y107.230 E2.13336
G1 X79.040 Y107.205 E2.14090
G1 X79.276 Y107.230 E2.14823
G1 X79.498 Y107.312 E2.15555
G1 X79.692 Y107.453 E2.16297
G1 X79.838 Y107.644 E2.17042
G1 X79.897 Y107.797 E2.17548
G1 X79.923 Y107.867 F7800.000
G1 E0.17548 F2400.00000
G92 E0
G1 X76.777 Y108.907 F7800.000
G1 E2.00000 F2400.00000
G1 F1800.000
G1 X74.827 Y110.467 E2.07727
G1 X73.845 Y110.467 E2.10765
G1 X73.845 Y106.243 E2.23835
G1 X72.710 Y106.243 E2.27349
G1 X72.494 Y106.397 E2.28167
G1 X72.274 Y106.477 E2.28893
G1 X72.040 Y106.501 E2.29622
G1 X71.798 Y106.477 E2.30372
G1 X71.573 Y106.398 E2.31111
G1 X71.377 Y106.259 E2.31854
G1 X71.228 Y106.070 E2.32599
G1 X71.158 Y105.892 E2.33191
