; Gcode updated with 'stl_info' on 2019-12-05 16:54:46.466049

; stl_min_x = 0.0
; stl_max_x = 100.0
; stl_min_y = 0.0
; stl_max_y = 35.0
; stl_min_z = 0.0

; generated by Slic3r 1.3.1-dev (Build adea0d9) on 2019-12-05 at 16:54:46

; external perimeters extrusion width = 0.44mm (2.86mm^3/s)
; perimeters extrusion width = 0.56mm (4.14mm^3/s)
; infill extrusion width = 0.50mm (3.66mm^3/s)
; solid infill extrusion width = 0.56mm (3.10mm^3/s)
; top infill extrusion width = 0.56mm (3.10mm^3/s)

M107
G92 E0
;D3D:START:START
T0
M104 S215 T0

G21
G90
M107
T0
G28
G29
M109 T0 S215 T0
G0 F3000
M107
T0
G92 E0
G0 X0 Y149 Z0.1 F3600
G1 Y49 E6.5 F1200
G0 Z1
G92 E0
; Filament gcode

G21 ; set units to millimeters
G90 ; use absolute coordinates
M82 ; use absolute distances for extrusion
G92 E0
G1 Z0.300 F7800.000
G1 E-2.00000 F2400.00000
G92 E0
G1 X111.952 Y84.012 F7800.000
G1 E2.00000 F2400.00000
G1 F1800.000
G1 X113.218 Y83.092 E2.05184
G1 X114.782 Y83.092 E2.10369
G1 X116.048 Y84.012 E2.15553
G1 X116.532 Y85.500 E2.20738
G1 X116.048 Y86.988 E2.25922
G1 X114.782 Y87.908 E2.31107
G1 X113.218 Y87.908 E2.36291
G1 X111.952 Y86.988 E2.41475
G1 X111.468 Y85.500 E2.46660
G1 X111.933 Y84.069 E2.51645
G1 X112.177 Y84.176 F7800.000
G1 F1800.000
G1 X113.304 Y83.357 E2.56258
G1 X114.696 Y83.357 E2.60870
G1 X115.822 Y84.176 E2.65483
G1 X116.253 Y85.500 E2.70096
G1 X115.822 Y86.824 E2.74708
G1 X114.696 Y87.643 E2.79321
G1 X113.304 Y87.643 E2.83933
G1 X112.177 Y86.824 E2.88546
G1 X111.747 Y85.500 E2.93158
G1 X112.159 Y84.233 E2.97572
G1 X112.403 Y84.340 F7800.000
G1 F1800.000
G1 X113.390 Y83.623 E3.01613
G1 X114.610 Y83.623 E3.05654
G1 X115.597 Y84.340 E3.09694
G1 X115.973 Y85.500 E3.13735
G1 X115.597 Y86.660 E3.17776
G1 X114.610 Y87.377 E3.21817
G1 X113.390 Y87.377 E3.25857
G1 X112.403 Y86.660 E3.29898
G1 X112.027 Y85.500 E3.33939
G1 X112.385 Y84.397 E3.37781
G1 E1.37781 F2400.00000
G92 E0
G1 X96.048 Y70.988 F7800.000
G1 E2.00000 F2400.00000
G1 F1800.000
G1 X94.782 Y71.908 E2.05184
G1 X93.218 Y71.908 E2.10369
G1 X91.952 Y70.988 E2.15553
G1 X91.468 Y69.500 E2.20738
G1 X91.952 Y68.012 E2.25922
G1 X93.218 Y67.092 E2.31107
G1 X94.782 Y67.092 E2.36291
G1 X96.048 Y68.012 E2.41475
G1 X96.532 Y69.500 E2.46660
G1 X96.067 Y70.931 E2.51645
G1 X95.822 Y70.824 F7800.000
G1 F1800.000
G1 X94.696 Y71.643 E2.56258
G1 X93.304 Y71.643 E2.60870
G1 X92.177 Y70.824 E2.65483
G1 X91.747 Y69.500 E2.70096
G1 X92.177 Y68.176 E2.74708
G1 X93.304 Y67.357 E2.79321
G1 X94.696 Y67.357 E2.83933
G1 X95.822 Y68.176 E2.88546
G1 X96.253 Y69.500 E2.93158
G1 X95.841 Y70.767 E2.97572
G1 X95.597 Y70.660 F7800.000
G1 F1800.000
G1 X94.610 Y71.377 E3.01613
G1 X93.390 Y71.377 E3.05654
G1 X92.403 Y70.660 E3.09694
G1 X92.027 Y69.500 E3.13735
G1 X92.403 Y68.340 E3.17776
G1 X93.390 Y67.623 E3.21817
G1 X94.610 Y67.623 E3.25857
G1 X95.597 Y68.340 E3.29898
G1 X95.973 Y69.500 E3.33939
G1 X95.615 Y70.603 E3.37781
G1 E1.37781 F2400.00000
G92 E0
G1 X79.251 Y67.123 F7800.000
G1 E2.00000 F2400.00000
G1 F1800.000
G1 X79.251 Y78.096 E2.36355
G1 X77.948 Y78.230 E2.40694
G1 X76.968 Y78.280 E2.43944
G1 X75.715 Y78.302 E2.48096
G1 X75.046 Y78.278 E2.50315
G1 X74.410 Y78.204 E2.52435
G1 X73.814 Y78.077 E2.54455
G1 X73.261 Y77.896 E2.56383
G1 X72.754 Y77.666 E2.58228
G1 X72.291 Y77.389 E2.60014
G1 X71.872 Y77.065 E2.61767
G1 X71.505 Y76.696 E2.63493
G1 X71.188 Y76.291 E2.65197
G1 X70.920 Y75.852 E2.66900
G1 X70.699 Y75.381 E2.68623
G1 X70.526 Y74.883 E2.70370
G1 X70.396 Y74.366 E2.72137
G1 X70.305 Y73.832 E2.73933
G1 X70.251 Y73.277 E2.75778
G1 X70.233 Y72.704 E2.77680
G1 X70.250 Y72.172 E2.79443
G1 X70.302 Y71.647 E2.81189
G1 X70.387 Y71.131 E2.82923
G1 X70.509 Y70.618 E2.84670
G1 X70.676 Y70.111 E2.86437
G1 X70.893 Y69.626 E2.88199
G1 X71.161 Y69.169 E2.89953
G1 X71.478 Y68.740 E2.91720
G1 X71.849 Y68.344 E2.93518
G1 X72.273 Y67.990 E2.95348
G1 X72.744 Y67.681 E2.97215
G1 X73.266 Y67.413 E2.99159
G1 X73.848 Y67.196 E3.01217
G1 X74.485 Y67.044 E3.03387
G1 X75.169 Y66.954 E3.05672
G1 X75.894 Y66.925 E3.08076
G1 X78.060 Y67.017 E3.15258
G1 X79.191 Y67.117 E3.19019
G1 X78.985 Y67.366 F7800.000
G1 F1800.000
G1 X78.985 Y77.857 E3.53774
G1 X77.928 Y77.965 E3.57297
G1 X76.959 Y78.015 E3.60509
G1 X75.718 Y78.037 E3.64623
G1 X75.066 Y78.013 E3.66783
G1 X74.454 Y77.941 E3.68826
G1 X73.883 Y77.820 E3.70759
G1 X73.357 Y77.648 E3.72592
G1 X72.877 Y77.430 E3.74339
G1 X72.441 Y77.170 E3.76022
G1 X72.048 Y76.866 E3.77666
G1 X71.704 Y76.520 E3.79281
G1 X71.407 Y76.139 E3.80882
G1 X71.154 Y75.726 E3.82487
G1 X70.945 Y75.281 E3.84116
G1 X70.781 Y74.807 E3.85778
G1 X70.656 Y74.311 E3.87472
G1 X70.569 Y73.796 E3.89203
G1 X70.516 Y73.260 E3.90986
G1 X70.499 Y72.704 E3.92831
G1 X70.515 Y72.189 E3.94538
G1 X70.565 Y71.682 E3.96225
G1 X70.648 Y71.183 E3.97900
G1 X70.765 Y70.690 E3.99580
G1 X70.924 Y70.207 E4.01263
G1 X71.130 Y69.748 E4.02933
G1 X71.383 Y69.315 E4.04591
G1 X71.682 Y68.911 E4.06260
G1 X72.032 Y68.538 E4.07953
G1 X72.432 Y68.204 E4.09679
G1 X72.878 Y67.911 E4.11448
G1 X73.374 Y67.656 E4.13293
G1 X73.926 Y67.451 E4.15245
G1 X74.534 Y67.305 E4.17316
G1 X75.192 Y67.219 E4.19515
G1 X75.897 Y67.191 E4.21854
G1 X78.042 Y67.282 E4.28966
G1 X78.926 Y67.361 E4.31904
G1 X78.720 Y67.609 F7800.000
G1 F1800.000
G1 X78.720 Y77.617 E4.65060
G1 X77.907 Y77.701 E4.67766
G1 X76.950 Y77.749 E4.70941
G1 X75.720 Y77.771 E4.75016
G1 X75.087 Y77.748 E4.77117
G1 X74.497 Y77.679 E4.79084
G1 X73.952 Y77.563 E4.80929
G1 X73.454 Y77.400 E4.82666
G1 X73.000 Y77.194 E4.84316
G1 X72.591 Y76.950 E4.85897
G1 X72.225 Y76.666 E4.87430
G1 X71.904 Y76.344 E4.88936
G1 X71.626 Y75.988 E4.90433
G1 X71.389 Y75.600 E4.91940
G1 X71.192 Y75.181 E4.93474
G1 X71.035 Y74.731 E4.95051
G1 X70.917 Y74.257 E4.96672
G1 X70.832 Y73.761 E4.98338
G1 X70.781 Y73.243 E5.00061
G1 X70.765 Y72.704 E5.01849
G1 X70.781 Y72.206 E5.03499
G1 X70.829 Y71.717 E5.05128
G1 X70.908 Y71.236 E5.06743
G1 X71.021 Y70.762 E5.08356
G1 X71.172 Y70.303 E5.09956
G1 X71.366 Y69.869 E5.11532
G1 X71.605 Y69.462 E5.13095
G1 X71.887 Y69.081 E5.14665
G1 X72.215 Y68.731 E5.16254
G1 X72.590 Y68.417 E5.17876
G1 X73.012 Y68.141 E5.19547
G1 X73.481 Y67.900 E5.21294
G1 X74.003 Y67.705 E5.23140
G1 X74.582 Y67.567 E5.25111
G1 X75.214 Y67.484 E5.27224
G1 X75.900 Y67.457 E5.29497
G1 X78.024 Y67.547 E5.36540
G1 X78.660 Y67.604 E5.38656
G1 E3.38656 F2400.00000
G92 E0
G1 X74.782 Y83.092 F7800.000
G1 E2.00000 F2400.00000
G1 F1800.000
G1 X76.048 Y84.012 E2.05184
G1 X76.532 Y85.500 E2.10369
G1 X76.048 Y86.988 E2.15553
G1 X74.782 Y87.908 E2.20738
G1 X73.218 Y87.908 E2.25922
G1 X71.952 Y86.988 E2.31107
G1 X71.468 Y85.500 E2.36291
G1 X71.952 Y84.012 E2.41475
G1 X73.218 Y83.092 E2.46660
G1 X74.722 Y83.092 E2.51645
G1 X74.696 Y83.357 F7800.000
G1 F1800.000
G1 X75.822 Y84.176 E2.56258
G1 X76.253 Y85.500 E2.60871
G1 X75.823 Y86.824 E2.65483
G1 X74.696 Y87.643 E2.70096
G1 X73.304 Y87.643 E2.74708
G1 X72.177 Y86.824 E2.79321
G1 X71.747 Y85.500 E2.83933
G1 X72.177 Y84.176 E2.88546
G1 X73.304 Y83.357 E2.93159
G1 X74.636 Y83.357 E2.97572
G1 X74.610 Y83.623 F7800.000
G1 F1800.000
G1 X75.597 Y84.340 E3.01613
G1 X75.973 Y85.500 E3.05654
G1 X75.597 Y86.660 E3.09695
G1 X74.610 Y87.377 E3.13735
G1 X73.390 Y87.377 E3.17776
G1 X72.403 Y86.660 E3.21817
G1 X72.027 Y85.500 E3.25857
G1 X72.403 Y84.340 E3.29898
G1 X73.390 Y83.623 E3.33939
G1 X74.550 Y83.623 E3.37781
G1 E1.37781 F2400.00000
G92 E0
G1 X68.611 Y79.429 F7800.000
G1 E2.00000 F2400.00000
G1 F1800.000
G1 X66.356 Y85.749 E2.22232
G1 X64.669 Y85.749 E2.27820
G1 X64.048 Y84.008 E2.33945
G1 X63.932 Y84.012 E2.34330
G1 X63.872 Y84.223 E2.35056
G1 X63.474 Y84.897 E2.37652
G1 X62.901 Y85.415 E2.40210
G1 X62.191 Y85.722 E2.42772
G1 X61.414 Y85.816 E2.45365
G1 X60.970 Y85.789 E2.46841
G1 X60.565 Y85.708 E2.48209
G1 X60.186 Y85.567 E2.49546
G1 X59.843 Y85.373 E2.50854
G1 X59.538 Y85.128 E2.52148
G1 X59.279 Y84.839 E2.53435
G1 X59.066 Y84.516 E2.54718
G1 X58.898 Y84.163 E2.56012
G1 X58.846 Y84.006 E2.56562
G1 X58.732 Y84.004 E2.56939
G1 X58.110 Y85.749 E2.63077
G1 X56.423 Y85.749 E2.68666
G1 X55.421 Y82.940 E2.78547
G1 X55.283 Y82.972 E2.79017
G1 X55.298 Y83.105 E2.79462
G1 X55.262 Y83.426 E2.80531
G1 X55.141 Y83.738 E2.81641
G1 X54.931 Y84.007 E2.82771
G1 X54.658 Y84.202 E2.83884
G1 X54.352 Y84.313 E2.84960
G1 X54.041 Y84.345 E2.85996
G1 X53.724 Y84.313 E2.87052
G1 X53.414 Y84.205 E2.88142
G1 X53.137 Y84.009 E2.89266
G1 X52.925 Y83.740 E2.90399
G1 X52.803 Y83.427 E2.91512
G1 X52.767 Y83.105 E2.92585
G1 X52.802 Y82.784 E2.93657
G1 X52.923 Y82.472 E2.94764
G1 X53.132 Y82.201 E2.95897
G1 X53.408 Y82.001 E2.97029
G1 X53.665 Y81.909 E2.97930
G1 X53.664 Y81.797 E2.98304
G1 X53.414 Y81.709 E2.99184
G1 X53.137 Y81.513 E3.00309
G1 X52.925 Y81.244 E3.01442
G1 X52.803 Y80.931 E3.02554
G1 X52.767 Y80.609 E3.03628
G1 X52.802 Y80.288 E3.04700
G1 X52.923 Y79.976 E3.05806
G1 X53.132 Y79.705 E3.06939
G1 X53.409 Y79.505 E3.08072
G1 X53.721 Y79.393 E3.09172
G1 X54.041 Y79.361 E3.10237
G1 X54.355 Y79.394 E3.11283
G1 X54.449 Y79.429 E3.11614
G1 X56.651 Y79.429 E3.18908
G1 X57.042 Y80.517 E3.22738
G1 X57.553 Y80.517 E3.24432
G1 X57.922 Y79.429 E3.28238
G1 X60.365 Y79.429 E3.36331
G1 X60.337 Y79.505 E3.36600
G1 X60.599 Y79.392 E3.37544
G1 X61.372 Y79.298 E3.40125
G1 X61.821 Y79.325 E3.41613
G1 X62.289 Y79.429 E3.43203
G1 X64.897 Y79.429 E3.51841
G1 X65.288 Y80.517 E3.55671
G1 X65.799 Y80.517 E3.57365
G1 X66.168 Y79.429 E3.61171
G1 X68.551 Y79.429 E3.69065
G1 X68.234 Y79.694 F7800.000
G1 F1800.000
G1 X66.169 Y85.484 E3.89428
G1 X64.856 Y85.484 E3.93775
G1 X63.986 Y83.042 E4.02364
G1 X63.858 Y83.059 E4.02791
G1 X63.832 Y83.391 E4.03896
G1 X63.626 Y84.117 E4.06397
G1 X63.266 Y84.728 E4.08744
G1 X62.755 Y85.188 E4.11023
G1 X62.121 Y85.463 E4.13312
G1 X61.406 Y85.549 E4.15698
G1 X61.004 Y85.525 E4.17033
G1 X60.637 Y85.451 E4.18272
G1 X60.299 Y85.326 E4.19469
G1 X59.992 Y85.152 E4.20635
G1 X59.721 Y84.935 E4.21787
G1 X59.490 Y84.677 E4.22936
G1 X59.298 Y84.385 E4.24092
G1 X59.145 Y84.064 E4.25269
G1 X59.031 Y83.718 E4.26478
G1 X58.952 Y83.350 E4.27723
G1 X58.917 Y83.060 E4.28690
G1 X58.792 Y83.046 E4.29109
G1 X57.922 Y85.484 E4.37682
G1 X56.610 Y85.484 E4.42029
G1 X54.982 Y80.917 E4.58089
G1 X54.908 Y81.109 E4.58772
G1 X54.745 Y81.317 E4.59645
G1 X54.533 Y81.469 E4.60510
G1 X54.293 Y81.556 E4.61357
G1 X54.040 Y81.582 E4.62197
G1 X53.782 Y81.556 E4.63058
G1 X53.537 Y81.471 E4.63918
G1 X53.322 Y81.318 E4.64791
G1 X53.158 Y81.111 E4.65667
G1 X53.063 Y80.867 E4.66533
G1 X53.034 Y80.609 E4.67393
G1 X53.063 Y80.351 E4.68253
G1 X53.157 Y80.108 E4.69118
G1 X53.318 Y79.898 E4.69996
G1 X53.533 Y79.742 E4.70875
G1 X53.780 Y79.654 E4.71742
G1 X54.040 Y79.628 E4.72609
G1 X54.294 Y79.655 E4.73455
G1 X54.568 Y79.756 E4.74421
G1 X54.546 Y79.694 E4.74636
G1 X56.464 Y79.694 E4.80989
G1 X56.855 Y80.782 E4.84819
G1 X57.743 Y80.782 E4.87763
G1 X58.112 Y79.694 E4.91569
G1 X59.988 Y79.694 E4.97782
G1 X59.882 Y79.992 E4.98830
G1 X60.669 Y79.651 E5.01674
G1 X61.380 Y79.565 E5.04048
G1 X61.787 Y79.589 E5.05396
G1 X62.155 Y79.663 E5.06642
G1 X62.496 Y79.788 E5.07845
G1 X62.909 Y80.022 E5.09417
G1 X62.792 Y79.694 E5.10569
G1 X64.710 Y79.694 E5.16922
G1 X65.101 Y80.782 E5.20752
G1 X65.989 Y80.782 E5.23696
G1 X66.358 Y79.694 E5.27502
G1 X68.174 Y79.694 E5.33517
G1 E3.33517 F2400.00000
G92 E0
G1 X63.396 Y81.149 F7800.000
G1 E2.00000 F2400.00000
G1 F1800.000
G1 X63.500 Y81.466 E2.01106
G1 X63.573 Y81.808 E2.02264
G1 X63.616 Y82.171 E2.03477
G1 X63.631 Y82.560 E2.04767
G1 X63.569 Y83.344 E2.07371
G1 X63.380 Y84.012 E2.09670
G1 X63.058 Y84.558 E2.11770
G1 X62.610 Y84.962 E2.13770
G1 X62.051 Y85.204 E2.15786
G1 X61.398 Y85.283 E2.17964
G1 X61.038 Y85.261 E2.19159
G1 X60.710 Y85.195 E2.20268
G1 X60.411 Y85.084 E2.21326
G1 X60.142 Y84.932 E2.22350
G1 X59.904 Y84.741 E2.23358
G1 X59.700 Y84.514 E2.24370
G1 X59.530 Y84.255 E2.25399
G1 X59.392 Y83.965 E2.26460
G1 X59.288 Y83.648 E2.27566
G1 X59.215 Y83.306 E2.28724
G1 X59.171 Y82.943 E2.29937
G1 X59.156 Y82.554 E2.31228
G1 X59.218 Y81.770 E2.33833
G1 X59.409 Y81.101 E2.36135
G1 X59.733 Y80.555 E2.38240
G1 X60.182 Y80.151 E2.40240
G1 X60.739 Y79.910 E2.42251
G1 X61.389 Y79.831 E2.44418
G1 X61.753 Y79.853 E2.45626
G1 X62.083 Y79.919 E2.46743
G1 X62.384 Y80.030 E2.47805
G1 X62.653 Y80.182 E2.48829
G1 X62.889 Y80.372 E2.49834
G1 X63.092 Y80.600 E2.50844
G1 X63.260 Y80.860 E2.51870
G1 X63.370 Y81.094 E2.52728
G1 X63.169 Y79.960 F7800.000
G1 F1800.000
G1 X64.523 Y79.960 E2.57214
G1 X64.914 Y81.048 E2.61044
G1 X66.180 Y81.048 E2.65237
G1 X66.549 Y79.960 E2.69044
G1 X67.857 Y79.960 E2.73378
G1 X65.981 Y85.218 E2.91873
G1 X65.044 Y85.218 E2.94979
G1 X63.189 Y80.017 E3.13274
G1 E1.13274 F2400.00000
G92 E0
G1 X59.611 Y79.960 F7800.000
G1 E2.00000 F2400.00000
G1 F1800.000
G1 X57.735 Y85.218 E2.18495
G1 X56.798 Y85.218 E2.21601
G1 X54.923 Y79.960 E2.40095
G1 X56.277 Y79.960 E2.44580
G1 X56.668 Y81.048 E2.48410
G1 X57.934 Y81.048 E2.52604
G1 X58.303 Y79.960 E2.56410
G1 X59.551 Y79.960 E2.60546
G1 E0.60546 F2400.00000
G92 E0
G1 X54.742 Y80.415 F7800.000
G1 E2.00000 F2400.00000
G1 F1800.000
G1 X54.763 Y80.609 E2.00647
G1 X54.742 Y80.803 E2.01292
G1 X54.674 Y80.977 E2.01911
G1 X54.560 Y81.123 E2.02528
G1 X54.408 Y81.232 E2.03144
G1 X54.233 Y81.295 E2.03762
G1 X54.040 Y81.315 E2.04406
G1 X53.839 Y81.295 E2.05073
G1 X53.659 Y81.232 E2.05704
G1 X53.507 Y81.124 E2.06325
G1 X53.391 Y80.977 E2.06943
G1 X53.323 Y80.803 E2.07564
G1 X53.301 Y80.609 E2.08210
G1 X53.323 Y80.415 E2.08858
G1 X53.391 Y80.239 E2.09480
G1 X53.505 Y80.090 E2.10103
G1 X53.658 Y79.980 E2.10729
G1 X53.839 Y79.915 E2.11363
G1 X54.040 Y79.895 E2.12033
G1 X54.234 Y79.916 E2.12679
G1 X54.410 Y79.980 E2.13300
G1 X54.561 Y80.091 E2.13920
G1 X54.675 Y80.240 E2.14541
G1 X54.721 Y80.359 E2.14964
G1 X54.294 Y82.151 F7800.000
G1 F1800.000
G1 X54.536 Y82.240 E2.15818
G1 X54.749 Y82.395 E2.16689
G1 X54.909 Y82.605 E2.17564
G1 X55.002 Y82.848 E2.18427
G1 X55.031 Y83.105 E2.19284
G1 X55.002 Y83.362 E2.20142
G1 X54.908 Y83.605 E2.21006
G1 X54.745 Y83.813 E2.21879
G1 X54.533 Y83.965 E2.22744
G1 X54.293 Y84.052 E2.23591
G1 X54.040 Y84.078 E2.24431
G1 X53.782 Y84.052 E2.25292
G1 X53.537 Y83.967 E2.26153
G1 X53.322 Y83.814 E2.27025
G1 X53.158 Y83.607 E2.27901
G1 X53.063 Y83.363 E2.28767
G1 X53.034 Y83.105 E2.29627
G1 X53.063 Y82.847 E2.30487
G1 X53.157 Y82.604 E2.31352
G1 X53.318 Y82.394 E2.32230
G1 X53.533 Y82.238 E2.33108
G1 X53.780 Y82.150 E2.33976
G1 X54.040 Y82.124 E2.34843
G1 X54.235 Y82.145 E2.35491
G1 X54.234 Y82.412 F7800.000
G1 F1800.000
G1 X54.410 Y82.476 E2.36112
G1 X54.561 Y82.587 E2.36732
G1 X54.675 Y82.736 E2.37353
G1 X54.742 Y82.911 E2.37975
G1 X54.763 Y83.105 E2.38622
G1 X54.742 Y83.299 E2.39267
G1 X54.674 Y83.473 E2.39886
G1 X54.560 Y83.619 E2.40503
G1 X54.408 Y83.728 E2.41119
G1 X54.233 Y83.791 E2.41737
G1 X54.040 Y83.811 E2.42381
G1 X53.839 Y83.791 E2.43048
G1 X53.659 Y83.728 E2.43679
G1 X53.507 Y83.620 E2.44300
G1 X53.391 Y83.473 E2.44918
G1 X53.323 Y83.299 E2.45539
G1 X53.301 Y83.105 E2.46185
G1 X53.323 Y82.911 E2.46833
G1 X53.391 Y82.735 E2.47456
G1 X53.505 Y82.586 E2.48078
G1 X53.658 Y82.476 E2.48704
G1 X53.839 Y82.411 E2.49338
G1 X54.040 Y82.391 E2.50008
G1 X54.174 Y82.405 E2.50455
G1 E0.50455 F2400.00000
G92 E0
G1 X54.782 Y69.908 F7800.000
G1 E2.00000 F2400.00000
G1 F1800.000
G1 X53.218 Y69.908 E2.05184
G1 X51.952 Y68.988 E2.10369
G1 X51.468 Y67.500 E2.15553
G1 X51.952 Y66.012 E2.20738
G1 X53.218 Y65.092 E2.25922
G1 X54.782 Y65.092 E2.31106
G1 X56.048 Y66.012 E2.36291
G1 X56.532 Y67.500 E2.41475
G1 X56.048 Y68.988 E2.46660
G1 X54.831 Y69.873 E2.51645
G1 X54.696 Y69.643 F7800.000
G1 F1800.000
G1 X53.304 Y69.643 E2.56258
G1 X52.177 Y68.824 E2.60870
G1 X51.747 Y67.500 E2.65483
G1 X52.177 Y66.176 E2.70096
G1 X53.304 Y65.357 E2.74708
G1 X54.696 Y65.357 E2.79321
G1 X55.822 Y66.176 E2.83933
G1 X56.253 Y67.500 E2.88546
G1 X55.822 Y68.824 E2.93159
G1 X54.745 Y69.607 E2.97572
G1 X54.610 Y69.377 F7800.000
G1 F1800.000
G1 X53.390 Y69.377 E3.01613
G1 X52.403 Y68.660 E3.05654
G1 X52.027 Y67.500 E3.09694
G1 X52.403 Y66.340 E3.13735
G1 X53.390 Y65.623 E3.17776
G1 X54.610 Y65.623 E3.21817
G1 X55.597 Y66.340 E3.25857
G1 X55.973 Y67.500 E3.29898
