; Gcode updated with 'stl_info' on 2019-12-05 16:52:51.517648

; stl_min_x = 0.0
; stl_max_x = 52.45940017700195
; stl_min_y = 0.0
; stl_max_y = 52.27320098876953
; stl_min_z = -0.005000109784305096

; generated by Slic3r 1.3.1-dev (Build adea0d9) on 2019-12-05 at 16:52:51

; external perimeters extrusion width = 0.44mm (2.86mm^3/s)
; perimeters extrusion width = 0.56mm (4.14mm^3/s)
; infill extrusion width = 0.50mm (3.66mm^3/s)
; solid infill extrusion width = 0.56mm (3.10mm^3/s)
; top infill extrusion width = 0.56mm (3.10mm^3/s)

M107
G92 E0
;D3D:START:START
T0
M104 S215 T0

G21
G90
M107
T0
G28
G29
M109 T0 S215 T0
G0 F3000
M107
T0
G92 E0
G0 X0 Y149 Z0.1 F3600
G1 Y49 E6.5 F1200
G0 Z1
G92 E0
; Filament gcode

G21 ; set units to millimeters
G90 ; use absolute coordinates
M82 ; use absolute distances for extrusion
G92 E0
G1 Z0.300 F7800.000
G1 E-2.00000 F2400.00000
G92 E0
G1 X54.609 Y99.553 F7800.000
G1 E2.00000 F2400.00000
G1 F1800.000
G1 X51.869 Y99.785 E2.09111
G1 X50.267 Y99.861 E2.14421
G1 X49.359 Y99.875 E2.17432
G1 X49.359 Y97.186 E2.26341
G1 X50.183 Y97.173 E2.29071
G1 X51.702 Y97.101 E2.34109
G1 X53.218 Y96.982 E2.39146
G1 X54.729 Y96.815 E2.44184
G1 X56.234 Y96.601 E2.49221
G1 X57.732 Y96.339 E2.54258
G1 X59.221 Y96.031 E2.59296
G1 X60.699 Y95.676 E2.64333
G1 X62.166 Y95.275 E2.69370
G1 X63.619 Y94.828 E2.74408
G1 X65.058 Y94.335 E2.79445
G1 X66.480 Y93.798 E2.84482
G1 X67.885 Y93.216 E2.89520
G1 X69.271 Y92.590 E2.94557
G1 X70.636 Y91.921 E2.99594
G1 X71.980 Y91.210 E3.04632
G1 X73.301 Y90.457 E3.09669
G1 X74.597 Y89.662 E3.14707
G1 X75.868 Y88.827 E3.19744
G1 X77.112 Y87.953 E3.24781
G1 X78.328 Y87.040 E3.29819
G1 X79.515 Y86.089 E3.34856
G1 X80.671 Y85.102 E3.39893
G1 X81.795 Y84.079 E3.44931
G1 X82.887 Y83.020 E3.49968
G1 X83.946 Y81.929 E3.55005
G1 X84.969 Y80.804 E3.60043
G1 X85.956 Y79.648 E3.65080
G1 X86.907 Y78.461 E3.70117
G1 X87.820 Y77.245 E3.75155
G1 X88.694 Y76.001 E3.80192
G1 X89.529 Y74.730 E3.85230
G1 X90.323 Y73.434 E3.90267
G1 X91.077 Y72.113 E3.95304
G1 X91.788 Y70.769 E4.00342
G1 X92.457 Y69.404 E4.05379
G1 X93.185 Y67.772 E4.11299
G1 X96.998 Y67.772 E4.23931
G1 X96.896 Y68.029 E4.24848
G1 X95.989 Y68.029 E4.27855
G1 X95.551 Y69.086 E4.31644
G1 X94.890 Y70.549 E4.36961
G1 X94.184 Y71.990 E4.42278
G1 X93.433 Y73.409 E4.47595
G1 X92.638 Y74.803 E4.52912
G1 X91.800 Y76.171 E4.58230
G1 X90.918 Y77.513 E4.63547
G1 X89.225 Y79.922 E4.73303
G1 X90.221 Y79.922 E4.76602
G1 X89.694 Y80.623 E4.79507
G1 X88.674 Y81.896 E4.84912
G1 X87.615 Y83.137 E4.90316
G1 X86.517 Y84.343 E4.95721
G1 X85.382 Y85.515 E5.01125
G1 X84.210 Y86.650 E5.06529
G1 X83.004 Y87.748 E5.11934
G1 X81.763 Y88.807 E5.17338
G1 X80.490 Y89.827 E5.22743
G1 X79.186 Y90.807 E5.28148
G1 X77.851 Y91.745 E5.33552
G1 X76.487 Y92.641 E5.38956
G1 X75.097 Y93.493 E5.44361
G1 X73.680 Y94.301 E5.49766
G1 X72.238 Y95.065 E5.55170
G1 X70.773 Y95.782 E5.60575
G1 X69.286 Y96.454 E5.65979
G1 X67.779 Y97.078 E5.71384
G1 X66.253 Y97.655 E5.76788
G1 X64.709 Y98.183 E5.82193
G1 X63.150 Y98.663 E5.87597
G1 X61.577 Y99.093 E5.93002
G1 X59.990 Y99.474 E5.98406
G1 X58.393 Y99.805 E6.03811
G1 X56.786 Y100.085 E6.09215
G1 X55.171 Y100.315 E6.14620
G1 X54.609 Y100.377 E6.16493
G1 X54.609 Y99.613 E6.19024
G1 X54.343 Y99.842 F7800.000
G1 F1800.000
G1 X51.886 Y100.050 E6.27194
G1 X50.276 Y100.126 E6.32535
G1 X49.093 Y100.145 E6.36453
G1 X49.093 Y96.924 E6.47122
G1 X50.175 Y96.907 E6.50705
G1 X51.685 Y96.836 E6.55715
G1 X53.193 Y96.717 E6.60724
G1 X54.696 Y96.552 E6.65734
G1 X56.193 Y96.338 E6.70744
G1 X57.682 Y96.078 E6.75754
G1 X59.163 Y95.772 E6.80763
G1 X60.633 Y95.419 E6.85773
G1 X62.092 Y95.020 E6.90783
G1 X63.537 Y94.575 E6.95792
G1 X64.968 Y94.085 E7.00802
G1 X66.382 Y93.551 E7.05812
G1 X67.780 Y92.972 E7.10822
G1 X69.158 Y92.350 E7.15831
G1 X70.516 Y91.685 E7.20841
G1 X71.852 Y90.977 E7.25851
G1 X73.166 Y90.228 E7.30860
G1 X74.455 Y89.438 E7.35870
G1 X75.719 Y88.608 E7.40880
G1 X76.956 Y87.738 E7.45890
G1 X78.165 Y86.830 E7.50899
G1 X79.345 Y85.885 E7.55909
G1 X80.495 Y84.903 E7.60919
G1 X81.614 Y83.885 E7.65928
G1 X82.700 Y82.833 E7.70938
G1 X83.752 Y81.747 E7.75948
G1 X84.770 Y80.628 E7.80957
G1 X85.752 Y79.478 E7.85967
G1 X86.697 Y78.298 E7.90977
G1 X87.605 Y77.089 E7.95986
G1 X88.475 Y75.852 E8.00996
G1 X89.305 Y74.588 E8.06006
G1 X90.095 Y73.299 E8.11016
G1 X90.844 Y71.985 E8.16025
G1 X91.552 Y70.649 E8.21035
G1 X92.217 Y69.291 E8.26045
G1 X93.007 Y67.506 E8.32511
G1 X97.382 Y67.506 E8.47004
G1 X97.074 Y68.295 E8.49810
G1 X96.166 Y68.295 E8.52817
G1 X95.795 Y69.192 E8.56032
G1 X95.131 Y70.662 E8.61376
G1 X94.421 Y72.111 E8.66721
G1 X93.666 Y73.537 E8.72066
G1 X92.867 Y74.938 E8.77411
G1 X92.024 Y76.314 E8.82756
G1 X91.138 Y77.662 E8.88101
G1 X89.737 Y79.656 E8.96176
G1 X90.753 Y79.656 E8.99542
G1 X89.904 Y80.786 E9.04223
G1 X88.879 Y82.066 E9.09655
G1 X87.814 Y83.313 E9.15087
G1 X86.711 Y84.525 E9.20519
G1 X85.570 Y85.703 E9.25951
G1 X84.392 Y86.844 E9.31383
G1 X83.179 Y87.947 E9.36815
G1 X81.933 Y89.012 E9.42248
G1 X80.653 Y90.037 E9.47680
G1 X79.342 Y91.022 E9.53112
G1 X78.000 Y91.965 E9.58544
G1 X76.630 Y92.865 E9.63976
G1 X75.232 Y93.722 E9.69409
G1 X73.808 Y94.534 E9.74841
G1 X72.358 Y95.301 E9.80273
G1 X70.886 Y96.023 E9.85705
G1 X69.392 Y96.697 E9.91137
G1 X67.877 Y97.325 E9.96569
G1 X66.343 Y97.904 E10.02002
G1 X64.792 Y98.436 E10.07434
G1 X63.224 Y98.918 E10.12866
G1 X61.643 Y99.350 E10.18298
G1 X60.048 Y99.733 E10.23730
G1 X58.443 Y100.066 E10.29162
G1 X56.828 Y100.348 E10.34594
G1 X55.204 Y100.579 E10.40027
G1 X54.343 Y100.674 E10.42897
G1 X54.343 Y99.902 E10.45452
G1 X54.078 Y100.131 F7800.000
G1 F1800.000
G1 X51.903 Y100.315 E10.52681
G1 X50.284 Y100.392 E10.58052
G1 X48.828 Y100.415 E10.62878
G1 X48.828 Y96.663 E10.75307
G1 X50.166 Y96.642 E10.79743
G1 X51.668 Y96.571 E10.84725
G1 X53.168 Y96.453 E10.89707
G1 X54.662 Y96.288 E10.94689
G1 X56.151 Y96.076 E10.99671
G1 X57.633 Y95.818 E11.04653
G1 X59.105 Y95.513 E11.09635
G1 X60.567 Y95.162 E11.14617
G1 X62.018 Y94.765 E11.19599
G1 X63.455 Y94.323 E11.24581
G1 X64.878 Y93.835 E11.29563
G1 X66.285 Y93.304 E11.34545
G1 X67.674 Y92.728 E11.39527
G1 X69.045 Y92.110 E11.44509
G1 X70.395 Y91.448 E11.49491
G1 X71.724 Y90.744 E11.54473
G1 X73.030 Y89.999 E11.59455
G1 X74.313 Y89.213 E11.64438
G1 X75.569 Y88.388 E11.69420
G1 X76.800 Y87.523 E11.74402
G1 X78.002 Y86.620 E11.79384
G1 X79.176 Y85.680 E11.84366
G1 X80.320 Y84.703 E11.89348
G1 X81.432 Y83.691 E11.94330
G1 X82.512 Y82.645 E11.99312
G1 X83.558 Y81.565 E12.04294
G1 X84.570 Y80.453 E12.09276
G1 X85.547 Y79.309 E12.14258
G1 X86.487 Y78.135 E12.19240
G1 X87.390 Y76.933 E12.24222
G1 X88.255 Y75.702 E12.29204
G1 X89.080 Y74.446 E12.34186
G1 X89.866 Y73.163 E12.39168
G1 X90.611 Y71.857 E12.44151
G1 X91.315 Y70.528 E12.49133
G1 X91.977 Y69.178 E12.54115
G1 X92.595 Y67.807 E12.59097
G1 X92.830 Y67.241 E12.61128
G1 X97.223 Y67.241 E12.75681
G1 X97.543 Y66.394 E12.78681
G1 X98.072 Y64.850 E12.84088
G1 X98.552 Y63.290 E12.89495
G1 X98.982 Y61.715 E12.94902
G1 X99.363 Y60.129 E13.00309
G1 X99.694 Y58.530 E13.05716
G1 X99.975 Y56.923 E13.11122
G1 X100.205 Y55.307 E13.16529
G1 X100.384 Y53.685 E13.21936
G1 X100.512 Y52.058 E13.27343
G1 X100.589 Y50.427 E13.32750
G1 X100.604 Y49.431 E13.36053
G1 X96.522 Y49.431 E13.49576
G1 X96.530 Y48.961 E13.51133
G1 X101.120 Y48.961 E13.66341
G1 X101.097 Y50.443 E13.71254
G1 X101.019 Y52.090 E13.76714
G1 X100.890 Y53.733 E13.82173
G1 X100.709 Y55.371 E13.87633
G1 X100.477 Y57.002 E13.93093
G1 X100.194 Y58.626 E13.98553
G1 X99.859 Y60.239 E14.04013
G1 X99.475 Y61.842 E14.09472
G1 X99.040 Y63.432 E14.14932
G1 X98.555 Y65.007 E14.20392
G1 X98.021 Y66.566 E14.25852
G1 X97.439 Y68.108 E14.31312
G1 X97.251 Y68.561 E14.32936
G1 X96.344 Y68.561 E14.35943
G1 X96.039 Y69.297 E14.38584
G1 X95.371 Y70.775 E14.43957
G1 X94.658 Y72.231 E14.49329
G1 X93.899 Y73.665 E14.54701
G1 X93.096 Y75.073 E14.60074
G1 X92.248 Y76.456 E14.65447
G1 X91.358 Y77.811 E14.70819
G1 X90.248 Y79.391 E14.77214
G1 X91.273 Y79.391 E14.80609
G1 X90.114 Y80.949 E14.87042
G1 X89.084 Y82.235 E14.92502
G1 X88.014 Y83.488 E14.97962
G1 X86.904 Y84.707 E15.03421
G1 X85.758 Y85.891 E15.08881
G1 X84.574 Y87.037 E15.14341
G1 X83.355 Y88.147 E15.19801
G1 X82.102 Y89.217 E15.25260
G1 X80.816 Y90.247 E15.30720
G1 X79.498 Y91.237 E15.36180
G1 X78.150 Y92.184 E15.41640
G1 X76.772 Y93.089 E15.47100
G1 X75.367 Y93.950 E15.52560
G1 X73.935 Y94.767 E15.58019
G1 X72.479 Y95.538 E15.63479
G1 X70.999 Y96.263 E15.68939
G1 X69.497 Y96.941 E15.74399
G1 X67.974 Y97.572 E15.79858
G1 X66.433 Y98.154 E15.85318
G1 X64.874 Y98.688 E15.90778
G1 X63.299 Y99.173 E15.96238
G1 X61.709 Y99.608 E16.01698
G1 X60.106 Y99.992 E16.07158
G1 X58.493 Y100.327 E16.12617
G1 X56.869 Y100.610 E16.18077
G1 X55.238 Y100.842 E16.23537
G1 X54.078 Y100.970 E16.27403
G1 X54.078 Y100.191 E16.29984
G1 E14.29984 F2400.00000
G92 E0
G1 X49.728 Y97.344 F7800.000
G1 E2.00000 F2400.00000
G1 F1800.000
G1 X49.521 Y97.551 E2.00975
G1 X49.521 Y97.929 E2.02237
G1 X50.112 Y97.338 E2.05025
G1 X50.503 Y97.325 E2.06330
G1 X49.521 Y98.307 E2.10962
G1 X49.521 Y98.685 E2.12223
G1 X50.900 Y97.307 E2.18728
G1 X51.297 Y97.288 E2.20053
G1 X49.521 Y99.064 E2.28430
G1 X49.521 Y99.442 E2.29692
G1 X51.694 Y97.269 E2.39941
G1 X52.100 Y97.241 E2.41299
G1 X49.634 Y99.707 E2.52930
G1 X50.019 Y99.701 E2.54212
G1 X52.511 Y97.209 E2.65967
G1 X52.921 Y97.177 E2.67341
G1 X50.411 Y99.687 E2.79181
G1 X50.808 Y99.668 E2.80507
G1 X53.332 Y97.144 E2.92411
G1 X53.756 Y97.098 E2.93836
G1 X51.205 Y99.649 E3.05871
G1 X51.602 Y99.630 E3.07197
G1 X54.181 Y97.051 E3.19365
G1 X54.607 Y97.004 E3.20791
G1 X52.009 Y99.601 E3.33044
G1 X52.422 Y99.566 E3.34427
G1 X55.038 Y96.951 E3.46765
G1 X55.479 Y96.888 E3.48251
G1 X52.836 Y99.531 E3.60720
G1 X53.249 Y99.496 E3.62103
G1 X55.920 Y96.825 E3.74703
G1 X56.361 Y96.763 E3.76189
G1 X53.662 Y99.461 E3.88920
G1 X54.075 Y99.426 E3.90303
G1 X56.818 Y96.683 E4.03244
G1 X57.276 Y96.603 E4.04795
G1 X54.488 Y99.391 E4.17947
G1 X54.771 Y99.367 E4.18894
G1 X54.771 Y99.487 E4.19292
G1 X57.735 Y96.523 E4.33271
G1 X58.205 Y96.431 E4.34872
G1 X54.771 Y99.865 E4.51072
G1 X54.771 Y100.184 E4.52136
G1 X54.838 Y100.176 E4.52359
G1 X58.682 Y96.332 E4.70495
G1 X59.159 Y96.233 E4.72120
G1 X55.272 Y100.121 E4.90460
G1 X55.712 Y100.058 E4.91946
G1 X59.647 Y96.123 E5.10508
G1 X60.145 Y96.004 E5.12215
G1 X56.153 Y99.996 E5.31045
G1 X56.594 Y99.933 E5.32530
G1 X60.643 Y95.884 E5.51628
G1 X61.153 Y95.752 E5.53385
G1 X57.051 Y99.855 E5.72737
G1 X57.509 Y99.775 E5.74288
G1 X61.674 Y95.610 E5.93934
G1 X62.194 Y95.468 E5.95735
G1 X57.967 Y99.695 E6.15675
G1 X58.240 Y99.647 E6.16599
G1 X58.433 Y99.607 E6.17256
G1 X62.733 Y95.307 E6.37542
G1 X63.279 Y95.139 E6.39448
G1 X58.910 Y99.508 E6.60061
G1 X59.387 Y99.410 E6.61685
G1 X63.827 Y94.970 E6.82630
G1 X64.402 Y94.773 E6.84658
G1 X59.865 Y99.309 E7.06058
G1 X60.363 Y99.190 E7.07765
G1 X64.977 Y94.576 E7.29531
G1 X65.569 Y94.362 E7.31631
G1 X60.861 Y99.070 E7.53843
G1 X61.358 Y98.951 E7.55550
G1 X66.177 Y94.132 E7.78282
G1 X66.792 Y93.896 E7.80477
G1 X61.877 Y98.811 E8.03661
G1 X62.397 Y98.668 E8.05461
G1 X67.437 Y93.628 E8.29236
G1 X68.083 Y93.361 E8.31567
G1 X62.918 Y98.526 E8.55931
G1 X63.462 Y98.360 E8.57826
G1 X68.772 Y93.050 E8.82875
G1 X69.461 Y92.739 E8.85399
G1 X64.008 Y98.192 E9.11124
G1 X64.556 Y98.023 E9.13037
G1 X70.201 Y92.378 E9.39665
G1 X70.949 Y92.008 E9.42450
G1 X65.131 Y97.826 E9.69896
G1 X65.706 Y97.629 E9.71924
G1 X71.753 Y91.582 E10.00448
G1 X72.590 Y91.124 E10.03631
G1 X66.294 Y97.419 E10.33329
G1 X66.902 Y97.190 E10.35497
G1 X73.470 Y90.621 E10.66481
G1 X74.439 Y90.030 E10.70268
G1 X67.510 Y96.960 E11.02956
G1 X68.151 Y96.697 E11.05269
G1 X75.490 Y89.358 E11.39887
G1 X76.665 Y88.561 E11.44622
G1 X68.797 Y96.429 E11.81737
G1 X69.467 Y96.137 E11.84177
G1 X78.046 Y87.558 E12.24646
G1 X78.594 Y87.147 E12.26932
G1 X79.818 Y86.164 E12.32167
G1 X70.157 Y95.826 E12.77742
G1 X70.868 Y95.493 E12.80363
G1 X93.440 Y72.921 E13.86838
G1 X92.962 Y73.777 E13.90108
G1 X71.609 Y95.129 E14.90832
G1 X72.379 Y94.738 E14.93713
G1 X92.450 Y74.668 E15.88390
G1 X91.851 Y75.644 E15.92211
G1 X73.183 Y94.312 E16.80272
G1 X74.038 Y93.835 E16.83538
G1 X91.163 Y76.710 E17.64320
G1 X90.354 Y77.898 E17.69114
G1 X74.925 Y93.326 E18.41893
G1 X75.902 Y92.728 E18.45714
G1 X89.459 Y79.171 E19.09667
G1 X88.817 Y80.084 E19.13391
G1 X88.924 Y80.084 E19.13747
G1 X76.961 Y92.048 E19.70181
G1 X78.135 Y91.252 E19.74912
G1 X89.302 Y80.084 E20.27592
G1 X89.680 Y80.084 E20.28854
G1 X79.500 Y90.264 E20.76877
G1 X80.224 Y89.721 E20.79896
G1 X81.219 Y88.924 E20.84148
G1 X88.791 Y81.352 E21.19867
G1 X87.519 Y82.858 E21.26443
G1 X86.427 Y84.058 E21.31856
G1 X85.086 Y85.435 E21.38266
G1 E19.38266 F2400.00000
G92 E0
G1 X86.031 Y79.951 F7800.000
G1 E2.00000 F2400.00000
G1 F1800.000
G1 X93.865 Y72.117 E2.36955
G1 X94.256 Y71.349 E2.39831
G1 X87.425 Y78.179 E2.72052
G1 X87.932 Y77.505 E2.74867
G1 X88.428 Y76.798 E2.77749
G1 X94.619 Y70.607 E3.06951
G1 X94.949 Y69.898 E3.09560
G1 X89.225 Y75.623 E3.36563
G1 X89.897 Y74.572 E3.40723
G1 X95.261 Y69.209 E3.66023
G1 X95.549 Y68.542 E3.68446
G1 X90.488 Y73.603 E3.92320
G1 X90.991 Y72.723 E3.95701
G1 X95.779 Y67.934 E4.18290
G1 X95.401 Y67.934 E4.19551
G1 X91.449 Y71.886 E4.38192
G1 X91.875 Y71.082 E4.41226
G1 X95.023 Y67.934 E4.56076
G1 X94.644 Y67.934 E4.57337
G1 X92.245 Y70.334 E4.68657
G1 X92.606 Y69.595 E4.71401
G1 X94.266 Y67.934 E4.79234
G1 X93.888 Y67.934 E4.80496
G1 X92.910 Y68.912 E4.85108
G1 X93.214 Y68.229 E4.87601
G1 X93.510 Y67.934 E4.88994
G1 E2.88994 F2400.00000
G92 E0
G1 X97.444 Y67.373 F7800.000
G1 E2.00000 F2400.00000
G1 F1800.000
G1 X97.782 Y66.480 E2.02127
G1 X98.313 Y64.928 E2.05777
G1 X98.796 Y63.361 E2.09428
G1 X99.229 Y61.777 E2.13083
G1 X99.611 Y60.184 E2.16730
G1 X99.944 Y58.578 E2.20380
G1 X100.226 Y56.962 E2.24031
G1 X100.457 Y55.341 E2.27677
G1 X100.637 Y53.709 E2.31332
G1 X100.765 Y52.074 E2.34983
G1 X100.843 Y50.435 E2.38634
G1 X100.861 Y49.300 E2.41162
G1 X100.851 Y49.226 E2.41328
G1 X100.739 Y49.196 E2.41585
G1 X96.659 Y49.196 E2.50668
G1 Z0.500 F7800.000
G1 E0.50668 F2400.00000
G92 E0
G1 X54.590 Y99.490 F7800.000
G1 E2.00000 F2400.00000
G1 F2400.000
G1 X51.864 Y99.721 E2.11759
G1 X50.265 Y99.796 E2.18642
G1 X49.340 Y99.811 E2.22623
G1 X49.340 Y97.084 E2.34345
G1 X50.180 Y97.071 E2.37957
G1 X51.695 Y97.000 E2.44481
G1 X53.208 Y96.881 E2.51005
G1 X54.716 Y96.714 E2.57529
G1 X56.218 Y96.500 E2.64052
G1 X57.713 Y96.239 E2.70576
G1 X59.199 Y95.932 E2.77100
G1 X60.674 Y95.578 E2.83623
G1 X62.138 Y95.177 E2.90147
G1 X63.588 Y94.731 E2.96671
G1 X65.023 Y94.240 E3.03195
G1 X66.443 Y93.703 E3.09718
G1 X67.845 Y93.123 E3.16242
G1 X69.227 Y92.498 E3.22765
G1 X70.590 Y91.831 E3.29289
G1 X71.931 Y91.121 E3.35813
G1 X73.249 Y90.369 E3.42337
G1 X74.543 Y89.576 E3.48861
G1 X75.811 Y88.743 E3.55384
G1 X77.052 Y87.871 E3.61908
G1 X78.266 Y86.960 E3.68432
G1 X79.450 Y86.011 E3.74955
G1 X80.604 Y85.026 E3.81479
G1 X81.726 Y84.004 E3.88003
G1 X82.815 Y82.948 E3.94526
G1 X83.871 Y81.859 E4.01050
G1 X84.892 Y80.737 E4.07574
G1 X85.878 Y79.583 E4.14098
G1 X86.827 Y78.399 E4.20621
G1 X87.738 Y77.185 E4.27145
G1 X88.610 Y75.944 E4.33669
G1 X89.443 Y74.676 E4.40192
G1 X90.236 Y73.382 E4.46716
G1 X90.988 Y72.064 E4.53240
G1 X91.698 Y70.723 E4.59764
G1 X92.365 Y69.360 E4.66287
G1 X93.083 Y67.753 E4.73857
G1 X96.033 Y67.753 E4.86543
G1 X95.492 Y69.060 E4.92629
G1 X94.832 Y70.521 E4.99521
G1 X94.127 Y71.961 E5.06413
G1 X93.377 Y73.377 E5.13305
G1 X92.583 Y74.770 E5.20197
G1 X91.745 Y76.137 E5.27089
G1 X90.865 Y77.476 E5.33981
G1 X89.160 Y79.903 E5.46732
G1 X90.156 Y79.903 E5.51015
G1 X89.644 Y80.584 E5.54679
G1 X88.626 Y81.856 E5.61685
G1 X87.567 Y83.095 E5.68690
G1 X86.471 Y84.300 E5.75696
G1 X85.337 Y85.470 E5.82701
G1 X84.167 Y86.604 E5.89706
G1 X82.962 Y87.700 E5.96711
G1 X81.723 Y88.759 E6.03717
G1 X80.451 Y89.777 E6.10722
G1 X79.148 Y90.756 E6.17728
G1 X77.815 Y91.692 E6.24733
G1 X76.453 Y92.587 E6.31738
G1 X75.064 Y93.438 E6.38744
G1 X73.649 Y94.246 E6.45749
G1 X72.209 Y95.008 E6.52754
G1 X70.746 Y95.725 E6.59760
G1 X69.261 Y96.395 E6.66765
