; Gcode updated with 'stl_info' on 2019-12-03 19:08:36.705930

; stl_min_x = -44.65010070800781
; stl_max_x = 35.277801513671875
; stl_min_y = -35.10029983520508
; stl_max_y = 35.10029983520508
; stl_min_z = -70.69999694824219

; generated by Slic3r 1.3.1-dev (Build adea0d9) on 2019-12-03 at 19:08:35

; external perimeters extrusion width = 0.55mm (1.90mm^3/s)
; perimeters extrusion width = 0.70mm (2.71mm^3/s)
; infill extrusion width = 0.62mm (2.41mm^3/s)
; solid infill extrusion width = 0.70mm (2.04mm^3/s)
; top infill extrusion width = 0.70mm (2.04mm^3/s)

M107
G92 E0
;D3D:START:START
T0
M104 S215 T0

G21
G90
M107
T0
G28
G29
M109 T0 S215 T0
G0 F3000
M107
T0
G92 E0
G0 X0 Y149 Z0.1 F3600
G1 Y49 E6.5 F1200
G0 Z1
G92 E0
; Filament gcode

G21 ; set units to millimeters
G90 ; use absolute coordinates
M82 ; use absolute distances for extrusion
G92 E0
G1 Z0.090 F7800.000
G1 E-2.00000 F2400.00000
G92 E0
G1 X52.676 Y39.554 F7800.000
G1 E2.00000 F2400.00000
G1 F1800.000
G1 X54.319 Y38.097 E2.00655
G1 X57.047 Y37.235 E2.01508
G1 X106.268 Y33.845 E2.16219
G1 X106.730 Y33.830 E2.16357
G1 X107.883 Y33.839 E2.16700
G1 X108.686 Y33.898 E2.16940
G1 X109.686 Y34.039 E2.17241
G1 X110.436 Y34.193 E2.17470
G1 X111.408 Y34.457 E2.17770
G1 X112.134 Y34.705 E2.17999
G1 X113.064 Y35.090 E2.18299
G1 X113.756 Y35.429 E2.18529
G1 X114.629 Y35.927 E2.18828
G1 X115.273 Y36.352 E2.19058
G1 X116.076 Y36.957 E2.19358
G1 X116.661 Y37.459 E2.19588
G1 X117.380 Y38.160 E2.19887
G1 X117.898 Y38.733 E2.20118
G1 X118.522 Y39.520 E2.20417
G1 X118.962 Y40.153 E2.20647
G1 X119.483 Y41.012 E2.20947
G1 X119.839 Y41.696 E2.21177
G1 X120.247 Y42.616 E2.21477
G1 X120.514 Y43.338 E2.21706
G1 X120.802 Y44.302 E2.22006
G1 X120.975 Y45.050 E2.22235
G1 X121.140 Y46.044 E2.22536
G1 X121.217 Y46.806 E2.22764
G1 X121.260 Y48.047 E2.23134
G1 X121.260 Y101.953 E2.39207
G1 X121.217 Y103.194 E2.39577
G1 X121.140 Y103.956 E2.39806
G1 X120.975 Y104.950 E2.40106
G1 X120.802 Y105.698 E2.40335
G1 X120.513 Y106.663 E2.40635
G1 X120.247 Y107.385 E2.40865
G1 X119.839 Y108.304 E2.41165
G1 X119.483 Y108.988 E2.41394
G1 X118.962 Y109.847 E2.41694
G1 X118.522 Y110.480 E2.41924
G1 X117.898 Y111.267 E2.42223
G1 X117.380 Y111.840 E2.42454
G1 X116.661 Y112.542 E2.42753
G1 X116.075 Y113.044 E2.42983
G1 X115.273 Y113.649 E2.43283
G1 X114.629 Y114.073 E2.43513
G1 X113.756 Y114.571 E2.43813
G1 X113.063 Y114.910 E2.44042
G1 X112.132 Y115.295 E2.44343
G1 X111.406 Y115.543 E2.44572
G1 X110.434 Y115.808 E2.44872
G1 X109.684 Y115.962 E2.45100
G1 X108.686 Y116.102 E2.45401
G1 X107.924 Y116.161 E2.45629
G1 X106.625 Y116.172 E2.46016
G1 X57.084 Y113.068 E2.60817
G1 X54.953 Y112.536 E2.61471
G1 X52.656 Y110.720 E2.62345
G1 X31.604 Y83.504 E2.72604
G1 X31.227 Y82.970 E2.72799
G1 X30.686 Y82.122 E2.73099
G1 X30.316 Y81.452 E2.73327
G1 X29.886 Y80.543 E2.73627
G1 X29.603 Y79.831 E2.73855
G1 X29.292 Y78.876 E2.74155
G1 X29.100 Y78.134 E2.74383
G1 X28.911 Y77.147 E2.74683
G1 X28.815 Y76.386 E2.74911
G1 X28.751 Y75.383 E2.75211
G1 X28.751 Y74.617 E2.75439
G1 X28.815 Y73.614 E2.75739
G1 X28.911 Y72.853 E2.75968
G1 X29.100 Y71.866 E2.76267
G1 X29.292 Y71.124 E2.76496
G1 X29.603 Y70.169 E2.76795
G1 X29.886 Y69.457 E2.77024
G1 X30.316 Y68.548 E2.77324
G1 X30.686 Y67.878 E2.77552
G1 X31.227 Y67.030 E2.77852
G1 X31.624 Y66.471 E2.78056
G1 X52.630 Y39.614 E2.88223
G1 E0.88223 F2400.00000
G92 E0
G1 X103.515 Y97.866 F7800.000
G1 E2.00000 F2400.00000
G1 F1800.000
G1 X104.066 Y97.451 E2.00206
G1 X104.665 Y97.109 E2.00412
G1 X105.304 Y96.845 E2.00618
G1 X105.971 Y96.663 E2.00824
G1 X106.656 Y96.567 E2.01030
G1 X107.349 Y96.557 E2.01237
G1 X108.039 Y96.634 E2.01444
G1 X108.714 Y96.797 E2.01651
G1 X109.364 Y97.043 E2.01858
G1 X109.979 Y97.368 E2.02065
G1 X110.550 Y97.767 E2.02273
G1 X111.066 Y98.233 E2.02480
G1 X111.521 Y98.760 E2.02688
G1 X111.906 Y99.339 E2.02895
G1 X112.216 Y99.962 E2.03103
G1 X112.447 Y100.617 E2.03310
G1 X112.593 Y101.295 E2.03517
G1 X112.654 Y101.986 E2.03723
G1 X112.627 Y102.677 E2.03930
G1 X112.514 Y103.360 E2.04136
G1 X112.316 Y104.022 E2.04342
G1 X112.037 Y104.653 E2.04548
G1 X111.679 Y105.243 E2.04753
G1 X111.251 Y105.783 E2.04959
G1 X110.757 Y106.265 E2.05165
G1 X110.206 Y106.680 E2.05370
G1 X109.606 Y107.022 E2.05576
G1 X108.968 Y107.286 E2.05782
G1 X108.301 Y107.468 E2.05988
G1 X107.615 Y107.564 E2.06195
G1 X106.922 Y107.574 E2.06401
G1 X106.233 Y107.497 E2.06608
G1 X105.558 Y107.334 E2.06815
G1 X104.907 Y107.088 E2.07023
G1 X104.292 Y106.763 E2.07230
G1 X103.722 Y106.364 E2.07438
G1 X103.206 Y105.898 E2.07645
G1 X102.751 Y105.371 E2.07853
G1 X102.366 Y104.792 E2.08060
G1 X102.055 Y104.169 E2.08267
G1 X101.825 Y103.514 E2.08474
G1 X101.678 Y102.836 E2.08681
G1 X101.618 Y102.146 E2.08888
G1 X101.644 Y101.454 E2.09094
G1 X101.757 Y100.771 E2.09301
G1 X101.955 Y100.109 E2.09507
G1 X102.235 Y99.478 E2.09712
G1 X102.592 Y98.888 E2.09918
G1 X103.021 Y98.348 E2.10124
G1 X103.461 Y97.919 E2.10307
G1 X103.567 Y97.927 F7800.000
G1 F1800.000
G1 X104.110 Y97.518 E2.10510
G1 X104.701 Y97.180 E2.10713
G1 X105.330 Y96.920 E2.10916
G1 X105.987 Y96.741 E2.11119
G1 X106.663 Y96.646 E2.11322
G1 X107.346 Y96.637 E2.11526
G1 X108.025 Y96.713 E2.11730
G1 X108.691 Y96.873 E2.11934
G1 X109.332 Y97.116 E2.12138
G1 X109.938 Y97.436 E2.12343
G1 X110.500 Y97.829 E2.12547
G1 X111.009 Y98.289 E2.12752
G1 X111.457 Y98.809 E2.12956
G1 X111.837 Y99.379 E2.13161
G1 X112.143 Y99.993 E2.13365
G1 X112.370 Y100.638 E2.13569
G1 X112.514 Y101.307 E2.13773
G1 X112.574 Y101.987 E2.13977
G1 X112.548 Y102.669 E2.14180
G1 X112.437 Y103.342 E2.14383
G1 X112.241 Y103.994 E2.14586
G1 X111.966 Y104.616 E2.14789
G1 X111.614 Y105.197 E2.14992
G1 X111.191 Y105.730 E2.15195
G1 X110.705 Y106.204 E2.15397
G1 X110.162 Y106.613 E2.15600
G1 X109.571 Y106.951 E2.15803
G1 X108.942 Y107.211 E2.16006
G1 X108.285 Y107.390 E2.16209
G1 X107.609 Y107.485 E2.16412
G1 X106.926 Y107.494 E2.16616
G1 X106.247 Y107.418 E2.16820
G1 X105.581 Y107.258 E2.17024
G1 X104.940 Y107.015 E2.17228
G1 X104.334 Y106.695 E2.17433
G1 X103.772 Y106.302 E2.17637
G1 X103.263 Y105.842 E2.17842
G1 X102.815 Y105.322 E2.18046
G1 X102.435 Y104.752 E2.18251
G1 X102.129 Y104.138 E2.18455
G1 X101.902 Y103.492 E2.18659
G1 X101.757 Y102.824 E2.18863
G1 X101.698 Y102.144 E2.19067
G1 X101.724 Y101.462 E2.19270
G1 X101.835 Y100.789 E2.19473
G1 X102.030 Y100.137 E2.19676
G1 X102.306 Y99.515 E2.19879
G1 X102.658 Y98.933 E2.20082
G1 X103.080 Y98.401 E2.20285
G1 X103.513 Y97.979 E2.20465
G1 X103.619 Y97.987 F7800.000
G1 F1800.000
G1 X104.154 Y97.585 E2.20665
G1 X104.736 Y97.252 E2.20864
G1 X105.355 Y96.996 E2.21064
G1 X106.003 Y96.820 E2.21264
G1 X106.669 Y96.726 E2.21465
G1 X107.342 Y96.717 E2.21666
G1 X108.011 Y96.792 E2.21866
G1 X108.667 Y96.950 E2.22068
G1 X109.299 Y97.188 E2.22269
G1 X109.896 Y97.504 E2.22470
G1 X110.450 Y97.892 E2.22672
G1 X110.952 Y98.345 E2.22874
G1 X111.393 Y98.857 E2.23075
G1 X111.768 Y99.419 E2.23277
G1 X112.069 Y100.024 E2.23478
G1 X112.293 Y100.660 E2.23679
G1 X112.435 Y101.319 E2.23880
G1 X112.494 Y101.989 E2.24081
G1 X112.469 Y102.661 E2.24281
G1 X112.359 Y103.324 E2.24481
G1 X112.167 Y103.966 E2.24681
G1 X111.895 Y104.579 E2.24881
G1 X111.548 Y105.152 E2.25081
G1 X111.132 Y105.676 E2.25281
G1 X110.653 Y106.144 E2.25480
G1 X110.118 Y106.547 E2.25680
G1 X109.536 Y106.879 E2.25880
G1 X108.916 Y107.135 E2.26080
G1 X108.268 Y107.311 E2.26280
G1 X107.603 Y107.405 E2.26480
G1 X106.930 Y107.414 E2.26681
G1 X106.260 Y107.339 E2.26882
G1 X105.605 Y107.181 E2.27083
G1 X104.973 Y106.943 E2.27284
G1 X104.376 Y106.627 E2.27486
G1 X103.822 Y106.239 E2.27687
G1 X103.320 Y105.786 E2.27889
G1 X102.878 Y105.274 E2.28090
G1 X102.504 Y104.712 E2.28292
G1 X102.202 Y104.107 E2.28493
G1 X101.979 Y103.471 E2.28694
G1 X101.836 Y102.812 E2.28895
G1 X101.777 Y102.142 E2.29096
G1 X101.803 Y101.470 E2.29297
G1 X101.913 Y100.807 E2.29497
G1 X102.105 Y100.165 E2.29697
G1 X102.377 Y99.552 E2.29897
G1 X102.723 Y98.979 E2.30096
G1 X103.140 Y98.455 E2.30296
G1 X103.565 Y98.040 E2.30473
G1 X103.671 Y98.048 F7800.000
G1 F1800.000
G1 X104.198 Y97.651 E2.30670
G1 X104.771 Y97.324 E2.30867
G1 X105.381 Y97.071 E2.31063
G1 X106.019 Y96.898 E2.31261
G1 X106.675 Y96.806 E2.31458
G1 X107.338 Y96.796 E2.31656
G1 X107.997 Y96.870 E2.31854
G1 X108.644 Y97.026 E2.32052
G1 X109.266 Y97.261 E2.32250
G1 X109.855 Y97.572 E2.32449
G1 X110.400 Y97.954 E2.32647
G1 X110.895 Y98.401 E2.32846
G1 X111.330 Y98.905 E2.33045
G1 X111.699 Y99.459 E2.33243
G1 X111.996 Y100.055 E2.33442
G1 X112.216 Y100.682 E2.33640
G1 X112.356 Y101.331 E2.33838
G1 X112.414 Y101.991 E2.34035
G1 X112.389 Y102.653 E2.34233
G1 X112.281 Y103.306 E2.34430
G1 X112.092 Y103.939 E2.34627
G1 X111.824 Y104.542 E2.34824
G1 X111.483 Y105.106 E2.35020
G1 X111.073 Y105.623 E2.35217
G1 X110.601 Y106.083 E2.35414
G1 X110.074 Y106.480 E2.35610
G1 X109.501 Y106.807 E2.35807
G1 X108.891 Y107.060 E2.36004
G1 X108.252 Y107.233 E2.36201
G1 X107.597 Y107.325 E2.36399
G1 X106.934 Y107.335 E2.36596
G1 X106.274 Y107.261 E2.36794
G1 X105.628 Y107.105 E2.36992
G1 X105.006 Y106.870 E2.37191
G1 X104.417 Y106.559 E2.37389
G1 X103.871 Y106.177 E2.37588
G1 X103.377 Y105.730 E2.37786
G1 X102.942 Y105.226 E2.37985
G1 X102.573 Y104.672 E2.38184
G1 X102.276 Y104.076 E2.38382
G1 X102.056 Y103.449 E2.38580
G1 X101.915 Y102.800 E2.38778
G1 X101.857 Y102.140 E2.38976
G1 X101.883 Y101.478 E2.39173
G1 X101.991 Y100.825 E2.39371
G1 X102.180 Y100.192 E2.39568
G1 X102.447 Y99.589 E2.39764
G1 X102.789 Y99.025 E2.39961
G1 X103.199 Y98.508 E2.40158
G1 X103.617 Y98.100 E2.40332
G1 X103.671 Y98.048 F7800.000
G1 E0.40332 F2400.00000
G92 E0
G1 X106.656 Y53.433 F7800.000
G1 E2.00000 F2400.00000
G1 F1800.000
G1 X105.971 Y53.337 E2.00206
G1 X105.304 Y53.155 E2.00413
G1 X104.665 Y52.891 E2.00619
G1 X104.066 Y52.549 E2.00824
G1 X103.515 Y52.134 E2.01030
G1 X103.021 Y51.652 E2.01236
G1 X102.592 Y51.112 E2.01441
G1 X102.235 Y50.522 E2.01647
G1 X101.955 Y49.891 E2.01853
G1 X101.757 Y49.229 E2.02059
G1 X101.644 Y48.546 E2.02265
G1 X101.618 Y47.854 E2.02472
G1 X101.678 Y47.164 E2.02678
G1 X101.825 Y46.486 E2.02885
G1 X102.055 Y45.831 E2.03092
G1 X102.366 Y45.208 E2.03300
G1 X102.751 Y44.629 E2.03507
G1 X103.206 Y44.102 E2.03714
G1 X103.722 Y43.636 E2.03922
G1 X104.292 Y43.237 E2.04130
G1 X104.907 Y42.912 E2.04337
G1 X105.558 Y42.666 E2.04544
G1 X106.233 Y42.503 E2.04751
G1 X106.922 Y42.426 E2.04958
G1 X107.615 Y42.436 E2.05165
G1 X108.301 Y42.532 E2.05371
G1 X108.968 Y42.714 E2.05577
G1 X109.606 Y42.978 E2.05783
G1 X110.206 Y43.320 E2.05989
G1 X110.757 Y43.735 E2.06195
G1 X111.251 Y44.217 E2.06400
G1 X111.679 Y44.757 E2.06606
G1 X112.037 Y45.347 E2.06812
G1 X112.316 Y45.978 E2.07018
G1 X112.514 Y46.640 E2.07224
G1 X112.627 Y47.323 E2.07430
G1 X112.654 Y48.014 E2.07636
G1 X112.593 Y48.705 E2.07843
G1 X112.447 Y49.383 E2.08050
G1 X112.216 Y50.038 E2.08257
G1 X111.906 Y50.661 E2.08464
G1 X111.521 Y51.240 E2.08672
G1 X111.066 Y51.767 E2.08879
G1 X110.550 Y52.233 E2.09087
G1 X109.979 Y52.632 E2.09294
G1 X109.364 Y52.957 E2.09502
G1 X108.714 Y53.203 E2.09709
G1 X108.039 Y53.366 E2.09916
G1 X107.349 Y53.443 E2.10123
G1 X106.731 Y53.434 E2.10307
G1 X106.663 Y53.354 F7800.000
G1 F1800.000
G1 X105.987 Y53.259 E2.10511
G1 X105.330 Y53.080 E2.10714
G1 X104.701 Y52.820 E2.10917
G1 X104.110 Y52.482 E2.11120
G1 X103.567 Y52.073 E2.11322
G1 X103.080 Y51.599 E2.11525
G1 X102.658 Y51.067 E2.11727
G1 X102.306 Y50.485 E2.11930
G1 X102.030 Y49.863 E2.12133
G1 X101.835 Y49.211 E2.12336
G1 X101.724 Y48.538 E2.12539
G1 X101.698 Y47.856 E2.12743
G1 X101.757 Y47.176 E2.12946
G1 X101.902 Y46.508 E2.13150
G1 X102.129 Y45.862 E2.13354
G1 X102.435 Y45.248 E2.13559
G1 X102.815 Y44.678 E2.13763
G1 X103.263 Y44.158 E2.13968
G1 X103.772 Y43.698 E2.14172
G1 X104.334 Y43.305 E2.14377
G1 X104.940 Y42.985 E2.14581
G1 X105.581 Y42.742 E2.14786
G1 X106.247 Y42.582 E2.14990
G1 X106.926 Y42.506 E2.15194
G1 X107.609 Y42.515 E2.15397
G1 X108.285 Y42.610 E2.15601
G1 X108.942 Y42.789 E2.15804
G1 X109.571 Y43.049 E2.16007
G1 X110.162 Y43.387 E2.16210
G1 X110.705 Y43.796 E2.16412
G1 X111.191 Y44.270 E2.16615
G1 X111.614 Y44.803 E2.16817
G1 X111.966 Y45.384 E2.17020
G1 X112.241 Y46.006 E2.17223
G1 X112.437 Y46.658 E2.17426
G1 X112.548 Y47.331 E2.17629
G1 X112.574 Y48.013 E2.17833
G1 X112.514 Y48.693 E2.18036
G1 X112.370 Y49.362 E2.18240
G1 X112.143 Y50.007 E2.18444
G1 X111.837 Y50.621 E2.18649
G1 X111.457 Y51.191 E2.18853
G1 X111.009 Y51.711 E2.19058
G1 X110.500 Y52.171 E2.19262
G1 X109.938 Y52.564 E2.19467
G1 X109.332 Y52.884 E2.19671
G1 X108.691 Y53.127 E2.19876
G1 X108.025 Y53.287 E2.20080
G1 X107.346 Y53.363 E2.20284
G1 X106.738 Y53.355 E2.20465
G1 X106.669 Y53.274 F7800.000
G1 F1800.000
G1 X106.003 Y53.180 E2.20665
G1 X105.355 Y53.004 E2.20865
G1 X104.736 Y52.748 E2.21065
G1 X104.154 Y52.415 E2.21265
G1 X103.619 Y52.013 E2.21465
G1 X103.140 Y51.545 E2.21664
G1 X102.723 Y51.021 E2.21864
G1 X102.377 Y50.448 E2.22064
G1 X102.105 Y49.835 E2.22264
G1 X101.913 Y49.193 E2.22464
G1 X101.803 Y48.530 E2.22664
G1 X101.777 Y47.858 E2.22864
G1 X101.836 Y47.188 E2.23065
G1 X101.979 Y46.529 E2.23266
G1 X102.202 Y45.893 E2.23467
G1 X102.504 Y45.288 E2.23668
G1 X102.878 Y44.726 E2.23870
G1 X103.320 Y44.214 E2.24071
G1 X103.822 Y43.761 E2.24273
G1 X104.376 Y43.373 E2.24475
G1 X104.973 Y43.057 E2.24676
G1 X105.605 Y42.819 E2.24877
G1 X106.260 Y42.661 E2.25079
G1 X106.930 Y42.586 E2.25279
G1 X107.603 Y42.595 E2.25480
G1 X108.269 Y42.689 E2.25681
G1 X108.916 Y42.865 E2.25881
G1 X109.536 Y43.121 E2.26081
G1 X110.118 Y43.453 E2.26280
G1 X110.653 Y43.856 E2.26480
G1 X111.132 Y44.324 E2.26680
G1 X111.548 Y44.848 E2.26879
G1 X111.895 Y45.421 E2.27079
G1 X112.167 Y46.034 E2.27279
G1 X112.359 Y46.676 E2.27479
G1 X112.469 Y47.339 E2.27679
G1 X112.494 Y48.011 E2.27880
G1 X112.435 Y48.681 E2.28080
G1 X112.293 Y49.340 E2.28281
G1 X112.069 Y49.976 E2.28482
G1 X111.768 Y50.581 E2.28684
G1 X111.393 Y51.143 E2.28885
G1 X110.952 Y51.655 E2.29087
G1 X110.450 Y52.108 E2.29288
G1 X109.896 Y52.496 E2.29490
G1 X109.299 Y52.812 E2.29691
G1 X108.667 Y53.050 E2.29893
G1 X108.011 Y53.208 E2.30094
G1 X107.342 Y53.283 E2.30295
G1 X106.744 Y53.275 E2.30473
G1 X106.675 Y53.194 F7800.000
G1 F1800.000
G1 X106.019 Y53.102 E2.30670
G1 X105.381 Y52.929 E2.30868
G1 X104.771 Y52.676 E2.31065
G1 X104.198 Y52.349 E2.31261
G1 X103.671 Y51.952 E2.31458
G1 X103.199 Y51.492 E2.31655
G1 X102.789 Y50.975 E2.31851
G1 X102.447 Y50.411 E2.32048
G1 X102.180 Y49.808 E2.32245
G1 X101.991 Y49.175 E2.32442
G1 X101.883 Y48.522 E2.32639
G1 X101.857 Y47.860 E2.32836
G1 X101.915 Y47.200 E2.33034
G1 X102.056 Y46.551 E2.33232
G1 X102.276 Y45.924 E2.33430
G1 X102.573 Y45.328 E2.33629
G1 X102.942 Y44.774 E2.33827
G1 X103.377 Y44.270 E2.34026
G1 X103.871 Y43.823 E2.34224
G1 X104.417 Y43.441 E2.34423
G1 X105.006 Y43.130 E2.34622
G1 X105.628 Y42.895 E2.34820
G1 X106.274 Y42.739 E2.35018
G1 X106.934 Y42.665 E2.35216
G1 X107.597 Y42.675 E2.35414
G1 X108.252 Y42.767 E2.35611
G1 X108.890 Y42.940 E2.35808
G1 X109.501 Y43.193 E2.36005
G1 X110.074 Y43.520 E2.36202
G1 X110.601 Y43.917 E2.36399
G1 X111.073 Y44.377 E2.36595
G1 X111.483 Y44.894 E2.36792
G1 X111.824 Y45.458 E2.36988
G1 X112.092 Y46.061 E2.37185
G1 X112.281 Y46.694 E2.37382
G1 X112.389 Y47.347 E2.37579
G1 X112.414 Y48.009 E2.37777
G1 X112.356 Y48.669 E2.37975
G1 X112.216 Y49.318 E2.38173
G1 X111.996 Y49.945 E2.38371
G1 X111.699 Y50.541 E2.38569
G1 X111.330 Y51.095 E2.38768
G1 X110.895 Y51.599 E2.38966
G1 X110.400 Y52.046 E2.39165
G1 X109.855 Y52.428 E2.39364
G1 X109.266 Y52.739 E2.39562
G1 X108.644 Y52.974 E2.39760
G1 X107.997 Y53.130 E2.39959
G1 X107.338 Y53.204 E2.40157
G1 X106.750 Y53.195 E2.40332
G1 X106.675 Y53.194 F7800.000
G1 E0.40332 F2400.00000
G92 E0
G1 X97.753 Y54.711 F7800.000
G1 E2.00000 F2400.00000
G1 F1800.000
G1 X97.753 Y95.289 E2.12099
G1 X57.176 Y95.289 E2.24197
G1 X57.176 Y54.711 E2.36296
G1 X97.678 Y54.711 E2.48372
G1 X97.674 Y54.791 F7800.000
G1 F1800.000
G1 X97.674 Y95.209 E2.60424
G1 X57.256 Y95.209 E2.72475
G1 X57.256 Y54.791 E2.84526
G1 X97.599 Y54.791 E2.96555
G1 X97.594 Y54.871 F7800.000
G1 F1800.000
G1 X97.594 Y95.129 E3.08558
