; Gcode updated with 'stl_info' on 2019-12-03 19:06:57.446378

; stl_min_x = 0.0
; stl_max_x = 115.0
; stl_min_y = 30.0
; stl_max_y = 151.21400451660156
; stl_min_z = -490.0

; generated by Slic3r 1.3.1-dev (Build adea0d9) on 2019-12-03 at 19:06:56

; external perimeters extrusion width = 0.55mm (1.90mm^3/s)
; perimeters extrusion width = 0.70mm (2.71mm^3/s)
; infill extrusion width = 0.62mm (2.41mm^3/s)
; solid infill extrusion width = 0.70mm (2.04mm^3/s)
; top infill extrusion width = 0.70mm (2.04mm^3/s)

M107
G92 E0
;D3D:START:START
T0
M104 S215 T0

G21
G90
M107
T0
G28
G29
M109 T0 S215 T0
G0 F3000
M107
T0
G92 E0
G0 X0 Y149 Z0.1 F3600
G1 Y49 E6.5 F1200
G0 Z1
G92 E0
; Filament gcode

G21 ; set units to millimeters
G90 ; use absolute coordinates
M82 ; use absolute distances for extrusion
G92 E0
G1 Z0.090 F7800.000
G1 E-2.00000 F2400.00000
G92 E0
G1 X123.083 Y10.174 F7800.000
G1 E2.00000 F2400.00000
G1 F1800.000
G1 X124.856 Y8.878 E2.00655
G1 X127.500 Y8.273 E2.01464
G1 X132.500 Y8.273 E2.02954
G1 X134.660 Y8.670 E2.03609
G1 X136.538 Y9.808 E2.04264
G1 X137.890 Y11.539 E2.04919
G1 X138.580 Y14.353 E2.05783
G1 X138.580 Y53.255 E2.17382
G1 X138.252 Y55.225 E2.17977
G1 X137.490 Y57.450 E2.18679
G1 X136.077 Y61.197 E2.19873
G1 X134.547 Y64.900 E2.21067
G1 X132.901 Y68.552 E2.22262
G1 X131.142 Y72.149 E2.23456
G1 X129.180 Y75.855 E2.24706
G1 X127.192 Y79.333 E2.25900
G1 X125.198 Y82.588 E2.27038
G1 X123.002 Y85.936 E2.28232
G1 X121.075 Y88.685 E2.29233
G1 X120.590 Y89.369 E2.29483
G1 X118.182 Y92.571 E2.30678
G1 X115.676 Y95.694 E2.31872
G1 X113.198 Y98.595 E2.33010
G1 X110.505 Y101.559 E2.34203
G1 X107.721 Y104.437 E2.35398
G1 X104.845 Y107.227 E2.36592
G1 X104.150 Y107.864 E2.36873
G1 X101.743 Y110.050 E2.37843
G1 X98.695 Y112.650 E2.39037
G1 X95.567 Y115.152 E2.40232
G1 X92.362 Y117.555 E2.41426
G1 X89.084 Y119.855 E2.42620
G1 X85.735 Y122.051 E2.43814
G1 X82.480 Y124.045 E2.44952
G1 X79.003 Y126.032 E2.46146
G1 X75.467 Y127.908 E2.47340
G1 X71.871 Y129.673 E2.48534
G1 X68.220 Y131.325 E2.49729
G1 X64.522 Y132.860 E2.50923
G1 X60.777 Y134.278 E2.52117
G1 X56.990 Y135.578 E2.53311
G1 X53.161 Y136.759 E2.54505
G1 X49.114 Y137.866 E2.55757
G1 X45.220 Y138.797 E2.56950
G1 X41.297 Y139.607 E2.58145
G1 X37.350 Y140.293 E2.59339
G1 X33.385 Y140.854 E2.60533
G1 X29.594 Y141.273 E2.61670
G1 X25.600 Y141.590 E2.62865
G1 X23.036 Y141.714 E2.63630
G1 X21.963 Y141.670 E2.63950
G1 X16.713 Y140.985 E2.65529
G1 X14.623 Y140.312 E2.66184
G1 X12.908 Y138.940 E2.66839
G1 X11.792 Y137.048 E2.67494
G1 X11.420 Y134.956 E2.68127
G1 X11.420 Y130.631 E2.69417
G1 X11.817 Y128.471 E2.70072
G1 X13.083 Y126.453 E2.70782
G1 X123.032 Y10.229 E3.18485
G1 E1.18485 F2400.00000
G92 E0
G1 X131.989 Y32.921 F7800.000
G1 E2.00000 F2400.00000
G1 F1800.000
G1 X131.989 Y14.864 E2.05384
G1 X127.789 Y14.864 E2.06636
G1 X127.789 Y14.641 E2.06703
G1 X132.211 Y14.641 E2.08022
G1 X132.211 Y33.994 E2.13792
G1 X131.411 Y33.994 E2.14030
G1 X131.411 Y45.071 E2.17333
G1 X132.211 Y45.071 E2.17572
G1 X132.211 Y53.207 E2.19998
G1 X131.466 Y55.383 E2.20683
G1 X130.122 Y58.943 E2.21818
G1 X128.665 Y62.458 E2.22953
G1 X127.099 Y65.926 E2.24087
G1 X125.425 Y69.343 E2.25222
G1 X123.645 Y72.706 E2.26356
G1 X121.759 Y76.011 E2.27491
G1 X119.771 Y79.256 E2.28625
G1 X117.682 Y82.436 E2.29760
G1 X115.494 Y85.549 E2.30894
G1 X113.210 Y88.593 E2.32029
G1 X110.830 Y91.562 E2.33164
G1 X108.359 Y94.455 E2.34298
G1 X105.798 Y97.270 E2.35433
G1 X103.150 Y100.003 E2.36567
G1 X100.417 Y102.650 E2.37702
G1 X97.603 Y105.211 E2.38836
G1 X94.710 Y107.683 E2.39971
G1 X91.740 Y110.062 E2.41106
G1 X88.697 Y112.347 E2.42240
G1 X85.584 Y114.535 E2.43375
G1 X82.403 Y116.623 E2.44509
G1 X79.159 Y118.612 E2.45644
G1 X75.854 Y120.497 E2.46779
G1 X72.491 Y122.278 E2.47913
G1 X69.074 Y123.952 E2.49048
G1 X65.606 Y125.518 E2.50182
G1 X62.684 Y126.728 E2.51125
G1 X62.090 Y126.974 E2.51317
G1 X58.530 Y128.319 E2.52451
G1 X54.930 Y129.552 E2.53586
G1 X51.294 Y130.670 E2.54721
G1 X47.623 Y131.675 E2.55855
G1 X43.923 Y132.563 E2.56990
G1 X40.827 Y133.204 E2.57932
G1 X40.197 Y133.335 E2.58124
G1 X36.449 Y133.989 E2.59259
G1 X32.681 Y134.525 E2.60393
G1 X28.899 Y134.943 E2.61528
G1 X25.106 Y135.241 E2.62663
G1 X23.039 Y135.339 E2.63280
G1 X23.039 Y134.525 E2.63522
G1 X21.279 Y134.608 E2.64047
G1 X17.789 Y134.663 E2.65088
G1 X17.789 Y130.915 E2.66206
G1 X21.161 Y130.862 E2.67212
G1 X24.820 Y130.690 E2.68304
G1 X28.702 Y130.377 E2.69465
G1 X32.110 Y130.000 E2.70487
G1 X35.735 Y129.485 E2.71579
G1 X39.343 Y128.855 E2.72671
G1 X42.928 Y128.113 E2.73763
G1 X46.489 Y127.258 E2.74855
G1 X50.021 Y126.291 E2.75947
G1 X53.521 Y125.215 E2.77038
G1 X56.986 Y124.028 E2.78130
G1 X60.411 Y122.734 E2.79222
G1 X63.794 Y121.332 E2.80314
G1 X67.132 Y119.826 E2.81406
G1 X70.420 Y118.215 E2.82498
G1 X73.657 Y116.501 E2.83590
G1 X76.661 Y114.788 E2.84621
G1 X79.960 Y112.774 E2.85773
G1 X83.021 Y110.763 E2.86865
G1 X86.017 Y108.657 E2.87957
G1 X88.945 Y106.459 E2.89049
G1 X91.803 Y104.169 E2.90141
G1 X94.587 Y101.791 E2.91232
G1 X97.296 Y99.326 E2.92324
G1 X99.925 Y96.778 E2.93416
G1 X102.474 Y94.148 E2.94508
G1 X104.938 Y91.439 E2.95600
G1 X107.317 Y88.656 E2.96692
G1 X109.606 Y85.798 E2.97784
G1 X111.805 Y82.869 E2.98876
G1 X113.911 Y79.873 E2.99967
G1 X115.921 Y76.812 E3.01059
G1 X117.834 Y73.690 E3.02151
G1 X119.648 Y70.509 E3.03243
G1 X121.362 Y67.273 E3.04335
G1 X122.973 Y63.984 E3.05427
G1 X124.480 Y60.647 E3.06519
G1 X125.881 Y57.264 E3.07610
G1 X127.175 Y53.838 E3.08702
G1 X127.789 Y52.049 E3.09266
G1 X127.789 Y32.921 E3.14969
G1 X131.914 Y32.921 E3.16199
G1 X131.909 Y32.841 F7800.000
G1 F1800.000
G1 X131.909 Y14.944 E3.21536
G1 X127.709 Y14.944 E3.22788
G1 X127.709 Y14.561 E3.22902
G1 X132.291 Y14.561 E3.24268
G1 X132.291 Y34.074 E3.30086
G1 X131.491 Y34.074 E3.30325
G1 X131.491 Y44.991 E3.33580
G1 X132.291 Y44.991 E3.33819
G1 X132.291 Y53.221 E3.36272
G1 X131.541 Y55.410 E3.36962
G1 X130.196 Y58.972 E3.38098
G1 X128.738 Y62.490 E3.39233
G1 X127.171 Y65.960 E3.40368
G1 X125.496 Y69.379 E3.41504
G1 X123.714 Y72.744 E3.42639
G1 X121.828 Y76.052 E3.43774
G1 X119.838 Y79.299 E3.44910
G1 X117.748 Y82.481 E3.46045
G1 X115.559 Y85.596 E3.47180
G1 X113.272 Y88.642 E3.48316
G1 X110.892 Y91.613 E3.49451
G1 X108.419 Y94.508 E3.50586
G1 X105.856 Y97.324 E3.51721
G1 X103.206 Y100.059 E3.52857
G1 X100.472 Y102.709 E3.53992
G1 X97.656 Y105.271 E3.55127
G1 X94.760 Y107.745 E3.56263
G1 X91.789 Y110.125 E3.57398
G1 X88.744 Y112.411 E3.58533
G1 X85.629 Y114.600 E3.59669
G1 X82.446 Y116.691 E3.60804
G1 X79.200 Y118.680 E3.61939
G1 X75.892 Y120.567 E3.63075
G1 X72.527 Y122.349 E3.64210
G1 X69.108 Y124.024 E3.65345
G1 X65.637 Y125.591 E3.66481
G1 X62.715 Y126.802 E3.67424
G1 X62.119 Y127.048 E3.67616
G1 X58.557 Y128.394 E3.68751
G1 X54.955 Y129.628 E3.69887
G1 X51.316 Y130.747 E3.71022
G1 X47.643 Y131.752 E3.72157
G1 X43.941 Y132.640 E3.73293
G1 X40.843 Y133.282 E3.74236
G1 X40.212 Y133.413 E3.74428
G1 X36.461 Y134.068 E3.75563
G1 X32.691 Y134.604 E3.76699
G1 X28.907 Y135.022 E3.77834
G1 X25.111 Y135.321 E3.78969
G1 X22.959 Y135.422 E3.79611
G1 X22.959 Y134.608 E3.79854
G1 X21.282 Y134.687 E3.80355
G1 X17.709 Y134.744 E3.81420
G1 X17.709 Y130.837 E3.82585
G1 X21.159 Y130.783 E3.83614
G1 X24.815 Y130.611 E3.84705
G1 X28.695 Y130.298 E3.85866
G1 X32.100 Y129.921 E3.86887
G1 X35.723 Y129.406 E3.87978
G1 X39.328 Y128.776 E3.89070
G1 X42.911 Y128.035 E3.90161
G1 X46.469 Y127.181 E3.91252
G1 X49.999 Y126.215 E3.92343
G1 X53.497 Y125.139 E3.93434
G1 X56.959 Y123.953 E3.94525
G1 X60.382 Y122.660 E3.95616
G1 X63.763 Y121.259 E3.96707
G1 X67.098 Y119.754 E3.97798
G1 X70.384 Y118.144 E3.98890
G1 X73.618 Y116.431 E3.99981
G1 X76.621 Y114.719 E4.01011
G1 X79.917 Y112.707 E4.02163
G1 X82.976 Y110.697 E4.03254
G1 X85.970 Y108.592 E4.04345
G1 X88.896 Y106.396 E4.05436
G1 X91.752 Y104.108 E4.06527
G1 X94.535 Y101.732 E4.07618
G1 X97.241 Y99.268 E4.08710
G1 X99.869 Y96.722 E4.09801
G1 X102.416 Y94.093 E4.10892
G1 X104.879 Y91.387 E4.11983
G1 X107.255 Y88.605 E4.13074
G1 X109.543 Y85.749 E4.14165
G1 X111.740 Y82.822 E4.15256
G1 X113.845 Y79.828 E4.16347
G1 X115.854 Y76.770 E4.17439
G1 X117.765 Y73.650 E4.18530
G1 X119.579 Y70.471 E4.19621
G1 X121.291 Y67.237 E4.20712
G1 X122.901 Y63.950 E4.21803
G1 X124.407 Y60.615 E4.22894
G1 X125.807 Y57.234 E4.23985
G1 X127.101 Y53.811 E4.25076
G1 X127.709 Y52.036 E4.25636
G1 X127.709 Y32.841 E4.31359
G1 X131.834 Y32.841 E4.32589
G1 X131.829 Y32.762 F7800.000
G1 F1800.000
G1 X131.829 Y15.023 E4.37878
G1 X127.629 Y15.023 E4.39130
G1 X127.629 Y14.482 E4.39292
G1 X132.371 Y14.482 E4.40705
G1 X132.371 Y34.153 E4.46571
G1 X131.571 Y34.153 E4.46809
G1 X131.571 Y44.912 E4.50017
G1 X132.371 Y44.912 E4.50256
G1 X132.371 Y53.234 E4.52737
G1 X131.616 Y55.437 E4.53431
G1 X130.270 Y59.001 E4.54567
G1 X128.812 Y62.521 E4.55704
G1 X127.243 Y65.994 E4.56840
G1 X125.567 Y69.416 E4.57976
G1 X123.784 Y72.783 E4.59112
G1 X121.896 Y76.093 E4.60248
G1 X119.906 Y79.341 E4.61384
G1 X117.814 Y82.526 E4.62520
G1 X115.623 Y85.643 E4.63656
G1 X113.335 Y88.690 E4.64792
G1 X110.953 Y91.664 E4.65928
G1 X108.479 Y94.561 E4.67064
G1 X105.914 Y97.379 E4.68200
G1 X103.263 Y100.116 E4.69336
G1 X100.527 Y102.767 E4.70472
G1 X97.708 Y105.331 E4.71608
G1 X94.811 Y107.806 E4.72745
G1 X91.838 Y110.188 E4.73881
G1 X88.791 Y112.476 E4.75017
G1 X85.673 Y114.666 E4.76153
G1 X82.489 Y116.758 E4.77289
G1 X79.240 Y118.749 E4.78425
G1 X75.930 Y120.637 E4.79561
G1 X72.563 Y122.420 E4.80697
G1 X69.141 Y124.096 E4.81833
G1 X65.669 Y125.664 E4.82969
G1 X62.745 Y126.875 E4.83913
G1 X62.149 Y127.122 E4.84105
G1 X58.584 Y128.469 E4.85241
G1 X54.980 Y129.704 E4.86377
G1 X51.338 Y130.823 E4.87513
G1 X47.663 Y131.829 E4.88649
G1 X43.958 Y132.718 E4.89785
G1 X40.859 Y133.360 E4.90729
G1 X40.227 Y133.491 E4.90922
G1 X36.473 Y134.147 E4.92058
G1 X32.701 Y134.683 E4.93194
G1 X28.914 Y135.101 E4.94330
G1 X25.116 Y135.400 E4.95466
G1 X22.879 Y135.506 E4.96133
G1 X22.879 Y134.692 E4.96376
G1 X21.284 Y134.767 E4.96852
G1 X17.629 Y134.825 E4.97942
G1 X17.629 Y130.758 E4.99155
G1 X21.156 Y130.703 E5.00207
G1 X24.809 Y130.531 E5.01297
G1 X28.687 Y130.219 E5.02457
G1 X32.090 Y129.842 E5.03478
G1 X35.710 Y129.328 E5.04568
G1 X39.313 Y128.698 E5.05658
G1 X42.894 Y127.957 E5.06749
G1 X46.449 Y127.103 E5.07839
G1 X49.977 Y126.138 E5.08929
G1 X53.472 Y125.063 E5.10020
G1 X56.932 Y123.878 E5.11110
G1 X60.353 Y122.586 E5.12201
G1 X63.731 Y121.186 E5.13291
G1 X67.064 Y119.682 E5.14381
G1 X70.348 Y118.073 E5.15472
G1 X73.580 Y116.361 E5.16562
G1 X76.580 Y114.650 E5.17592
G1 X79.874 Y112.639 E5.18743
G1 X82.931 Y110.631 E5.19833
G1 X85.923 Y108.528 E5.20924
G1 X88.847 Y106.333 E5.22014
G1 X91.701 Y104.046 E5.23104
G1 X94.482 Y101.672 E5.24194
G1 X97.187 Y99.210 E5.25285
G1 X99.813 Y96.666 E5.26375
G1 X102.358 Y94.039 E5.27466
G1 X104.819 Y91.334 E5.28556
G1 X107.194 Y88.554 E5.29646
G1 X109.480 Y85.700 E5.30737
G1 X111.676 Y82.775 E5.31827
G1 X113.779 Y79.783 E5.32917
G1 X115.786 Y76.727 E5.34008
G1 X117.697 Y73.609 E5.35098
G1 X119.509 Y70.432 E5.36189
G1 X121.220 Y67.201 E5.37279
G1 X122.829 Y63.917 E5.38369
G1 X124.334 Y60.584 E5.39460
G1 X125.733 Y57.205 E5.40550
G1 X127.026 Y53.784 E5.41640
G1 X127.629 Y52.022 E5.42196
G1 X127.629 Y32.762 E5.47939
G1 X131.754 Y32.762 E5.49168
G1 X131.750 Y32.682 F7800.000
G1 F1800.000
G1 X131.750 Y15.103 E5.54410
G1 X127.549 Y15.103 E5.55662
G1 X127.549 Y14.402 E5.55871
G1 X132.450 Y14.402 E5.57333
G1 X132.450 Y34.233 E5.63245
G1 X131.650 Y34.233 E5.63484
G1 X131.650 Y44.832 E5.66644
G1 X132.450 Y44.832 E5.66883
G1 X132.450 Y53.247 E5.69392
G1 X131.691 Y55.464 E5.70091
G1 X130.344 Y59.031 E5.71227
G1 X128.885 Y62.553 E5.72364
G1 X127.315 Y66.028 E5.73501
G1 X125.638 Y69.452 E5.74638
G1 X123.854 Y72.821 E5.75775
G1 X121.965 Y76.133 E5.76911
G1 X119.973 Y79.384 E5.78048
G1 X117.880 Y82.571 E5.79185
G1 X115.688 Y85.690 E5.80322
G1 X113.398 Y88.739 E5.81459
G1 X111.015 Y91.715 E5.82596
G1 X108.538 Y94.614 E5.83732
G1 X105.972 Y97.433 E5.84869
G1 X103.319 Y100.172 E5.86006
G1 X100.581 Y102.825 E5.87143
G1 X97.761 Y105.391 E5.88279
G1 X94.862 Y107.867 E5.89416
G1 X91.886 Y110.251 E5.90553
G1 X88.837 Y112.540 E5.91690
G1 X85.718 Y114.732 E5.92827
G1 X82.531 Y116.825 E5.93964
G1 X79.281 Y118.817 E5.95100
G1 X75.969 Y120.707 E5.96237
G1 X72.599 Y122.491 E5.97374
G1 X69.175 Y124.168 E5.98511
G1 X65.700 Y125.737 E5.99648
G1 X62.776 Y126.949 E6.00592
G1 X62.178 Y127.197 E6.00784
G1 X58.611 Y128.544 E6.01921
G1 X55.004 Y129.779 E6.03058
G1 X51.360 Y130.900 E6.04195
G1 X47.683 Y131.906 E6.05332
G1 X43.975 Y132.796 E6.06469
G1 X40.876 Y133.439 E6.07412
G1 X40.242 Y133.570 E6.07605
G1 X36.486 Y134.225 E6.08742
G1 X32.711 Y134.762 E6.09879
G1 X28.922 Y135.181 E6.11016
G1 X25.121 Y135.480 E6.12153
G1 X22.800 Y135.589 E6.12845
G1 X22.800 Y134.775 E6.13088
G1 X21.287 Y134.847 E6.13540
G1 X17.549 Y134.906 E6.14654
G1 X17.549 Y130.680 E6.15914
G1 X21.154 Y130.624 E6.16989
G1 X24.804 Y130.451 E6.18079
G1 X28.679 Y130.139 E6.19238
G1 X32.080 Y129.763 E6.20258
G1 X35.698 Y129.249 E6.21348
G1 X39.298 Y128.620 E6.22437
G1 X42.876 Y127.879 E6.23527
G1 X46.430 Y127.026 E6.24616
G1 X49.955 Y126.062 E6.25706
G1 X53.447 Y124.987 E6.26796
G1 X56.905 Y123.803 E6.27885
G1 X60.323 Y122.512 E6.28975
G1 X63.699 Y121.113 E6.30065
G1 X67.030 Y119.610 E6.31154
G1 X70.312 Y118.002 E6.32244
G1 X73.542 Y116.291 E6.33333
G1 X76.540 Y114.582 E6.34362
G1 X79.832 Y112.572 E6.35513
G1 X82.886 Y110.565 E6.36602
G1 X85.876 Y108.464 E6.37692
G1 X88.798 Y106.270 E6.38781
G1 X91.650 Y103.985 E6.39871
G1 X94.429 Y101.612 E6.40961
G1 X97.132 Y99.152 E6.42050
G1 X99.756 Y96.609 E6.43140
G1 X102.300 Y93.984 E6.44230
G1 X104.759 Y91.281 E6.45319
G1 X107.132 Y88.503 E6.46409
G1 X109.417 Y85.651 E6.47498
G1 X111.611 Y82.729 E6.48588
G1 X113.713 Y79.739 E6.49678
G1 X115.719 Y76.684 E6.50767
G1 X117.628 Y73.568 E6.51857
G1 X119.439 Y70.394 E6.52946
G1 X121.149 Y67.164 E6.54036
G1 X122.757 Y63.883 E6.55126
G1 X124.261 Y60.552 E6.56215
G1 X125.659 Y57.176 E6.57305
G1 X126.951 Y53.757 E6.58395
G1 X127.549 Y52.009 E6.58946
G1 X127.549 Y32.682 E6.64708
G1 X131.674 Y32.682 E6.65938
G1 X132.199 Y32.463 F7800.000
G1 X132.163 Y32.983 F7800.000
G1 F1800.000
G1 X132.163 Y33.096 E6.65972
G1 X131.313 Y33.945 E6.66330
G1 X131.426 Y33.945 E6.66364
G1 X132.163 Y33.209 E6.66675
G1 X132.163 Y33.321 E6.66708
G1 X131.539 Y33.945 E6.66972
G1 X131.652 Y33.945 E6.67005
G1 X132.163 Y33.434 E6.67221
G1 X132.163 Y33.547 E6.67255
G1 X131.765 Y33.945 E6.67423
G1 X131.877 Y33.945 E6.67456
G1 X132.163 Y33.660 E6.67577
G1 X132.163 Y33.773 E6.67610
G1 X131.990 Y33.945 E6.67683
G1 E4.67683 F2400.00000
G92 E0
G1 X128.003 Y32.970 F7800.000
G1 E2.00000 F2400.00000
G1 F1800.000
G1 X127.837 Y33.136 E2.00070
G1 X127.837 Y33.249 E2.00104
G1 X128.116 Y32.970 E2.00221
G1 X128.229 Y32.970 E2.00255
G1 X127.837 Y33.361 E2.00420
G1 X127.837 Y33.474 E2.00454
G1 X128.342 Y32.970 E2.00667
G1 X128.454 Y32.970 E2.00700
G1 X127.837 Y33.587 E2.00961
G1 X127.837 Y33.700 E2.00995
G1 X128.567 Y32.970 E2.01303
G1 X128.680 Y32.970 E2.01336
G1 X127.837 Y33.812 E2.01692
G1 X127.837 Y33.925 E2.01726
G1 X128.793 Y32.970 E2.02129
G1 X128.906 Y32.970 E2.02162
G1 X127.837 Y34.038 E2.02613
G1 X127.837 Y34.151 E2.02647
G1 X129.018 Y32.970 E2.03145
G1 X129.131 Y32.970 E2.03179
G1 X127.837 Y34.264 E2.03725
G1 X127.837 Y34.376 E2.03759
G1 X129.244 Y32.970 E2.04352
G1 X129.357 Y32.970 E2.04386
G1 X127.837 Y34.489 E2.05027
G1 X127.837 Y34.602 E2.05061
G1 X129.469 Y32.970 E2.05750
G1 X129.582 Y32.970 E2.05783
G1 X127.837 Y34.715 E2.06520
G1 X127.837 Y34.828 E2.06553
G1 X129.695 Y32.970 E2.07337
G1 X129.808 Y32.970 E2.07371
G1 X127.837 Y34.940 E2.08203
G1 X127.837 Y35.053 E2.08236
G1 X129.921 Y32.970 E2.09115
G1 X130.033 Y32.970 E2.09149
G1 X127.837 Y35.166 E2.10076
G1 X127.837 Y35.279 E2.10109
G1 X130.146 Y32.970 E2.11084
G1 X130.259 Y32.970 E2.11117
G1 X127.837 Y35.391 E2.12139
G1 X127.837 Y35.504 E2.12173
G1 X130.372 Y32.970 E2.13243
G1 X130.484 Y32.970 E2.13276
G1 X127.837 Y35.617 E2.14393
G1 X127.837 Y35.730 E2.14427
G1 X130.597 Y32.970 E2.15592
G1 X130.710 Y32.970 E2.15625
