; generated by Slic3r 1.3.1-dev (Build 2ef957d) on 2019-11-25 at 09:24:43

; external perimeters extrusion width = 0.55mm (4.37mm^3/s)
; perimeters extrusion width = 0.70mm (11.44mm^3/s)
; infill extrusion width = 0.62mm (13.45mm^3/s)
; solid infill extrusion width = 0.70mm (3.81mm^3/s)
; top infill extrusion width = 0.70mm (2.86mm^3/s)

M107
G92 E0
M104 S200 ; set temperature
G28 ; home all axes
G1 Z5 F5000 ; lift nozzle

; Filament gcode

M109 S200 ; set temperature and wait for it to be reached
G21 ; set units to millimeters
G90 ; use absolute coordinates
M82 ; use absolute distances for extrusion
G92 E0
G1 Z0.350 F7800.000
G1 E-2.00000 F2400.00000
G92 E0
G1 X69.663 Y69.622 F7800.000
G1 E2.00000 F2400.00000
G1 F1800.000
G1 X72.796 Y66.771 E2.13105
G1 X75.860 Y64.158 E2.25567
G1 X79.005 Y61.642 E2.38028
G1 X82.060 Y59.349 E2.49846
G1 X85.353 Y57.031 E2.62308
G1 X88.717 Y54.817 E2.74769
G1 X89.127 Y54.565 E2.76257
G1 X97.999 Y49.462 E3.07925
G1 X99.390 Y48.729 E3.12788
G1 X103.008 Y46.960 E3.25250
G1 X106.680 Y45.306 E3.37711
G1 X110.402 Y43.768 E3.50173
G1 X114.171 Y42.347 E3.62635
G1 X117.982 Y41.046 E3.75096
G1 X121.832 Y39.865 E3.87557
G1 X125.718 Y38.805 E4.00019
G1 X129.635 Y37.868 E4.12480
G1 X133.579 Y37.055 E4.24942
G1 X137.547 Y36.365 E4.37403
G1 X141.535 Y35.801 E4.49865
G1 X145.539 Y35.362 E4.62327
G1 X149.346 Y35.063 E4.74144
G1 X152.188 Y34.926 E4.82947
G1 X153.427 Y34.983 E4.86784
G1 X158.427 Y35.690 E5.02409
G1 X160.608 Y36.399 E5.09505
G1 X162.417 Y37.809 E5.16601
G1 X163.636 Y39.752 E5.23697
G1 X164.125 Y42.249 E5.31573
G1 X164.125 Y46.410 E5.44448
G1 X163.728 Y48.669 E5.51544
G1 X162.319 Y50.957 E5.59857
G1 X52.319 Y167.553 E10.55832
G1 X50.480 Y168.923 E10.62928
G1 X47.500 Y169.631 E10.72405
G1 X42.500 Y169.631 E10.87876
G1 X40.241 Y169.235 E10.94972
G1 X38.253 Y168.091 E11.02069
G1 X36.774 Y166.338 E11.09165
G1 X35.981 Y164.186 E11.16261
G1 X35.875 Y163.007 E11.19926
G1 X35.875 Y123.600 E12.41855
G1 X36.232 Y121.455 E12.48583
G1 X36.911 Y119.481 E12.55042
G1 X38.338 Y115.716 E12.67501
G1 X39.882 Y111.995 E12.79967
G1 X41.542 Y108.327 E12.92425
G1 X43.224 Y104.894 E13.04250
G1 X43.959 Y103.498 E13.09133
G1 X49.058 Y94.634 E13.40775
G1 X49.310 Y94.224 E13.42262
G1 X51.524 Y90.860 E13.54724
G1 X53.842 Y87.566 E13.67186
G1 X56.136 Y84.512 E13.79004
G1 X58.651 Y81.367 E13.91465
G1 X61.264 Y78.302 E14.03927
G1 X63.973 Y75.321 E14.16388
G1 X66.773 Y72.427 E14.28850
G1 X69.609 Y69.674 E14.41079
G1 E12.41079 F2400.00000
G92 E0
G1 X92.279 Y63.240 F7800.000
G1 E2.00000 F2400.00000
G1 F1800.000
G1 X96.844 Y60.443 E2.16565
G1 X100.096 Y58.588 E2.28147
G1 X103.725 Y56.667 E2.40855
G1 X103.319 Y55.963 E2.43369
G1 X106.415 Y54.446 E2.54037
G1 X109.850 Y52.895 E2.65699
G1 X113.333 Y51.453 E2.77362
G1 X116.858 Y50.120 E2.89024
G1 X120.424 Y48.900 E3.00686
G1 X124.027 Y47.791 E3.12348
G1 X127.662 Y46.797 E3.24010
G1 X131.327 Y45.917 E3.35672
G1 X135.018 Y45.153 E3.47334
G1 X138.731 Y44.504 E3.58996
G1 X142.463 Y43.973 E3.70658
G1 X146.209 Y43.560 E3.82320
G1 X149.966 Y43.264 E3.93982
G1 X150.900 Y43.220 E3.96875
G1 X150.900 Y44.043 E3.99421
G1 X153.757 Y43.908 E4.08271
G1 X155.900 Y43.875 E4.14902
G1 X155.900 Y44.836 E4.17876
G1 X153.787 Y44.869 E4.24414
G1 X150.078 Y45.044 E4.35903
G1 X146.377 Y45.335 E4.47392
G1 X142.686 Y45.743 E4.58880
G1 X139.010 Y46.266 E4.70369
G1 X135.352 Y46.904 E4.81858
G1 X131.716 Y47.657 E4.93347
G1 X128.106 Y48.524 E5.04835
G1 X124.524 Y49.504 E5.16324
G1 X120.975 Y50.595 E5.27813
G1 X117.462 Y51.798 E5.39302
G1 X113.989 Y53.111 E5.50791
G1 X110.559 Y54.532 E5.62279
G1 X107.175 Y56.060 E5.73768
G1 X103.840 Y57.693 E5.85257
G1 X100.559 Y59.431 E5.96746
G1 X97.333 Y61.270 E6.08235
G1 X94.167 Y63.210 E6.19723
G1 X91.064 Y65.249 E6.31212
G1 X88.026 Y67.384 E6.42701
G1 X85.057 Y69.613 E6.54189
G1 X82.159 Y71.935 E6.65678
G1 X79.335 Y74.346 E6.77167
G1 X76.589 Y76.845 E6.88656
G1 X73.923 Y79.429 E7.00145
G1 X71.339 Y82.096 E7.11633
G1 X68.840 Y84.842 E7.23122
G1 X66.428 Y87.666 E7.34611
G1 X64.107 Y90.563 E7.46100
G1 X61.877 Y93.533 E7.57589
G1 X59.742 Y96.570 E7.69077
G1 X57.704 Y99.674 E7.80566
G1 X55.919 Y102.587 E7.91137
G1 X53.925 Y106.064 E8.03538
G1 X52.187 Y109.347 E8.15032
G1 X50.553 Y112.681 E8.26520
G1 X49.025 Y116.065 E8.38010
G1 X47.604 Y119.496 E8.49499
G1 X46.292 Y122.969 E8.60986
G1 X45.900 Y124.112 E8.64725
G1 X45.900 Y145.667 E9.31419
G1 X44.100 Y145.667 E9.36989
G1 X44.100 Y123.866 E10.04443
G1 X44.614 Y122.365 E10.09353
G1 X45.946 Y118.839 E10.21015
G1 X47.388 Y115.357 E10.32676
G1 X48.940 Y111.922 E10.44339
G1 X50.456 Y108.826 E10.55006
G1 X51.160 Y109.232 E10.57520
G1 X53.082 Y105.602 E10.70229
G1 X54.937 Y102.351 E10.81812
G1 X57.733 Y97.786 E10.98376
G1 X57.066 Y97.400 E11.00761
G1 X58.268 Y95.568 E11.07542
G1 X60.435 Y92.484 E11.19203
G1 X62.698 Y89.470 E11.30865
G1 X65.054 Y86.529 E11.42527
G1 X67.502 Y83.663 E11.54189
G1 X70.039 Y80.875 E11.65851
G1 X72.662 Y78.168 E11.77513
G1 X75.368 Y75.546 E11.89175
G1 X78.156 Y73.009 E12.00837
G1 X81.022 Y70.561 E12.12499
G1 X83.964 Y68.204 E12.24161
G1 X86.978 Y65.941 E12.35823
G1 X90.061 Y63.774 E12.47484
G1 X91.894 Y62.573 E12.54265
G1 X92.242 Y63.175 E12.56418
G1 X92.500 Y62.372 F7800.000
G1 F1800.000
G1 X96.526 Y59.905 E12.71029
G1 X99.795 Y58.041 E12.82672
G1 X102.860 Y56.418 E12.93405
G1 X102.449 Y55.705 E12.95950
G1 X106.149 Y53.881 E13.08716
G1 X109.602 Y52.322 E13.20439
G1 X113.103 Y50.872 E13.32162
G1 X116.647 Y49.532 E13.43884
G1 X120.231 Y48.305 E13.55607
G1 X123.853 Y47.191 E13.67330
G1 X127.507 Y46.191 E13.79053
G1 X131.191 Y45.307 E13.90776
G1 X134.901 Y44.539 E14.02499
G1 X138.633 Y43.887 E14.14222
G1 X142.384 Y43.353 E14.25945
G1 X146.150 Y42.938 E14.37667
G1 X149.927 Y42.640 E14.49390
G1 X151.525 Y42.565 E14.54340
G1 X151.525 Y43.388 E14.56886
G1 X153.738 Y43.284 E14.63739
G1 X156.525 Y43.240 E14.72365
G1 X156.525 Y45.451 E14.79206
G1 X153.807 Y45.494 E14.87617
G1 X150.118 Y45.667 E14.99045
G1 X146.436 Y45.957 E15.10473
G1 X142.764 Y46.363 E15.21901
G1 X139.108 Y46.883 E15.33329
G1 X135.469 Y47.518 E15.44757
G1 X131.853 Y48.267 E15.56186
G1 X128.261 Y49.129 E15.67614
G1 X124.699 Y50.104 E15.79042
G1 X121.169 Y51.190 E15.90470
G1 X117.674 Y52.386 E16.01898
G1 X114.219 Y53.692 E16.13326
G1 X110.807 Y55.105 E16.24754
G1 X107.441 Y56.625 E16.36182
G1 X104.124 Y58.250 E16.47610
G1 X100.860 Y59.978 E16.59038
G1 X97.651 Y61.808 E16.70466
G1 X94.502 Y63.738 E16.81894
G1 X91.415 Y65.766 E16.93322
G1 X88.393 Y67.890 E17.04750
G1 X85.440 Y70.107 E17.16178
G1 X82.557 Y72.416 E17.27606
G1 X79.749 Y74.815 E17.39034
G1 X77.017 Y77.301 E17.50462
G1 X74.365 Y79.871 E17.61890
G1 X71.794 Y82.524 E17.73318
G1 X69.309 Y85.255 E17.84746
G1 X66.910 Y88.064 E17.96174
G1 X64.601 Y90.946 E18.07603
G1 X62.383 Y93.900 E18.19030
G1 X60.259 Y96.922 E18.30458
G1 X58.231 Y100.009 E18.41886
G1 X56.456 Y102.906 E18.52399
G1 X54.472 Y106.365 E18.64739
G1 X52.744 Y109.630 E18.76170
G1 X51.119 Y112.947 E18.87598
G1 X49.598 Y116.313 E18.99027
G1 X48.185 Y119.726 E19.10455
G1 X46.880 Y123.181 E19.21882
G1 X46.525 Y124.216 E19.25268
G1 X46.525 Y146.292 E19.93573
G1 X43.475 Y146.292 E20.03011
G1 X43.475 Y123.762 E20.72720
G1 X44.026 Y122.153 E20.77982
G1 X45.365 Y118.609 E20.89705
G1 X46.814 Y115.109 E21.01427
G1 X48.374 Y111.656 E21.13150
G1 X50.199 Y107.955 E21.25916
G1 X50.911 Y108.367 E21.28461
G1 X52.534 Y105.301 E21.39194
G1 X54.399 Y102.033 E21.50838
G1 X56.866 Y98.006 E21.65448
G1 X56.181 Y97.611 E21.67895
G1 X57.751 Y95.217 E21.76754
G1 X59.929 Y92.117 E21.88475
G1 X62.204 Y89.087 E22.00198
G1 X64.573 Y86.131 E22.11921
G1 X67.033 Y83.250 E22.23644
G1 X69.583 Y80.447 E22.35367
G1 X72.220 Y77.727 E22.47089
G1 X74.941 Y75.090 E22.58812
G1 X77.743 Y72.540 E22.70535
G1 X80.624 Y70.079 E22.82258
G1 X83.581 Y67.711 E22.93981
G1 X86.611 Y65.436 E23.05704
G1 X89.710 Y63.257 E23.17425
G1 X92.104 Y61.687 E23.26284
G1 X92.462 Y62.307 E23.28499
G1 X92.720 Y61.504 F7800.000
G1 F1800.000
G1 X96.208 Y59.367 E23.41156
G1 X99.493 Y57.493 E23.52860
G1 X101.995 Y56.169 E23.61617
G1 X101.583 Y55.456 E23.64162
G1 X102.463 Y54.991 E23.67242
G1 X105.883 Y53.315 E23.79025
G1 X109.354 Y51.748 E23.90809
G1 X112.873 Y50.291 E24.02593
G1 X116.435 Y48.944 E24.14376
G1 X120.038 Y47.711 E24.26160
G1 X123.678 Y46.591 E24.37944
G1 X127.352 Y45.586 E24.49727
G1 X131.055 Y44.697 E24.61511
G1 X134.784 Y43.925 E24.73294
G1 X138.536 Y43.270 E24.85078
G1 X142.306 Y42.733 E24.96862
G1 X146.091 Y42.315 E25.08645
G1 X149.888 Y42.017 E25.20429
G1 X152.150 Y41.910 E25.27436
G1 X152.150 Y42.733 E25.29982
G1 X153.718 Y42.659 E25.34838
G1 X157.150 Y42.605 E25.45459
G1 X157.150 Y46.066 E25.56167
G1 X153.827 Y46.118 E25.66452
G1 X150.157 Y46.291 E25.77819
G1 X146.494 Y46.579 E25.89186
G1 X142.843 Y46.983 E26.00553
G1 X139.206 Y47.500 E26.11921
G1 X135.587 Y48.132 E26.23288
G1 X131.989 Y48.877 E26.34655
G1 X128.417 Y49.734 E26.46023
G1 X124.873 Y50.704 E26.57390
G1 X121.362 Y51.784 E26.68757
G1 X117.886 Y52.974 E26.80125
G1 X114.449 Y54.273 E26.91492
G1 X111.055 Y55.679 E27.02859
G1 X107.707 Y57.191 E27.14227
G1 X104.408 Y58.807 E27.25594
G1 X101.161 Y60.526 E27.36961
G1 X97.970 Y62.346 E27.48328
G1 X94.837 Y64.266 E27.59695
G1 X91.766 Y66.283 E27.71063
G1 X88.761 Y68.395 E27.82430
G1 X85.823 Y70.601 E27.93797
G1 X82.956 Y72.898 E28.05165
G1 X80.162 Y75.284 E28.16532
G1 X77.445 Y77.757 E28.27899
G1 X74.807 Y80.313 E28.39267
G1 X72.250 Y82.951 E28.50634
G1 X69.777 Y85.669 E28.62001
G1 X67.391 Y88.462 E28.73368
G1 X65.094 Y91.330 E28.84736
G1 X62.889 Y94.267 E28.96103
G1 X60.776 Y97.273 E29.07470
G1 X58.759 Y100.344 E29.18838
G1 X56.994 Y103.224 E29.29291
G1 X55.019 Y106.667 E29.41571
G1 X53.300 Y109.914 E29.52939
G1 X51.684 Y113.213 E29.64306
G1 X50.172 Y116.562 E29.75674
G1 X48.766 Y119.956 E29.87041
G1 X47.468 Y123.392 E29.98408
G1 X47.150 Y124.320 E30.01442
G1 X47.150 Y146.917 E30.71358
G1 X42.850 Y146.917 E30.84663
G1 X42.850 Y123.658 E31.56627
G1 X43.438 Y121.942 E31.62241
G1 X44.784 Y118.379 E31.74025
G1 X46.241 Y114.861 E31.85808
G1 X47.809 Y111.390 E31.97593
G1 X49.484 Y107.970 E32.09376
G1 X49.950 Y107.090 E32.12456
G1 X50.662 Y107.501 E32.15000
G1 X51.986 Y105.000 E32.23758
G1 X53.861 Y101.714 E32.35462
G1 X55.998 Y98.227 E32.48118
G1 X55.295 Y97.821 E32.50627
G1 X57.234 Y94.866 E32.61563
G1 X59.423 Y91.750 E32.73346
G1 X61.710 Y88.704 E32.85130
G1 X64.091 Y85.732 E32.96914
G1 X66.565 Y82.836 E33.08697
G1 X69.128 Y80.019 E33.20481
G1 X71.778 Y77.285 E33.32264
G1 X74.513 Y74.634 E33.44048
G1 X77.330 Y72.071 E33.55832
G1 X80.226 Y69.598 E33.67615
G1 X83.198 Y67.217 E33.79399
G1 X86.243 Y64.930 E33.91182
G1 X89.359 Y62.740 E34.02966
G1 X92.314 Y60.802 E34.13902
G1 X92.683 Y61.439 E34.16179
G1 X93.143 Y61.771 F7800.000
G1 E32.16179 F2400.00000
G92 E0
G1 X42.900 Y146.917 F7800.000
G1 E2.00000 F2400.00000
G1 F1800.000
G1 X42.900 Y162.207 E2.54880
G1 F1800.000
G1 X42.969 Y162.538 E2.56248
G1 X43.190 Y162.584 E2.57160
G1 F1800.000
G1 X43.300 Y162.607 E2.57565
G1 X47.500 Y162.607 E2.72640
G1 E0.72640 F2400.00000
G92 E0
G1 X45.032 Y145.285 F7800.000
G1 E2.00000 F2400.00000
G1 F1800.000
G1 X45.518 Y144.799 E2.02169
G1 X45.518 Y143.898 E2.05011
G1 X44.482 Y144.935 E2.09637
G1 X44.482 Y144.034 E2.12479
G1 X45.518 Y142.997 E2.17105
G1 X45.518 Y142.096 E2.19947
G1 X44.482 Y143.133 E2.24572
G1 X44.482 Y142.231 E2.27415
G1 X45.518 Y141.195 E2.32040
G1 X45.518 Y140.294 E2.34882
G1 X44.482 Y141.330 E2.39508
G1 X44.482 Y140.429 E2.42350
G1 X45.518 Y139.393 E2.46975
G1 X45.518 Y138.492 E2.49818
G1 X44.482 Y139.528 E2.54443
G1 X44.482 Y138.627 E2.57286
G1 X45.518 Y137.591 E2.61911
G1 X45.518 Y136.690 E2.64753
G1 X44.482 Y137.726 E2.69379
G1 X44.482 Y136.825 E2.72221
G1 X45.518 Y135.789 E2.76846
G1 X45.518 Y134.888 E2.79689
G1 X44.482 Y135.924 E2.84314
G1 X44.482 Y135.023 E2.87156
G1 X45.518 Y133.987 E2.91782
G1 X45.518 Y133.086 E2.94624
G1 X44.482 Y134.122 E2.99250
G1 X44.482 Y133.221 E3.02092
G1 X45.518 Y132.185 E3.06717
G1 X45.518 Y131.284 E3.09560
G1 X44.482 Y132.320 E3.14185
G1 X44.482 Y131.419 E3.17027
G1 X45.518 Y130.383 E3.21653
G1 X45.518 Y129.482 E3.24495
G1 X44.482 Y130.518 E3.29120
G1 X44.482 Y129.617 E3.31963
G1 X45.518 Y128.581 E3.36588
G1 X45.518 Y127.680 E3.39431
G1 X44.482 Y128.716 E3.44056
G1 X44.482 Y127.815 E3.46898
G1 X45.518 Y126.779 E3.51524
G1 X45.518 Y125.878 E3.54366
G1 X44.482 Y126.914 E3.58991
G1 X44.482 Y126.013 E3.61834
G1 X45.518 Y124.977 E3.66459
G1 X45.518 Y124.076 E3.69301
G1 X44.482 Y125.112 E3.73927
G1 X44.482 Y124.213 E3.76763
G1 X45.826 Y122.867 E3.82766
G1 X46.353 Y121.438 E3.87568
G1 X44.951 Y122.840 E3.93823
G1 X45.498 Y121.393 E3.98703
G1 X46.900 Y119.990 E4.04961
G1 X47.477 Y118.513 E4.09966
G1 X46.045 Y119.945 E4.16355
G1 X46.284 Y119.312 E4.18488
G1 X46.643 Y118.446 E4.21446
G1 X48.114 Y116.975 E4.28010
G1 X48.760 Y115.428 E4.33299
G1 X47.280 Y116.908 E4.39904
G1 X47.949 Y115.338 E4.45290
G1 X49.502 Y113.784 E4.52220
G1 X50.247 Y112.139 E4.57918
G1 X48.691 Y113.694 E4.64859
G1 X49.262 Y112.431 E4.69233
G1 X49.462 Y112.023 E4.70667
G1 X51.112 Y110.372 E4.78030
G1 X51.289 Y110.012 E4.79295
G1 X50.814 Y109.770 E4.80977
G1 X50.328 Y110.256 E4.83146
G1 X51.439 Y109.755 F7800.000
G1 F1800.000
G1 X53.505 Y105.829 E4.88881
G1 X55.354 Y102.597 E4.93695
G1 X57.299 Y99.414 E4.98519
G1 F1800.000
G1 X58.340 Y97.775 E5.01557
G1 X58.343 Y97.435 F7800.000
G1 F1800.000
G1 X58.830 Y96.948 E5.04004
G1 X59.468 Y95.976 E5.08142
G1 X61.082 Y93.680 E5.18126
G1 X58.431 Y96.331 E5.31466
G1 X60.836 Y92.911 E5.46340
G1 X64.046 Y89.701 E5.62490
G1 X66.190 Y87.024 E5.74689
G1 X68.614 Y84.186 E5.87967
G1 X69.317 Y83.413 E5.91684
G1 X64.217 Y88.513 E6.17343
G1 X65.293 Y87.170 E6.23465
G1 X67.728 Y84.319 E6.36803
G1 X70.251 Y81.546 E6.50141
G1 X73.351 Y78.363 E6.65946
G1 E4.65946 F2400.00000
G92 E0
G1 X68.831 Y83.899 F7800.000
G1 E2.00000 F2400.00000
G1 F1800.000
G1 X70.640 Y81.911 E2.09561
G1 X73.238 Y79.230 E2.22839
G1 X75.918 Y76.633 E2.36117
G1 X77.906 Y74.824 E2.45677
G1 X83.007 Y69.723 E2.71336
G1 X84.590 Y68.455 E2.78552
G1 X87.404 Y66.342 E2.91071
G1 X84.194 Y69.552 E3.07220
G1 X87.416 Y67.121 E3.21577
G1 X88.173 Y66.589 E3.24870
G1 X90.825 Y63.937 E3.38213
G1 X91.643 Y63.401 E3.41690
G1 X91.928 Y63.850 E3.43583
G1 X91.442 Y64.336 E3.46030
G1 X92.268 Y63.846 F7800.000
G1 F1800.000
G1 X93.912 Y62.803 E3.48703
G1 X97.089 Y60.857 E3.53819
G1 X100.327 Y59.010 E3.58939
G1 X104.248 Y56.946 E3.65023
G1 X104.749 Y55.834 F7800.000
G1 F1800.000
G1 X104.263 Y56.320 E3.67164
G1 X104.505 Y56.795 E3.68825
G1 X104.843 Y56.630 E3.69997
G1 X106.493 Y54.980 E3.77264
G1 X108.145 Y54.217 E3.82930
G1 X106.587 Y55.776 E3.89793
G1 X108.214 Y55.038 E3.95357
G1 X109.767 Y53.485 E4.02196
G1 X111.322 Y52.820 E4.07463
G1 X109.836 Y54.306 E4.14008
G1 X111.369 Y53.662 E4.19187
G1 X112.840 Y52.191 E4.25666
G1 X113.806 Y51.791 E4.28922
G1 X114.326 Y51.594 E4.30654
G1 X112.887 Y53.033 E4.36992
G1 X114.354 Y52.456 E4.41900
G1 X115.756 Y51.054 E4.48076
G1 X117.186 Y50.513 E4.52836
G1 X115.783 Y51.916 E4.59012
G1 X117.202 Y51.387 E4.63727
G1 X118.545 Y50.044 E4.69643
G1 X119.898 Y49.580 E4.74095
G1 X118.555 Y50.924 E4.80010
G1 X119.907 Y50.460 E4.84462
G1 X121.231 Y49.137 E4.90291
G1 X122.515 Y48.742 E4.94477
G1 X121.224 Y50.034 E5.00166
G1 X122.508 Y49.638 E5.04352
G1 X123.800 Y48.347 E5.10041
G1 X124.444 Y48.148 E5.12140
G1 X125.055 Y47.981 E5.14111
G1 X123.793 Y49.243 E5.19668
G1 X125.032 Y48.893 E5.23678
G1 X126.279 Y47.646 E5.29170
G1 X127.504 Y47.311 E5.33124
G1 X126.257 Y48.558 E5.38616
G1 X127.481 Y48.223 E5.42569
G1 X128.699 Y47.006 E5.47932
G1 X129.869 Y46.725 E5.51681
G1 X128.661 Y47.932 E5.56999
G1 X129.832 Y47.651 E5.60748
G1 X131.040 Y46.444 E5.66067
G1 X131.707 Y46.284 E5.68203
G1 X132.189 Y46.184 E5.69737
G1 X131.002 Y47.370 E5.74964
G1 X132.138 Y47.124 E5.78583
G1 X133.311 Y45.952 E5.83748
G1 X134.433 Y45.719 E5.87315
G1 X133.260 Y46.892 E5.92480
G1 X134.382 Y46.660 E5.96048
G1 X135.547 Y45.494 E6.01182
G1 X136.625 Y45.306 E6.04589
G1 X135.483 Y46.447 E6.09617
G1 X136.561 Y46.259 E6.13023
G1 X137.703 Y45.118 E6.18052
G1 X138.780 Y44.930 E6.21458
G1 X137.638 Y46.071 E6.26487
