; Gcode updated with 'stl_info' on 2019-12-03 19:08:02.544000

; stl_min_x = -16.0
; stl_max_x = 16.0
; stl_min_y = -8.666179656982422
; stl_max_y = 8.666179656982422
; stl_min_z = -19.75

; generated by Slic3r 1.3.1-dev (Build adea0d9) on 2019-12-03 at 19:08:01

; external perimeters extrusion width = 0.55mm (1.90mm^3/s)
; perimeters extrusion width = 0.70mm (2.71mm^3/s)
; infill extrusion width = 0.62mm (2.41mm^3/s)
; solid infill extrusion width = 0.70mm (2.04mm^3/s)
; top infill extrusion width = 0.70mm (2.04mm^3/s)

M107
G92 E0
;D3D:START:START
T0
M104 S215 T0

G21
G90
M107
T0
G28
G29
M109 T0 S215 T0
G0 F3000
M107
T0
G92 E0
G0 X0 Y149 Z0.1 F3600
G1 Y49 E6.5 F1200
G0 Z1
G92 E0
; Filament gcode

G21 ; set units to millimeters
G90 ; use absolute coordinates
M82 ; use absolute distances for extrusion
G92 E0
G1 Z0.090 F7800.000
G1 E-2.00000 F2400.00000
G92 E0
G1 X55.846 Y67.302 F7800.000
G1 E2.00000 F2400.00000
G1 F1800.000
G1 X66.006 Y61.138 E2.03543
G1 X68.059 Y60.357 E2.04198
G1 X69.160 Y60.256 E2.04528
G1 X80.840 Y60.256 E2.08010
G1 X83.000 Y60.653 E2.08665
G1 X83.994 Y61.138 E2.08995
G1 X94.154 Y67.302 E2.12538
G1 X95.795 Y68.762 E2.13193
G1 X96.810 Y70.709 E2.13848
G1 X97.080 Y72.500 E2.14388
G1 X97.080 Y77.500 E2.15879
G1 X96.683 Y79.660 E2.16534
G1 X95.545 Y81.538 E2.17188
G1 X94.154 Y82.698 E2.17728
G1 X83.994 Y88.862 E2.21272
G1 X81.941 Y89.643 E2.21927
G1 X80.840 Y89.744 E2.22256
G1 X69.160 Y89.744 E2.25739
G1 X67.000 Y89.347 E2.26394
G1 X66.006 Y88.862 E2.26723
G1 X55.846 Y82.698 E2.30267
G1 X54.205 Y81.238 E2.30921
G1 X53.190 Y79.291 E2.31576
G1 X52.920 Y77.500 E2.32116
G1 X52.920 Y72.500 E2.33607
G1 X53.317 Y70.340 E2.34262
G1 X54.455 Y68.462 E2.34917
G1 X55.789 Y67.350 E2.35434
G1 E0.35434 F2400.00000
G92 E0
G1 X77.941 Y79.635 F7800.000
G1 E2.00000 F2400.00000
G1 F1800.000
G1 X77.337 Y79.967 E2.00206
G1 X76.696 Y80.220 E2.00411
G1 X76.029 Y80.392 E2.00617
G1 X75.345 Y80.478 E2.00822
G1 X74.655 Y80.478 E2.01028
G1 X73.971 Y80.392 E2.01233
G1 X73.304 Y80.220 E2.01439
G1 X72.663 Y79.967 E2.01644
G1 X72.059 Y79.635 E2.01850
G1 X71.501 Y79.229 E2.02055
G1 X70.999 Y78.758 E2.02261
G1 X70.559 Y78.226 E2.02466
G1 X70.190 Y77.644 E2.02672
G1 X69.896 Y77.021 E2.02877
G1 X69.683 Y76.365 E2.03083
G1 X69.554 Y75.688 E2.03289
G1 X69.511 Y75.000 E2.03494
G1 X69.554 Y74.312 E2.03700
G1 X69.683 Y73.635 E2.03905
G1 X69.896 Y72.979 E2.04111
G1 X70.190 Y72.356 E2.04316
G1 X70.559 Y71.774 E2.04522
G1 X70.999 Y71.242 E2.04727
G1 X71.501 Y70.771 E2.04933
G1 X72.059 Y70.365 E2.05138
G1 X72.663 Y70.033 E2.05344
G1 X73.304 Y69.780 E2.05549
G1 X73.971 Y69.608 E2.05755
G1 X74.655 Y69.522 E2.05961
G1 X75.345 Y69.522 E2.06166
G1 X76.029 Y69.608 E2.06372
G1 X76.696 Y69.780 E2.06577
G1 X77.337 Y70.033 E2.06783
G1 X77.941 Y70.365 E2.06988
G1 X78.499 Y70.771 E2.07194
G1 X79.001 Y71.242 E2.07399
G1 X79.441 Y71.774 E2.07605
G1 X79.810 Y72.356 E2.07810
G1 X80.104 Y72.979 E2.08016
G1 X80.317 Y73.635 E2.08221
G1 X80.446 Y74.312 E2.08427
G1 X80.489 Y75.000 E2.08632
G1 X80.446 Y75.688 E2.08838
G1 X80.317 Y76.365 E2.09044
G1 X80.104 Y77.021 E2.09249
G1 X79.810 Y77.644 E2.09455
G1 X79.441 Y78.226 E2.09660
G1 X79.001 Y78.758 E2.09866
G1 X78.499 Y79.229 E2.10071
G1 X78.002 Y79.591 E2.10254
G1 X77.898 Y79.567 F7800.000
G1 F1800.000
G1 X77.303 Y79.894 E2.10457
G1 X76.672 Y80.145 E2.10659
G1 X76.014 Y80.313 E2.10862
G1 X75.340 Y80.399 E2.11065
G1 X74.660 Y80.399 E2.11267
G1 X73.986 Y80.313 E2.11470
G1 X73.328 Y80.145 E2.11672
G1 X72.697 Y79.894 E2.11875
G1 X72.102 Y79.567 E2.12077
G1 X71.552 Y79.168 E2.12280
G1 X71.057 Y78.703 E2.12482
G1 X70.624 Y78.179 E2.12685
G1 X70.260 Y77.606 E2.12887
G1 X69.971 Y76.991 E2.13090
G1 X69.761 Y76.345 E2.13293
G1 X69.633 Y75.678 E2.13495
G1 X69.591 Y75.000 E2.13698
G1 X69.633 Y74.322 E2.13900
G1 X69.761 Y73.655 E2.14103
G1 X69.971 Y73.009 E2.14305
G1 X70.260 Y72.394 E2.14508
G1 X70.624 Y71.821 E2.14710
G1 X71.057 Y71.297 E2.14913
G1 X71.552 Y70.832 E2.15115
G1 X72.102 Y70.433 E2.15318
G1 X72.697 Y70.106 E2.15521
G1 X73.328 Y69.855 E2.15723
G1 X73.986 Y69.687 E2.15926
G1 X74.660 Y69.601 E2.16128
G1 X75.340 Y69.601 E2.16331
G1 X76.014 Y69.687 E2.16533
G1 X76.672 Y69.855 E2.16736
G1 X77.303 Y70.106 E2.16938
G1 X77.898 Y70.433 E2.17141
G1 X78.448 Y70.832 E2.17343
G1 X78.943 Y71.297 E2.17546
G1 X79.376 Y71.821 E2.17749
G1 X79.740 Y72.394 E2.17951
G1 X80.029 Y73.009 E2.18154
G1 X80.239 Y73.655 E2.18356
G1 X80.367 Y74.322 E2.18559
G1 X80.409 Y75.000 E2.18761
G1 X80.367 Y75.678 E2.18964
G1 X80.239 Y76.345 E2.19166
G1 X80.029 Y76.991 E2.19369
G1 X79.740 Y77.606 E2.19571
G1 X79.376 Y78.179 E2.19774
G1 X78.943 Y78.703 E2.19977
G1 X78.448 Y79.168 E2.20179
G1 X77.959 Y79.523 E2.20359
G1 X77.856 Y79.500 F7800.000
G1 F1800.000
G1 X77.269 Y79.822 E2.20559
G1 X76.647 Y80.069 E2.20758
G1 X75.999 Y80.235 E2.20958
G1 X75.335 Y80.319 E2.21157
G1 X74.665 Y80.319 E2.21357
G1 X74.001 Y80.235 E2.21557
G1 X73.353 Y80.069 E2.21756
G1 X72.731 Y79.822 E2.21956
G1 X72.144 Y79.500 E2.22155
G1 X71.603 Y79.106 E2.22355
G1 X71.115 Y78.648 E2.22554
G1 X70.688 Y78.133 E2.22754
G1 X70.330 Y77.567 E2.22953
G1 X70.045 Y76.962 E2.23153
G1 X69.838 Y76.325 E2.23353
G1 X69.713 Y75.668 E2.23552
G1 X69.671 Y75.000 E2.23752
G1 X69.713 Y74.332 E2.23951
G1 X69.838 Y73.675 E2.24151
G1 X70.045 Y73.038 E2.24350
G1 X70.330 Y72.433 E2.24550
G1 X70.688 Y71.867 E2.24749
G1 X71.115 Y71.352 E2.24949
G1 X71.603 Y70.894 E2.25149
G1 X72.144 Y70.500 E2.25348
G1 X72.731 Y70.178 E2.25548
G1 X73.353 Y69.931 E2.25747
G1 X74.001 Y69.765 E2.25947
G1 X74.665 Y69.681 E2.26146
G1 X75.335 Y69.681 E2.26346
G1 X75.999 Y69.765 E2.26545
G1 X76.647 Y69.931 E2.26745
G1 X77.269 Y70.178 E2.26945
G1 X77.856 Y70.500 E2.27144
G1 X78.397 Y70.894 E2.27344
G1 X78.885 Y71.352 E2.27543
G1 X79.312 Y71.867 E2.27743
G1 X79.670 Y72.433 E2.27942
G1 X79.955 Y73.038 E2.28142
G1 X80.162 Y73.675 E2.28341
G1 X80.287 Y74.332 E2.28541
G1 X80.329 Y75.000 E2.28741
G1 X80.287 Y75.668 E2.28940
G1 X80.162 Y76.325 E2.29140
G1 X79.955 Y76.962 E2.29339
G1 X79.670 Y77.567 E2.29539
G1 X79.312 Y78.133 E2.29738
G1 X78.885 Y78.648 E2.29938
G1 X78.397 Y79.106 E2.30137
G1 X77.916 Y79.456 E2.30315
G1 X77.813 Y79.432 F7800.000
G1 F1800.000
G1 X77.235 Y79.750 E2.30511
G1 X76.622 Y79.993 E2.30708
G1 X75.984 Y80.157 E2.30904
G1 X75.330 Y80.239 E2.31101
G1 X74.670 Y80.239 E2.31297
G1 X74.016 Y80.157 E2.31494
G1 X73.378 Y79.993 E2.31691
G1 X72.765 Y79.750 E2.31887
G1 X72.187 Y79.432 E2.32084
G1 X71.654 Y79.045 E2.32280
G1 X71.173 Y78.594 E2.32477
G1 X70.753 Y78.086 E2.32673
G1 X70.400 Y77.529 E2.32870
G1 X70.119 Y76.933 E2.33067
G1 X69.915 Y76.306 E2.33263
G1 X69.792 Y75.658 E2.33460
G1 X69.750 Y75.000 E2.33656
G1 X69.792 Y74.342 E2.33853
G1 X69.915 Y73.694 E2.34049
G1 X70.119 Y73.067 E2.34246
G1 X70.400 Y72.471 E2.34443
G1 X70.753 Y71.914 E2.34639
G1 X71.173 Y71.406 E2.34836
G1 X71.654 Y70.955 E2.35032
G1 X72.187 Y70.568 E2.35229
G1 X72.765 Y70.250 E2.35425
G1 X73.378 Y70.007 E2.35622
G1 X74.016 Y69.843 E2.35818
G1 X74.670 Y69.761 E2.36015
G1 X75.330 Y69.761 E2.36212
G1 X75.984 Y69.843 E2.36408
G1 X76.622 Y70.007 E2.36605
G1 X77.235 Y70.250 E2.36801
G1 X77.813 Y70.568 E2.36998
G1 X78.346 Y70.955 E2.37194
G1 X78.827 Y71.406 E2.37391
G1 X79.247 Y71.914 E2.37588
G1 X79.600 Y72.471 E2.37784
G1 X79.881 Y73.067 E2.37981
G1 X80.085 Y73.694 E2.38177
G1 X80.208 Y74.342 E2.38374
G1 X80.250 Y75.000 E2.38570
G1 X80.208 Y75.658 E2.38767
G1 X80.085 Y76.306 E2.38964
G1 X79.881 Y76.933 E2.39160
G1 X79.600 Y77.529 E2.39357
G1 X79.247 Y78.086 E2.39553
G1 X78.827 Y78.594 E2.39750
G1 X78.346 Y79.045 E2.39946
G1 X77.874 Y79.388 E2.40121
G1 X77.813 Y79.432 F7800.000
G1 E0.40121 F2400.00000
G92 E0
G1 X80.551 Y77.211 F7800.000
G1 E2.00000 F2400.00000
G1 F1800.000
G1 X80.551 Y83.376 E2.01838
G1 X69.449 Y83.376 E2.05148
G1 X69.449 Y77.211 E2.06986
G1 X59.289 Y77.211 E2.10016
G1 X59.289 Y72.789 E2.11335
G1 X69.449 Y72.789 E2.14364
G1 X69.449 Y66.624 E2.16202
G1 X80.551 Y66.624 E2.19512
G1 X80.551 Y72.789 E2.21350
G1 X90.711 Y72.789 E2.24380
G1 X90.711 Y77.211 E2.25698
G1 X80.626 Y77.211 E2.28705
G1 X80.631 Y77.291 F7800.000
G1 F1800.000
G1 X80.631 Y83.455 E2.30543
G1 X69.369 Y83.455 E2.33901
G1 X69.369 Y77.291 E2.35739
G1 X59.209 Y77.291 E2.38769
G1 X59.209 Y72.709 E2.40135
G1 X69.369 Y72.709 E2.43164
G1 X69.369 Y66.545 E2.45002
G1 X80.631 Y66.545 E2.48360
G1 X80.631 Y72.709 E2.50198
G1 X90.791 Y72.709 E2.53228
G1 X90.791 Y77.291 E2.54594
G1 X80.706 Y77.291 E2.57601
G1 X80.711 Y77.371 F7800.000
G1 F1800.000
G1 X80.711 Y83.535 E2.59439
G1 X69.289 Y83.535 E2.62844
G1 X69.289 Y77.371 E2.64682
G1 X59.129 Y77.371 E2.67712
G1 X59.129 Y72.629 E2.69126
G1 X69.289 Y72.629 E2.72155
G1 X69.289 Y66.465 E2.73993
G1 X80.711 Y66.465 E2.77398
G1 X80.711 Y72.629 E2.79236
G1 X90.871 Y72.629 E2.82266
G1 X90.871 Y77.371 E2.83680
G1 X80.786 Y77.371 E2.86687
G1 X80.790 Y77.451 F7800.000
G1 F1800.000
G1 X80.790 Y83.615 E2.88525
G1 X69.210 Y83.615 E2.91978
G1 X69.210 Y77.451 E2.93816
G1 X59.050 Y77.451 E2.96845
G1 X59.050 Y72.549 E2.98306
G1 X69.210 Y72.549 E3.01336
G1 X69.210 Y66.385 E3.03174
G1 X80.790 Y66.385 E3.06627
G1 X80.790 Y72.549 E3.08465
G1 X90.951 Y72.549 E3.11494
G1 X90.951 Y77.451 E3.12955
G1 X80.865 Y77.451 E3.15962
G1 X80.296 Y77.525 F7800.000
G1 X80.503 Y77.110 F7800.000
G1 F1800.000
G1 X79.762 Y77.851 E3.16275
G1 X79.566 Y78.159 E3.16384
G1 X80.503 Y77.223 E3.16779
G1 X80.503 Y77.336 E3.16813
G1 X79.188 Y78.650 E3.17367
G1 E1.17367 F2400.00000
G92 E0
G1 X80.376 Y83.327 F7800.000
G1 E2.00000 F2400.00000
G1 F1800.000
G1 X80.503 Y83.200 E2.00053
G1 X80.503 Y83.088 E2.00087
G1 X80.263 Y83.327 E2.00188
G1 X80.151 Y83.327 E2.00222
G1 X80.503 Y82.975 E2.00370
G1 X80.503 Y82.862 E2.00404
G1 X80.038 Y83.327 E2.00600
G1 X79.925 Y83.327 E2.00634
G1 X80.503 Y82.749 E2.00878
G1 X80.503 Y82.637 E2.00911
G1 X79.812 Y83.327 E2.01203
G1 X79.700 Y83.327 E2.01236
G1 X80.503 Y82.524 E2.01575
G1 X80.503 Y82.411 E2.01609
G1 X79.587 Y83.327 E2.01996
G1 X79.474 Y83.327 E2.02029
G1 X80.503 Y82.298 E2.02463
G1 X80.503 Y82.185 E2.02497
G1 X79.361 Y83.327 E2.02979
G1 X79.248 Y83.327 E2.03012
G1 X80.503 Y82.073 E2.03542
G1 X80.503 Y81.960 E2.03575
G1 X79.136 Y83.327 E2.04152
G1 X79.023 Y83.327 E2.04186
G1 X80.503 Y81.847 E2.04811
G1 X80.503 Y81.734 E2.04844
G1 X78.910 Y83.327 E2.05516
G1 X78.797 Y83.327 E2.05550
G1 X80.503 Y81.621 E2.06270
G1 X80.503 Y81.509 E2.06304
G1 X78.684 Y83.327 E2.07071
G1 X78.572 Y83.327 E2.07105
G1 X80.503 Y81.396 E2.07919
G1 X80.503 Y81.283 E2.07953
G1 X78.459 Y83.327 E2.08816
G1 X78.346 Y83.327 E2.08849
G1 X80.503 Y81.170 E2.09759
G1 X80.503 Y81.058 E2.09793
G1 X78.233 Y83.327 E2.10751
G1 X78.121 Y83.327 E2.10785
G1 X80.503 Y80.945 E2.11790
G1 X80.503 Y80.832 E2.11823
G1 X78.008 Y83.327 E2.12876
G1 X77.895 Y83.327 E2.12910
G1 X80.503 Y80.719 E2.14011
G1 X80.503 Y80.606 E2.14044
G1 X77.782 Y83.327 E2.15192
G1 X77.669 Y83.327 E2.15226
G1 X80.503 Y80.494 E2.16422
G1 X80.503 Y80.381 E2.16455
G1 X77.557 Y83.327 E2.17699
G1 X77.444 Y83.327 E2.17732
G1 X80.503 Y80.268 E2.19023
G1 X80.503 Y80.155 E2.19057
G1 X77.331 Y83.327 E2.20395
G1 X77.218 Y83.327 E2.20429
G1 X80.503 Y80.043 E2.21815
G1 X80.503 Y79.930 E2.21849
G1 X77.105 Y83.327 E2.23282
G1 X76.993 Y83.327 E2.23316
G1 X80.503 Y79.817 E2.24797
G1 X80.503 Y79.704 E2.24831
G1 X76.880 Y83.327 E2.26360
G1 X76.767 Y83.327 E2.26394
G1 X80.503 Y79.591 E2.27970
G1 X80.503 Y79.479 E2.28004
G1 X76.654 Y83.327 E2.29628
G1 X76.542 Y83.327 E2.29661
G1 X80.503 Y79.366 E2.31333
G1 X80.503 Y79.253 E2.31367
G1 X76.429 Y83.327 E2.33086
G1 X76.316 Y83.327 E2.33120
G1 X80.503 Y79.140 E2.34887
G1 X80.503 Y79.027 E2.34920
G1 X76.203 Y83.327 E2.36735
G1 X76.090 Y83.327 E2.36768
G1 X80.503 Y78.915 E2.38630
G1 X80.503 Y78.802 E2.38664
G1 X75.978 Y83.327 E2.40574
G1 X75.865 Y83.327 E2.40607
G1 X80.503 Y78.689 E2.42565
G1 X80.503 Y78.576 E2.42598
G1 X75.752 Y83.327 E2.44603
G1 X75.639 Y83.327 E2.44637
G1 X80.503 Y78.464 E2.46689
G1 X80.503 Y78.351 E2.46723
G1 X75.527 Y83.327 E2.48823
G1 X75.414 Y83.327 E2.48856
G1 X80.503 Y78.238 E2.51004
G1 X80.503 Y78.125 E2.51038
G1 X75.301 Y83.327 E2.53233
G1 X75.188 Y83.327 E2.53267
G1 X80.503 Y78.012 E2.55509
G1 X80.503 Y77.900 E2.55543
G1 X75.075 Y83.327 E2.57833
G1 X74.963 Y83.327 E2.57867
G1 X80.503 Y77.787 E2.60205
G1 X80.503 Y77.674 E2.60239
G1 X74.850 Y83.327 E2.62624
G1 X74.737 Y83.327 E2.62658
G1 X80.503 Y77.561 E2.65091
G1 X80.503 Y77.448 E2.65125
G1 X74.624 Y83.327 E2.67606
G1 X74.511 Y83.327 E2.67639
G1 X78.573 Y79.266 E2.69353
G1 X78.160 Y79.566 E2.69505
G1 X74.399 Y83.327 E2.71093
G1 X74.286 Y83.327 E2.71126
G1 X77.853 Y79.760 E2.72631
G1 X77.602 Y79.898 E2.72717
G1 X74.173 Y83.327 E2.74164
G1 X74.060 Y83.327 E2.74198
G1 X77.364 Y80.023 E2.75592
G1 X77.178 Y80.097 E2.75652
G1 X73.948 Y83.327 E2.77015
G1 X73.835 Y83.327 E2.77049
G1 X76.991 Y80.171 E2.78381
G1 X76.804 Y80.245 E2.78441
G1 X73.722 Y83.327 E2.79741
G1 X73.609 Y83.327 E2.79775
G1 X76.643 Y80.293 E2.81055
G1 X76.491 Y80.332 E2.81102
G1 X73.496 Y83.327 E2.82366
G1 X73.384 Y83.327 E2.82399
G1 X76.339 Y80.371 E2.83647
G1 X76.188 Y80.410 E2.83694
G1 X73.271 Y83.327 E2.84924
G1 X73.158 Y83.327 E2.84958
G1 X76.042 Y80.443 E2.86175
G1 X75.913 Y80.460 E2.86214
G1 X73.045 Y83.327 E2.87424
G1 X72.932 Y83.327 E2.87457
G1 X75.783 Y80.476 E2.88661
G1 X75.654 Y80.492 E2.88699
G1 X72.820 Y83.327 E2.89896
G1 X72.707 Y83.327 E2.89929
G1 X75.525 Y80.509 E2.91119
G1 X75.396 Y80.525 E2.91157
G1 X72.594 Y83.327 E2.92340
G1 X72.481 Y83.327 E2.92374
G1 X75.281 Y80.527 E2.93555
G1 X75.169 Y80.527 E2.93589
G1 X72.369 Y83.327 E2.94770
G1 X72.256 Y83.327 E2.94804
G1 X75.056 Y80.527 E2.95986
G1 X74.943 Y80.527 E2.96019
G1 X72.143 Y83.327 E2.97201
G1 X72.030 Y83.327 E2.97235
G1 X74.830 Y80.527 E2.98416
G1 X74.717 Y80.527 E2.98450
G1 X71.917 Y83.327 E2.99632
G1 X71.805 Y83.327 E2.99665
G1 X74.613 Y80.518 E3.00851
G1 X74.513 Y80.506 E3.00881
G1 X71.692 Y83.327 E3.02071
G1 X71.579 Y83.327 E3.02105
G1 X74.413 Y80.493 E3.03301
G1 X74.313 Y80.480 E3.03331
G1 X71.466 Y83.327 E3.04532
G1 X71.354 Y83.327 E3.04566
G1 X74.213 Y80.468 E3.05773
G1 X74.113 Y80.455 E3.05803
G1 X71.241 Y83.327 E3.07015
G1 X71.128 Y83.327 E3.07048
G1 X74.012 Y80.442 E3.08266
G1 X73.920 Y80.422 E3.08294
G1 X71.015 Y83.327 E3.09520
G1 X70.902 Y83.327 E3.09553
G1 X73.830 Y80.399 E3.10789
G1 X73.741 Y80.376 E3.10817
G1 X70.790 Y83.327 E3.12062
G1 X70.677 Y83.327 E3.12096
G1 X73.651 Y80.353 E3.13351
G1 X73.561 Y80.330 E3.13379
G1 X70.564 Y83.327 E3.14643
G1 X70.451 Y83.327 E3.14677
G1 X73.471 Y80.307 E3.15952
G1 X73.382 Y80.284 E3.15979
G1 X70.338 Y83.327 E3.17263
G1 X70.226 Y83.327 E3.17297
G1 X73.294 Y80.259 E3.18592
G1 X73.213 Y80.227 E3.18618
G1 X70.113 Y83.327 E3.19926
G1 X70.000 Y83.327 E3.19960
G1 X73.132 Y80.195 E3.21281
G1 X73.051 Y80.163 E3.21307
G1 X69.887 Y83.327 E3.22643
G1 X69.775 Y83.327 E3.22676
G1 X72.971 Y80.131 E3.24025
G1 X72.890 Y80.099 E3.24051
G1 X69.662 Y83.327 E3.25413
G1 X69.549 Y83.327 E3.25447
G1 X72.809 Y80.067 E3.26823
G1 X72.728 Y80.035 E3.26849
G1 X69.497 Y83.266 E3.28212
G1 X69.497 Y83.153 E3.28246
G1 X72.649 Y80.002 E3.29576
G1 X72.576 Y79.962 E3.29600
G1 X69.497 Y83.040 E3.30900
G1 X69.497 Y82.928 E3.30933
G1 X72.503 Y79.922 E3.32202
G1 X72.430 Y79.882 E3.32227
G1 X69.497 Y82.815 E3.33464
G1 X69.497 Y82.702 E3.33498
G1 X72.358 Y79.842 E3.34705
G1 X72.285 Y79.802 E3.34730
G1 X69.497 Y82.589 E3.35906
G1 X69.497 Y82.476 E3.35940
G1 X72.212 Y79.762 E3.37086
G1 X72.139 Y79.722 E3.37110
G1 X69.497 Y82.364 E3.38225
G1 X69.497 Y82.251 E3.38259
G1 X72.066 Y79.682 E3.39343
G1 X71.999 Y79.636 E3.39367
G1 X69.497 Y82.138 E3.40423
G1 X69.497 Y82.025 E3.40457
G1 X71.934 Y79.589 E3.41485
G1 X71.868 Y79.541 E3.41509
G1 X69.497 Y81.913 E3.42510
G1 X69.497 Y81.800 E3.42544
G1 X71.803 Y79.494 E3.43517
G1 X71.738 Y79.446 E3.43541
G1 X69.497 Y81.687 E3.44486
G1 X69.497 Y81.574 E3.44520
G1 X71.673 Y79.399 E3.45438
G1 X71.607 Y79.351 E3.45462
G1 X69.497 Y81.461 E3.46353
G1 X69.497 Y81.349 E3.46386
G1 X71.542 Y79.304 E3.47249
G1 X71.477 Y79.256 E3.47273
G1 X69.497 Y81.236 E3.48109
G1 X69.497 Y81.123 E3.48142
G1 X71.419 Y79.201 E3.48953
