; Gcode updated with 'stl_info' on 2019-12-03 19:08:34.452207

; stl_min_x = 0.0
; stl_max_x = 52.45940017700195
; stl_min_y = 0.0
; stl_max_y = 52.27320098876953
; stl_min_z = -0.005000109784305096

; generated by Slic3r 1.3.1-dev (Build adea0d9) on 2019-12-03 at 19:08:33

; external perimeters extrusion width = 0.55mm (1.90mm^3/s)
; perimeters extrusion width = 0.70mm (2.71mm^3/s)
; infill extrusion width = 0.62mm (2.41mm^3/s)
; solid infill extrusion width = 0.70mm (2.04mm^3/s)
; top infill extrusion width = 0.70mm (2.04mm^3/s)

M107
G92 E0
;D3D:START:START
T0
M104 S215 T0

G21
G90
M107
T0
G28
G29
M109 T0 S215 T0
G0 F3000
M107
T0
G92 E0
G0 X0 Y149 Z0.1 F3600
G1 Y49 E6.5 F1200
G0 Z1
G92 E0
; Filament gcode

G21 ; set units to millimeters
G90 ; use absolute coordinates
M82 ; use absolute distances for extrusion
G92 E0
G1 Z0.090 F7800.000
G1 E-2.00000 F2400.00000
G92 E0
G1 X92.103 Y44.497 F7800.000
G1 E2.00000 F2400.00000
G1 F1800.000
G1 X93.911 Y43.250 E2.00655
G1 X96.402 Y42.716 E2.01414
G1 X101.323 Y42.716 E2.02882
G1 X103.483 Y43.113 E2.03536
G1 X105.361 Y44.251 E2.04191
G1 X106.712 Y45.982 E2.04846
G1 X107.401 Y48.891 E2.05737
G1 X107.369 Y50.736 E2.06288
G1 X107.291 Y52.389 E2.06781
G1 X107.132 Y54.419 E2.07388
G1 X106.950 Y56.063 E2.07881
G1 X106.693 Y57.890 E2.08431
G1 X106.379 Y59.708 E2.08982
G1 X106.008 Y61.516 E2.09532
G1 X105.532 Y63.496 E2.10139
G1 X105.042 Y65.275 E2.10689
G1 X104.556 Y66.856 E2.11182
G1 X103.961 Y68.603 E2.11733
G1 X103.241 Y70.508 E2.12340
G1 X103.016 Y71.052 E2.12515
G1 X102.728 Y71.652 E2.12714
G1 X96.962 Y82.152 E2.16286
G1 X96.607 Y82.721 E2.16486
G1 X96.240 Y83.244 E2.16676
G1 X95.017 Y84.872 E2.17283
G1 X93.861 Y86.311 E2.17834
G1 X92.786 Y87.569 E2.18327
G1 X91.547 Y88.935 E2.18877
G1 X90.265 Y90.263 E2.19427
G1 X88.942 Y91.549 E2.19977
G1 X87.579 Y92.793 E2.20528
G1 X86.178 Y93.994 E2.21078
G1 X84.739 Y95.150 E2.21628
G1 X83.266 Y96.260 E2.22178
G1 X81.758 Y97.324 E2.22728
G1 X80.217 Y98.339 E2.23278
G1 X78.645 Y99.306 E2.23829
G1 X76.877 Y100.315 E2.24436
G1 X75.244 Y101.176 E2.24986
G1 X73.586 Y101.985 E2.25536
G1 X71.903 Y102.741 E2.26086
G1 X70.197 Y103.445 E2.26637
G1 X68.470 Y104.094 E2.27187
G1 X66.723 Y104.689 E2.27737
G1 X64.958 Y105.229 E2.28287
G1 X63.178 Y105.713 E2.28837
G1 X61.383 Y106.141 E2.29388
G1 X59.575 Y106.512 E2.29938
G1 X57.757 Y106.826 E2.30488
G1 X56.119 Y107.059 E2.30981
G1 X54.580 Y107.232 E2.31443
G1 X53.254 Y107.233 E2.31838
G1 X48.004 Y106.661 E2.33413
G1 X45.900 Y106.033 E2.34068
G1 X44.156 Y104.698 E2.34723
G1 X43.000 Y102.830 E2.35378
G1 X42.583 Y100.617 E2.36049
G1 X42.583 Y96.535 E2.37266
G1 X42.980 Y94.375 E2.37921
G1 X44.364 Y92.236 E2.38681
G1 X92.050 Y44.550 E2.58789
G1 E0.58789 F2400.00000
G92 E0
G1 X97.346 Y67.364 F7800.000
G1 E2.00000 F2400.00000
G1 F1800.000
G1 X97.692 Y66.447 E2.00292
G1 X98.223 Y64.899 E2.00780
G1 X98.704 Y63.334 E2.01268
G1 X99.136 Y61.755 E2.01757
G1 X99.518 Y60.163 E2.02245
G1 X99.850 Y58.560 E2.02733
G1 X100.131 Y56.948 E2.03221
G1 X100.362 Y55.327 E2.03709
G1 X100.542 Y53.700 E2.04197
G1 X100.670 Y52.068 E2.04685
G1 X100.747 Y50.432 E2.05173
G1 X100.765 Y49.307 E2.05509
G1 X96.683 Y49.307 E2.06726
G1 X96.686 Y49.084 E2.06793
G1 X101.029 Y49.084 E2.08088
G1 X101.008 Y50.441 E2.08492
G1 X100.931 Y52.084 E2.08983
G1 X100.801 Y53.724 E2.09473
G1 X100.621 Y55.360 E2.09964
G1 X100.389 Y56.988 E2.10454
G1 X100.106 Y58.609 E2.10945
G1 X99.773 Y60.220 E2.11435
G1 X99.389 Y61.820 E2.11926
G1 X98.954 Y63.407 E2.12416
G1 X98.471 Y64.979 E2.12907
G1 X97.938 Y66.536 E2.13398
G1 X97.206 Y68.437 E2.14005
G1 X96.299 Y68.437 E2.14275
G1 X95.957 Y69.262 E2.14542
G1 X95.291 Y70.737 E2.15024
G1 X94.579 Y72.191 E2.15507
G1 X93.822 Y73.622 E2.15990
G1 X93.019 Y75.028 E2.16472
G1 X92.174 Y76.409 E2.16955
G1 X91.285 Y77.762 E2.17438
G1 X90.053 Y79.514 E2.18077
G1 X91.077 Y79.514 E2.18382
G1 X90.044 Y80.894 E2.18896
G1 X89.015 Y82.178 E2.19387
G1 X87.947 Y83.429 E2.19877
G1 X86.840 Y84.646 E2.20368
G1 X85.695 Y85.828 E2.20858
G1 X84.513 Y86.973 E2.21349
G1 X83.296 Y88.080 E2.21839
G1 X82.045 Y89.148 E2.22330
G1 X80.761 Y90.177 E2.22820
G1 X79.446 Y91.165 E2.23311
G1 X78.100 Y92.111 E2.23801
G1 X76.725 Y93.014 E2.24292
G1 X75.322 Y93.874 E2.24783
G1 X73.893 Y94.689 E2.25273
G1 X72.439 Y95.459 E2.25764
G1 X70.961 Y96.183 E2.26254
G1 X69.462 Y96.860 E2.26745
G1 X67.942 Y97.489 E2.27235
G1 X66.403 Y98.071 E2.27726
G1 X64.846 Y98.604 E2.28216
G1 X63.274 Y99.088 E2.28707
G1 X61.687 Y99.522 E2.29198
G1 X60.087 Y99.906 E2.29688
G1 X58.476 Y100.239 E2.30179
G1 X56.855 Y100.522 E2.30669
G1 X55.226 Y100.754 E2.31160
G1 X54.201 Y100.867 E2.31467
G1 X54.201 Y100.032 E2.31716
G1 X51.898 Y100.227 E2.32406
G1 X50.281 Y100.304 E2.32888
G1 X48.951 Y100.324 E2.33285
G1 X48.951 Y96.819 E2.34330
G1 X50.171 Y96.800 E2.34694
G1 X51.678 Y96.729 E2.35143
G1 X53.182 Y96.611 E2.35593
G1 X54.682 Y96.445 E2.36043
G1 X56.176 Y96.232 E2.36493
G1 X57.662 Y95.973 E2.36943
G1 X59.140 Y95.667 E2.37393
G1 X60.607 Y95.315 E2.37843
G1 X62.062 Y94.917 E2.38293
G1 X63.504 Y94.473 E2.38742
G1 X64.932 Y93.984 E2.39192
G1 X66.343 Y93.451 E2.39642
G1 X67.737 Y92.874 E2.40092
G1 X69.112 Y92.253 E2.40542
G1 X70.467 Y91.589 E2.40992
G1 X71.800 Y90.883 E2.41442
G1 X73.111 Y90.135 E2.41891
G1 X74.397 Y89.347 E2.42341
G1 X75.658 Y88.519 E2.42791
G1 X76.893 Y87.651 E2.43241
G1 X78.099 Y86.745 E2.43691
G1 X79.277 Y85.802 E2.44141
G1 X80.424 Y84.822 E2.44591
G1 X81.540 Y83.807 E2.45041
G1 X82.624 Y82.757 E2.45490
G1 X83.674 Y81.673 E2.45940
G1 X84.689 Y80.557 E2.46390
G1 X85.669 Y79.410 E2.46840
G1 X86.612 Y78.232 E2.47290
G1 X87.518 Y77.026 E2.47740
G1 X88.386 Y75.791 E2.48190
G1 X89.214 Y74.530 E2.48639
G1 X90.002 Y73.244 E2.49089
G1 X90.750 Y71.933 E2.49539
G1 X91.456 Y70.600 E2.49989
G1 X92.120 Y69.245 E2.50439
G1 X92.741 Y67.870 E2.50889
G1 X92.950 Y67.364 E2.51052
G1 X97.271 Y67.364 E2.52340
G1 X97.291 Y67.285 F7800.000
G1 F1800.000
G1 X97.617 Y66.420 E2.52616
G1 X98.147 Y64.874 E2.53103
G1 X98.627 Y63.312 E2.53591
G1 X99.059 Y61.735 E2.54078
G1 X99.440 Y60.146 E2.54565
G1 X99.772 Y58.545 E2.55053
G1 X100.053 Y56.935 E2.55540
G1 X100.283 Y55.317 E2.56027
G1 X100.462 Y53.692 E2.56515
G1 X100.591 Y52.063 E2.57002
G1 X100.668 Y50.430 E2.57489
G1 X100.684 Y49.387 E2.57800
G1 X96.602 Y49.387 E2.59018
G1 X96.608 Y49.005 E2.59132
G1 X101.110 Y49.005 E2.60474
G1 X101.088 Y50.443 E2.60903
G1 X101.010 Y52.089 E2.61394
G1 X100.881 Y53.732 E2.61886
G1 X100.700 Y55.370 E2.62377
G1 X100.468 Y57.001 E2.62868
G1 X100.185 Y58.624 E2.63360
G1 X99.850 Y60.237 E2.63851
G1 X99.466 Y61.840 E2.64342
G1 X99.031 Y63.429 E2.64834
G1 X98.546 Y65.004 E2.65325
G1 X98.013 Y66.563 E2.65816
G1 X97.259 Y68.517 E2.66441
G1 X96.352 Y68.517 E2.66711
G1 X96.031 Y69.294 E2.66962
G1 X95.363 Y70.771 E2.67445
G1 X94.650 Y72.227 E2.67929
G1 X93.891 Y73.660 E2.68412
G1 X93.088 Y75.069 E2.68896
G1 X92.241 Y76.451 E2.69379
G1 X91.351 Y77.806 E2.69862
G1 X90.206 Y79.435 E2.70456
G1 X91.231 Y79.435 E2.70761
G1 X90.107 Y80.943 E2.71322
G1 X89.077 Y82.229 E2.71813
G1 X88.007 Y83.482 E2.72305
G1 X86.898 Y84.701 E2.72796
G1 X85.751 Y85.884 E2.73287
G1 X84.568 Y87.031 E2.73779
G1 X83.349 Y88.140 E2.74270
G1 X82.096 Y89.210 E2.74761
G1 X80.810 Y90.240 E2.75252
G1 X79.493 Y91.229 E2.75744
G1 X78.144 Y92.177 E2.76235
G1 X76.767 Y93.082 E2.76726
G1 X75.362 Y93.942 E2.77218
G1 X73.931 Y94.759 E2.77709
G1 X72.475 Y95.530 E2.78200
G1 X70.995 Y96.255 E2.78691
G1 X69.493 Y96.933 E2.79183
G1 X67.971 Y97.563 E2.79674
G1 X66.430 Y98.146 E2.80165
G1 X64.871 Y98.680 E2.80657
G1 X63.296 Y99.164 E2.81148
G1 X61.707 Y99.599 E2.81639
G1 X60.104 Y99.983 E2.82131
G1 X58.491 Y100.318 E2.82622
G1 X56.868 Y100.601 E2.83113
G1 X55.236 Y100.833 E2.83604
G1 X54.121 Y100.956 E2.83939
G1 X54.121 Y100.119 E2.84189
G1 X51.903 Y100.307 E2.84852
G1 X50.284 Y100.383 E2.85336
G1 X48.871 Y100.405 E2.85757
G1 X48.871 Y96.741 E2.86849
G1 X50.169 Y96.720 E2.87236
G1 X51.673 Y96.649 E2.87685
G1 X53.175 Y96.531 E2.88135
G1 X54.672 Y96.366 E2.88584
G1 X56.163 Y96.154 E2.89033
G1 X57.647 Y95.895 E2.89482
G1 X59.122 Y95.589 E2.89931
G1 X60.587 Y95.238 E2.90380
G1 X62.040 Y94.840 E2.90829
G1 X63.479 Y94.397 E2.91278
G1 X64.905 Y93.909 E2.91728
G1 X66.314 Y93.377 E2.92177
G1 X67.705 Y92.801 E2.92626
G1 X69.078 Y92.181 E2.93075
G1 X70.431 Y91.518 E2.93524
G1 X71.762 Y90.813 E2.93973
G1 X73.070 Y90.067 E2.94422
G1 X74.355 Y89.280 E2.94871
G1 X75.614 Y88.453 E2.95321
G1 X76.846 Y87.587 E2.95770
G1 X78.051 Y86.682 E2.96219
G1 X79.226 Y85.741 E2.96668
G1 X80.371 Y84.762 E2.97117
G1 X81.486 Y83.749 E2.97566
G1 X82.567 Y82.700 E2.98015
G1 X83.616 Y81.619 E2.98464
G1 X84.629 Y80.505 E2.98913
G1 X85.607 Y79.359 E2.99363
G1 X86.549 Y78.184 E2.99812
G1 X87.454 Y76.979 E3.00261
G1 X88.320 Y75.747 E3.00710
G1 X89.147 Y74.488 E3.01159
G1 X89.934 Y73.203 E3.01608
G1 X90.680 Y71.895 E3.02057
G1 X91.385 Y70.564 E3.02506
G1 X92.048 Y69.211 E3.02956
G1 X92.667 Y67.838 E3.03405
G1 X92.897 Y67.285 E3.03583
G1 X97.216 Y67.285 E3.04871
G1 X97.236 Y67.205 F7800.000
G1 F1800.000
G1 X97.542 Y66.393 E3.05130
G1 X98.071 Y64.849 E3.05616
G1 X98.551 Y63.289 E3.06103
G1 X98.982 Y61.715 E3.06590
G1 X99.362 Y60.128 E3.07076
G1 X99.693 Y58.530 E3.07563
G1 X99.974 Y56.923 E3.08050
G1 X100.204 Y55.307 E3.08536
G1 X100.383 Y53.685 E3.09023
G1 X100.511 Y52.058 E3.09509
G1 X100.588 Y50.427 E3.09996
G1 X100.603 Y49.466 E3.10283
G1 X96.521 Y49.466 E3.11500
G1 X96.529 Y48.925 E3.11661
G1 X101.191 Y48.925 E3.13051
G1 X101.167 Y50.446 E3.13505
G1 X101.090 Y52.094 E3.13997
G1 X100.960 Y53.739 E3.14489
G1 X100.779 Y55.379 E3.14981
G1 X100.547 Y57.013 E3.15473
G1 X100.263 Y58.639 E3.15965
G1 X99.928 Y60.255 E3.16457
G1 X99.543 Y61.860 E3.16949
G1 X99.108 Y63.451 E3.17441
G1 X98.622 Y65.029 E3.17933
G1 X98.088 Y66.590 E3.18425
G1 X97.313 Y68.596 E3.19067
G1 X96.406 Y68.596 E3.19337
G1 X96.104 Y69.325 E3.19572
G1 X95.435 Y70.805 E3.20057
G1 X94.721 Y72.264 E3.20541
G1 X93.961 Y73.699 E3.21025
G1 X93.157 Y75.109 E3.21509
G1 X92.308 Y76.494 E3.21993
G1 X91.417 Y77.851 E3.22477
G1 X90.360 Y79.355 E3.23025
G1 X91.384 Y79.355 E3.23331
G1 X90.170 Y80.992 E3.23939
G1 X89.138 Y82.280 E3.24431
G1 X88.066 Y83.535 E3.24923
G1 X86.956 Y84.755 E3.25415
G1 X85.807 Y85.940 E3.25907
G1 X84.622 Y87.089 E3.26399
G1 X83.402 Y88.199 E3.26891
G1 X82.147 Y89.271 E3.27383
G1 X80.859 Y90.303 E3.27875
G1 X79.539 Y91.294 E3.28367
G1 X78.189 Y92.243 E3.28859
G1 X76.810 Y93.149 E3.29351
G1 X75.403 Y94.011 E3.29843
G1 X73.969 Y94.829 E3.30335
G1 X72.511 Y95.601 E3.30827
G1 X71.029 Y96.327 E3.31319
G1 X69.525 Y97.006 E3.31811
G1 X68.000 Y97.637 E3.32303
G1 X66.457 Y98.221 E3.32795
G1 X64.895 Y98.755 E3.33287
G1 X63.318 Y99.241 E3.33779
G1 X61.726 Y99.676 E3.34271
G1 X60.122 Y100.061 E3.34764
G1 X58.506 Y100.396 E3.35256
G1 X56.880 Y100.680 E3.35748
G1 X55.246 Y100.912 E3.36240
G1 X54.042 Y101.045 E3.36601
G1 X54.042 Y100.206 E3.36851
G1 X51.908 Y100.386 E3.37490
G1 X50.286 Y100.463 E3.37974
G1 X48.792 Y100.486 E3.38420
G1 X48.792 Y96.662 E3.39560
G1 X50.166 Y96.641 E3.39970
G1 X51.668 Y96.570 E3.40418
G1 X53.167 Y96.452 E3.40866
G1 X54.662 Y96.287 E3.41315
G1 X56.151 Y96.075 E3.41763
G1 X57.632 Y95.816 E3.42211
G1 X59.105 Y95.512 E3.42660
G1 X60.567 Y95.160 E3.43108
G1 X62.018 Y94.764 E3.43557
G1 X63.455 Y94.322 E3.44005
G1 X64.878 Y93.834 E3.44453
G1 X66.284 Y93.303 E3.44902
G1 X67.674 Y92.727 E3.45350
G1 X69.044 Y92.109 E3.45798
G1 X70.395 Y91.447 E3.46247
G1 X71.724 Y90.743 E3.46695
G1 X73.030 Y89.998 E3.47144
G1 X74.312 Y89.213 E3.47592
G1 X75.569 Y88.387 E3.48040
G1 X76.799 Y87.522 E3.48489
G1 X78.002 Y86.619 E3.48937
G1 X79.175 Y85.679 E3.49385
G1 X80.319 Y84.703 E3.49834
G1 X81.431 Y83.690 E3.50282
G1 X82.511 Y82.644 E3.50731
G1 X83.557 Y81.564 E3.51179
G1 X84.569 Y80.452 E3.51627
G1 X85.546 Y79.308 E3.52076
G1 X86.486 Y78.135 E3.52524
G1 X87.389 Y76.932 E3.52972
G1 X88.254 Y75.702 E3.53421
G1 X89.080 Y74.445 E3.53869
G1 X89.865 Y73.163 E3.54318
G1 X90.610 Y71.857 E3.54766
G1 X91.314 Y70.528 E3.55214
G1 X91.976 Y69.177 E3.55663
G1 X92.594 Y67.807 E3.56111
G1 X92.844 Y67.205 E3.56305
G1 X97.161 Y67.205 E3.57593
G1 X97.181 Y67.125 F7800.000
G1 F1800.000
G1 X97.467 Y66.366 E3.57834
G1 X97.995 Y64.825 E3.58320
G1 X98.474 Y63.267 E3.58806
G1 X98.904 Y61.696 E3.59292
G1 X99.285 Y60.111 E3.59778
G1 X99.615 Y58.515 E3.60264
G1 X99.895 Y56.910 E3.60750
G1 X100.125 Y55.297 E3.61235
G1 X100.304 Y53.677 E3.61721
G1 X100.432 Y52.053 E3.62207
G1 X100.508 Y50.425 E3.62693
G1 X100.522 Y49.546 E3.62955
G1 X96.440 Y49.546 E3.64172
G1 X96.451 Y48.845 E3.64381
G1 X101.272 Y48.845 E3.65819
G1 X101.247 Y50.448 E3.66297
G1 X101.169 Y52.099 E3.66790
G1 X101.039 Y53.747 E3.67282
G1 X100.858 Y55.389 E3.67775
G1 X100.625 Y57.026 E3.68268
G1 X100.341 Y58.654 E3.68761
G1 X100.006 Y60.272 E3.69254
G1 X99.620 Y61.879 E3.69746
G1 X99.184 Y63.473 E3.70239
G1 X98.698 Y65.053 E3.70732
G1 X98.163 Y66.617 E3.71225
G1 X97.579 Y68.163 E3.71718
G1 X97.366 Y68.676 E3.71883
G1 X96.459 Y68.676 E3.72154
G1 X96.177 Y69.357 E3.72373
G1 X95.508 Y70.839 E3.72858
G1 X94.792 Y72.300 E3.73343
G1 X94.031 Y73.737 E3.73828
G1 X93.225 Y75.150 E3.74313
G1 X92.375 Y76.537 E3.74798
G1 X91.482 Y77.896 E3.75283
G1 X90.513 Y79.275 E3.75786
G1 X91.537 Y79.275 E3.76091
G1 X91.225 Y79.719 E3.76253
G1 X90.233 Y81.041 E3.76746
G1 X89.200 Y82.331 E3.77238
G1 X88.126 Y83.588 E3.77731
G1 X87.014 Y84.810 E3.78224
G1 X85.864 Y85.997 E3.78717
G1 X84.677 Y87.147 E3.79210
G1 X83.455 Y88.259 E3.79702
G1 X82.198 Y89.333 E3.80195
G1 X80.908 Y90.366 E3.80688
G1 X79.586 Y91.358 E3.81181
G1 X78.234 Y92.309 E3.81674
G1 X76.853 Y93.216 E3.82166
G1 X75.443 Y94.080 E3.82659
G1 X74.008 Y94.899 E3.83152
G1 X72.547 Y95.672 E3.83645
G1 X71.063 Y96.399 E3.84138
G1 X69.557 Y97.079 E3.84630
G1 X68.030 Y97.712 E3.85123
G1 X66.484 Y98.296 E3.85616
G1 X64.920 Y98.831 E3.86109
G1 X63.340 Y99.317 E3.86601
G1 X61.746 Y99.753 E3.87094
G1 X60.139 Y100.139 E3.87587
G1 X58.521 Y100.474 E3.88080
G1 X56.893 Y100.758 E3.88573
G1 X55.256 Y100.991 E3.89065
G1 X53.962 Y101.134 E3.89454
G1 X53.962 Y100.292 E3.89705
G1 X51.913 Y100.466 E3.90318
G1 X50.289 Y100.542 E3.90803
G1 X48.712 Y100.567 E3.91273
G1 X48.712 Y96.584 E3.92460
G1 X50.164 Y96.561 E3.92893
G1 X51.663 Y96.490 E3.93341
G1 X53.160 Y96.373 E3.93789
G1 X54.652 Y96.208 E3.94236
G1 X56.138 Y95.996 E3.94684
G1 X57.617 Y95.738 E3.95131
G1 X59.087 Y95.434 E3.95579
G1 X60.547 Y95.083 E3.96027
G1 X61.995 Y94.687 E3.96474
G1 X63.430 Y94.246 E3.96922
G1 X64.851 Y93.759 E3.97370
G1 X66.255 Y93.229 E3.97817
G1 X67.642 Y92.654 E3.98265
G1 X69.010 Y92.036 E3.98713
G1 X70.358 Y91.376 E3.99160
G1 X71.685 Y90.674 E3.99608
G1 X72.989 Y89.930 E4.00055
G1 X74.269 Y89.145 E4.00503
G1 X75.524 Y88.321 E4.00951
G1 X76.752 Y87.458 E4.01398
G1 X77.953 Y86.556 E4.01846
G1 X79.124 Y85.618 E4.02294
G1 X80.266 Y84.643 E4.02741
G1 X81.376 Y83.632 E4.03189
G1 X82.455 Y82.588 E4.03636
G1 X83.499 Y81.509 E4.04084
G1 X84.510 Y80.399 E4.04532
G1 X85.485 Y79.257 E4.04979
G1 X86.423 Y78.086 E4.05427
G1 X87.325 Y76.885 E4.05875
G1 X88.188 Y75.657 E4.06322
G1 X89.012 Y74.402 E4.06770
G1 X89.797 Y73.122 E4.07217
G1 X90.540 Y71.818 E4.07665
G1 X91.243 Y70.491 E4.08113
G1 X91.903 Y69.143 E4.08560
G1 X92.521 Y67.775 E4.09008
G1 X92.790 Y67.125 E4.09218
G1 X97.106 Y67.125 E4.10504
G1 X97.671 Y67.222 F7800.000
G1 X97.423 Y67.335 F7800.000
G1 F1800.000
G1 X97.652 Y67.105 E4.10601
G1 X97.723 Y66.922 E4.10660
G1 X97.491 Y67.153 E4.10757
G1 X97.560 Y66.972 E4.10815
G1 X97.793 Y66.739 E4.10914
G1 X97.864 Y66.555 E4.10972
G1 X97.628 Y66.791 E4.11072
G1 X97.697 Y66.610 E4.11129
G1 X97.928 Y66.379 E4.11227
G1 X97.986 Y66.208 E4.11281
G1 X97.761 Y66.433 E4.11376
G1 X97.820 Y66.261 E4.11430
G1 X98.045 Y66.036 E4.11525
G1 X98.104 Y65.865 E4.11579
G1 X97.878 Y66.090 E4.11674
G1 X97.937 Y65.918 E4.11728
G1 X98.162 Y65.693 E4.11823
G1 X98.221 Y65.522 E4.11877
G1 X97.996 Y65.747 E4.11972
G1 X98.055 Y65.576 E4.12026
G1 X98.280 Y65.350 E4.12121
G1 X98.339 Y65.179 E4.12175
G1 X98.113 Y65.404 E4.12270
G1 X98.172 Y65.233 E4.12324
G1 X98.397 Y65.007 E4.12419
G1 X98.452 Y64.840 E4.12472
G1 X98.231 Y65.061 E4.12565
