; generated by Slic3r 1.3.1-dev (Build 2ef957d) on 2019-11-25 at 09:19:38

; external perimeters extrusion width = 0.55mm (4.37mm^3/s)
; perimeters extrusion width = 0.70mm (11.44mm^3/s)
; infill extrusion width = 0.62mm (13.45mm^3/s)
; solid infill extrusion width = 0.70mm (3.81mm^3/s)
; top infill extrusion width = 0.70mm (2.86mm^3/s)

M107
G92 E0
M104 S200 ; set temperature
G28 ; home all axes
G1 Z5 F5000 ; lift nozzle

; Filament gcode

M109 S200 ; set temperature and wait for it to be reached
G21 ; set units to millimeters
G90 ; use absolute coordinates
M82 ; use absolute distances for extrusion
G92 E0
G1 Z0.350 F7800.000
G1 E-2.00000 F2400.00000
G92 E0
G1 X76.715 Y57.553 F7800.000
G1 E2.00000 F2400.00000
G1 F1800.000
G1 X78.468 Y56.074 E2.07096
G1 X80.620 Y55.281 E2.14192
G1 X81.800 Y55.175 E2.17858
G1 X118.200 Y55.175 E3.30484
G1 X120.459 Y55.572 E3.37580
G1 X122.447 Y56.715 E3.44676
G1 X123.926 Y58.468 E3.51773
G1 X124.719 Y60.620 E3.58869
G1 X124.825 Y61.800 E3.62534
G1 X124.825 Y138.200 E5.98926
G1 X124.428 Y140.459 E6.06022
G1 X123.285 Y142.447 E6.13118
G1 X121.532 Y143.926 E6.20214
G1 X119.380 Y144.719 E6.27311
G1 X118.200 Y144.825 E6.30976
G1 X81.800 Y144.825 E7.43602
G1 X79.541 Y144.428 E7.50698
G1 X77.553 Y143.285 E7.57795
G1 X76.074 Y141.532 E7.64891
G1 X75.281 Y139.380 E7.71987
G1 X75.175 Y138.200 E7.75652
G1 X75.175 Y61.800 E10.12044
G1 X75.572 Y59.541 E10.19140
G1 X76.678 Y57.618 E10.26004
G1 E8.26004 F2400.00000
G92 E0
G1 X113.704 Y133.400 F7800.000
G1 E2.00000 F2400.00000
G1 F1800.000
G1 X111.852 Y136.608 E2.11461
G1 X108.148 Y136.608 E2.22922
G1 X106.296 Y133.400 E2.34383
G1 X108.148 Y130.192 E2.45845
G1 X111.852 Y130.192 E2.57306
G1 X113.667 Y133.335 E2.68535
G1 X114.137 Y133.650 F7800.000
G1 X115.147 Y133.400 F7800.000
G1 F1800.000
G1 X112.574 Y128.942 E2.84461
G1 X107.426 Y128.942 E3.00387
G1 X104.853 Y133.400 E3.16314
G1 X106.700 Y136.600 E3.27748
G1 X103.400 Y136.600 E3.37960
G1 X103.400 Y117.419 E3.97309
G1 X103.694 Y117.354 E3.98242
G1 X103.940 Y117.888 E4.00060
G1 X104.201 Y118.353 E4.01712
G1 X104.498 Y118.798 E4.03364
G1 X104.828 Y119.217 E4.05016
G1 X105.191 Y119.609 E4.06669
G1 X105.583 Y119.972 E4.08321
G1 X106.002 Y120.302 E4.09973
G1 X106.447 Y120.599 E4.11626
G1 X106.912 Y120.860 E4.13277
G1 X107.397 Y121.083 E4.14930
G1 X107.898 Y121.268 E4.16583
G1 X108.412 Y121.413 E4.18235
G1 X108.936 Y121.517 E4.19887
G1 X109.466 Y121.580 E4.21540
G1 X110.000 Y121.601 E4.23192
G1 X110.534 Y121.580 E4.24844
G1 X111.064 Y121.517 E4.26497
G1 X111.588 Y121.413 E4.28149
G1 X112.102 Y121.268 E4.29801
G1 X112.603 Y121.083 E4.31454
G1 X113.088 Y120.860 E4.33106
G1 X113.553 Y120.599 E4.34758
G1 X113.998 Y120.302 E4.36410
G1 X114.417 Y119.972 E4.38062
G1 X114.809 Y119.609 E4.39715
G1 X115.172 Y119.217 E4.41368
G1 X115.502 Y118.798 E4.43020
G1 X115.799 Y118.353 E4.44672
G1 X116.060 Y117.888 E4.46324
G1 X116.306 Y117.354 E4.48141
G1 X116.600 Y117.419 E4.49074
G1 X116.600 Y136.600 E5.08424
G1 X113.300 Y136.600 E5.18636
G1 X115.110 Y133.465 E5.29838
G1 E3.29838 F2400.00000
G92 E0
G1 X116.306 Y112.246 F7800.000
G1 E2.00000 F2400.00000
G1 F1800.000
G1 X116.060 Y111.712 E2.01817
G1 X115.799 Y111.247 E2.03469
G1 X115.502 Y110.802 E2.05122
G1 X115.172 Y110.383 E2.06774
G1 X114.809 Y109.991 E2.08426
G1 X114.417 Y109.628 E2.10079
G1 X113.998 Y109.298 E2.11731
G1 X113.553 Y109.001 E2.13383
G1 X113.088 Y108.740 E2.15035
G1 X112.603 Y108.517 E2.16688
G1 X112.100 Y108.331 E2.18346
G1 X112.100 Y103.400 E2.33605
G1 X116.600 Y103.400 E2.47530
G1 X116.600 Y112.181 E2.74700
G1 X116.379 Y112.230 E2.75401
G1 E0.75401 F2400.00000
G92 E0
G1 X107.900 Y108.331 F7800.000
G1 E2.00000 F2400.00000
G1 F1800.000
G1 X107.397 Y108.517 E2.01659
G1 X106.912 Y108.740 E2.03311
G1 X106.447 Y109.001 E2.04963
G1 X106.002 Y109.298 E2.06615
G1 X105.583 Y109.628 E2.08267
G1 X105.191 Y109.991 E2.09920
G1 X104.828 Y110.383 E2.11573
G1 X104.498 Y110.802 E2.13225
G1 X104.201 Y111.247 E2.14877
G1 X103.940 Y111.712 E2.16529
G1 X103.694 Y112.246 E2.18346
G1 X103.400 Y112.181 E2.19279
G1 X103.400 Y103.400 E2.46450
G1 X107.900 Y103.400 E2.60375
G1 X107.900 Y108.256 E2.75401
G1 E0.75401 F2400.00000
G92 E0
G1 X107.787 Y129.567 F7800.000
G1 E2.00000 F2400.00000
G1 F1800.000
G1 X105.574 Y133.400 E2.13694
G1 X107.783 Y137.225 E2.27360
G1 X102.775 Y137.225 E2.42855
G1 X102.775 Y102.775 E3.49448
G1 X108.525 Y102.775 E3.67240
G1 X108.525 Y108.804 E3.85896
G1 X108.092 Y108.927 E3.87290
G1 X107.637 Y109.094 E3.88791
G1 X107.196 Y109.298 E3.90291
G1 X106.773 Y109.534 E3.91791
G1 X106.370 Y109.804 E3.93292
G1 X105.989 Y110.104 E3.94792
G1 X105.633 Y110.433 E3.96292
G1 X105.304 Y110.789 E3.97793
G1 X105.004 Y111.170 E3.99293
G1 X104.734 Y111.573 E4.00794
G1 X104.498 Y111.996 E4.02294
G1 X104.294 Y112.437 E4.03794
G1 X104.127 Y112.892 E4.05295
G1 X103.995 Y113.358 E4.06795
G1 X103.900 Y113.834 E4.08295
G1 X103.843 Y114.315 E4.09796
G1 X103.824 Y114.800 E4.11296
G1 X103.843 Y115.285 E4.12796
G1 X103.900 Y115.766 E4.14297
G1 X103.995 Y116.242 E4.15797
G1 X104.127 Y116.708 E4.17297
G1 X104.294 Y117.163 E4.18798
G1 X104.498 Y117.604 E4.20298
G1 X104.734 Y118.027 E4.21798
G1 X105.004 Y118.430 E4.23299
G1 X105.304 Y118.811 E4.24799
G1 X105.633 Y119.167 E4.26300
G1 X105.989 Y119.496 E4.27800
G1 X106.370 Y119.796 E4.29300
G1 X106.773 Y120.066 E4.30801
G1 X107.196 Y120.302 E4.32301
G1 X107.637 Y120.506 E4.33801
G1 X108.092 Y120.673 E4.35302
G1 X108.558 Y120.805 E4.36802
G1 X109.034 Y120.900 E4.38302
G1 X109.515 Y120.957 E4.39803
G1 X110.000 Y120.976 E4.41303
G1 X110.485 Y120.957 E4.42804
G1 X110.966 Y120.900 E4.44305
G1 X111.442 Y120.805 E4.45805
G1 X111.908 Y120.673 E4.47305
G1 X112.363 Y120.506 E4.48806
G1 X112.804 Y120.302 E4.50306
G1 X113.227 Y120.066 E4.51806
G1 X113.630 Y119.796 E4.53307
G1 X114.011 Y119.496 E4.54807
G1 X114.367 Y119.167 E4.56307
G1 X114.696 Y118.811 E4.57808
G1 X114.996 Y118.430 E4.59308
G1 X115.266 Y118.027 E4.60809
G1 X115.502 Y117.604 E4.62309
G1 X115.706 Y117.163 E4.63809
G1 X115.873 Y116.708 E4.65310
G1 X116.005 Y116.242 E4.66810
G1 X116.100 Y115.766 E4.68310
G1 X116.157 Y115.285 E4.69811
G1 X116.176 Y114.800 E4.71311
G1 X116.157 Y114.315 E4.72811
G1 X116.100 Y113.834 E4.74312
G1 X116.005 Y113.358 E4.75812
G1 X115.873 Y112.892 E4.77312
G1 X115.706 Y112.437 E4.78813
G1 X115.502 Y111.996 E4.80313
G1 X115.266 Y111.573 E4.81813
G1 X114.996 Y111.170 E4.83314
G1 X114.696 Y110.789 E4.84814
G1 X114.367 Y110.433 E4.86315
G1 X114.011 Y110.104 E4.87815
G1 X113.630 Y109.804 E4.89315
G1 X113.227 Y109.534 E4.90816
G1 X112.804 Y109.298 E4.92316
G1 X112.363 Y109.094 E4.93816
G1 X111.908 Y108.927 E4.95317
G1 X111.475 Y108.804 E4.96710
G1 X111.475 Y102.775 E5.15367
G1 X117.225 Y102.775 E5.33159
G1 X117.225 Y137.225 E6.39752
G1 X112.217 Y137.225 E6.55247
G1 X114.426 Y133.400 E6.68913
G1 X112.213 Y129.567 E6.82607
G1 X107.862 Y129.567 E6.96069
G1 E4.96069 F2400.00000
G92 E0
G1 X102.150 Y137.850 F7800.000
G1 E2.00000 F2400.00000
G1 F1800.000
G1 X102.150 Y102.150 E3.10460
G1 X109.150 Y102.150 E3.32119
G1 X109.150 Y109.314 E3.54287
G1 X108.704 Y109.403 E3.55693
G1 X108.285 Y109.521 E3.57041
G1 X107.876 Y109.672 E3.58390
G1 X107.480 Y109.855 E3.59739
G1 X107.100 Y110.068 E3.61087
G1 X106.738 Y110.310 E3.62435
G1 X106.395 Y110.580 E3.63784
G1 X106.075 Y110.875 E3.65132
G1 X105.780 Y111.195 E3.66481
G1 X105.510 Y111.538 E3.67829
G1 X105.268 Y111.900 E3.69177
G1 X105.055 Y112.280 E3.70526
G1 X104.872 Y112.676 E3.71874
G1 X104.721 Y113.085 E3.73223
G1 X104.603 Y113.504 E3.74571
G1 X104.518 Y113.932 E3.75919
G1 X104.467 Y114.365 E3.77268
G1 X104.450 Y114.800 E3.78617
G1 X104.467 Y115.235 E3.79965
G1 X104.518 Y115.668 E3.81314
G1 X104.603 Y116.096 E3.82662
G1 X104.721 Y116.515 E3.84010
G1 X104.872 Y116.924 E3.85359
G1 X105.055 Y117.320 E3.86707
G1 X105.268 Y117.700 E3.88056
G1 X105.510 Y118.062 E3.89404
G1 X105.780 Y118.405 E3.90752
G1 X106.075 Y118.725 E3.92101
G1 X106.395 Y119.020 E3.93449
G1 X106.738 Y119.290 E3.94798
G1 X107.100 Y119.532 E3.96146
G1 X107.480 Y119.745 E3.97494
G1 X107.876 Y119.928 E3.98843
G1 X108.285 Y120.079 E4.00192
G1 X108.704 Y120.197 E4.01540
G1 X109.132 Y120.282 E4.02888
G1 X109.565 Y120.333 E4.04237
G1 X110.000 Y120.350 E4.05585
G1 X110.435 Y120.333 E4.06934
G1 X110.868 Y120.282 E4.08282
G1 X111.296 Y120.197 E4.09631
G1 X111.715 Y120.079 E4.10979
G1 X112.124 Y119.928 E4.12328
G1 X112.520 Y119.745 E4.13676
G1 X112.900 Y119.532 E4.15024
G1 X113.262 Y119.290 E4.16373
G1 X113.605 Y119.020 E4.17721
G1 X113.925 Y118.725 E4.19070
G1 X114.220 Y118.405 E4.20418
G1 X114.490 Y118.062 E4.21767
G1 X114.732 Y117.700 E4.23115
G1 X114.945 Y117.320 E4.24463
G1 X115.128 Y116.924 E4.25812
G1 X115.279 Y116.515 E4.27160
G1 X115.397 Y116.096 E4.28509
G1 X115.482 Y115.668 E4.29857
G1 X115.533 Y115.235 E4.31206
G1 X115.550 Y114.800 E4.32554
G1 X115.533 Y114.365 E4.33903
G1 X115.482 Y113.932 E4.35251
G1 X115.397 Y113.504 E4.36599
G1 X115.279 Y113.085 E4.37948
G1 X115.128 Y112.676 E4.39296
G1 X114.945 Y112.280 E4.40645
G1 X114.732 Y111.900 E4.41993
G1 X114.490 Y111.538 E4.43342
G1 X114.220 Y111.195 E4.44690
G1 X113.925 Y110.875 E4.46038
G1 X113.605 Y110.580 E4.47387
G1 X113.262 Y110.310 E4.48735
G1 X112.900 Y110.068 E4.50084
G1 X112.520 Y109.855 E4.51432
G1 X112.124 Y109.672 E4.52781
G1 X111.715 Y109.521 E4.54129
G1 X111.296 Y109.403 E4.55478
G1 X110.850 Y109.314 E4.56884
G1 X110.850 Y102.150 E4.79051
G1 X117.850 Y102.150 E5.00710
G1 X117.850 Y137.850 E6.11171
G1 X102.225 Y137.850 E6.59516
G1 X102.219 Y137.355 F7800.000
G1 E4.59516 F2400.00000
G92 E0
G1 X108.146 Y137.229 F7800.000
G1 E2.00000 F2400.00000
G1 F1800.000
G1 X111.854 Y137.229 E2.09955
G1 E0.09955 F2400.00000
G92 E0
G1 X115.732 Y136.218 F7800.000
G1 E2.00000 F2400.00000
G1 F1800.000
G1 X116.218 Y135.732 E2.02194
G1 X116.218 Y134.821 E2.05101
G1 X114.821 Y136.218 E2.11407
G1 X114.139 Y136.218 E2.13583
G1 X114.452 Y135.676 E2.15582
G1 X116.218 Y133.910 E2.23551
G1 X116.218 Y132.998 E2.26459
G1 X115.607 Y133.610 E2.29219
G1 X115.273 Y133.032 E2.31347
G1 X116.218 Y132.087 E2.35613
G1 X116.218 Y131.176 E2.38520
G1 X114.940 Y132.455 E2.44290
G1 X114.606 Y131.877 E2.46419
G1 X116.218 Y130.264 E2.53694
G1 X116.218 Y129.353 E2.56601
G1 X114.273 Y131.299 E2.65382
G1 X113.939 Y130.721 E2.67510
G1 X116.218 Y128.442 E2.77795
G1 X116.218 Y127.531 E2.80703
G1 X113.605 Y130.144 E2.92493
G1 X113.272 Y129.566 E2.94622
G1 X116.218 Y126.619 E3.07917
G1 X116.218 Y125.708 E3.10824
G1 X112.938 Y128.988 E3.25625
G1 X112.691 Y128.560 E3.27201
G1 X112.455 Y128.560 E3.27956
G1 X116.218 Y124.797 E3.44938
G1 X116.218 Y123.886 E3.47846
G1 X111.543 Y128.560 E3.68940
G1 X110.632 Y128.560 E3.71848
G1 X116.218 Y122.974 E3.97054
G1 X116.218 Y122.063 E3.99961
G1 X109.721 Y128.560 E4.29279
G1 X108.810 Y128.560 E4.32187
G1 X116.218 Y121.152 E4.65617
G1 X116.218 Y120.240 E4.68525
G1 X107.898 Y128.560 E5.06066
G1 X106.987 Y128.560 E5.08974
G1 X116.160 Y119.387 E5.50366
G1 X115.990 Y119.253 E5.51057
G1 X115.494 Y119.808 E5.53432
G1 X115.066 Y120.204 E5.55293
G1 X114.608 Y120.565 E5.57152
G1 X114.123 Y120.889 E5.59013
G1 X113.615 Y121.174 E5.60873
G1 X113.332 Y121.304 E5.61866
G1 X103.782 Y130.855 E6.04959
G1 X103.782 Y129.943 E6.07867
G1 X111.939 Y121.786 E6.44677
G1 X111.405 Y121.892 E6.46415
G1 X110.857 Y121.957 E6.48176
G1 X103.782 Y129.032 E6.80101
G1 X103.782 Y128.121 E6.83009
G1 X109.931 Y121.971 E7.10757
G1 X109.660 Y121.960 E7.11622
G1 X109.097 Y121.894 E7.13431
G1 X103.782 Y127.209 E7.37416
G1 X103.782 Y126.298 E7.40324
G1 X108.347 Y121.732 E7.60926
G1 X107.948 Y121.620 E7.62248
G1 X107.656 Y121.512 E7.63241
G1 X103.782 Y125.387 E7.80725
G1 X103.782 Y124.476 E7.83632
G1 X107.016 Y121.241 E7.98229
G1 X106.423 Y120.923 E8.00376
G1 X103.782 Y123.564 E8.12296
G1 X103.782 Y122.653 E8.15203
G1 X105.873 Y120.561 E8.24641
G1 X105.368 Y120.156 E8.26709
G1 X103.782 Y121.742 E8.33866
G1 X103.782 Y120.830 E8.36774
G1 X104.901 Y119.711 E8.41827
G1 X104.496 Y119.253 E8.43777
G1 X104.269 Y119.432 E8.44701
G1 X103.782 Y119.918 E8.46895
G1 E6.46895 F2400.00000
G92 E0
G1 X107.084 Y128.463 F7800.000
G1 E2.00000 F2400.00000
G1 F1800.000
G1 X103.782 Y131.766 E2.14901
G1 X103.782 Y132.677 E2.17808
G1 X105.839 Y130.620 E2.27093
G1 X104.594 Y132.776 E2.35036
G1 X103.782 Y133.588 E2.38703
G1 X103.782 Y134.500 E2.41611
G1 X104.649 Y133.633 E2.45524
G1 X104.982 Y134.210 E2.47652
G1 X103.782 Y135.411 E2.53070
G1 X103.782 Y136.218 E2.55646
G1 X103.886 Y136.218 E2.55978
G1 X105.316 Y134.788 E2.62432
G1 X105.649 Y135.366 E2.64560
G1 X104.797 Y136.218 E2.68408
G1 E0.68408 F2400.00000
G92 E0
G1 X104.094 Y118.826 F7800.000
G1 E2.00000 F2400.00000
G1 F1800.000
G1 X103.712 Y118.323 E2.00177
G1 X103.489 Y117.079 F7800.000
G1 F1800.000
G1 X103.395 Y116.398 E2.02172
G1 F1800.000
G1 X103.375 Y116.204 E2.02687
G1 F1800.000
G1 X103.342 Y115.865 E2.03477
G1 F1800.000
G1 X103.310 Y115.335 E2.04530
G1 F1800.000
G1 X103.300 Y114.792 E2.05470
G1 F1800.000
G1 X103.325 Y114.010 E2.07023
G1 F1800.000
G1 X103.359 Y113.565 E2.08054
G1 F1800.000
G1 X103.395 Y113.202 E2.09031
G1 F1800.000
G1 X103.489 Y112.521 E2.11182
G1 X103.712 Y111.277 F7800.000
G1 F1800.000
G1 X104.094 Y110.774 E2.11359
G1 E0.11359 F2400.00000
G92 E0
G1 X107.032 Y108.139 F7800.000
G1 E2.00000 F2400.00000
G1 F1800.000
G1 X107.518 Y107.652 E2.02143
G1 X107.518 Y106.762 E2.04918
G1 X103.967 Y110.313 E2.20570
G1 X103.782 Y110.167 E2.21307
G1 X103.782 Y109.609 E2.23046
G1 X107.518 Y105.872 E2.39517
G1 X107.518 Y104.982 E2.42291
G1 X103.782 Y108.719 E2.58761
G1 X103.782 Y107.829 E2.61536
G1 X107.518 Y104.092 E2.78006
G1 X107.518 Y103.782 E2.78973
G1 X106.938 Y103.782 E2.80781
G1 X103.782 Y106.938 E2.94695
G1 X103.782 Y106.048 E2.97469
G1 X106.048 Y103.782 E3.07459
G1 X105.158 Y103.782 E3.10234
G1 X103.782 Y105.158 E3.16300
G1 X103.782 Y104.268 E3.19075
G1 X104.268 Y103.782 E3.21218
G1 E1.21218 F2400.00000
G92 E0
G1 X112.968 Y103.782 F7800.000
G1 E2.00000 F2400.00000
G1 F1800.000
G1 X112.482 Y104.268 E2.02203
G1 X112.482 Y105.183 E2.05134
G1 X113.883 Y103.782 E2.11482
G1 X114.798 Y103.782 E2.14413
G1 X112.482 Y106.098 E2.24906
G1 X112.482 Y107.013 E2.27837
G1 X115.713 Y103.782 E2.42476
G1 X116.218 Y103.782 E2.44095
G1 X116.218 Y104.191 E2.45407
G1 X112.482 Y107.928 E2.62336
G1 X112.482 Y108.139 E2.63012
G1 X112.971 Y108.353 E2.64723
G1 X116.218 Y105.106 E2.79436
G1 X116.218 Y106.021 E2.82367
G1 X113.567 Y108.672 E2.94378
G1 X114.120 Y109.034 E2.96495
G1 X116.218 Y106.936 E3.06000
G1 X116.218 Y107.851 E3.08931
G1 X114.628 Y109.441 E3.16134
G1 X115.097 Y109.887 E3.18207
G1 X116.218 Y108.766 E3.23289
G1 X116.218 Y109.681 E3.26220
G1 X115.732 Y110.167 E3.28425
G1 X115.906 Y110.774 F7800.000
G1 F1800.000
G1 X116.288 Y111.277 E3.28708
G1 X116.511 Y112.521 F7800.000
G1 F1800.000
G1 X116.605 Y113.202 E3.30702
G1 F1800.000
G1 X116.625 Y113.396 E3.31218
G1 F1800.000
G1 X116.658 Y113.735 E3.32007
G1 F1800.000
G1 X116.690 Y114.265 E3.33060
G1 F1800.000
G1 X116.700 Y114.808 E3.34001
G1 F1800.000
G1 X116.675 Y115.590 E3.35553
G1 F1800.000
G1 X116.641 Y116.035 E3.36585
G1 F1800.000
G1 X116.605 Y116.398 E3.37562
G1 F1800.000
G1 X116.511 Y117.079 E3.39712
G1 X116.288 Y118.323 F7800.000
G1 F1800.000
G1 X115.906 Y118.826 E3.39995
G1 E1.39995 F2400.00000
G92 E0
G1 X93.704 Y133.400 F7800.000
G1 E2.00000 F2400.00000
G1 F1800.000
G1 X91.852 Y136.608 E2.11461
G1 X88.148 Y136.608 E2.22922
G1 X86.296 Y133.400 E2.34383
G1 X88.148 Y130.192 E2.45845
G1 X91.852 Y130.192 E2.57306
G1 X93.667 Y133.335 E2.68535
G1 X94.137 Y133.650 F7800.000
G1 X95.147 Y133.400 F7800.000
G1 F1800.000
G1 X92.574 Y128.942 E2.84461
G1 X87.426 Y128.942 E3.00387
G1 X84.853 Y133.400 E3.16314
G1 X86.700 Y136.600 E3.27748
G1 X83.400 Y136.600 E3.37960
G1 X83.400 Y117.419 E3.97310
G1 X83.694 Y117.354 E3.98243
G1 X83.940 Y117.888 E4.00060
G1 X84.201 Y118.353 E4.01712
G1 X84.498 Y118.798 E4.03365
G1 X84.828 Y119.217 E4.05017
G1 X85.191 Y119.609 E4.06669
G1 X85.583 Y119.972 E4.08322
G1 X86.002 Y120.302 E4.09974
G1 X86.447 Y120.599 E4.11626
G1 X86.912 Y120.860 E4.13278
G1 X87.397 Y121.083 E4.14931
G1 X87.898 Y121.268 E4.16583
G1 X88.412 Y121.413 E4.18235
