; generated by Slic3r 1.3.1-dev (Build 2ef957d) on 2019-11-25 at 09:24:48

; external perimeters extrusion width = 0.55mm (4.37mm^3/s)
; perimeters extrusion width = 0.70mm (11.44mm^3/s)
; infill extrusion width = 0.62mm (13.45mm^3/s)
; solid infill extrusion width = 0.70mm (3.81mm^3/s)
; top infill extrusion width = 0.70mm (2.86mm^3/s)

M107
G92 E0
M104 S200 ; set temperature
G28 ; home all axes
G1 Z5 F5000 ; lift nozzle

; Filament gcode

M109 S200 ; set temperature and wait for it to be reached
G21 ; set units to millimeters
G90 ; use absolute coordinates
M82 ; use absolute distances for extrusion
G92 E0
G1 Z0.350 F7800.000
G1 E-2.00000 F2400.00000
G92 E0
G1 X82.549 Y82.433 F7800.000
G1 E2.00000 F2400.00000
G1 F1800.000
G1 X82.915 Y82.089 E2.01554
G1 X83.557 Y81.558 E2.04131
G1 X83.963 Y81.263 E2.05685
G1 X84.665 Y80.817 E2.08257
G1 X85.105 Y80.575 E2.09812
G1 X85.858 Y80.221 E2.12386
G1 X86.325 Y80.036 E2.13940
G1 X87.117 Y79.779 E2.16516
G1 X87.603 Y79.654 E2.18070
G1 X88.420 Y79.498 E2.20641
G1 X88.918 Y79.435 E2.22195
G1 X89.749 Y79.383 E2.24771
G1 X110.251 Y79.383 E2.88208
G1 X111.082 Y79.435 E2.90784
G1 X111.580 Y79.498 E2.92338
G1 X112.397 Y79.654 E2.94909
G1 X112.883 Y79.779 E2.96464
G1 X113.675 Y80.036 E2.99039
G1 X114.142 Y80.221 E3.00593
G1 X114.895 Y80.575 E3.03167
G1 X115.335 Y80.817 E3.04722
G1 X116.037 Y81.263 E3.07294
G1 X116.443 Y81.558 E3.08848
G1 X117.085 Y82.089 E3.11425
G1 X117.451 Y82.433 E3.12979
G1 X118.021 Y83.039 E3.15554
G1 X118.341 Y83.426 E3.17109
G1 X118.830 Y84.100 E3.19683
G1 X119.099 Y84.524 E3.21237
G1 X119.499 Y85.252 E3.23809
G1 X119.713 Y85.706 E3.25363
G1 X120.020 Y86.480 E3.27939
G1 X120.175 Y86.958 E3.29493
G1 X120.382 Y87.763 E3.32064
G1 X120.476 Y88.257 E3.33619
G1 X120.580 Y89.083 E3.36197
G1 X120.625 Y90.000 E3.39037
G1 X120.625 Y110.000 E4.00919
G1 X120.580 Y110.917 E4.03759
G1 X120.476 Y111.743 E4.06338
G1 X120.382 Y112.237 E4.07892
G1 X120.175 Y113.042 E4.10463
G1 X120.020 Y113.520 E4.12017
G1 X119.713 Y114.294 E4.14593
G1 X119.499 Y114.748 E4.16148
G1 X119.099 Y115.476 E4.18719
G1 X118.830 Y115.900 E4.20273
G1 X118.341 Y116.574 E4.22848
G1 X118.021 Y116.961 E4.24402
G1 X117.451 Y117.567 E4.26977
G1 X117.085 Y117.911 E4.28531
G1 X116.443 Y118.442 E4.31108
G1 X116.037 Y118.737 E4.32663
G1 X115.335 Y119.183 E4.35235
G1 X114.895 Y119.425 E4.36789
G1 X114.142 Y119.779 E4.39363
G1 X113.675 Y119.964 E4.40917
G1 X112.883 Y120.221 E4.43493
G1 X112.397 Y120.346 E4.45047
G1 X111.580 Y120.502 E4.47618
G1 X111.082 Y120.565 E4.49172
G1 X110.251 Y120.617 E4.51748
G1 X89.749 Y120.617 E5.15185
G1 X88.918 Y120.565 E5.17761
G1 X88.420 Y120.502 E5.19316
G1 X87.603 Y120.346 E5.21886
G1 X87.117 Y120.221 E5.23441
G1 X86.325 Y119.964 E5.26016
G1 X85.858 Y119.779 E5.27570
G1 X85.105 Y119.425 E5.30144
G1 X84.665 Y119.183 E5.31699
G1 X83.963 Y118.737 E5.34271
G1 X83.557 Y118.442 E5.35825
G1 X82.915 Y117.911 E5.38402
G1 X82.549 Y117.567 E5.39956
G1 X81.979 Y116.961 E5.42531
G1 X81.659 Y116.574 E5.44086
G1 X81.170 Y115.900 E5.46660
G1 X80.901 Y115.476 E5.48214
G1 X80.501 Y114.748 E5.50786
G1 X80.287 Y114.294 E5.52340
G1 X79.980 Y113.520 E5.54916
G1 X79.825 Y113.042 E5.56470
G1 X79.618 Y112.237 E5.59041
G1 X79.524 Y111.743 E5.60596
G1 X79.420 Y110.917 E5.63174
G1 X79.375 Y110.000 E5.66014
G1 X79.375 Y90.000 E6.27897
G1 X79.420 Y89.083 E6.30736
G1 X79.524 Y88.257 E6.33315
G1 X79.618 Y87.763 E6.34869
G1 X79.825 Y86.958 E6.37440
G1 X79.980 Y86.480 E6.38995
G1 X80.287 Y85.706 E6.41570
G1 X80.501 Y85.252 E6.43125
G1 X80.901 Y84.524 E6.45696
G1 X81.170 Y84.099 E6.47250
G1 X81.659 Y83.426 E6.49825
G1 X81.979 Y83.039 E6.51379
G1 X82.498 Y82.487 E6.53722
G1 E4.53722 F2400.00000
G92 E0
G1 X101.823 Y111.712 F7800.000
G1 E2.00000 F2400.00000
G1 F1800.000
G1 X101.594 Y111.927 E2.00972
G1 X101.340 Y112.111 E2.01943
G1 X101.065 Y112.263 E2.02915
G1 X100.773 Y112.378 E2.03887
G1 X100.469 Y112.456 E2.04858
G1 X100.157 Y112.496 E2.05830
G1 X99.843 Y112.496 E2.06802
G1 X99.531 Y112.456 E2.07773
G1 X99.227 Y112.378 E2.08745
G1 X98.935 Y112.263 E2.09717
G1 X98.660 Y112.111 E2.10689
G1 X98.406 Y111.927 E2.11660
G1 X98.177 Y111.712 E2.12632
G1 X97.977 Y111.470 E2.13604
G1 X97.809 Y111.205 E2.14575
G1 X97.675 Y110.921 E2.15547
G1 X97.578 Y110.622 E2.16519
G1 X97.519 Y110.313 E2.17490
G1 X97.499 Y110.000 E2.18462
G1 X97.519 Y109.687 E2.19434
G1 X97.578 Y109.378 E2.20405
G1 X97.675 Y109.079 E2.21377
G1 X97.809 Y108.795 E2.22349
G1 X97.977 Y108.530 E2.23320
G1 X98.177 Y108.288 E2.24292
G1 X98.406 Y108.073 E2.25264
G1 X98.660 Y107.889 E2.26235
G1 X98.935 Y107.737 E2.27207
G1 X99.227 Y107.622 E2.28179
G1 X99.531 Y107.544 E2.29150
G1 X99.843 Y107.504 E2.30122
G1 X100.157 Y107.504 E2.31094
G1 X100.469 Y107.544 E2.32065
G1 X100.773 Y107.622 E2.33037
G1 X101.065 Y107.737 E2.34009
G1 X101.340 Y107.889 E2.34981
G1 X101.594 Y108.073 E2.35952
G1 X101.823 Y108.288 E2.36924
G1 X102.023 Y108.530 E2.37896
G1 X102.191 Y108.795 E2.38867
G1 X102.325 Y109.079 E2.39839
G1 X102.422 Y109.378 E2.40811
G1 X102.481 Y109.687 E2.41782
G1 X102.501 Y110.000 E2.42754
G1 X102.481 Y110.313 E2.43726
G1 X102.422 Y110.622 E2.44697
G1 X102.325 Y110.921 E2.45669
G1 X102.191 Y111.205 E2.46641
G1 X102.023 Y111.470 E2.47612
G1 X101.871 Y111.654 E2.48352
G1 X101.823 Y111.712 F7800.000
G1 X102.706 Y112.443 F7800.000
G1 F1800.000
G1 X102.326 Y112.812 E2.49992
G1 X101.955 Y113.081 E2.51410
G1 X101.554 Y113.302 E2.52828
G1 X101.128 Y113.471 E2.54246
G1 X100.684 Y113.585 E2.55664
G1 X100.229 Y113.642 E2.57082
G1 X99.771 Y113.642 E2.58500
G1 X99.316 Y113.585 E2.59918
G1 X98.872 Y113.471 E2.61336
G1 X98.446 Y113.302 E2.62754
G1 X98.045 Y113.081 E2.64172
G1 X97.674 Y112.812 E2.65590
G1 X97.340 Y112.498 E2.67008
G1 X97.048 Y112.145 E2.68426
G1 X96.802 Y111.758 E2.69844
G1 X96.607 Y111.343 E2.71262
G1 X96.465 Y110.908 E2.72679
G1 X96.379 Y110.457 E2.74098
G1 X96.351 Y110.000 E2.75516
G1 X96.379 Y109.543 E2.76934
G1 X96.465 Y109.092 E2.78352
G1 X96.607 Y108.657 E2.79770
G1 X96.802 Y108.242 E2.81188
G1 X97.048 Y107.855 E2.82606
G1 X97.340 Y107.502 E2.84024
G1 X97.674 Y107.188 E2.85441
G1 X98.045 Y106.919 E2.86859
G1 X98.446 Y106.698 E2.88277
G1 X98.872 Y106.529 E2.89695
G1 X99.316 Y106.415 E2.91113
G1 X99.771 Y106.358 E2.92531
G1 X100.229 Y106.358 E2.93949
G1 X100.684 Y106.415 E2.95367
G1 X101.128 Y106.529 E2.96785
G1 X101.554 Y106.698 E2.98203
G1 X101.955 Y106.919 E2.99621
G1 X102.326 Y107.188 E3.01039
G1 X102.660 Y107.502 E3.02457
G1 X102.952 Y107.855 E3.03875
G1 X103.198 Y108.242 E3.05293
G1 X103.393 Y108.657 E3.06711
G1 X103.535 Y109.092 E3.08129
G1 X103.621 Y109.543 E3.09547
G1 X103.649 Y110.000 E3.10965
G1 X103.621 Y110.457 E3.12383
G1 X103.535 Y110.908 E3.13801
G1 X103.393 Y111.343 E3.15219
G1 X103.198 Y111.758 E3.16637
G1 X102.952 Y112.145 E3.18055
G1 X102.754 Y112.385 E3.19018
G1 X102.635 Y112.432 F7800.000
G1 X102.265 Y112.077 F7800.000
G1 F1800.000
G1 X101.947 Y112.379 E3.19988
G1 X101.648 Y112.596 E3.20806
G1 X101.309 Y112.782 E3.21660
G1 X100.934 Y112.929 E3.22551
G1 X100.576 Y113.020 E3.23369
G1 X100.193 Y113.069 E3.24223
G1 X99.791 Y113.067 E3.25114
G1 X99.424 Y113.020 E3.25931
G1 X99.050 Y112.924 E3.26786
G1 X98.691 Y112.782 E3.27640
G1 X98.367 Y112.604 E3.28458
G1 X98.028 Y112.358 E3.29385
G1 X97.759 Y112.105 E3.30203
G1 X97.512 Y111.807 E3.31057
G1 X97.306 Y111.481 E3.31912
G1 X97.148 Y111.147 E3.32730
G1 X97.019 Y110.749 E3.33656
G1 X96.949 Y110.385 E3.34474
G1 X96.926 Y110.016 E3.35292
G1 X96.952 Y109.598 E3.36219
G1 X97.022 Y109.235 E3.37037
G1 X97.141 Y108.868 E3.37891
G1 X97.306 Y108.519 E3.38746
G1 X97.503 Y108.206 E3.39564
G1 X97.759 Y107.895 E3.40454
G1 X98.053 Y107.621 E3.41345
G1 X98.352 Y107.404 E3.42163
G1 X98.691 Y107.218 E3.43017
G1 X99.050 Y107.076 E3.43872
G1 X99.408 Y106.984 E3.44690
G1 X99.807 Y106.931 E3.45580
G1 X100.209 Y106.933 E3.46470
G1 X100.576 Y106.980 E3.47289
G1 X100.950 Y107.076 E3.48143
G1 X101.324 Y107.226 E3.49033
G1 X101.648 Y107.404 E3.49852
G1 X101.960 Y107.631 E3.50706
G1 X102.241 Y107.895 E3.51560
G1 X102.477 Y108.180 E3.52378
G1 X102.694 Y108.519 E3.53269
G1 X102.864 Y108.884 E3.54159
G1 X102.978 Y109.235 E3.54977
G1 X103.050 Y109.615 E3.55832
G1 X103.075 Y110.000 E3.56686
G1 X103.052 Y110.369 E3.57504
G1 X102.978 Y110.765 E3.58395
G1 X102.859 Y111.132 E3.59249
G1 X102.694 Y111.481 E3.60103
G1 X102.488 Y111.807 E3.60958
G1 X102.312 Y112.019 E3.61566
G1 E1.61566 F2400.00000
G92 E0
G1 X100.469 Y102.456 F7800.000
G1 E2.00000 F2400.00000
G1 F1800.000
G1 X100.157 Y102.496 E2.00972
G1 X99.843 Y102.496 E2.01943
G1 X99.531 Y102.456 E2.02915
G1 X99.227 Y102.378 E2.03887
G1 X98.935 Y102.263 E2.04858
G1 X98.660 Y102.111 E2.05830
G1 X98.406 Y101.927 E2.06802
G1 X98.177 Y101.712 E2.07773
G1 X97.977 Y101.470 E2.08745
G1 X97.809 Y101.205 E2.09717
G1 X97.675 Y100.921 E2.10688
G1 X97.578 Y100.622 E2.11660
G1 X97.519 Y100.313 E2.12632
G1 X97.499 Y100.000 E2.13604
G1 X97.519 Y99.687 E2.14575
G1 X97.578 Y99.378 E2.15547
G1 X97.675 Y99.079 E2.16519
G1 X97.809 Y98.795 E2.17490
G1 X97.977 Y98.530 E2.18462
G1 X98.177 Y98.288 E2.19434
G1 X98.406 Y98.073 E2.20405
G1 X98.660 Y97.889 E2.21377
G1 X98.935 Y97.737 E2.22349
G1 X99.227 Y97.622 E2.23320
G1 X99.531 Y97.544 E2.24292
G1 X99.843 Y97.504 E2.25264
G1 X100.157 Y97.504 E2.26235
G1 X100.469 Y97.544 E2.27207
G1 X100.773 Y97.622 E2.28179
G1 X101.065 Y97.737 E2.29150
G1 X101.340 Y97.889 E2.30122
G1 X101.594 Y98.073 E2.31094
G1 X101.823 Y98.288 E2.32065
G1 X102.023 Y98.530 E2.33037
G1 X102.191 Y98.795 E2.34009
G1 X102.325 Y99.079 E2.34980
G1 X102.422 Y99.378 E2.35952
G1 X102.481 Y99.687 E2.36924
G1 X102.501 Y100.000 E2.37896
G1 X102.481 Y100.313 E2.38867
G1 X102.422 Y100.622 E2.39839
G1 X102.325 Y100.921 E2.40811
G1 X102.191 Y101.205 E2.41782
G1 X102.023 Y101.470 E2.42754
G1 X101.823 Y101.712 E2.43726
G1 X101.594 Y101.927 E2.44697
G1 X101.340 Y102.111 E2.45669
G1 X101.065 Y102.263 E2.46641
G1 X100.773 Y102.378 E2.47612
G1 X100.541 Y102.438 E2.48352
G1 X100.469 Y102.456 F7800.000
G1 X100.612 Y103.594 F7800.000
G1 F1800.000
G1 X100.229 Y103.642 E2.49547
G1 X99.771 Y103.642 E2.50965
G1 X99.316 Y103.585 E2.52383
G1 X98.872 Y103.471 E2.53801
G1 X98.446 Y103.302 E2.55219
G1 X98.045 Y103.081 E2.56637
G1 X97.674 Y102.812 E2.58055
G1 X97.340 Y102.498 E2.59473
G1 X97.048 Y102.145 E2.60891
G1 X96.802 Y101.758 E2.62309
G1 X96.607 Y101.343 E2.63727
G1 X96.465 Y100.908 E2.65145
G1 X96.379 Y100.457 E2.66563
G1 X96.351 Y100.000 E2.67981
G1 X96.379 Y99.543 E2.69399
G1 X96.465 Y99.092 E2.70817
G1 X96.607 Y98.657 E2.72235
G1 X96.802 Y98.242 E2.73653
G1 X97.048 Y97.855 E2.75071
G1 X97.340 Y97.502 E2.76489
G1 X97.674 Y97.188 E2.77907
G1 X98.045 Y96.919 E2.79325
G1 X98.446 Y96.698 E2.80743
G1 X98.872 Y96.529 E2.82161
G1 X99.316 Y96.415 E2.83579
G1 X99.771 Y96.358 E2.84997
G1 X100.229 Y96.358 E2.86415
G1 X100.684 Y96.415 E2.87833
G1 X101.128 Y96.529 E2.89251
G1 X101.554 Y96.698 E2.90669
G1 X101.955 Y96.919 E2.92087
G1 X102.326 Y97.188 E2.93505
G1 X102.660 Y97.502 E2.94922
G1 X102.952 Y97.855 E2.96340
G1 X103.198 Y98.242 E2.97758
G1 X103.393 Y98.657 E2.99176
G1 X103.535 Y99.092 E3.00594
G1 X103.621 Y99.543 E3.02012
G1 X103.649 Y100.000 E3.03430
G1 X103.621 Y100.457 E3.04848
G1 X103.535 Y100.908 E3.06266
G1 X103.393 Y101.343 E3.07684
G1 X103.198 Y101.758 E3.09102
G1 X102.952 Y102.145 E3.10520
G1 X102.660 Y102.498 E3.11938
G1 X102.326 Y102.812 E3.13356
G1 X101.955 Y103.081 E3.14774
G1 X101.554 Y103.302 E3.16192
G1 X101.128 Y103.471 E3.17610
G1 X100.687 Y103.584 E3.19019
G1 X100.361 Y103.300 F7800.000
G1 X100.540 Y103.025 F7800.000
G1 F1800.000
G1 X100.193 Y103.069 E3.19794
G1 X99.807 Y103.069 E3.20648
G1 X99.424 Y103.020 E3.21503
G1 X99.066 Y102.929 E3.22321
G1 X98.676 Y102.774 E3.23247
G1 X98.352 Y102.596 E3.24065
G1 X98.053 Y102.379 E3.24884
G1 X97.748 Y102.092 E3.25810
G1 X97.512 Y101.807 E3.26628
G1 X97.306 Y101.481 E3.27483
G1 X97.136 Y101.116 E3.28373
G1 X97.022 Y100.765 E3.29191
G1 X96.952 Y100.402 E3.30009
G1 X96.926 Y99.984 E3.30936
G1 X96.950 Y99.615 E3.31754
G1 X97.022 Y99.235 E3.32608
G1 X97.148 Y98.853 E3.33499
G1 X97.306 Y98.519 E3.34317
G1 X97.512 Y98.193 E3.35171
G1 X97.770 Y97.884 E3.36061
G1 X98.040 Y97.631 E3.36880
G1 X98.352 Y97.404 E3.37734
G1 X98.706 Y97.212 E3.38624
G1 X99.050 Y97.076 E3.39442
G1 X99.424 Y96.980 E3.40297
G1 X99.823 Y96.931 E3.41187
G1 X100.193 Y96.931 E3.42005
G1 X100.576 Y96.980 E3.42860
G1 X100.950 Y97.076 E3.43714
G1 X101.294 Y97.212 E3.44532
G1 X101.648 Y97.404 E3.45423
G1 X101.960 Y97.631 E3.46277
G1 X102.230 Y97.884 E3.47095
G1 X102.488 Y98.193 E3.47986
G1 X102.694 Y98.519 E3.48840
G1 X102.852 Y98.853 E3.49658
G1 X102.981 Y99.251 E3.50584
G1 X103.050 Y99.615 E3.51403
G1 X103.074 Y99.984 E3.52221
G1 X103.050 Y100.385 E3.53111
G1 X102.978 Y100.765 E3.53966
G1 X102.864 Y101.116 E3.54784
G1 X102.686 Y101.495 E3.55710
G1 X102.488 Y101.807 E3.56528
G1 X102.252 Y102.092 E3.57346
G1 X101.947 Y102.379 E3.58273
G1 X101.648 Y102.596 E3.59091
G1 X101.309 Y102.782 E3.59945
G1 X100.950 Y102.924 E3.60800
G1 X100.614 Y103.011 E3.61568
G1 E1.61568 F2400.00000
G92 E0
G1 X100.157 Y92.496 F7800.000
G1 E2.00000 F2400.00000
G1 F1800.000
G1 X99.843 Y92.496 E2.00972
G1 X99.531 Y92.456 E2.01943
G1 X99.227 Y92.378 E2.02915
G1 X98.935 Y92.263 E2.03887
G1 X98.660 Y92.111 E2.04858
G1 X98.406 Y91.927 E2.05830
G1 X98.177 Y91.712 E2.06802
G1 X97.977 Y91.470 E2.07773
G1 X97.809 Y91.205 E2.08745
G1 X97.675 Y90.921 E2.09717
G1 X97.578 Y90.622 E2.10688
G1 X97.519 Y90.313 E2.11660
G1 X97.499 Y90.000 E2.12632
G1 X97.519 Y89.687 E2.13604
G1 X97.578 Y89.378 E2.14575
G1 X97.675 Y89.079 E2.15547
G1 X97.809 Y88.795 E2.16519
G1 X97.977 Y88.530 E2.17490
G1 X98.177 Y88.288 E2.18462
G1 X98.406 Y88.073 E2.19434
G1 X98.660 Y87.889 E2.20405
G1 X98.935 Y87.737 E2.21377
G1 X99.227 Y87.622 E2.22349
G1 X99.531 Y87.544 E2.23320
G1 X99.843 Y87.504 E2.24292
G1 X100.157 Y87.504 E2.25264
G1 X100.469 Y87.544 E2.26235
G1 X100.773 Y87.622 E2.27207
G1 X101.065 Y87.737 E2.28179
G1 X101.340 Y87.889 E2.29151
G1 X101.594 Y88.073 E2.30122
G1 X101.823 Y88.288 E2.31094
G1 X102.023 Y88.530 E2.32066
G1 X102.191 Y88.795 E2.33037
G1 X102.325 Y89.079 E2.34009
G1 X102.422 Y89.378 E2.34980
G1 X102.481 Y89.687 E2.35952
G1 X102.501 Y90.000 E2.36924
G1 X102.481 Y90.313 E2.37896
G1 X102.422 Y90.622 E2.38867
G1 X102.325 Y90.921 E2.39839
G1 X102.191 Y91.205 E2.40811
G1 X102.023 Y91.470 E2.41782
G1 X101.823 Y91.712 E2.42754
G1 X101.594 Y91.927 E2.43726
G1 X101.340 Y92.111 E2.44697
G1 X101.065 Y92.263 E2.45669
G1 X100.773 Y92.378 E2.46641
G1 X100.469 Y92.456 E2.47612
G1 X100.231 Y92.486 E2.48352
G1 X100.157 Y92.496 F7800.000
G1 X100.301 Y93.633 F7800.000
G1 F1800.000
G1 X99.771 Y93.642 E2.49992
G1 X99.316 Y93.585 E2.51410
G1 X98.872 Y93.471 E2.52828
G1 X98.446 Y93.302 E2.54246
G1 X98.045 Y93.081 E2.55664
G1 X97.674 Y92.812 E2.57082
G1 X97.340 Y92.498 E2.58500
G1 X97.048 Y92.145 E2.59918
G1 X96.802 Y91.758 E2.61336
G1 X96.607 Y91.343 E2.62754
G1 X96.465 Y90.908 E2.64172
G1 X96.379 Y90.457 E2.65590
G1 X96.351 Y90.000 E2.67008
G1 X96.379 Y89.543 E2.68425
G1 X96.465 Y89.092 E2.69844
G1 X96.607 Y88.657 E2.71261
G1 X96.802 Y88.242 E2.72679
G1 X97.048 Y87.855 E2.74097
G1 X97.340 Y87.502 E2.75516
G1 X97.674 Y87.188 E2.76934
G1 X98.045 Y86.919 E2.78351
G1 X98.446 Y86.698 E2.79769
G1 X98.872 Y86.529 E2.81187
G1 X99.316 Y86.415 E2.82605
G1 X99.771 Y86.358 E2.84023
G1 X100.229 Y86.358 E2.85441
G1 X100.684 Y86.415 E2.86859
G1 X101.128 Y86.529 E2.88277
G1 X101.554 Y86.698 E2.89695
G1 X101.955 Y86.919 E2.91113
G1 X102.326 Y87.188 E2.92531
G1 X102.660 Y87.502 E2.93949
G1 X102.952 Y87.855 E2.95367
G1 X103.198 Y88.242 E2.96785
G1 X103.393 Y88.657 E2.98203
G1 X103.535 Y89.092 E2.99621
G1 X103.621 Y89.543 E3.01039
G1 X103.649 Y90.000 E3.02457
G1 X103.621 Y90.457 E3.03875
G1 X103.535 Y90.908 E3.05293
G1 X103.393 Y91.343 E3.06711
G1 X103.198 Y91.758 E3.08129
G1 X102.952 Y92.145 E3.09547
G1 X102.660 Y92.498 E3.10965
G1 X102.326 Y92.812 E3.12383
G1 X101.955 Y93.081 E3.13801
G1 X101.554 Y93.302 E3.15219
G1 X101.128 Y93.471 E3.16637
G1 X100.684 Y93.585 E3.18055
G1 X100.375 Y93.624 E3.19018
G1 X100.256 Y93.577 F7800.000
G1 X100.229 Y93.064 F7800.000
