; generated by Slic3r 1.3.1-dev (Build 2ef957d) on 2019-11-25 at 09:24:50

; external perimeters extrusion width = 0.55mm (4.37mm^3/s)
; perimeters extrusion width = 0.70mm (11.44mm^3/s)
; infill extrusion width = 0.62mm (13.45mm^3/s)
; solid infill extrusion width = 0.70mm (3.81mm^3/s)
; top infill extrusion width = 0.70mm (2.86mm^3/s)

M107
G92 E0
M104 S200 ; set temperature
G28 ; home all axes
G1 Z5 F5000 ; lift nozzle

; Filament gcode

M109 S200 ; set temperature and wait for it to be reached
G21 ; set units to millimeters
G90 ; use absolute coordinates
M82 ; use absolute distances for extrusion
G92 E0
G1 Z0.350 F7800.000
G1 E-2.00000 F2400.00000
G92 E0
G1 X62.415 Y65.753 F7800.000
G1 E2.00000 F2400.00000
G1 F1800.000
G1 X64.168 Y64.274 E2.07096
G1 X65.308 Y63.748 E2.10982
G1 X66.051 Y63.491 E2.13412
G1 X68.087 Y63.171 E2.19790
G1 X131.915 Y63.173 E4.17281
G1 X134.077 Y63.536 E4.24065
G1 X134.662 Y63.738 E4.25981
G1 X136.668 Y64.851 E4.33078
G1 X138.174 Y66.580 E4.40174
G1 X139.000 Y68.720 E4.47270
G1 X139.125 Y70.000 E4.51250
G1 X139.125 Y130.000 E6.36898
G1 X138.728 Y132.259 E6.43994
G1 X137.585 Y134.247 E6.51091
G1 X135.832 Y135.726 E6.58187
G1 X134.662 Y136.262 E6.62167
G1 X134.077 Y136.464 E6.64084
G1 X131.915 Y136.827 E6.70867
G1 X68.087 Y136.829 E8.68358
G1 X66.051 Y136.508 E8.74737
G1 X65.309 Y136.252 E8.77167
G1 X63.308 Y135.130 E8.84263
G1 X61.810 Y133.393 E8.91359
G1 X60.994 Y131.250 E8.98455
G1 X60.875 Y130.000 E9.02341
G1 X60.875 Y70.000 E10.87989
G1 X61.272 Y67.741 E10.95085
G1 X62.378 Y65.818 E11.01949
G1 E9.01949 F2400.00000
G92 E0
G1 X93.863 Y102.361 F7800.000
G1 E2.00000 F2400.00000
G1 F1800.000
G1 X91.137 Y102.361 E2.08434
G1 X89.774 Y100.000 E2.16867
G1 X91.137 Y97.639 E2.25301
G1 X93.863 Y97.639 E2.33735
G1 X95.226 Y100.000 E2.42168
G1 X93.900 Y102.296 E2.50370
G1 X93.502 Y101.736 F7800.000
G1 F1800.000
G1 X91.498 Y101.736 E2.56571
G1 X90.496 Y100.000 E2.62772
G1 X91.498 Y98.264 E2.68973
G1 X93.502 Y98.264 E2.75174
G1 X94.504 Y100.000 E2.81375
G1 X93.540 Y101.671 E2.87344
G1 X93.502 Y102.236 F7800.000
G1 E0.87344 F2400.00000
G92 E0
G1 X89.062 Y120.691 F7800.000
G1 E2.00000 F2400.00000
G1 F1800.000
G1 X92.499 Y121.788 E2.11164
G1 X92.346 Y124.349 E2.19100
G1 X90.816 Y124.642 E2.23918
G1 X89.820 Y124.501 E2.27031
G1 X87.886 Y123.458 E2.33830
G1 X89.033 Y120.760 E2.42900
G1 X89.415 Y121.459 F7800.000
G1 F1800.000
G1 X91.847 Y122.236 E2.50799
G1 X91.751 Y123.826 E2.55729
G1 X90.801 Y124.008 E2.58722
G1 X90.018 Y123.898 E2.61168
G1 X88.684 Y123.178 E2.65858
G1 X89.385 Y121.528 E2.71405
G1 X89.767 Y122.228 F7800.000
G1 F1800.000
G1 X91.194 Y122.683 E2.76039
G1 X91.156 Y123.304 E2.77963
G1 X90.785 Y123.375 E2.79131
G1 X90.217 Y123.295 E2.80909
G1 X89.482 Y122.898 E2.83492
G1 X89.738 Y122.297 E2.85515
G1 X89.804 Y121.729 F7800.000
G1 E0.85515 F2400.00000
G92 E0
G1 X86.975 Y110.475 F7800.000
G1 E2.00000 F2400.00000
G1 F1800.000
G1 X80.877 Y110.475 E2.18868
G1 X77.887 Y110.545 E2.28121
G1 X77.887 Y107.451 E2.37693
G1 X77.783 Y106.991 E2.39153
G1 X77.757 Y106.318 E2.41236
G1 X78.048 Y104.602 E2.46621
G1 X77.826 Y103.810 E2.49167
G1 X77.748 Y102.858 E2.52122
G1 X78.040 Y101.159 E2.57456
G1 X78.906 Y99.957 E2.62039
G1 X78.403 Y99.473 E2.64200
G1 X77.891 Y98.244 E2.68318
G1 X77.754 Y96.940 E2.72375
G1 X77.802 Y96.169 E2.74765
G1 X77.953 Y95.455 E2.77023
G1 X78.204 Y94.856 E2.79033
G1 X77.887 Y94.863 E2.80013
G1 X77.887 Y91.770 E2.89585
G1 X77.783 Y91.309 E2.91046
G1 X77.757 Y90.637 E2.93128
G1 X78.061 Y88.842 E2.98760
G1 X82.218 Y88.842 E3.11622
G1 X81.907 Y90.597 E3.17136
G1 X82.329 Y90.615 E3.18441
G1 X86.975 Y90.615 E3.32817
G1 X86.975 Y93.851 E3.42830
G1 X87.036 Y94.278 E3.44164
G1 X87.016 Y95.033 E3.46501
G1 X86.879 Y95.587 E3.48268
G1 X86.705 Y95.936 E3.49474
G1 X86.841 Y96.225 E3.50460
G1 X86.993 Y96.724 E3.52074
G1 X87.078 Y97.233 E3.53671
G1 X87.106 Y97.764 E3.55318
G1 X87.060 Y98.412 E3.57328
G1 X86.900 Y99.066 E3.59411
G1 X86.599 Y99.696 E3.61570
G1 X86.224 Y100.152 E3.63398
G1 X86.542 Y100.522 E3.64905
G1 X86.984 Y101.661 E3.68684
G1 X87.109 Y102.872 E3.72452
G1 X87.037 Y103.782 E3.75277
G1 X86.803 Y104.636 E3.78017
G1 X86.382 Y105.424 E3.80782
G1 X85.596 Y106.297 E3.84414
G1 X86.975 Y106.297 E3.88679
G1 X86.975 Y110.400 E4.01376
G1 X86.350 Y109.850 F7800.000
G1 F1800.000
G1 X80.869 Y109.850 E4.18334
G1 X78.512 Y109.905 E4.25629
G1 X78.512 Y107.351 E4.33534
G1 X78.406 Y106.909 E4.34938
G1 X78.384 Y106.359 E4.36643
G1 X78.589 Y105.149 E4.40441
G1 X79.041 Y105.149 E4.41840
G1 X78.646 Y104.419 E4.44409
G1 X78.444 Y103.699 E4.46721
G1 X78.377 Y102.886 E4.49246
G1 X78.631 Y101.407 E4.53888
G1 X79.488 Y100.219 E4.58421
G1 X79.876 Y100.025 E4.59764
G1 X78.930 Y99.113 E4.63830
G1 X78.503 Y98.088 E4.67264
G1 X78.381 Y96.927 E4.70877
G1 X78.422 Y96.254 E4.72964
G1 X78.552 Y95.642 E4.74898
G1 X78.790 Y95.075 E4.76802
G1 X79.145 Y94.576 E4.78699
G1 X79.582 Y94.199 E4.80483
G1 X78.512 Y94.224 E4.83795
G1 X78.512 Y91.669 E4.91700
G1 X78.406 Y91.228 E4.93104
G1 X78.384 Y90.677 E4.94809
G1 X78.589 Y89.467 E4.98607
G1 X81.473 Y89.467 E5.07529
G1 X81.240 Y90.778 E5.11650
G1 X81.229 Y91.027 E5.12419
G1 X81.423 Y91.120 E5.13086
G1 X81.631 Y91.180 E5.13755
G1 X81.923 Y91.223 E5.14669
G1 X82.315 Y91.240 E5.15882
G1 X86.350 Y91.240 E5.28366
G1 X86.350 Y93.896 E5.36585
G1 X86.410 Y94.314 E5.37892
G1 X86.393 Y94.948 E5.39855
G1 X86.288 Y95.371 E5.41201
G1 X86.095 Y95.760 E5.42544
G1 X85.968 Y95.905 E5.43143
G1 X86.069 Y96.053 E5.43699
G1 X86.256 Y96.450 E5.45057
G1 X86.383 Y96.867 E5.46406
G1 X86.456 Y97.301 E5.47766
G1 X86.480 Y97.758 E5.49184
G1 X86.440 Y98.315 E5.50912
G1 X86.309 Y98.855 E5.52630
G1 X86.068 Y99.358 E5.54356
G1 X85.715 Y99.788 E5.56076
G1 X85.336 Y100.076 E5.57551
G1 X85.998 Y100.848 E5.60697
G1 X86.371 Y101.809 E5.63886
G1 X86.482 Y102.879 E5.67217
G1 X86.419 Y103.674 E5.69682
G1 X86.219 Y104.404 E5.72024
G1 X85.867 Y105.063 E5.74336
G1 X85.365 Y105.619 E5.76653
G1 X84.741 Y106.044 E5.78989
G1 X84.027 Y106.329 E5.81369
G1 X83.244 Y106.488 E5.83841
G1 X82.392 Y106.538 E5.86482
G1 X81.544 Y106.486 E5.89110
G1 X81.506 Y106.843 E5.90222
G1 X81.923 Y106.905 E5.91526
G1 X82.315 Y106.922 E5.92740
G1 X86.350 Y106.922 E6.05224
G1 X86.350 Y109.775 E6.14054
G1 X85.725 Y109.225 F7800.000
G1 F1800.000
G1 X80.862 Y109.225 E6.29100
G1 X79.137 Y109.266 E6.34439
G1 X79.137 Y107.646 E6.39451
G1 X79.319 Y107.639 E6.40013
G1 X79.094 Y107.122 E6.41758
G1 X79.028 Y106.828 E6.42691
G1 X79.011 Y106.399 E6.44018
G1 X79.117 Y105.773 E6.45982
G1 X80.360 Y105.773 E6.49826
G1 X80.442 Y105.510 E6.50681
G1 X79.910 Y105.144 E6.52676
G1 X79.512 Y104.705 E6.54512
G1 X79.228 Y104.182 E6.56351
G1 X79.062 Y103.588 E6.58260
G1 X79.007 Y102.914 E6.60355
G1 X79.223 Y101.655 E6.64305
G1 X79.904 Y100.709 E6.67914
G1 X81.010 Y100.157 E6.71737
G1 X82.454 Y99.985 E6.76238
G1 X82.733 Y99.985 E6.77099
G1 X82.807 Y99.707 E6.77989
G1 X82.397 Y99.471 E6.79454
G1 X82.063 Y99.148 E6.80890
G1 X81.804 Y98.734 E6.82402
G1 X81.660 Y98.339 E6.83701
G1 X81.362 Y98.378 E6.84631
G1 X81.239 Y99.745 E6.88877
G1 X80.055 Y99.330 E6.92759
G1 X79.457 Y98.753 E6.95331
G1 X79.115 Y97.932 E6.98082
G1 X79.008 Y96.914 E7.01251
G1 X79.043 Y96.338 E7.03034
G1 X79.151 Y95.830 E7.04644
G1 X79.339 Y95.380 E7.06150
G1 X79.610 Y95.000 E7.07597
G1 X79.958 Y94.700 E7.09017
G1 X80.371 Y94.488 E7.10451
G1 X80.837 Y94.365 E7.11943
G1 X81.338 Y94.327 E7.13497
G1 X83.887 Y94.327 E7.21385
G1 X84.231 Y94.302 E7.22452
G1 X84.443 Y94.252 E7.23127
G1 X84.359 Y93.544 E7.25332
G1 X80.862 Y93.544 E7.36153
G1 X79.137 Y93.584 E7.41492
G1 X79.137 Y91.964 E7.46504
G1 X79.319 Y91.958 E7.47066
G1 X79.094 Y91.440 E7.48811
G1 X79.028 Y91.146 E7.49744
G1 X79.011 Y90.718 E7.51071
G1 X79.117 Y90.092 E7.53035
G1 X80.727 Y90.092 E7.58017
G1 X80.618 Y90.709 E7.59957
G1 X80.607 Y90.952 E7.60709
G1 X80.631 Y91.165 E7.61371
G1 X80.695 Y91.327 E7.61911
G1 X80.802 Y91.466 E7.62455
G1 X80.968 Y91.594 E7.63103
G1 X81.200 Y91.706 E7.63900
G1 X81.499 Y91.792 E7.64860
G1 X81.864 Y91.846 E7.66003
G1 X82.302 Y91.865 E7.67359
G1 X85.725 Y91.865 E7.77951
G1 X85.725 Y93.544 E7.83146
G1 X85.668 Y93.544 E7.83324
G1 X85.784 Y94.351 E7.85846
G1 X85.770 Y94.864 E7.87435
G1 X85.698 Y95.154 E7.88360
G1 X85.572 Y95.409 E7.89239
G1 X85.387 Y95.619 E7.90104
G1 X85.085 Y95.823 E7.91233
G1 X85.328 Y96.077 E7.92320
G1 X85.526 Y96.365 E7.93401
G1 X85.672 Y96.676 E7.94462
G1 X85.774 Y97.010 E7.95545
G1 X85.834 Y97.368 E7.96668
G1 X85.854 Y97.752 E7.97858
G1 X85.821 Y98.219 E7.99305
G1 X85.717 Y98.643 E8.00657
G1 X85.537 Y99.020 E8.01949
G1 X85.279 Y99.335 E8.03208
G1 X84.959 Y99.578 E8.04451
G1 X84.593 Y99.747 E8.05700
G1 X83.890 Y99.918 E8.07937
G1 X83.898 Y99.892 E8.08022
G1 X83.247 Y99.835 E8.10043
G1 X82.955 Y99.748 E8.10987
G1 X82.955 Y104.177 E8.24689
G1 X83.434 Y104.089 E8.26195
G1 X83.746 Y103.979 E8.27221
G1 X83.994 Y103.834 E8.28110
G1 X84.179 Y103.658 E8.28898
G1 X84.308 Y103.451 E8.29653
G1 X84.389 Y103.199 E8.30472
G1 X84.418 Y102.884 E8.31450
G1 X84.404 Y102.630 E8.32239
G1 X84.364 Y102.407 E8.32939
G1 X84.300 Y102.222 E8.33544
G1 X84.214 Y102.068 E8.34092
G1 X84.108 Y101.935 E8.34617
G1 X83.992 Y101.827 E8.35108
G1 X83.865 Y101.745 E8.35574
G1 X83.417 Y101.551 E8.37086
G1 X83.875 Y99.972 E8.42172
G1 X84.932 Y100.566 E8.45926
G1 X85.454 Y101.174 E8.48404
G1 X85.758 Y101.957 E8.51003
G1 X85.854 Y102.887 E8.53896
G1 X85.800 Y103.565 E8.56002
G1 X85.634 Y104.171 E8.57945
G1 X85.351 Y104.701 E8.59805
G1 X84.952 Y105.145 E8.61652
G1 X84.446 Y105.488 E8.63544
G1 X83.847 Y105.727 E8.65539
G1 X83.163 Y105.866 E8.67700
G1 X82.393 Y105.912 E8.70087
G1 X81.655 Y105.866 E8.72375
G1 X80.993 Y105.727 E8.74467
G1 X80.753 Y105.628 E8.75269
G1 X80.618 Y106.391 E8.77664
G1 X80.607 Y106.633 E8.78416
G1 X80.631 Y106.846 E8.79079
G1 X80.695 Y107.008 E8.79618
G1 X80.802 Y107.148 E8.80163
G1 X80.968 Y107.276 E8.80810
G1 X81.200 Y107.388 E8.81607
G1 X81.499 Y107.473 E8.82568
G1 X81.864 Y107.528 E8.83711
G1 X82.302 Y107.546 E8.85066
G1 X85.725 Y107.546 E8.95659
G1 X85.725 Y109.150 E9.00622
G1 X85.907 Y109.691 F7800.000
G1 E7.00622 F2400.00000
G92 E0
G1 X89.062 Y79.309 F7800.000
G1 E2.00000 F2400.00000
G1 F1800.000
G1 X87.886 Y76.542 E2.09303
G1 X89.820 Y75.499 E2.16101
G1 X90.816 Y75.358 E2.19215
G1 X92.346 Y75.651 E2.24033
G1 X92.499 Y78.212 E2.31968
G1 X89.134 Y79.287 E2.42900
G1 X89.415 Y78.541 F7800.000
G1 F1800.000
G1 X88.684 Y76.822 E2.48679
G1 X90.018 Y76.102 E2.53370
G1 X90.801 Y75.992 E2.55815
G1 X91.751 Y76.174 E2.58809
G1 X91.847 Y77.764 E2.63739
G1 X89.486 Y78.518 E2.71405
G1 X89.767 Y77.772 F7800.000
G1 F1800.000
G1 X89.482 Y77.102 E2.73661
G1 X90.217 Y76.705 E2.76243
G1 X90.785 Y76.625 E2.78021
G1 X91.156 Y76.696 E2.79189
G1 X91.194 Y77.317 E2.81113
G1 X89.839 Y77.750 E2.85515
G1 X89.325 Y78.007 F7800.000
G1 E0.85515 F2400.00000
G92 E0
G1 X90.776 Y97.015 F7800.000
G1 E2.00000 F2400.00000
G1 F1800.000
G1 X89.053 Y100.000 E2.10666
G1 X90.776 Y102.985 E2.21333
G1 X94.224 Y102.985 E2.31999
G1 X95.622 Y100.563 E2.40654
G1 X95.900 Y100.637 E2.41545
G1 X95.900 Y128.605 E3.28079
G1 X69.100 Y128.605 E4.11003
G1 X69.100 Y100.637 E4.97538
G1 X69.378 Y100.563 E4.98428
G1 X70.776 Y102.985 E5.07084
G1 X74.224 Y102.985 E5.17750
G1 X75.947 Y100.000 E5.28416
G1 X74.224 Y97.015 E5.39082
G1 X70.776 Y97.015 E5.49749
G1 X69.378 Y99.437 E5.58404
G1 X69.100 Y99.363 E5.59294
G1 X69.100 Y71.395 E6.45829
G1 X95.900 Y71.395 E7.28753
G1 X95.900 Y99.363 E8.15288
G1 X95.622 Y99.437 E8.16178
G1 X94.224 Y97.015 E8.24833
G1 X90.851 Y97.015 E8.35268
G1 E6.35268 F2400.00000
G92 E0
G1 X75.226 Y100.000 F7800.000
G1 E2.00000 F2400.00000
G1 F1800.000
G1 X73.863 Y102.361 E2.08434
G1 X71.137 Y102.361 E2.16867
G1 X69.774 Y100.000 E2.25301
G1 X71.137 Y97.639 E2.33735
G1 X73.863 Y97.639 E2.42168
G1 X75.188 Y99.935 E2.50370
G1 X74.504 Y100.000 F7800.000
G1 F1800.000
G1 X73.502 Y101.736 E2.56571
G1 X71.498 Y101.736 E2.62772
G1 X70.496 Y100.000 E2.68973
G1 X71.498 Y98.264 E2.75174
G1 X73.502 Y98.264 E2.81375
G1 X74.467 Y99.935 E2.87344
G1 X74.937 Y100.250 F7800.000
G1 E0.87344 F2400.00000
G92 E0
G1 X68.475 Y129.229 F7800.000
G1 E2.00000 F2400.00000
G1 F1800.000
G1 X68.475 Y70.771 E3.80880
G1 X96.525 Y70.771 E4.67671
G1 X96.525 Y129.229 E6.48551
G1 X68.550 Y129.229 E7.35110
G1 X67.850 Y129.751 F7800.000
G1 F1800.000
G1 X67.850 Y70.249 E9.19218
G1 X68.146 Y70.146 E9.20189
G1 X97.150 Y70.146 E10.09930
G1 X97.150 Y129.854 E11.94677
G1 X68.146 Y129.854 E12.84418
G1 X67.921 Y129.776 E12.85157
G1 X68.101 Y129.318 F7800.000
G1 E10.85157 F2400.00000
G92 E0
G1 X80.362 Y107.899 F7800.000
G1 E2.00000 F2400.00000
G1 F1800.000
G1 X79.319 Y107.641 E2.01319
G1 E0.01319 F2400.00000
G92 E0
G1 X80.676 Y97.750 F7800.000
G1 E2.00000 F2400.00000
G1 F1800.000
G1 X80.608 Y97.677 E2.00310
G1 X80.550 Y97.574 E2.00676
G1 X80.500 Y97.416 E2.01188
G1 X80.466 Y97.199 E2.01866
G1 X80.455 Y96.932 E2.02696
G1 X80.471 Y96.674 E2.03495
G1 X80.516 Y96.475 E2.04127
G1 X80.583 Y96.329 E2.04622
G1 X80.664 Y96.226 E2.05029
G1 X80.775 Y96.146 E2.05450
G1 X80.940 Y96.079 E2.06001
G1 X81.165 Y96.034 E2.06714
G1 X81.447 Y96.026 E2.07585
G1 X81.463 Y97.003 E2.10607
G1 X81.511 Y97.656 E2.12634
G1 X81.577 Y97.998 E2.13712
G1 X80.898 Y97.862 E2.15854
G1 X80.739 Y97.792 E2.16392
G1 X80.694 Y97.652 F7800.000
G1 E0.16392 F2400.00000
G92 E0
G1 X80.362 Y92.218 F7800.000
G1 E2.00000 F2400.00000
G1 F1800.000
G1 X79.319 Y91.959 E2.01319
G1 E0.01319 F2400.00000
G92 E0
G1 X81.505 Y101.748 F7800.000
G1 E2.00000 F2400.00000
G1 F1800.000
G1 X81.505 Y104.131 E2.07373
G1 X81.232 Y104.062 E2.08245
G1 X80.988 Y103.953 E2.09072
G1 X80.788 Y103.810 E2.09831
G1 X80.634 Y103.641 E2.10539
G1 X80.525 Y103.447 E2.11228
G1 X80.457 Y103.218 E2.11968
G1 X80.433 Y102.943 E2.12821
G1 X80.455 Y102.658 E2.13706
G1 X80.517 Y102.423 E2.14459
G1 X80.614 Y102.233 E2.15117
G1 X80.746 Y102.079 E2.15744
G1 X80.927 Y101.948 E2.16435
G1 X81.174 Y101.837 E2.17274
G1 X81.433 Y101.768 E2.18103
G1 X81.305 Y102.206 F7800.000
G1 E0.18103 F2400.00000
G92 E0
G1 X83.025 Y97.787 F7800.000
G1 E2.00000 F2400.00000
G1 F1800.000
G1 X82.974 Y97.673 E2.00387
G1 X82.885 Y97.287 E2.01611
G1 X82.861 Y97.040 E2.02380
G1 X82.835 Y96.024 E2.05525
G1 X83.150 Y96.030 E2.06498
G1 X83.319 Y96.065 E2.07032
G1 X83.674 Y96.213 E2.08224
G1 X83.840 Y96.321 E2.08836
G1 X83.985 Y96.445 E2.09427
G1 X84.112 Y96.587 E2.10014
G1 X84.220 Y96.746 E2.10611
G1 X84.306 Y96.919 E2.11209
G1 X84.368 Y97.105 E2.11815
G1 X84.406 Y97.307 E2.12450
G1 X84.418 Y97.524 E2.13122
G1 X84.406 Y97.696 E2.13657
G1 X84.372 Y97.830 E2.14085
G1 X84.260 Y98.012 E2.14747
G1 X84.073 Y98.125 E2.15422
G1 X83.935 Y98.158 E2.15859
G1 X83.759 Y98.170 E2.16405
G1 X83.453 Y98.134 E2.17361
G1 X83.245 Y98.041 E2.18064
G1 X83.163 Y97.974 E2.18394
G1 X83.065 Y97.850 E2.18881
G1 X83.091 Y97.681 F7800.000
G1 X83.547 Y97.785 F7800.000
G1 F1800.000
G1 X84.033 Y97.299 E2.21325
G1 X83.724 Y96.593 F7800.000
G1 F1800.000
G1 X83.237 Y97.079 E2.23770
G1 E0.23770 F2400.00000
G92 E0
G1 X81.088 Y96.368 F7800.000
G1 E2.00000 F2400.00000
G1 F1800.000
G1 X80.986 Y96.576 E2.00275
G1 F1800.000
G1 X80.959 Y96.937 E2.00803
G1 X81.001 Y97.378 E2.01450
G1 F1800.000
G1 X80.948 Y97.429 E2.01537
G1 F1800.000
G1 X80.871 Y97.501 E2.01623
G1 X81.620 Y99.117 F7800.000
G1 F1800.000
G1 X81.813 Y99.747 E2.02294
G1 X83.379 Y100.160 F7800.000
G1 F1800.000
G1 X83.329 Y100.508 E2.02503
G1 F1800.000
G1 X83.304 Y100.690 E2.02553
G1 X83.337 Y101.857 F7800.000
G1 F1800.000
G1 X83.620 Y102.390 E2.04437
G1 F1800.000
G1 X83.657 Y102.509 E2.04877
G1 X83.681 Y102.715 E2.05612
G1 X83.677 Y103.054 E2.06809
G1 X83.494 Y103.737 E2.09306
G1 E0.09306 F2400.00000
G92 E0
G1 X81.049 Y103.612 F7800.000
G1 E2.00000 F2400.00000
G1 F1800.000
G1 X80.978 Y103.119 E2.00875
G1 X80.970 Y102.940 E2.01189
G1 X80.977 Y102.746 E2.01530
G1 X81.042 Y102.251 E2.02406
G1 E0.02406 F2400.00000
G92 E0
G1 X79.434 Y105.140 F7800.000
G1 E2.00000 F2400.00000
G1 F1800.000
G1 X79.610 Y105.388 E2.00108
G1 X79.639 Y105.401 E2.00119
G1 F1800.000
G1 X79.724 Y105.431 E2.00124
G1 X81.133 Y106.075 F7800.000
G1 F1800.000
G1 X81.081 Y106.442 E2.00545
G1 X81.076 Y106.793 E2.00943
G1 F1800.000
