; generated by Slic3r 1.3.1-dev (Build 2ef957d) on 2019-11-25 at 09:24:50

; external perimeters extrusion width = 0.55mm (4.37mm^3/s)
; perimeters extrusion width = 0.70mm (11.44mm^3/s)
; infill extrusion width = 0.62mm (13.45mm^3/s)
; solid infill extrusion width = 0.70mm (3.81mm^3/s)
; top infill extrusion width = 0.70mm (2.86mm^3/s)

M107
G92 E0
M104 S200 ; set temperature
G28 ; home all axes
G1 Z5 F5000 ; lift nozzle

; Filament gcode

M109 S200 ; set temperature and wait for it to be reached
G21 ; set units to millimeters
G90 ; use absolute coordinates
M82 ; use absolute distances for extrusion
G92 E0
G1 Z0.350 F7800.000
G1 E-2.00000 F2400.00000
G92 E0
G1 X79.915 Y80.753 F7800.000
G1 E2.00000 F2400.00000
G1 F1800.000
G1 X81.668 Y79.274 E2.07096
G1 X83.820 Y78.481 E2.14192
G1 X85.000 Y78.375 E2.17858
G1 X115.000 Y78.375 E3.10682
G1 X117.259 Y78.772 E3.17778
G1 X119.247 Y79.915 E3.24874
G1 X120.726 Y81.668 E3.31970
G1 X121.519 Y83.820 E3.39066
G1 X121.625 Y85.000 E3.42732
G1 X121.625 Y115.000 E4.35555
G1 X121.228 Y117.259 E4.42652
G1 X120.085 Y119.247 E4.49748
G1 X118.332 Y120.726 E4.56844
G1 X116.180 Y121.519 E4.63940
G1 X115.000 Y121.625 E4.67606
G1 X85.000 Y121.625 E5.60429
G1 X82.741 Y121.228 E5.67526
G1 X80.753 Y120.085 E5.74622
G1 X79.274 Y118.332 E5.81718
G1 X78.481 Y116.180 E5.88814
G1 X78.375 Y115.000 E5.92479
G1 X78.375 Y85.000 E6.85303
G1 X78.772 Y82.741 E6.92400
G1 X79.878 Y80.818 E6.99264
G1 E4.99264 F2400.00000
G92 E0
G1 X113.400 Y113.400 F7800.000
G1 E2.00000 F2400.00000
G1 F1800.000
G1 X86.600 Y113.400 E2.82924
G1 X86.600 Y86.600 E3.65848
G1 X113.400 Y86.600 E4.48772
G1 X113.400 Y113.325 E5.31464
G1 X114.025 Y114.025 F7800.000
G1 F1800.000
G1 X85.975 Y114.025 E6.18255
G1 X85.975 Y85.975 E7.05047
G1 X114.025 Y85.975 E7.91838
G1 X114.025 Y113.950 E8.78397
G1 X114.650 Y114.650 F7800.000
G1 F1800.000
G1 X85.350 Y114.650 E9.69055
G1 X85.350 Y85.350 E10.59713
G1 X114.650 Y85.350 E11.50371
G1 X114.650 Y114.575 E12.40797
G1 X114.167 Y114.521 F7800.000
G1 E10.40797 F2400.00000
G92 E0
G1 X112.532 Y113.018 F7800.000
G1 E2.00000 F2400.00000
G1 F1800.000
G1 X113.018 Y112.532 E2.02158
G1 X113.018 Y111.636 E2.04972
G1 X111.636 Y113.018 E2.11110
G1 X110.739 Y113.018 E2.13924
G1 X113.018 Y110.739 E2.24042
G1 X113.018 Y109.843 E2.26856
G1 X109.843 Y113.018 E2.40953
G1 X108.946 Y113.018 E2.43767
G1 X113.018 Y108.946 E2.61844
G1 X113.018 Y108.050 E2.64658
G1 X108.050 Y113.018 E2.86715
G1 X107.153 Y113.018 E2.89529
G1 X113.018 Y107.153 E3.15565
G1 X113.018 Y106.257 E3.18379
G1 X106.257 Y113.018 E3.48395
G1 X105.360 Y113.018 E3.51209
G1 X113.018 Y105.360 E3.85205
G1 X113.018 Y104.464 E3.88019
G1 X104.464 Y113.018 E4.25994
G1 X103.567 Y113.018 E4.28808
G1 X113.018 Y103.567 E4.70763
G1 X113.018 Y102.671 E4.73577
G1 X102.671 Y113.018 E5.19511
G1 X101.774 Y113.018 E5.22325
G1 X113.018 Y101.774 E5.72240
G1 X113.018 Y100.878 E5.75054
G1 X100.878 Y113.018 E6.28948
G1 X99.981 Y113.018 E6.31762
G1 X113.018 Y99.981 E6.89635
G1 X113.018 Y99.085 E6.92449
G1 X99.085 Y113.018 E7.54303
G1 X98.188 Y113.018 E7.57117
G1 X113.018 Y98.188 E8.22950
G1 X113.018 Y97.292 E8.25764
G1 X97.291 Y113.018 E8.95576
G1 X96.395 Y113.018 E8.98390
G1 X113.018 Y96.395 E9.72183
G1 X113.018 Y95.498 E9.74997
G1 X95.498 Y113.018 E10.52768
G1 X94.602 Y113.018 E10.55583
G1 X113.018 Y94.602 E11.37334
G1 X113.018 Y93.705 E11.40148
G1 X93.705 Y113.018 E12.25879
G1 X92.809 Y113.018 E12.28693
G1 X113.018 Y92.809 E13.18404
G1 X113.018 Y91.912 E13.21218
G1 X91.912 Y113.018 E14.14909
G1 X91.016 Y113.018 E14.17723
G1 X113.018 Y91.016 E15.15393
G1 X113.018 Y90.119 E15.18207
G1 X90.119 Y113.018 E16.19857
G1 X89.223 Y113.018 E16.22671
G1 X113.018 Y89.223 E17.28301
G1 X113.018 Y88.326 E17.31115
G1 X88.326 Y113.018 E18.40724
G1 X87.430 Y113.018 E18.43538
G1 X113.018 Y87.430 E19.57127
G1 X113.018 Y86.982 E19.58534
G1 X112.570 Y86.982 E19.59941
G1 X86.982 Y112.570 E20.73530
G1 X86.982 Y111.674 E20.76344
G1 X111.674 Y86.982 E21.85954
G1 X110.777 Y86.982 E21.88768
G1 X86.982 Y110.777 E22.94397
G1 X86.982 Y109.881 E22.97211
G1 X109.881 Y86.982 E23.98861
G1 X108.984 Y86.982 E24.01676
G1 X86.982 Y108.984 E24.99346
G1 X86.982 Y108.088 E25.02160
G1 X108.088 Y86.982 E25.95851
G1 X107.191 Y86.982 E25.98665
G1 X86.982 Y107.191 E26.88376
G1 X86.982 Y106.295 E26.91190
G1 X106.295 Y86.982 E27.76921
G1 X105.398 Y86.982 E27.79735
G1 X86.982 Y105.398 E28.61487
G1 X86.982 Y104.502 E28.64301
G1 X104.502 Y86.982 E29.42073
G1 X103.605 Y86.982 E29.44887
G1 X86.982 Y103.605 E30.18679
G1 X86.982 Y102.709 E30.21493
G1 X102.709 Y86.982 E30.91306
G1 X101.812 Y86.982 E30.94120
G1 X86.982 Y101.812 E31.59953
G1 X86.982 Y100.915 E31.62767
G1 X100.915 Y86.982 E32.24620
G1 X100.019 Y86.982 E32.27434
G1 X86.982 Y100.019 E32.85308
G1 X86.982 Y99.122 E32.88122
G1 X99.122 Y86.982 E33.42016
G1 X98.226 Y86.982 E33.44830
G1 X86.982 Y98.226 E33.94744
G1 X86.982 Y97.329 E33.97558
G1 X97.329 Y86.982 E34.43493
G1 X96.433 Y86.982 E34.46307
G1 X86.982 Y96.433 E34.88262
G1 X86.982 Y95.536 E34.91076
G1 X95.536 Y86.982 E35.29051
G1 X94.640 Y86.982 E35.31865
G1 X86.982 Y94.640 E35.65861
G1 X86.982 Y93.743 E35.68675
G1 X93.743 Y86.982 E35.98691
G1 X92.847 Y86.982 E36.01505
G1 X86.982 Y92.847 E36.27541
G1 X86.982 Y91.950 E36.30355
G1 X91.950 Y86.982 E36.52412
G1 X91.054 Y86.982 E36.55226
G1 X86.982 Y91.054 E36.73303
G1 X86.982 Y90.157 E36.76117
G1 X90.157 Y86.982 E36.90214
G1 X89.261 Y86.982 E36.93028
G1 X86.982 Y89.261 E37.03146
G1 X86.982 Y88.364 E37.05960
G1 X88.364 Y86.982 E37.12098
G1 X87.468 Y86.982 E37.14912
G1 X86.982 Y87.468 E37.17070
G1 Z0.650 F7800.000
G1 X113.529 Y113.529 F7800.000
G1 F3600.000
G1 X86.471 Y113.529 E37.90061
G1 X86.471 Y86.471 E38.63053
G1 X113.529 Y86.471 E39.36045
G1 X113.529 Y113.454 E40.08834
G1 X114.164 Y114.164 F7800.000
G1 F3600.000
G1 X85.836 Y114.164 E40.85256
G1 X85.836 Y85.836 E41.61677
G1 X114.164 Y85.836 E42.38098
G1 X114.164 Y114.089 E43.14317
G1 X114.725 Y114.725 F7800.000
G1 F1800.000
G1 X85.275 Y114.725 E43.75014
G1 X85.275 Y85.275 E44.35712
G1 X114.725 Y85.275 E44.96409
G1 X114.725 Y114.650 E45.56952
G1 X114.242 Y114.596 F7800.000
G1 X113.140 Y87.354 F7800.000
G1 F1200.000
G1 X112.646 Y86.860 E45.58851
G1 X111.741 Y86.860 E45.61308
G1 X113.140 Y88.259 E45.66681
G1 X113.140 Y89.164 E45.69138
G1 X110.836 Y86.860 E45.77985
G1 X109.931 Y86.860 E45.80442
G1 X113.140 Y90.069 E45.92764
G1 X113.140 Y90.973 E45.95221
G1 X109.027 Y86.860 E46.11017
G1 X108.122 Y86.860 E46.13474
G1 X113.140 Y91.878 E46.32745
G1 X113.140 Y92.783 E46.35202
G1 X107.217 Y86.860 E46.57947
G1 X106.312 Y86.860 E46.60404
G1 X113.140 Y93.688 E46.86623
G1 X113.140 Y94.592 E46.89080
G1 X105.408 Y86.860 E47.18774
G1 X104.503 Y86.860 E47.21230
G1 X113.140 Y95.497 E47.54398
G1 X113.140 Y96.402 E47.56855
G1 X103.598 Y86.860 E47.93498
G1 X102.693 Y86.860 E47.95954
G1 X113.140 Y97.307 E48.36071
G1 X113.140 Y98.212 E48.38528
G1 X101.788 Y86.860 E48.82119
G1 X100.884 Y86.860 E48.84576
G1 X113.140 Y99.116 E49.31641
G1 X113.140 Y100.021 E49.34098
G1 X99.979 Y86.860 E49.84638
G1 X99.074 Y86.860 E49.87095
G1 X113.140 Y100.926 E50.41109
G1 X113.140 Y101.831 E50.43566
G1 X98.169 Y86.860 E51.01054
G1 X97.265 Y86.860 E51.03511
G1 X113.140 Y102.735 E51.64474
G1 X113.140 Y103.640 E51.66931
G1 X96.360 Y86.860 E52.31368
G1 X95.455 Y86.860 E52.33825
G1 X113.140 Y104.545 E53.01736
G1 X113.140 Y105.450 E53.04193
G1 X94.550 Y86.860 E53.75579
G1 X93.645 Y86.860 E53.78036
G1 X113.140 Y106.355 E54.52896
G1 X113.140 Y107.259 E54.55353
G1 X92.741 Y86.860 E55.33688
G1 X91.836 Y86.860 E55.36144
G1 X113.140 Y108.164 E56.17953
G1 X113.140 Y109.069 E56.20410
G1 X90.931 Y86.860 E57.05694
G1 X90.026 Y86.860 E57.08150
G1 X113.140 Y109.974 E57.96908
G1 X113.140 Y110.878 E57.99365
G1 X89.122 Y86.860 E58.91597
G1 X88.217 Y86.860 E58.94054
G1 X113.140 Y111.783 E59.89760
G1 X113.140 Y112.688 E59.92217
G1 X87.312 Y86.860 E60.91397
G1 X86.860 Y86.860 E60.92626
G1 X86.860 Y87.312 E60.93854
G1 X112.688 Y113.140 E61.93035
G1 X111.783 Y113.140 E61.95492
G1 X86.860 Y88.217 E62.91198
G1 X86.860 Y89.122 E62.93655
G1 X110.878 Y113.140 E63.85887
G1 X109.974 Y113.140 E63.88344
G1 X86.860 Y90.026 E64.77101
G1 X86.860 Y90.931 E64.79558
G1 X109.069 Y113.140 E65.64842
G1 X108.164 Y113.140 E65.67298
G1 X86.860 Y91.836 E66.49107
G1 X86.860 Y92.741 E66.51564
G1 X107.259 Y113.140 E67.29899
G1 X106.355 Y113.140 E67.32356
G1 X86.860 Y93.645 E68.07216
G1 X86.860 Y94.550 E68.09673
G1 X105.450 Y113.140 E68.81059
G1 X104.545 Y113.140 E68.83515
G1 X86.860 Y95.455 E69.51427
G1 X86.860 Y96.360 E69.53884
G1 X103.640 Y113.140 E70.18321
G1 X102.735 Y113.140 E70.20778
G1 X86.860 Y97.265 E70.81741
G1 X86.860 Y98.169 E70.84197
G1 X101.831 Y113.140 E71.41686
G1 X100.926 Y113.140 E71.44143
G1 X86.860 Y99.074 E71.98157
G1 X86.860 Y99.979 E72.00614
G1 X100.021 Y113.140 E72.51154
G1 X99.116 Y113.140 E72.53610
G1 X86.860 Y100.884 E73.00676
G1 X86.860 Y101.788 E73.03133
G1 X98.212 Y113.140 E73.46724
G1 X97.307 Y113.140 E73.49181
G1 X86.860 Y102.693 E73.89297
G1 X86.860 Y103.598 E73.91754
G1 X96.402 Y113.140 E74.28397
G1 X95.497 Y113.140 E74.30853
G1 X86.860 Y104.503 E74.64022
G1 X86.860 Y105.408 E74.66478
G1 X94.592 Y113.140 E74.96172
G1 X93.688 Y113.140 E74.98629
G1 X86.860 Y106.312 E75.24848
G1 X86.860 Y107.217 E75.27305
G1 X92.783 Y113.140 E75.50050
G1 X91.878 Y113.140 E75.52507
G1 X86.860 Y108.122 E75.71778
G1 X86.860 Y109.027 E75.74234
G1 X90.973 Y113.140 E75.90031
G1 X90.069 Y113.140 E75.92488
G1 X86.860 Y109.931 E76.04810
G1 X86.860 Y110.836 E76.07266
G1 X89.164 Y113.140 E76.16114
G1 X88.259 Y113.140 E76.18571
G1 X86.860 Y111.741 E76.23944
G1 X86.860 Y112.646 E76.26401
G1 X87.354 Y113.140 E76.28299
G1 Z0.950 F7800.000
G1 X113.529 Y113.529 F7800.000
G1 F3600.000
G1 X86.471 Y113.529 E77.01291
G1 X86.471 Y86.471 E77.74283
G1 X113.529 Y86.471 E78.47275
G1 X113.529 Y113.454 E79.20064
G1 X114.164 Y114.164 F7800.000
G1 F3600.000
G1 X85.836 Y114.164 E79.96485
G1 X85.836 Y85.836 E80.72907
G1 X114.164 Y85.836 E81.49328
G1 X114.164 Y114.089 E82.25547
G1 X114.725 Y114.725 F7800.000
G1 F1800.000
G1 X85.275 Y114.725 E82.86244
G1 X85.275 Y85.275 E83.46941
G1 X114.725 Y85.275 E84.07639
G1 X114.725 Y114.650 E84.68182
G1 X114.242 Y114.596 F7800.000
G1 X112.646 Y113.140 F7800.000
G1 F1200.000
G1 X113.140 Y112.646 E84.70081
G1 X113.140 Y111.741 E84.72537
G1 X111.741 Y113.140 E84.77911
G1 X110.836 Y113.140 E84.80368
G1 X113.140 Y110.836 E84.89215
G1 X113.140 Y109.931 E84.91672
G1 X109.931 Y113.140 E85.03994
G1 X109.027 Y113.140 E85.06451
G1 X113.140 Y109.027 E85.22247
G1 X113.140 Y108.122 E85.24704
G1 X108.122 Y113.140 E85.43975
G1 X107.217 Y113.140 E85.46431
G1 X113.140 Y107.217 E85.69177
G1 X113.140 Y106.312 E85.71633
G1 X106.312 Y113.140 E85.97853
G1 X105.408 Y113.140 E86.00309
G1 X113.140 Y105.408 E86.30003
G1 X113.140 Y104.503 E86.32460
G1 X104.503 Y113.140 E86.65628
G1 X103.598 Y113.140 E86.68085
G1 X113.140 Y103.598 E87.04727
G1 X113.140 Y102.693 E87.07184
G1 X102.693 Y113.140 E87.47301
G1 X101.788 Y113.140 E87.49758
G1 X113.140 Y101.788 E87.93349
G1 X113.140 Y100.884 E87.95806
G1 X100.884 Y113.140 E88.42871
G1 X99.979 Y113.140 E88.45328
G1 X113.140 Y99.979 E88.95868
G1 X113.140 Y99.074 E88.98325
G1 X99.074 Y113.140 E89.52339
G1 X98.169 Y113.140 E89.54796
G1 X113.140 Y98.169 E90.12284
G1 X113.140 Y97.265 E90.14741
G1 X97.265 Y113.140 E90.75704
G1 X96.360 Y113.140 E90.78161
G1 X113.140 Y96.360 E91.42598
G1 X113.140 Y95.455 E91.45055
G1 X95.455 Y113.140 E92.12966
G1 X94.550 Y113.140 E92.15423
G1 X113.140 Y94.550 E92.86809
G1 X113.140 Y93.645 E92.89266
G1 X93.645 Y113.140 E93.64126
G1 X92.741 Y113.140 E93.66583
G1 X113.140 Y92.741 E94.44917
G1 X113.140 Y91.836 E94.47374
G1 X91.836 Y113.140 E95.29183
G1 X90.931 Y113.140 E95.31640
G1 X113.140 Y90.931 E96.16923
G1 X113.140 Y90.026 E96.19380
G1 X90.026 Y113.140 E97.08138
G1 X89.122 Y113.140 E97.10594
G1 X113.140 Y89.122 E98.02827
G1 X113.140 Y88.217 E98.05283
G1 X88.217 Y113.140 E99.00990
G1 X87.312 Y113.140 E99.03446
G1 X113.140 Y87.312 E100.02627
G1 X113.140 Y86.860 E100.03856
G1 X112.688 Y86.860 E100.05084
G1 X86.860 Y112.688 E101.04265
G1 X86.860 Y111.783 E101.06721
G1 X111.783 Y86.860 E102.02428
G1 X110.878 Y86.860 E102.04885
G1 X86.860 Y110.878 E102.97117
G1 X86.860 Y109.974 E102.99573
G1 X109.974 Y86.860 E103.88331
G1 X109.069 Y86.860 E103.90788
G1 X86.860 Y109.069 E104.76071
G1 X86.860 Y108.164 E104.78528
G1 X108.164 Y86.860 E105.60337
G1 X107.259 Y86.860 E105.62794
G1 X86.860 Y107.259 E106.41128
G1 X86.860 Y106.355 E106.43585
G1 X106.355 Y86.860 E107.18446
G1 X105.450 Y86.860 E107.20902
G1 X86.860 Y105.450 E107.92288
G1 X86.860 Y104.545 E107.94745
G1 X104.545 Y86.860 E108.62657
G1 X103.640 Y86.860 E108.65113
G1 X86.860 Y103.640 E109.29551
G1 X86.860 Y102.735 E109.32007
G1 X102.735 Y86.860 E109.92970
G1 X101.831 Y86.860 E109.95427
G1 X86.860 Y101.831 E110.52916
G1 X86.860 Y100.926 E110.55372
G1 X100.926 Y86.860 E111.09387
G1 X100.021 Y86.860 E111.11843
G1 X86.860 Y100.021 E111.62383
G1 X86.860 Y99.116 E111.64840
G1 X99.116 Y86.860 E112.11906
G1 X98.212 Y86.860 E112.14362
G1 X86.860 Y98.212 E112.57953
G1 X86.860 Y97.307 E112.60410
G1 X97.307 Y86.860 E113.00527
G1 X96.402 Y86.860 E113.02984
G1 X86.860 Y96.402 E113.39626
G1 X86.860 Y95.497 E113.42083
G1 X95.497 Y86.860 E113.75251
G1 X94.592 Y86.860 E113.77708
G1 X86.860 Y94.592 E114.07402
G1 X86.860 Y93.688 E114.09858
G1 X93.688 Y86.860 E114.36078
G1 X92.783 Y86.860 E114.38535
G1 X86.860 Y92.783 E114.61280
G1 X86.860 Y91.878 E114.63736
G1 X91.878 Y86.860 E114.83007
G1 X90.973 Y86.860 E114.85464
G1 X86.860 Y90.973 E115.01260
G1 X86.860 Y90.069 E115.03717
G1 X90.069 Y86.860 E115.16039
G1 X89.164 Y86.860 E115.18496
G1 X86.860 Y89.164 E115.27344
G1 X86.860 Y88.259 E115.29800
G1 X88.259 Y86.860 E115.35174
G1 X87.354 Y86.860 E115.37630
G1 X86.860 Y87.354 E115.39529
M106 S234.6
G1 Z1.250 F7800.000
G1 X113.529 Y113.529 F7800.000
G1 F3600.000
G1 X86.471 Y113.529 E116.12521
G1 X86.471 Y86.471 E116.85513
G1 X113.529 Y86.471 E117.58504
G1 X113.529 Y113.454 E118.31294
G1 X114.164 Y114.164 F7800.000
G1 F3600.000
G1 X85.836 Y114.164 E119.07715
G1 X85.836 Y85.836 E119.84136
G1 X114.164 Y85.836 E120.60557
G1 X114.164 Y114.089 E121.36776
G1 X114.725 Y114.725 F7800.000
G1 F1800.000
G1 X85.275 Y114.725 E121.97474
G1 X85.275 Y85.275 E122.58171
G1 X114.725 Y85.275 E123.18868
G1 X114.725 Y114.650 E123.79411
G1 X114.242 Y114.596 F7800.000
G1 X113.248 Y109.509 F7800.000
G1 F4800.000
G1 X100.161 Y113.016 E124.11650
G1 X96.450 Y113.248 F7800.000
G1 F4800.000
G1 X103.550 Y86.752 E124.76919
G1 X99.839 Y86.984 F7800.000
G1 F4800.000
G1 X86.752 Y90.491 E125.09157
G1 X86.752 Y99.197 F7800.000
G1 F4800.000
G1 X113.248 Y92.097 E125.74426
G1 X113.163 Y89.378 F7800.000
G1 F4800.000
G1 X110.622 Y86.837 E125.82978
G1 X98.729 Y86.837 E126.11274
G1 X113.163 Y101.271 E126.59843
G1 X113.163 Y113.163 E126.88139
G1 X86.837 Y86.837 E127.76726
G1 X86.837 Y98.729 E128.05022
G1 X101.271 Y113.163 E128.53591
G1 X89.378 Y113.163 E128.81887
G1 X86.837 Y110.622 E128.90439
G1 X86.752 Y107.903 F7800.000
G1 F4800.000
G1 X113.248 Y100.803 E129.55708
G1 X112.256 Y86.752 F7800.000
G1 F4800.000
G1 X105.156 Y113.248 E130.20977
G1 X87.744 Y113.248 F7800.000
G1 F4800.000
G1 X94.844 Y86.752 E130.86246
G1 Z1.550 F7800.000
G1 X113.529 Y113.529 F7800.000
G1 F3600.000
G1 X86.471 Y113.529 E131.59238
G1 X86.471 Y86.471 E132.32230
G1 X113.529 Y86.471 E133.05222
G1 X113.529 Y113.454 E133.78011
G1 X114.164 Y114.164 F7800.000
G1 F3600.000
G1 X85.836 Y114.164 E134.54432
G1 X85.836 Y85.836 E135.30853
G1 X114.164 Y85.836 E136.07275
G1 X114.164 Y114.089 E136.83493
G1 X114.725 Y114.725 F7800.000
G1 F1800.000
G1 X85.275 Y114.725 E137.44191
G1 X85.275 Y85.275 E138.04888
G1 X114.725 Y85.275 E138.65586
G1 X114.725 Y114.650 E139.26129
G1 X114.242 Y114.596 F7800.000
G1 X113.248 Y109.509 F7800.000
G1 F4800.000
G1 X100.161 Y113.016 E139.58367
G1 X96.450 Y113.248 F7800.000
G1 F4800.000
G1 X103.550 Y86.752 E140.23636
G1 X99.839 Y86.984 F7800.000
G1 F4800.000
G1 X86.752 Y90.491 E140.55874
G1 X86.752 Y99.197 F7800.000
G1 F4800.000
G1 X113.248 Y92.097 E141.21143
