; Gcode updated with 'stl_info' on 2019-12-05 15:38:28.998317

; stl_min_x = 0.0
; stl_max_x = 100.0
; stl_min_y = -35.0
; stl_max_y = 0.0
; stl_min_z = -12.0

; generated by Slic3r 1.3.1-dev (Build adea0d9) on 2019-12-05 at 15:38:28

; external perimeters extrusion width = 0.44mm (2.86mm^3/s)
; perimeters extrusion width = 0.56mm (4.14mm^3/s)
; infill extrusion width = 0.50mm (3.66mm^3/s)
; solid infill extrusion width = 0.56mm (3.10mm^3/s)
; top infill extrusion width = 0.56mm (3.10mm^3/s)

M107
G92 E0
;D3D:START:START
T0
M104 S215 T0

G21
G90
M107
T0
G28
G29
M109 T0 S215 T0
G0 F3000
M107
T0
G92 E0
G0 X0 Y149 Z0.1 F3600
G1 Y49 E6.5 F1200
G0 Z1
G92 E0
; Filament gcode

G21 ; set units to millimeters
G90 ; use absolute coordinates
M82 ; use absolute distances for extrusion
G92 E0
G1 Z0.300 F7800.000
G1 E-2.00000 F2400.00000
G92 E0
G1 X53.218 Y80.092 F7800.000
G1 E2.00000 F2400.00000
G1 F1800.000
G1 X54.782 Y80.092 E2.05184
G1 X56.048 Y81.012 E2.10369
G1 X56.532 Y82.500 E2.15553
G1 X56.048 Y83.988 E2.20738
G1 X54.782 Y84.908 E2.25922
G1 X53.218 Y84.908 E2.31106
G1 X51.952 Y83.988 E2.36291
G1 X51.468 Y82.500 E2.41475
G1 X51.952 Y81.012 E2.46660
G1 X53.169 Y80.127 E2.51645
G1 X53.304 Y80.357 F7800.000
G1 F1800.000
G1 X54.696 Y80.357 E2.56258
G1 X55.822 Y81.176 E2.60870
G1 X56.253 Y82.500 E2.65483
G1 X55.822 Y83.824 E2.70096
G1 X54.696 Y84.643 E2.74708
G1 X53.304 Y84.643 E2.79321
G1 X52.177 Y83.824 E2.83933
G1 X51.747 Y82.500 E2.88546
G1 X52.177 Y81.176 E2.93158
G1 X53.255 Y80.393 E2.97572
G1 X53.390 Y80.623 F7800.000
G1 F1800.000
G1 X54.610 Y80.623 E3.01613
G1 X55.597 Y81.340 E3.05654
G1 X55.973 Y82.500 E3.09694
G1 X55.597 Y83.660 E3.13735
G1 X54.610 Y84.377 E3.17776
G1 X53.390 Y84.377 E3.21816
G1 X52.403 Y83.660 E3.25857
G1 X52.027 Y82.500 E3.29898
G1 X52.403 Y81.340 E3.33939
G1 X53.342 Y80.658 E3.37781
G1 X53.473 Y80.232 F7800.000
G1 E1.37781 F2400.00000
G92 E0
G1 X53.349 Y70.571 F7800.000
G1 E2.00000 F2400.00000
G1 F1800.000
G1 X52.958 Y69.483 E2.03830
G1 X52.447 Y69.483 E2.05524
G1 X52.078 Y70.571 E2.09330
G1 X49.635 Y70.571 E2.17423
G1 X49.663 Y70.495 E2.17692
G1 X49.401 Y70.608 E2.18636
G1 X48.628 Y70.702 E2.21217
G1 X48.179 Y70.675 E2.22705
G1 X47.711 Y70.571 E2.24295
G1 X45.103 Y70.571 E2.32933
G1 X44.712 Y69.483 E2.36763
G1 X44.201 Y69.483 E2.38457
G1 X43.832 Y70.571 E2.42263
G1 X41.389 Y70.571 E2.50356
G1 X43.644 Y64.251 E2.72588
G1 X45.331 Y64.251 E2.78176
G1 X45.952 Y65.992 E2.84301
G1 X46.068 Y65.988 E2.84686
G1 X46.128 Y65.777 E2.85412
G1 X46.526 Y65.103 E2.88008
G1 X47.099 Y64.585 E2.90566
G1 X47.809 Y64.278 E2.93128
G1 X48.586 Y64.184 E2.95721
G1 X49.030 Y64.211 E2.97196
G1 X49.435 Y64.292 E2.98565
G1 X49.814 Y64.433 E2.99902
G1 X50.157 Y64.627 E3.01210
G1 X50.462 Y64.872 E3.02504
G1 X50.721 Y65.161 E3.03791
G1 X50.934 Y65.484 E3.05074
G1 X51.102 Y65.837 E3.06368
G1 X51.154 Y65.994 E3.06917
G1 X51.268 Y65.996 E3.07295
G1 X51.890 Y64.251 E3.13433
G1 X53.577 Y64.251 E3.19021
G1 X54.579 Y67.060 E3.28903
G1 X54.717 Y67.028 E3.29372
G1 X54.702 Y66.895 E3.29818
G1 X54.738 Y66.574 E3.30887
G1 X54.859 Y66.262 E3.31996
G1 X55.069 Y65.993 E3.33127
G1 X55.342 Y65.798 E3.34240
G1 X55.648 Y65.687 E3.35316
G1 X55.959 Y65.655 E3.36352
G1 X56.276 Y65.686 E3.37408
G1 X56.586 Y65.795 E3.38497
G1 X56.863 Y65.991 E3.39622
G1 X57.075 Y66.260 E3.40755
G1 X57.197 Y66.573 E3.41868
G1 X57.233 Y66.895 E3.42941
G1 X57.198 Y67.216 E3.44013
G1 X57.077 Y67.528 E3.45119
G1 X56.868 Y67.799 E3.46253
G1 X56.592 Y67.999 E3.47385
G1 X56.335 Y68.091 E3.48286
G1 X56.336 Y68.203 E3.48660
G1 X56.586 Y68.291 E3.49540
G1 X56.863 Y68.487 E3.50664
G1 X57.075 Y68.756 E3.51798
G1 X57.197 Y69.069 E3.52910
G1 X57.233 Y69.391 E3.53983
G1 X57.198 Y69.712 E3.55056
G1 X57.077 Y70.024 E3.56162
G1 X56.868 Y70.295 E3.57295
G1 X56.591 Y70.495 E3.58428
G1 X56.279 Y70.607 E3.59527
G1 X55.959 Y70.639 E3.60593
G1 X55.645 Y70.606 E3.61639
G1 X55.551 Y70.571 E3.61970
G1 X53.409 Y70.571 E3.69065
G1 X53.536 Y70.306 F7800.000
G1 F1800.000
G1 X53.145 Y69.218 E3.72895
G1 X52.257 Y69.218 E3.75839
G1 X51.888 Y70.306 E3.79645
G1 X50.012 Y70.306 E3.85858
G1 X50.118 Y70.008 E3.86906
G1 X49.331 Y70.349 E3.89750
G1 X48.620 Y70.435 E3.92124
G1 X48.213 Y70.411 E3.93472
G1 X47.845 Y70.337 E3.94718
G1 X47.504 Y70.212 E3.95921
G1 X47.091 Y69.978 E3.97493
G1 X47.208 Y70.306 E3.98645
G1 X45.290 Y70.306 E4.04998
G1 X44.899 Y69.218 E4.08828
G1 X44.011 Y69.218 E4.11772
G1 X43.642 Y70.306 E4.15578
G1 X41.766 Y70.306 E4.21791
G1 X43.831 Y64.516 E4.42155
G1 X45.144 Y64.516 E4.46502
G1 X46.014 Y66.958 E4.55091
G1 X46.142 Y66.941 E4.55518
G1 X46.168 Y66.609 E4.56623
G1 X46.374 Y65.883 E4.59123
G1 X46.734 Y65.272 E4.61471
G1 X47.245 Y64.812 E4.63750
G1 X47.879 Y64.537 E4.66039
G1 X48.594 Y64.451 E4.68425
G1 X48.996 Y64.475 E4.69760
G1 X49.363 Y64.549 E4.70999
G1 X49.701 Y64.674 E4.72196
G1 X50.008 Y64.848 E4.73362
G1 X50.279 Y65.065 E4.74513
G1 X50.510 Y65.323 E4.75662
G1 X50.702 Y65.615 E4.76818
G1 X50.855 Y65.936 E4.77996
G1 X50.969 Y66.282 E4.79204
G1 X51.048 Y66.650 E4.80449
G1 X51.083 Y66.940 E4.81417
G1 X51.208 Y66.954 E4.81835
G1 X52.078 Y64.516 E4.90409
G1 X53.390 Y64.516 E4.94756
G1 X55.018 Y69.083 E5.10816
G1 X55.092 Y68.891 E5.11498
G1 X55.255 Y68.683 E5.12372
G1 X55.467 Y68.531 E5.13236
G1 X55.707 Y68.444 E5.14083
G1 X55.960 Y68.418 E5.14923
G1 X56.218 Y68.444 E5.15785
G1 X56.463 Y68.529 E5.16645
G1 X56.678 Y68.682 E5.17518
G1 X56.842 Y68.889 E5.18394
G1 X56.937 Y69.133 E5.19260
G1 X56.966 Y69.391 E5.20120
G1 X56.937 Y69.649 E5.20980
G1 X56.843 Y69.892 E5.21844
G1 X56.682 Y70.102 E5.22722
G1 X56.467 Y70.258 E5.23602
G1 X56.220 Y70.346 E5.24468
G1 X55.960 Y70.372 E5.25336
G1 X55.706 Y70.345 E5.26182
G1 X55.432 Y70.244 E5.27148
G1 X55.454 Y70.306 E5.27363
G1 X53.596 Y70.306 E5.33517
G1 E3.33517 F2400.00000
G92 E0
G1 X50.591 Y68.899 F7800.000
G1 E2.00000 F2400.00000
G1 F1800.000
G1 X50.267 Y69.445 E2.02105
G1 X49.818 Y69.849 E2.04104
G1 X49.261 Y70.090 E2.06116
G1 X48.611 Y70.169 E2.08282
G1 X48.247 Y70.147 E2.09491
G1 X47.917 Y70.081 E2.10607
G1 X47.616 Y69.970 E2.11670
G1 X47.347 Y69.818 E2.12694
G1 X47.111 Y69.628 E2.13699
G1 X46.908 Y69.400 E2.14708
G1 X46.740 Y69.140 E2.15734
G1 X46.604 Y68.851 E2.16792
G1 X46.500 Y68.534 E2.17898
G1 X46.427 Y68.192 E2.19055
G1 X46.384 Y67.829 E2.20268
G1 X46.369 Y67.440 E2.21558
G1 X46.431 Y66.656 E2.24162
G1 X46.620 Y65.988 E2.26462
G1 X46.942 Y65.442 E2.28561
G1 X47.390 Y65.038 E2.30561
G1 X47.949 Y64.796 E2.32578
G1 X48.602 Y64.717 E2.34756
G1 X48.962 Y64.739 E2.35951
G1 X49.290 Y64.805 E2.37060
G1 X49.589 Y64.916 E2.38117
G1 X49.858 Y65.068 E2.39142
G1 X50.096 Y65.259 E2.40150
G1 X50.300 Y65.486 E2.41161
G1 X50.470 Y65.745 E2.42191
G1 X50.608 Y66.035 E2.43251
G1 X50.712 Y66.352 E2.44358
G1 X50.785 Y66.694 E2.45516
G1 X50.829 Y67.057 E2.46729
G1 X50.844 Y67.446 E2.48019
G1 X50.782 Y68.230 E2.50624
G1 X50.607 Y68.841 E2.52728
G1 X50.827 Y69.221 F7800.000
G1 E0.52728 F2400.00000
G92 E0
G1 X46.831 Y70.040 F7800.000
G1 E2.00000 F2400.00000
G1 F1800.000
G1 X45.477 Y70.040 E2.04486
G1 X45.086 Y68.952 E2.08316
G1 X43.820 Y68.952 E2.12509
G1 X43.451 Y70.040 E2.16315
G1 X42.143 Y70.040 E2.20650
G1 X44.019 Y64.782 E2.39145
G1 X44.956 Y64.782 E2.42251
G1 X46.811 Y69.983 E2.60546
G1 X46.896 Y70.435 F7800.000
G1 E0.60546 F2400.00000
G92 E0
G1 X50.389 Y70.040 F7800.000
G1 E2.00000 F2400.00000
G1 F1800.000
G1 X52.265 Y64.782 E2.18495
G1 X53.202 Y64.782 E2.21601
G1 X55.077 Y70.040 E2.40095
G1 X53.723 Y70.040 E2.44580
G1 X53.332 Y68.952 E2.48410
G1 X52.066 Y68.952 E2.52604
G1 X51.697 Y70.040 E2.56410
G1 X50.449 Y70.040 E2.60546
G1 X49.989 Y70.025 F7800.000
G1 E0.60546 F2400.00000
G92 E0
G1 X56.609 Y69.023 F7800.000
G1 E2.00000 F2400.00000
G1 F1800.000
G1 X56.677 Y69.197 E2.00620
G1 X56.699 Y69.391 E2.01266
G1 X56.677 Y69.585 E2.01914
G1 X56.609 Y69.761 E2.02537
G1 X56.495 Y69.910 E2.03160
G1 X56.342 Y70.020 E2.03785
G1 X56.161 Y70.085 E2.04420
G1 X55.960 Y70.105 E2.05089
G1 X55.766 Y70.084 E2.05735
G1 X55.590 Y70.020 E2.06356
G1 X55.439 Y69.909 E2.06977
G1 X55.325 Y69.760 E2.07598
G1 X55.258 Y69.585 E2.08220
G1 X55.237 Y69.391 E2.08867
G1 X55.258 Y69.197 E2.09512
G1 X55.326 Y69.023 E2.10131
G1 X55.440 Y68.877 E2.10748
G1 X55.592 Y68.768 E2.11364
G1 X55.767 Y68.705 E2.11982
G1 X55.960 Y68.685 E2.12625
G1 X56.161 Y68.705 E2.13292
G1 X56.340 Y68.768 E2.13924
G1 X56.493 Y68.876 E2.14545
G1 X56.572 Y68.976 E2.14964
G1 X56.796 Y69.024 F7800.000
G1 X56.220 Y67.850 F7800.000
G1 F1800.000
G1 X55.960 Y67.876 E2.15832
G1 X55.706 Y67.849 E2.16678
G1 X55.464 Y67.760 E2.17532
G1 X55.251 Y67.605 E2.18402
G1 X55.091 Y67.395 E2.19278
G1 X54.998 Y67.152 E2.20140
G1 X54.969 Y66.895 E2.20998
G1 X54.998 Y66.638 E2.21855
G1 X55.092 Y66.395 E2.22719
G1 X55.255 Y66.187 E2.23593
G1 X55.467 Y66.035 E2.24457
G1 X55.707 Y65.948 E2.25304
G1 X55.960 Y65.922 E2.26144
G1 X56.218 Y65.948 E2.27006
G1 X56.463 Y66.033 E2.27866
G1 X56.678 Y66.186 E2.28739
G1 X56.842 Y66.393 E2.29615
G1 X56.937 Y66.637 E2.30481
G1 X56.966 Y66.895 E2.31341
G1 X56.937 Y67.153 E2.32201
G1 X56.843 Y67.396 E2.33065
G1 X56.682 Y67.606 E2.33943
G1 X56.467 Y67.762 E2.34822
G1 X56.277 Y67.830 E2.35491
G1 X56.609 Y66.527 F7800.000
G1 F1800.000
G1 X56.677 Y66.701 E2.36111
G1 X56.699 Y66.895 E2.36757
G1 X56.677 Y67.089 E2.37405
G1 X56.609 Y67.265 E2.38028
G1 X56.495 Y67.414 E2.38650
G1 X56.342 Y67.524 E2.39276
G1 X56.161 Y67.589 E2.39910
G1 X55.960 Y67.609 E2.40580
G1 X55.766 Y67.588 E2.41226
G1 X55.590 Y67.524 E2.41847
G1 X55.439 Y67.413 E2.42468
G1 X55.325 Y67.264 E2.43089
G1 X55.258 Y67.089 E2.43710
G1 X55.237 Y66.895 E2.44358
G1 X55.258 Y66.701 E2.45003
G1 X55.326 Y66.527 E2.45622
G1 X55.440 Y66.381 E2.46238
G1 X55.592 Y66.272 E2.46855
G1 X55.767 Y66.209 E2.47472
G1 X55.960 Y66.189 E2.48116
G1 X56.161 Y66.209 E2.48783
G1 X56.340 Y66.272 E2.49415
G1 X56.493 Y66.380 E2.50036
G1 X56.572 Y66.480 E2.50455
G1 X56.796 Y66.528 F7800.000
G1 X57.746 Y66.031 F7800.000
G1 F1800.000
G1 X60.051 Y64.187 E2.60236
G1 X61.501 Y64.187 E2.65038
G1 X61.501 Y68.411 E2.79032
G1 X62.179 Y68.411 E2.81279
G1 X62.343 Y68.294 E2.81946
G1 X62.649 Y68.183 E2.83022
G1 X62.960 Y68.151 E2.84058
G1 X63.277 Y68.182 E2.85114
G1 X63.587 Y68.291 E2.86204
G1 X63.924 Y68.530 E2.87570
G1 X63.992 Y68.312 E2.88325
G1 X63.912 Y68.315 E2.88592
G1 X63.912 Y64.315 E3.01845
G1 X67.705 Y64.315 E3.14410
G1 X67.705 Y66.539 E3.21779
G1 X67.024 Y66.539 E3.24033
G1 X67.261 Y66.747 E3.25076
G1 X67.447 Y66.965 E3.26026
G1 X67.600 Y67.210 E3.26981
G1 X67.717 Y67.473 E3.27937
G1 X67.801 Y67.753 E3.28904
G1 X67.850 Y68.044 E3.29883
G1 X67.866 Y68.346 E3.30885
G1 X67.845 Y68.694 E3.32038
G1 X67.780 Y69.031 E3.33176
G1 X67.667 Y69.348 E3.34291
G1 X67.513 Y69.636 E3.35372
G1 X67.321 Y69.895 E3.36439
G1 X67.093 Y70.119 E3.37501
G1 X66.838 Y70.305 E3.38545
G1 X66.562 Y70.453 E3.39584
G1 X66.268 Y70.564 E3.40625
G1 X65.963 Y70.641 E3.41666
G1 X65.638 Y70.687 E3.42753
G1 X65.082 Y70.694 E3.44596
G1 X64.597 Y70.633 E3.46215
G1 X64.169 Y70.519 E3.47684
G1 X63.781 Y70.358 E3.49073
G1 X63.592 Y70.495 E3.49846
G1 X63.280 Y70.607 E3.50946
G1 X62.960 Y70.639 E3.52012
G1 X62.646 Y70.606 E3.53058
G1 X62.450 Y70.534 E3.53749
G1 X62.450 Y70.571 E3.53873
G1 X58.274 Y70.571 E3.67706
G1 X58.274 Y68.411 E3.74864
G1 X59.243 Y68.411 E3.78074
G1 X59.243 Y67.412 E3.81384
G1 X58.927 Y67.627 E3.82652
G1 X57.782 Y66.079 E3.89029
G1 X58.112 Y66.079 F7800.000
G1 F1800.000
G1 X60.145 Y64.452 E3.97654
G1 X61.235 Y64.452 E4.01267
G1 X61.235 Y68.676 E4.15261
G1 X62.264 Y68.676 E4.18671
G1 X62.468 Y68.531 E4.19499
G1 X62.708 Y68.444 E4.20346
G1 X62.960 Y68.418 E4.21185
G1 X63.219 Y68.444 E4.22047
G1 X63.464 Y68.529 E4.22908
G1 X63.679 Y68.682 E4.23780
G1 X63.843 Y68.889 E4.24656
G1 X63.917 Y69.079 E4.25332
G1 X64.030 Y69.076 E4.25705
G1 X64.215 Y68.488 E4.27747
G1 X64.938 Y68.710 E4.30251
G1 X65.156 Y68.735 E4.30980
G1 X65.522 Y68.719 E4.32192
G1 X65.647 Y68.681 E4.32625
G1 X65.728 Y68.628 E4.32947
G1 X65.779 Y68.567 E4.33210
G1 X65.813 Y68.484 E4.33506
G1 X65.827 Y68.360 E4.33920
G1 X65.811 Y68.234 E4.34341
G1 X65.780 Y68.170 E4.34578
G1 X65.727 Y68.119 E4.34819
G1 X65.613 Y68.064 E4.35241
G1 X65.422 Y68.020 E4.35889
G1 X65.154 Y68.002 E4.36781
G1 X64.178 Y68.039 E4.40017
G1 X64.178 Y64.580 E4.51476
G1 X67.439 Y64.580 E4.62280
G1 X67.439 Y66.274 E4.67890
G1 X66.056 Y66.274 E4.72472
G1 X66.045 Y66.422 E4.72963
G1 X66.201 Y66.444 E4.73484
G1 X66.454 Y66.528 E4.74366
G1 X66.679 Y66.636 E4.75195
G1 X66.886 Y66.771 E4.76014
G1 X67.071 Y66.934 E4.76830
G1 X67.232 Y67.123 E4.77652
G1 X67.365 Y67.335 E4.78481
G1 X67.468 Y67.566 E4.79319
G1 X67.542 Y67.813 E4.80174
G1 X67.585 Y68.073 E4.81047
G1 X67.600 Y68.345 E4.81951
G1 X67.581 Y68.660 E4.82996
G1 X67.523 Y68.961 E4.84010
G1 X67.423 Y69.240 E4.84993
G1 X67.288 Y69.493 E4.85943
G1 X67.120 Y69.720 E4.86877
G1 X66.921 Y69.916 E4.87805
G1 X66.697 Y70.080 E4.88724
G1 X66.452 Y70.211 E4.89644
G1 X66.188 Y70.311 E4.90577
G1 X65.912 Y70.380 E4.91521
G1 X65.618 Y70.422 E4.92504
G1 X65.097 Y70.428 E4.94230
G1 X64.648 Y70.372 E4.95730
G1 X64.254 Y70.267 E4.97080
G1 X63.725 Y70.047 E4.98979
G1 X63.682 Y70.102 E4.99209
G1 X63.467 Y70.258 E5.00088
G1 X63.221 Y70.346 E5.00955
G1 X62.960 Y70.372 E5.01823
G1 X62.706 Y70.345 E5.02669
G1 X62.465 Y70.256 E5.03522
G1 X62.184 Y70.051 E5.04672
G1 X62.184 Y70.306 E5.05514
G1 X58.540 Y70.306 E5.17587
G1 X58.540 Y68.676 E5.22985
G1 X59.509 Y68.676 E5.26195
G1 X59.509 Y66.910 E5.32047
G1 X58.988 Y67.264 E5.34132
G1 X58.148 Y66.127 E5.38816
G1 E3.38816 F2400.00000
G92 E0
G1 X64.443 Y64.846 F7800.000
G1 E2.00000 F2400.00000
G1 F1800.000
G1 X67.173 Y64.846 E2.09044
G1 X67.173 Y66.008 E2.12894
G1 X65.554 Y66.008 E2.18258
G1 X65.554 Y66.649 E2.20381
G1 X65.679 Y66.637 E2.20797
G1 X66.140 Y66.704 E2.22338
G1 X66.354 Y66.775 E2.23087
G1 X66.549 Y66.868 E2.23801
G1 X66.725 Y66.983 E2.24499
G1 X66.881 Y67.121 E2.25190
G1 X67.017 Y67.280 E2.25884
G1 X67.130 Y67.460 E2.26587
G1 X67.218 Y67.658 E2.27306
G1 X67.283 Y67.873 E2.28049
G1 X67.321 Y68.102 E2.28818
G1 X67.334 Y68.345 E2.29622
G1 X67.317 Y68.627 E2.30560
G1 X67.266 Y68.891 E2.31449
G1 X67.180 Y69.133 E2.32301
G1 X67.063 Y69.351 E2.33120
G1 X66.919 Y69.545 E2.33920
G1 X66.748 Y69.713 E2.34715
G1 X66.555 Y69.854 E2.35508
G1 X66.341 Y69.969 E2.36310
G1 X66.109 Y70.057 E2.37134
G1 X65.861 Y70.119 E2.37981
G1 X65.598 Y70.156 E2.38862
G1 X65.112 Y70.162 E2.40471
G1 X64.699 Y70.110 E2.41851
G1 X64.339 Y70.015 E2.43082
G1 X64.049 Y69.894 E2.44123
G1 X64.389 Y68.819 E2.47858
G1 X64.883 Y68.971 E2.49570
G1 X65.147 Y69.001 E2.50449
G1 X65.568 Y68.983 E2.51845
G1 X65.760 Y68.924 E2.52512
G1 X65.907 Y68.829 E2.53090
G1 X66.010 Y68.705 E2.53624
G1 X66.073 Y68.551 E2.54176
G1 X66.095 Y68.358 E2.54819
G1 X66.069 Y68.158 E2.55488
G1 X65.999 Y68.010 E2.56029
G1 X65.880 Y67.898 E2.56569
G1 X65.702 Y67.812 E2.57225
G1 X65.461 Y67.756 E2.58045
G1 X65.157 Y67.736 E2.59055
G1 X64.443 Y67.763 E2.61421
G1 X64.443 Y64.906 E2.70888
G1 X64.411 Y64.447 F7800.000
G1 E0.70888 F2400.00000
G92 E0
G1 X63.610 Y69.023 F7800.000
G1 E2.00000 F2400.00000
G1 F1800.000
G1 X63.678 Y69.197 E2.00620
G1 X63.699 Y69.391 E2.01266
G1 X63.678 Y69.585 E2.01914
G1 X63.610 Y69.761 E2.02537
G1 X63.495 Y69.910 E2.03160
G1 X63.343 Y70.020 E2.03785
G1 X63.162 Y70.085 E2.04419
G1 X62.961 Y70.105 E2.05089
G1 X62.767 Y70.084 E2.05735
G1 X62.591 Y70.020 E2.06356
G1 X62.440 Y69.909 E2.06976
G1 X62.326 Y69.760 E2.07598
G1 X62.259 Y69.585 E2.08220
G1 X62.237 Y69.391 E2.08867
G1 X62.259 Y69.197 E2.09512
G1 X62.326 Y69.023 E2.10131
G1 X62.441 Y68.877 E2.10748
G1 X62.592 Y68.768 E2.11364
G1 X62.768 Y68.705 E2.11982
G1 X62.961 Y68.685 E2.12625
G1 X63.161 Y68.705 E2.13292
G1 X63.341 Y68.768 E2.13924
G1 X63.494 Y68.876 E2.14545
G1 X63.573 Y68.976 E2.14964
G1 X63.797 Y69.024 F7800.000
G1 X61.919 Y68.942 F7800.000
G1 F1800.000
G1 X61.919 Y70.040 E2.18602
G1 X58.806 Y70.040 E2.28915
G1 X58.806 Y68.942 E2.32553
G1 X59.775 Y68.942 E2.35763
G1 X59.775 Y66.408 E2.44157
G1 X59.050 Y66.901 E2.47058
G1 X58.477 Y66.126 E2.50249
G1 X60.238 Y64.718 E2.57717
G1 X60.970 Y64.718 E2.60142
G1 X60.970 Y68.942 E2.74136
G1 X61.859 Y68.942 E2.77081
