; Gcode updated with 'stl_info' on 2019-12-05 16:51:22.330252

; stl_min_x = -20.0
; stl_max_x = 102.48400115966797
; stl_min_y = -40.5
; stl_max_y = 40.5
; stl_min_z = 0.0

; generated by Slic3r 1.3.1-dev (Build adea0d9) on 2019-12-05 at 16:51:21

; external perimeters extrusion width = 0.44mm (2.86mm^3/s)
; perimeters extrusion width = 0.56mm (4.14mm^3/s)
; infill extrusion width = 0.50mm (3.66mm^3/s)
; solid infill extrusion width = 0.56mm (3.10mm^3/s)
; top infill extrusion width = 0.56mm (3.10mm^3/s)

M107
G92 E0
;D3D:START:START
T0
M104 S215 T0

G21
G90
M107
T0
G28
G29
M109 T0 S215 T0
G0 F3000
M107
T0
G92 E0
G0 X0 Y149 Z0.1 F3600
G1 Y49 E6.5 F1200
G0 Z1
G92 E0
; Filament gcode

G21 ; set units to millimeters
G90 ; use absolute coordinates
M82 ; use absolute distances for extrusion
G92 E0
G1 Z0.300 F7800.000
G1 E-2.00000 F2400.00000
G92 E0
G1 X47.243 Y87.216 F7800.000
G1 E2.00000 F2400.00000
G1 F1800.000
G1 X48.122 Y86.931 E2.03063
G1 X49.047 Y86.931 E2.06126
G1 X49.926 Y87.216 E2.09189
G1 X50.674 Y87.760 E2.12251
G1 X51.217 Y88.508 E2.15314
G1 X51.503 Y89.387 E2.18377
G1 X51.503 Y90.311 E2.21440
G1 X51.217 Y91.191 E2.24503
G1 X50.674 Y91.939 E2.27565
G1 X49.926 Y92.482 E2.30628
G1 X49.046 Y92.768 E2.33691
G1 X48.122 Y92.768 E2.36754
G1 X47.243 Y92.482 E2.39816
G1 X46.495 Y91.939 E2.42879
G1 X45.951 Y91.191 E2.45942
G1 X45.666 Y90.312 E2.49005
G1 X45.666 Y89.387 E2.52068
G1 X45.951 Y88.508 E2.55131
G1 X46.495 Y87.760 E2.58193
G1 X47.194 Y87.252 E2.61057
G1 X47.365 Y87.456 F7800.000
G1 F1800.000
G1 X48.164 Y87.196 E2.63842
G1 X49.004 Y87.196 E2.66626
G1 X49.804 Y87.456 E2.69410
G1 X50.483 Y87.950 E2.72194
G1 X50.977 Y88.630 E2.74978
G1 X51.237 Y89.429 E2.77762
G1 X51.237 Y90.269 E2.80546
G1 X50.977 Y91.069 E2.83330
G1 X50.483 Y91.748 E2.86114
G1 X49.804 Y92.242 E2.88898
G1 X49.004 Y92.502 E2.91682
G1 X48.164 Y92.502 E2.94466
G1 X47.365 Y92.242 E2.97250
G1 X46.685 Y91.748 E3.00034
G1 X46.191 Y91.069 E3.02818
G1 X45.931 Y90.269 E3.05602
G1 X45.931 Y89.429 E3.08386
G1 X46.191 Y88.630 E3.11170
G1 X46.685 Y87.950 E3.13954
G1 X47.316 Y87.491 E3.16540
G1 X47.487 Y87.696 F7800.000
G1 F1800.000
G1 X48.206 Y87.462 E3.19045
G1 X48.962 Y87.462 E3.21550
G1 X49.682 Y87.696 E3.24056
G1 X50.293 Y88.140 E3.26561
G1 X50.738 Y88.752 E3.29066
G1 X50.972 Y89.471 E3.31572
G1 X50.972 Y90.227 E3.34077
G1 X50.738 Y90.947 E3.36582
G1 X50.293 Y91.558 E3.39087
G1 X49.682 Y92.003 E3.41593
G1 X48.962 Y92.237 E3.44098
G1 X48.206 Y92.237 E3.46603
G1 X47.487 Y92.003 E3.49109
G1 X46.875 Y91.558 E3.51614
G1 X46.431 Y90.947 E3.54119
G1 X46.197 Y90.227 E3.56625
G1 X46.197 Y89.471 E3.59130
G1 X46.431 Y88.752 E3.61635
G1 X46.875 Y88.140 E3.64140
G1 X47.438 Y87.731 E3.66447
G1 E1.66447 F2400.00000
G92 E0
G1 X40.025 Y80.372 F7800.000
G1 E2.00000 F2400.00000
G1 F1800.000
G1 X39.584 Y80.849 E2.02152
G1 X39.107 Y81.290 E2.04304
G1 X38.597 Y81.692 E2.06455
G1 X38.057 Y82.053 E2.08607
G1 X37.490 Y82.370 E2.10759
G1 X36.900 Y82.642 E2.12911
G1 X36.291 Y82.867 E2.15062
G1 X35.666 Y83.043 E2.17214
G1 X35.029 Y83.170 E2.19366
G1 X34.384 Y83.246 E2.21518
G1 X33.735 Y83.272 E2.23669
G1 X33.086 Y83.246 E2.25821
G1 X32.441 Y83.170 E2.27973
G1 X31.804 Y83.043 E2.30125
G1 X31.179 Y82.867 E2.32276
G1 X30.570 Y82.642 E2.34428
G1 X29.980 Y82.370 E2.36580
G1 X29.413 Y82.053 E2.38732
G1 X28.873 Y81.692 E2.40883
G1 X28.363 Y81.290 E2.43035
G1 X27.886 Y80.849 E2.45187
G1 X27.445 Y80.372 E2.47339
G1 X27.043 Y79.862 E2.49490
G1 X26.682 Y79.322 E2.51642
G1 X26.365 Y78.755 E2.53794
G1 X26.093 Y78.165 E2.55946
G1 X25.868 Y77.556 E2.58097
G1 X25.692 Y76.931 E2.60249
G1 X25.565 Y76.294 E2.62401
G1 X25.489 Y75.649 E2.64553
G1 X25.463 Y75.000 E2.66704
G1 X25.489 Y74.351 E2.68856
G1 X25.565 Y73.706 E2.71008
G1 X25.692 Y73.069 E2.73160
G1 X25.868 Y72.444 E2.75311
G1 X26.093 Y71.835 E2.77463
G1 X26.365 Y71.245 E2.79615
G1 X26.682 Y70.678 E2.81767
G1 X27.043 Y70.138 E2.83918
G1 X27.445 Y69.628 E2.86070
G1 X27.886 Y69.151 E2.88222
G1 X28.363 Y68.710 E2.90374
G1 X28.873 Y68.308 E2.92525
G1 X29.413 Y67.947 E2.94677
G1 X29.980 Y67.630 E2.96829
G1 X30.570 Y67.358 E2.98981
G1 X31.179 Y67.133 E3.01132
G1 X31.804 Y66.957 E3.03284
G1 X32.441 Y66.830 E3.05436
G1 X33.086 Y66.754 E3.07588
G1 X33.735 Y66.728 E3.09739
G1 X34.384 Y66.754 E3.11891
G1 X35.029 Y66.830 E3.14043
G1 X35.666 Y66.957 E3.16195
G1 X36.291 Y67.133 E3.18346
G1 X36.900 Y67.358 E3.20498
G1 X37.490 Y67.630 E3.22650
G1 X38.057 Y67.947 E3.24802
G1 X38.597 Y68.308 E3.26953
G1 X39.107 Y68.710 E3.29105
G1 X39.584 Y69.151 E3.31257
G1 X40.025 Y69.628 E3.33409
G1 X40.427 Y70.138 E3.35560
G1 X40.788 Y70.678 E3.37712
G1 X41.105 Y71.245 E3.39864
G1 X41.377 Y71.835 E3.42016
G1 X41.602 Y72.444 E3.44167
G1 X41.778 Y73.069 E3.46319
G1 X41.905 Y73.706 E3.48471
G1 X41.981 Y74.351 E3.50623
G1 X42.007 Y75.000 E3.52774
G1 X41.981 Y75.649 E3.54926
G1 X41.905 Y76.294 E3.57078
G1 X41.778 Y76.931 E3.59230
G1 X41.602 Y77.556 E3.61381
G1 X41.377 Y78.165 E3.63533
G1 X41.105 Y78.755 E3.65685
G1 X40.788 Y79.322 E3.67837
G1 X40.427 Y79.862 E3.69988
G1 X40.062 Y80.325 E3.71941
G1 X39.823 Y80.199 F7800.000
G1 F1800.000
G1 X39.396 Y80.661 E3.74024
G1 X38.934 Y81.088 E3.76107
G1 X38.441 Y81.477 E3.78189
G1 X37.918 Y81.826 E3.80272
G1 X37.370 Y82.133 E3.82354
G1 X36.799 Y82.397 E3.84437
G1 X36.209 Y82.614 E3.86520
G1 X35.604 Y82.785 E3.88602
G1 X34.987 Y82.907 E3.90685
G1 X34.363 Y82.981 E3.92767
G1 X33.735 Y83.006 E3.94850
G1 X33.107 Y82.981 E3.96933
G1 X32.483 Y82.907 E3.99015
G1 X31.866 Y82.785 E4.01098
G1 X31.261 Y82.614 E4.03180
G1 X30.671 Y82.397 E4.05263
G1 X30.100 Y82.133 E4.07346
G1 X29.552 Y81.826 E4.09428
G1 X29.029 Y81.477 E4.11511
G1 X28.536 Y81.088 E4.13593
G1 X28.074 Y80.661 E4.15676
G1 X27.647 Y80.199 E4.17759
G1 X27.258 Y79.706 E4.19841
G1 X26.909 Y79.183 E4.21924
G1 X26.602 Y78.635 E4.24006
G1 X26.338 Y78.064 E4.26089
G1 X26.121 Y77.474 E4.28172
G1 X25.950 Y76.869 E4.30254
G1 X25.828 Y76.252 E4.32337
G1 X25.754 Y75.628 E4.34419
G1 X25.729 Y75.000 E4.36502
G1 X25.754 Y74.372 E4.38585
G1 X25.828 Y73.748 E4.40667
G1 X25.950 Y73.131 E4.42750
G1 X26.121 Y72.526 E4.44832
G1 X26.338 Y71.936 E4.46915
G1 X26.602 Y71.365 E4.48998
G1 X26.909 Y70.817 E4.51080
G1 X27.258 Y70.294 E4.53163
G1 X27.647 Y69.801 E4.55245
G1 X28.074 Y69.339 E4.57328
G1 X28.536 Y68.912 E4.59411
G1 X29.029 Y68.523 E4.61493
G1 X29.552 Y68.174 E4.63576
G1 X30.100 Y67.867 E4.65659
G1 X30.671 Y67.603 E4.67741
G1 X31.261 Y67.386 E4.69824
G1 X31.866 Y67.215 E4.71906
G1 X32.483 Y67.093 E4.73989
G1 X33.107 Y67.019 E4.76072
G1 X33.735 Y66.994 E4.78154
G1 X34.363 Y67.019 E4.80237
G1 X34.987 Y67.093 E4.82319
G1 X35.604 Y67.215 E4.84402
G1 X36.209 Y67.386 E4.86485
G1 X36.799 Y67.603 E4.88567
G1 X37.370 Y67.867 E4.90650
G1 X37.918 Y68.174 E4.92732
G1 X38.441 Y68.523 E4.94815
G1 X38.934 Y68.912 E4.96898
G1 X39.396 Y69.339 E4.98980
G1 X39.823 Y69.801 E5.01063
G1 X40.212 Y70.294 E5.03145
G1 X40.561 Y70.817 E5.05228
G1 X40.868 Y71.365 E5.07311
G1 X41.132 Y71.936 E5.09393
G1 X41.349 Y72.526 E5.11476
G1 X41.520 Y73.131 E5.13558
G1 X41.642 Y73.748 E5.15641
G1 X41.716 Y74.372 E5.17724
G1 X41.741 Y75.000 E5.19806
G1 X41.716 Y75.628 E5.21889
G1 X41.642 Y76.252 E5.23971
G1 X41.520 Y76.869 E5.26054
G1 X41.349 Y77.474 E5.28137
G1 X41.132 Y78.064 E5.30219
G1 X40.868 Y78.635 E5.32302
G1 X40.561 Y79.183 E5.34384
G1 X40.212 Y79.706 E5.36467
G1 X39.860 Y80.152 E5.38351
G1 X39.621 Y80.027 F7800.000
G1 F1800.000
G1 X39.208 Y80.473 E5.40364
G1 X38.762 Y80.886 E5.42378
G1 X38.285 Y81.262 E5.44391
G1 X37.779 Y81.600 E5.46405
G1 X37.249 Y81.897 E5.48418
G1 X36.697 Y82.151 E5.50432
G1 X36.127 Y82.361 E5.52445
G1 X35.542 Y82.526 E5.54458
G1 X34.946 Y82.645 E5.56472
G1 X34.342 Y82.716 E5.58485
G1 X33.735 Y82.740 E5.60499
G1 X33.128 Y82.716 E5.62512
G1 X32.524 Y82.645 E5.64526
G1 X31.928 Y82.526 E5.66539
G1 X31.343 Y82.361 E5.68553
G1 X30.773 Y82.151 E5.70566
G1 X30.221 Y81.897 E5.72580
G1 X29.691 Y81.600 E5.74593
G1 X29.185 Y81.262 E5.76606
G1 X28.708 Y80.886 E5.78620
G1 X28.262 Y80.473 E5.80633
G1 X27.849 Y80.027 E5.82647
G1 X27.473 Y79.550 E5.84660
G1 X27.135 Y79.044 E5.86674
G1 X26.838 Y78.514 E5.88687
G1 X26.584 Y77.962 E5.90701
G1 X26.374 Y77.392 E5.92714
G1 X26.209 Y76.807 E5.94728
G1 X26.090 Y76.211 E5.96741
G1 X26.019 Y75.607 E5.98754
G1 X25.995 Y75.000 E6.00768
G1 X26.019 Y74.393 E6.02781
G1 X26.090 Y73.789 E6.04795
G1 X26.209 Y73.193 E6.06808
G1 X26.374 Y72.608 E6.08822
G1 X26.584 Y72.038 E6.10835
G1 X26.838 Y71.486 E6.12849
G1 X27.135 Y70.956 E6.14862
G1 X27.473 Y70.450 E6.16876
G1 X27.849 Y69.973 E6.18889
G1 X28.262 Y69.527 E6.20902
G1 X28.708 Y69.114 E6.22916
G1 X29.185 Y68.738 E6.24929
G1 X29.691 Y68.400 E6.26943
G1 X30.221 Y68.103 E6.28956
G1 X30.773 Y67.849 E6.30970
G1 X31.343 Y67.639 E6.32983
G1 X31.928 Y67.474 E6.34997
G1 X32.524 Y67.355 E6.37010
G1 X33.128 Y67.284 E6.39024
G1 X33.735 Y67.260 E6.41037
G1 X34.342 Y67.284 E6.43050
G1 X34.946 Y67.355 E6.45064
G1 X35.542 Y67.474 E6.47077
G1 X36.127 Y67.639 E6.49091
G1 X36.697 Y67.849 E6.51104
G1 X37.249 Y68.103 E6.53118
G1 X37.779 Y68.400 E6.55131
G1 X38.285 Y68.738 E6.57145
G1 X38.762 Y69.114 E6.59158
G1 X39.208 Y69.527 E6.61171
G1 X39.621 Y69.973 E6.63185
G1 X39.997 Y70.450 E6.65198
G1 X40.335 Y70.956 E6.67212
G1 X40.632 Y71.486 E6.69225
G1 X40.886 Y72.038 E6.71239
G1 X41.096 Y72.608 E6.73252
G1 X41.261 Y73.193 E6.75266
G1 X41.380 Y73.789 E6.77279
G1 X41.451 Y74.393 E6.79293
G1 X41.475 Y75.000 E6.81306
G1 X41.451 Y75.607 E6.83319
G1 X41.380 Y76.211 E6.85333
G1 X41.261 Y76.807 E6.87346
G1 X41.096 Y77.392 E6.89360
G1 X40.886 Y77.962 E6.91373
G1 X40.632 Y78.514 E6.93387
G1 X40.335 Y79.044 E6.95400
G1 X39.997 Y79.550 E6.97414
G1 X39.658 Y79.980 E6.99228
G1 E4.99228 F2400.00000
G92 E0
G1 X20.975 Y62.240 F7800.000
G1 E2.00000 F2400.00000
G1 F1800.000
G1 X20.227 Y62.784 E2.03063
G1 X19.348 Y63.069 E2.06126
G1 X18.423 Y63.069 E2.09189
G1 X17.544 Y62.784 E2.12251
G1 X16.796 Y62.240 E2.15314
G1 X16.253 Y61.492 E2.18377
G1 X15.967 Y60.613 E2.21440
G1 X15.967 Y59.689 E2.24502
G1 X16.253 Y58.809 E2.27565
G1 X16.796 Y58.061 E2.30628
G1 X17.544 Y57.518 E2.33691
G1 X18.424 Y57.232 E2.36754
G1 X19.348 Y57.232 E2.39816
G1 X20.227 Y57.518 E2.42879
G1 X20.975 Y58.061 E2.45942
G1 X21.519 Y58.809 E2.49005
G1 X21.804 Y59.688 E2.52068
G1 X21.804 Y60.613 E2.55130
G1 X21.519 Y61.492 E2.58193
G1 X21.010 Y62.192 E2.61057
G1 X20.785 Y62.050 F7800.000
G1 F1800.000
G1 X20.105 Y62.544 E2.63841
G1 X19.306 Y62.804 E2.66626
G1 X18.466 Y62.804 E2.69410
G1 X17.666 Y62.544 E2.72194
G1 X16.987 Y62.050 E2.74978
G1 X16.493 Y61.370 E2.77762
G1 X16.233 Y60.571 E2.80546
G1 X16.233 Y59.731 E2.83330
G1 X16.493 Y58.931 E2.86114
G1 X16.987 Y58.252 E2.88898
G1 X17.666 Y57.758 E2.91682
G1 X18.466 Y57.498 E2.94466
G1 X19.306 Y57.498 E2.97250
G1 X20.105 Y57.758 E3.00034
G1 X20.785 Y58.252 E3.02818
G1 X21.279 Y58.931 E3.05602
G1 X21.539 Y59.731 E3.08386
G1 X21.539 Y60.571 E3.11170
G1 X21.279 Y61.370 E3.13954
G1 X20.820 Y62.001 E3.16540
G1 X20.595 Y61.860 F7800.000
G1 F1800.000
G1 X19.983 Y62.304 E3.19045
G1 X19.264 Y62.538 E3.21550
G1 X18.508 Y62.538 E3.24056
G1 X17.788 Y62.304 E3.26561
G1 X17.177 Y61.860 E3.29066
G1 X16.732 Y61.248 E3.31572
G1 X16.498 Y60.529 E3.34077
G1 X16.498 Y59.773 E3.36582
G1 X16.732 Y59.053 E3.39087
G1 X17.177 Y58.442 E3.41593
G1 X17.788 Y57.997 E3.44098
G1 X18.508 Y57.764 E3.46603
G1 X19.264 Y57.764 E3.49108
G1 X19.983 Y57.997 E3.51614
G1 X20.595 Y58.442 E3.54119
G1 X21.039 Y59.053 E3.56624
G1 X21.273 Y59.773 E3.59130
G1 X21.273 Y60.529 E3.61635
G1 X21.039 Y61.248 E3.64140
G1 X20.630 Y61.811 E3.66447
G1 E1.66447 F2400.00000
G92 E0
G1 X19.348 Y86.931 F7800.000
G1 E2.00000 F2400.00000
G1 F1800.000
G1 X20.227 Y87.216 E2.03063
G1 X20.975 Y87.760 E2.06126
G1 X21.519 Y88.508 E2.09188
G1 X21.804 Y89.387 E2.12251
G1 X21.804 Y90.312 E2.15314
G1 X21.519 Y91.191 E2.18377
G1 X20.975 Y91.939 E2.21440
G1 X20.227 Y92.482 E2.24503
G1 X19.348 Y92.768 E2.27565
G1 X18.424 Y92.768 E2.30628
G1 X17.544 Y92.482 E2.33691
G1 X16.796 Y91.939 E2.36754
G1 X16.253 Y91.191 E2.39817
G1 X15.967 Y90.311 E2.42879
G1 X15.967 Y89.387 E2.45942
G1 X16.253 Y88.508 E2.49005
G1 X16.796 Y87.760 E2.52068
G1 X17.544 Y87.216 E2.55130
G1 X18.423 Y86.931 E2.58193
G1 X19.288 Y86.931 E2.61057
G1 X19.306 Y87.196 F7800.000
G1 F1800.000
G1 X20.105 Y87.456 E2.63842
G1 X20.785 Y87.950 E2.66626
G1 X21.279 Y88.630 E2.69410
G1 X21.539 Y89.429 E2.72194
G1 X21.539 Y90.269 E2.74978
G1 X21.279 Y91.069 E2.77762
G1 X20.785 Y91.748 E2.80546
G1 X20.105 Y92.242 E2.83330
G1 X19.306 Y92.502 E2.86114
G1 X18.466 Y92.502 E2.88898
G1 X17.666 Y92.242 E2.91682
G1 X16.987 Y91.748 E2.94466
G1 X16.493 Y91.069 E2.97250
G1 X16.233 Y90.269 E3.00034
G1 X16.233 Y89.429 E3.02818
G1 X16.493 Y88.630 E3.05602
G1 X16.987 Y87.950 E3.08386
G1 X17.666 Y87.456 E3.11170
G1 X18.466 Y87.196 E3.13954
G1 X19.246 Y87.196 E3.16540
G1 X19.264 Y87.462 F7800.000
G1 F1800.000
G1 X19.983 Y87.696 E3.19045
G1 X20.595 Y88.140 E3.21550
G1 X21.039 Y88.752 E3.24056
G1 X21.273 Y89.471 E3.26561
G1 X21.273 Y90.227 E3.29066
G1 X21.039 Y90.947 E3.31572
G1 X20.595 Y91.558 E3.34077
G1 X19.983 Y92.003 E3.36582
G1 X19.264 Y92.237 E3.39088
G1 X18.508 Y92.237 E3.41593
G1 X17.788 Y92.003 E3.44098
G1 X17.177 Y91.558 E3.46603
G1 X16.732 Y90.947 E3.49109
G1 X16.498 Y90.227 E3.51614
G1 X16.498 Y89.471 E3.54119
G1 X16.732 Y88.752 E3.56625
G1 X17.177 Y88.140 E3.59130
G1 X17.788 Y87.696 E3.61635
G1 X18.508 Y87.462 E3.64141
G1 X19.204 Y87.462 E3.66447
G1 E1.66447 F2400.00000
G92 E0
G1 X46.495 Y62.240 F7800.000
G1 E2.00000 F2400.00000
G1 F1800.000
G1 X45.951 Y61.492 E2.03063
G1 X45.666 Y60.613 E2.06126
G1 X45.666 Y59.688 E2.09188
G1 X45.951 Y58.809 E2.12251
G1 X46.495 Y58.061 E2.15314
G1 X47.243 Y57.518 E2.18377
G1 X48.122 Y57.232 E2.21440
G1 X49.046 Y57.232 E2.24502
G1 X49.926 Y57.518 E2.27565
G1 X50.674 Y58.061 E2.30628
G1 X51.217 Y58.809 E2.33691
G1 X51.503 Y59.689 E2.36754
G1 X51.503 Y60.613 E2.39816
G1 X51.217 Y61.492 E2.42879
G1 X50.674 Y62.240 E2.45942
G1 X49.926 Y62.784 E2.49005
G1 X49.047 Y63.069 E2.52068
G1 X48.122 Y63.069 E2.55130
G1 X47.243 Y62.784 E2.58193
G1 X46.543 Y62.275 E2.61057
G1 X46.685 Y62.050 F7800.000
G1 F1800.000
G1 X46.191 Y61.370 E2.63841
G1 X45.931 Y60.571 E2.66626
G1 X45.931 Y59.731 E2.69410
G1 X46.191 Y58.931 E2.72194
G1 X46.685 Y58.252 E2.74978
G1 X47.365 Y57.758 E2.77762
G1 X48.164 Y57.498 E2.80546
G1 X49.004 Y57.498 E2.83330
G1 X49.804 Y57.758 E2.86114
G1 X50.483 Y58.252 E2.88898
G1 X50.977 Y58.931 E2.91682
G1 X51.237 Y59.731 E2.94466
G1 X51.237 Y60.571 E2.97250
G1 X50.977 Y61.370 E3.00034
G1 X50.483 Y62.050 E3.02818
G1 X49.804 Y62.544 E3.05602
G1 X49.004 Y62.804 E3.08386
G1 X48.164 Y62.804 E3.11170
G1 X47.365 Y62.544 E3.13954
G1 X46.734 Y62.085 E3.16540
G1 X46.875 Y61.860 F7800.000
G1 F1800.000
G1 X46.431 Y61.248 E3.19045
G1 X46.197 Y60.529 E3.21550
G1 X46.197 Y59.773 E3.24056
G1 X46.431 Y59.053 E3.26561
G1 X46.875 Y58.442 E3.29066
G1 X47.487 Y57.997 E3.31572
G1 X48.206 Y57.764 E3.34077
G1 X48.962 Y57.764 E3.36582
G1 X49.682 Y57.997 E3.39087
G1 X50.293 Y58.442 E3.41593
G1 X50.738 Y59.053 E3.44098
G1 X50.972 Y59.773 E3.46603
G1 X50.972 Y60.529 E3.49108
G1 X50.738 Y61.248 E3.51614
G1 X50.293 Y61.860 E3.54119
G1 X49.682 Y62.304 E3.56624
G1 X48.962 Y62.538 E3.59130
G1 X48.206 Y62.538 E3.61635
G1 X47.487 Y62.304 E3.64140
G1 X46.924 Y61.895 E3.66447
G1 E1.66447 F2400.00000
G92 E0
G1 X63.539 Y60.804 F7800.000
G1 E2.00000 F2400.00000
G1 F1800.000
G1 X80.931 Y60.804 E2.57620
G1 X80.931 Y89.196 E3.51683
G1 X63.539 Y89.196 E4.09304
G1 X63.539 Y60.864 E5.03168
G1 X63.804 Y61.069 F7800.000
G1 F1800.000
G1 X80.666 Y61.069 E5.59028
G1 X80.666 Y88.931 E6.51331
G1 X63.804 Y88.931 E7.07192
G1 X63.804 Y61.129 E7.99296
G1 X64.070 Y61.335 F7800.000
G1 F1800.000
G1 X80.400 Y61.335 E8.53397
G1 X80.400 Y88.665 E9.43940
G1 X64.070 Y88.665 E9.98040
G1 X64.070 Y61.395 E10.88384
G1 E8.88384 F2400.00000
G92 E0
G1 X103.265 Y70.096 F7800.000
G1 E2.00000 F2400.00000
G1 F1800.000
G1 X103.054 Y70.063 E2.00706
G1 X102.572 Y69.922 E2.02369
G1 X102.111 Y69.723 E2.04033
G1 X101.679 Y69.468 E2.05696
G1 X101.282 Y69.160 E2.07359
G1 X100.927 Y68.805 E2.09022
G1 X100.620 Y68.408 E2.10685
