; generated by Slic3r 1.3.1-dev (Build 2ef957d) on 2019-11-25 at 09:45:01

; external perimeters extrusion width = 0.55mm (4.37mm^3/s)
; perimeters extrusion width = 0.70mm (11.44mm^3/s)
; infill extrusion width = 0.62mm (13.45mm^3/s)
; solid infill extrusion width = 0.70mm (3.81mm^3/s)
; top infill extrusion width = 0.70mm (2.86mm^3/s)

M107
G92 E0
M104 S200 ; set temperature
G28 ; home all axes
G1 Z5 F5000 ; lift nozzle

; Filament gcode

M109 S200 ; set temperature and wait for it to be reached
G21 ; set units to millimeters
G90 ; use absolute coordinates
M82 ; use absolute distances for extrusion
G92 E0
G1 Z0.350 F7800.000
G1 E-2.00000 F2400.00000
G92 E0
G1 X66.328 Y64.253 F7800.000
G1 E2.00000 F2400.00000
G1 F1800.000
G1 X68.081 Y62.774 E2.07096
G1 X70.233 Y61.981 E2.14192
G1 X71.413 Y61.875 E2.17858
G1 X126.610 Y61.875 E3.88647
G1 X128.869 Y62.272 E3.95743
G1 X130.857 Y63.415 E4.02839
G1 X132.337 Y65.168 E4.09936
G1 X133.129 Y67.320 E4.17032
G1 X133.235 Y68.500 E4.20697
G1 X133.235 Y131.500 E6.15627
G1 X132.838 Y133.759 E6.22723
G1 X131.695 Y135.747 E6.29820
G1 X129.942 Y137.226 E6.36916
G1 X127.790 Y138.019 E6.44012
G1 X126.610 Y138.125 E6.47677
G1 X71.413 Y138.125 E8.18466
G1 X69.154 Y137.728 E8.25563
G1 X67.166 Y136.585 E8.32659
G1 X65.687 Y134.832 E8.39755
G1 X64.894 Y132.680 E8.46851
G1 X64.788 Y131.500 E8.50516
G1 X64.788 Y68.500 E10.45447
G1 X65.185 Y66.241 E10.52543
G1 X66.291 Y64.318 E10.59407
G1 E8.59407 F2400.00000
G92 E0
G1 X121.526 Y125.463 F7800.000
G1 E2.00000 F2400.00000
G1 F1800.000
G1 X120.832 Y126.167 E2.03056
G1 X120.083 Y126.816 E2.06124
G1 X119.283 Y127.408 E2.09203
G1 X118.437 Y127.938 E2.12293
G1 X117.549 Y128.404 E2.15394
G1 X116.627 Y128.803 E2.18505
G1 X115.674 Y129.133 E2.21623
G1 X114.697 Y129.391 E2.24749
G1 X113.703 Y129.576 E2.27880
G1 X112.696 Y129.688 E2.31015
G1 X111.683 Y129.726 E2.34151
G1 X110.670 Y129.688 E2.37287
G1 X109.663 Y129.576 E2.40422
G1 X108.668 Y129.391 E2.43553
G1 X107.692 Y129.133 E2.46679
G1 X106.739 Y128.803 E2.49798
G1 X105.816 Y128.404 E2.52908
G1 X104.929 Y127.938 E2.56009
G1 X104.083 Y127.408 E2.59099
G1 X103.283 Y126.816 E2.62179
G1 X102.533 Y126.167 E2.65246
G1 X101.840 Y125.463 E2.68302
G1 X101.207 Y124.710 E2.71346
G1 X100.638 Y123.912 E2.74379
G1 X100.138 Y123.073 E2.77401
G1 X99.708 Y122.199 E2.80414
G1 X99.353 Y121.296 E2.83418
G1 X99.074 Y120.368 E2.86415
G1 X98.873 Y119.422 E2.89407
G1 X98.752 Y118.464 E2.92395
G1 X98.712 Y117.500 E2.95381
G1 X98.752 Y116.536 E2.98367
G1 X98.873 Y115.578 E3.01355
G1 X99.074 Y114.632 E3.04347
G1 X99.353 Y113.704 E3.07344
G1 X99.708 Y112.801 E3.10348
G1 X100.138 Y111.927 E3.13361
G1 X100.638 Y111.088 E3.16383
G1 X101.207 Y110.290 E3.19415
G1 X101.840 Y109.537 E3.22460
G1 X102.533 Y108.833 E3.25516
G1 X103.283 Y108.184 E3.28583
G1 X104.083 Y107.592 E3.31663
G1 X104.929 Y107.062 E3.34753
G1 X105.816 Y106.596 E3.37854
G1 X106.739 Y106.197 E3.40964
G1 X107.692 Y105.867 E3.44083
G1 X108.668 Y105.609 E3.47209
G1 X109.663 Y105.424 E3.50340
G1 X110.670 Y105.312 E3.53474
G1 X111.683 Y105.274 E3.56611
G1 X112.696 Y105.312 E3.59747
G1 X113.703 Y105.424 E3.62882
G1 X114.697 Y105.609 E3.66013
G1 X115.674 Y105.867 E3.69138
G1 X116.627 Y106.197 E3.72257
G1 X117.549 Y106.596 E3.75368
G1 X118.437 Y107.062 E3.78469
G1 X119.283 Y107.592 E3.81559
G1 X120.083 Y108.184 E3.84638
G1 X120.832 Y108.833 E3.87706
G1 X121.526 Y109.537 E3.90762
G1 X122.159 Y110.290 E3.93806
G1 X122.727 Y111.088 E3.96839
G1 X123.228 Y111.927 E3.99861
G1 X123.658 Y112.801 E4.02874
G1 X124.013 Y113.704 E4.05878
G1 X124.292 Y114.632 E4.08875
G1 X124.493 Y115.578 E4.11867
G1 X124.614 Y116.536 E4.14854
G1 X124.654 Y117.500 E4.17841
G1 X124.614 Y118.464 E4.20827
G1 X124.493 Y119.422 E4.23815
G1 X124.292 Y120.368 E4.26807
G1 X124.013 Y121.296 E4.29803
G1 X123.658 Y122.199 E4.32808
G1 X123.228 Y123.073 E4.35820
G1 X122.727 Y123.912 E4.38842
G1 X122.159 Y124.710 E4.41875
G1 X121.574 Y125.406 E4.44687
G1 X121.063 Y125.042 F7800.000
G1 F1800.000
G1 X120.405 Y125.710 E4.47591
G1 X119.692 Y126.328 E4.50508
G1 X118.931 Y126.891 E4.53437
G1 X118.125 Y127.396 E4.56380
G1 X117.280 Y127.840 E4.59334
G1 X116.400 Y128.220 E4.62299
G1 X115.492 Y128.534 E4.65273
G1 X114.560 Y128.781 E4.68255
G1 X113.611 Y128.958 E4.71243
G1 X112.650 Y129.065 E4.74235
G1 X111.683 Y129.100 E4.77228
G1 X110.716 Y129.065 E4.80222
G1 X109.755 Y128.958 E4.83214
G1 X108.806 Y128.781 E4.86202
G1 X107.874 Y128.534 E4.89184
G1 X106.966 Y128.220 E4.92158
G1 X106.086 Y127.840 E4.95123
G1 X105.241 Y127.396 E4.98077
G1 X104.435 Y126.891 E5.01020
G1 X103.674 Y126.328 E5.03949
G1 X102.961 Y125.710 E5.06866
G1 X102.303 Y125.042 E5.09770
G1 X101.701 Y124.327 E5.12660
G1 X101.162 Y123.570 E5.15537
G1 X100.687 Y122.775 E5.18403
G1 X100.280 Y121.947 E5.21257
G1 X99.944 Y121.091 E5.24102
G1 X99.680 Y120.213 E5.26938
G1 X99.490 Y119.318 E5.29769
G1 X99.375 Y118.412 E5.32595
G1 X99.337 Y117.500 E5.35420
G1 X99.375 Y116.588 E5.38244
G1 X99.490 Y115.682 E5.41070
G1 X99.680 Y114.787 E5.43901
G1 X99.944 Y113.909 E5.46737
G1 X100.280 Y113.053 E5.49582
G1 X100.687 Y112.225 E5.52437
G1 X101.162 Y111.430 E5.55302
G1 X101.701 Y110.673 E5.58179
G1 X102.303 Y109.958 E5.61069
G1 X102.961 Y109.290 E5.63973
G1 X103.674 Y108.672 E5.66890
G1 X104.435 Y108.109 E5.69820
G1 X105.241 Y107.604 E5.72762
G1 X106.086 Y107.160 E5.75716
G1 X106.966 Y106.780 E5.78681
G1 X107.874 Y106.466 E5.81655
G1 X108.806 Y106.219 E5.84637
G1 X109.755 Y106.042 E5.87625
G1 X110.716 Y105.935 E5.90617
G1 X111.683 Y105.900 E5.93611
G1 X112.650 Y105.935 E5.96605
G1 X113.611 Y106.042 E5.99596
G1 X114.560 Y106.219 E6.02584
G1 X115.492 Y106.466 E6.05566
G1 X116.400 Y106.780 E6.08540
G1 X117.280 Y107.160 E6.11505
G1 X118.125 Y107.604 E6.14459
G1 X118.931 Y108.109 E6.17402
G1 X119.692 Y108.672 E6.20332
G1 X120.405 Y109.290 E6.23249
G1 X121.063 Y109.958 E6.26152
G1 X121.664 Y110.673 E6.29042
G1 X122.204 Y111.430 E6.31920
G1 X122.679 Y112.225 E6.34785
G1 X123.086 Y113.053 E6.37639
G1 X123.422 Y113.909 E6.40484
G1 X123.686 Y114.787 E6.43321
G1 X123.876 Y115.682 E6.46151
G1 X123.990 Y116.588 E6.48978
G1 X124.029 Y117.500 E6.51802
G1 X123.990 Y118.412 E6.54626
G1 X123.876 Y119.318 E6.57452
G1 X123.686 Y120.213 E6.60283
G1 X123.422 Y121.091 E6.63120
G1 X123.086 Y121.947 E6.65965
G1 X122.679 Y122.775 E6.68819
G1 X122.204 Y123.570 E6.71684
G1 X121.664 Y124.327 E6.74562
G1 X121.112 Y124.985 E6.77220
G1 X121.063 Y125.042 F7800.000
G1 E4.77220 F2400.00000
G92 E0
G1 X93.557 Y125.350 F7800.000
G1 E2.00000 F2400.00000
G1 F1800.000
G1 X93.557 Y109.650 E2.48576
G1 X73.012 Y109.650 E3.12144
G1 X73.012 Y105.100 E3.26224
G1 X107.043 Y105.100 E4.31518
G1 X107.095 Y105.413 E4.32499
G1 X106.513 Y105.614 E4.34407
G1 X105.547 Y106.032 E4.37663
G1 X104.617 Y106.520 E4.40911
G1 X103.731 Y107.076 E4.44149
G1 X102.892 Y107.696 E4.47378
G1 X102.106 Y108.377 E4.50596
G1 X101.378 Y109.116 E4.53805
G1 X100.713 Y109.907 E4.57003
G1 X100.115 Y110.746 E4.60191
G1 X99.588 Y111.628 E4.63370
G1 X99.136 Y112.548 E4.66541
G1 X98.762 Y113.500 E4.69704
G1 X98.468 Y114.477 E4.72861
G1 X98.256 Y115.473 E4.76014
G1 X98.129 Y116.483 E4.79164
G1 X98.086 Y117.500 E4.82312
G1 X98.129 Y118.517 E4.85460
G1 X98.256 Y119.527 E4.88610
G1 X98.468 Y120.523 E4.91763
G1 X98.762 Y121.500 E4.94920
G1 X99.136 Y122.452 E4.98084
G1 X99.588 Y123.372 E5.01254
G1 X100.115 Y124.254 E5.04433
G1 X100.713 Y125.093 E5.07621
G1 X101.378 Y125.884 E5.10820
G1 X102.106 Y126.623 E5.14028
G1 X102.892 Y127.304 E5.17247
G1 X103.731 Y127.924 E5.20475
G1 X104.617 Y128.480 E5.23714
G1 X105.547 Y128.968 E5.26961
G1 X106.513 Y129.386 E5.30217
G1 X107.095 Y129.587 E5.32125
G1 X107.043 Y129.900 E5.33107
G1 X73.012 Y129.900 E6.38401
G1 X73.012 Y125.350 E6.52480
G1 X93.482 Y125.350 E7.15816
G1 E5.15816 F2400.00000
G92 E0
G1 X116.270 Y105.413 F7800.000
G1 E2.00000 F2400.00000
G1 F1800.000
G1 X116.323 Y105.100 E2.00981
G1 X125.011 Y105.100 E2.27862
G1 X125.011 Y113.739 E2.54594
G1 X124.690 Y113.786 E2.55596
G1 X124.604 Y113.500 E2.56522
G1 X124.230 Y112.548 E2.59686
G1 X123.778 Y111.628 E2.62856
G1 X123.251 Y110.746 E2.66035
G1 X122.653 Y109.907 E2.69224
G1 X121.988 Y109.116 E2.72422
G1 X121.260 Y108.377 E2.75630
G1 X120.474 Y107.696 E2.78849
G1 X119.635 Y107.076 E2.82077
G1 X118.748 Y106.520 E2.85316
G1 X117.819 Y106.032 E2.88564
G1 X116.853 Y105.614 E2.91819
G1 X116.341 Y105.437 E2.93495
G1 E0.93495 F2400.00000
G92 E0
G1 X124.690 Y121.214 F7800.000
G1 E2.00000 F2400.00000
G1 F1800.000
G1 X125.011 Y121.261 E2.01002
G1 X125.011 Y129.900 E2.27733
G1 X116.323 Y129.900 E2.54614
G1 X116.270 Y129.587 E2.55596
G1 X116.853 Y129.386 E2.57503
G1 X117.819 Y128.968 E2.60759
G1 X118.748 Y128.480 E2.64007
G1 X119.635 Y127.924 E2.67246
G1 X120.474 Y127.304 E2.70474
G1 X121.260 Y126.623 E2.73693
G1 X121.988 Y125.884 E2.76901
G1 X122.653 Y125.093 E2.80099
G1 X123.251 Y124.254 E2.83287
G1 X123.778 Y123.372 E2.86466
G1 X124.230 Y122.452 E2.89637
G1 X124.604 Y121.500 E2.92801
G1 X124.669 Y121.285 E2.93495
G1 E0.93495 F2400.00000
G92 E0
G1 X92.932 Y124.725 F7800.000
G1 E2.00000 F2400.00000
G1 F1800.000
G1 X92.932 Y110.275 E2.44710
G1 X72.388 Y110.275 E3.08277
G1 X72.388 Y104.475 E3.26224
G1 X125.636 Y104.475 E4.90980
G1 X125.636 Y130.525 E5.71583
G1 X72.388 Y130.525 E7.36339
G1 X72.388 Y124.725 E7.54286
G1 X92.857 Y124.725 E8.17621
G1 X92.307 Y124.100 F7800.000
G1 F1800.000
G1 X92.307 Y110.900 E8.58464
G1 X71.763 Y110.900 E9.22031
G1 X71.763 Y103.850 E9.43845
G1 X126.260 Y103.850 E11.12468
G1 X126.260 Y131.150 E11.96938
G1 X71.763 Y131.150 E13.65561
G1 X71.763 Y124.100 E13.87375
G1 X92.232 Y124.100 E14.50710
G1 X92.804 Y124.045 F7800.000
G1 E12.50710 F2400.00000
G92 E0
G1 X90.193 Y129.518 F7800.000
G1 E2.00000 F2400.00000
G1 F1800.000
G1 X93.980 Y125.732 E2.16812
G1 X93.083 Y125.732 E2.19627
G1 X89.296 Y129.518 E2.36439
G1 X88.400 Y129.518 E2.39254
G1 X92.186 Y125.732 E2.56066
G1 X91.290 Y125.732 E2.58881
G1 X87.503 Y129.518 E2.75694
G1 X86.606 Y129.518 E2.78508
G1 X90.393 Y125.732 E2.95321
G1 X89.496 Y125.732 E2.98136
G1 X85.710 Y129.518 E3.14948
G1 X84.813 Y129.518 E3.17763
G1 X88.600 Y125.732 E3.34575
G1 X87.703 Y125.732 E3.37390
G1 X83.916 Y129.518 E3.54202
G1 X83.020 Y129.518 E3.57017
G1 X86.806 Y125.732 E3.73829
G1 X85.910 Y125.732 E3.76644
G1 X82.123 Y129.518 E3.93456
G1 X81.226 Y129.518 E3.96271
G1 X85.013 Y125.732 E4.13083
G1 X84.117 Y125.732 E4.15898
G1 X80.330 Y129.518 E4.32710
G1 X79.433 Y129.518 E4.35525
G1 X83.220 Y125.732 E4.52338
G1 X82.323 Y125.732 E4.55152
G1 X78.536 Y129.518 E4.71965
G1 X77.640 Y129.518 E4.74780
G1 X81.427 Y125.732 E4.91592
G1 X80.530 Y125.732 E4.94407
G1 X76.743 Y129.518 E5.11219
G1 X75.847 Y129.518 E5.14034
G1 X79.633 Y125.732 E5.30846
G1 X78.737 Y125.732 E5.33661
G1 X74.950 Y129.518 E5.50473
G1 X74.053 Y129.518 E5.53288
G1 X77.840 Y125.732 E5.70100
G1 X76.943 Y125.732 E5.72915
G1 X73.394 Y129.281 E5.88672
G1 X73.394 Y128.384 E5.91487
G1 X76.047 Y125.732 E6.03263
G1 X75.150 Y125.732 E6.06078
G1 X73.394 Y127.487 E6.13873
G1 X73.394 Y126.591 E6.16688
G1 X74.253 Y125.732 E6.20502
G1 E4.20502 F2400.00000
G92 E0
G1 X73.881 Y105.482 F7800.000
G1 E2.00000 F2400.00000
G1 F1800.000
G1 X73.394 Y105.968 E2.02159
G1 X73.394 Y106.865 E2.04974
G1 X74.777 Y105.482 E2.11113
G1 X75.674 Y105.482 E2.13928
G1 X73.394 Y107.761 E2.24049
G1 X73.394 Y108.658 E2.26864
G1 X76.570 Y105.482 E2.40965
G1 X77.467 Y105.482 E2.43780
G1 X73.680 Y109.268 E2.60592
G1 X74.577 Y109.268 E2.63407
G1 X78.364 Y105.482 E2.80219
G1 X79.260 Y105.482 E2.83034
G1 X75.474 Y109.268 E2.99846
G1 X76.370 Y109.268 E3.02661
G1 X80.157 Y105.482 E3.19474
G1 X81.054 Y105.482 E3.22288
G1 X77.267 Y109.268 E3.39101
G1 X78.164 Y109.268 E3.41916
G1 X81.950 Y105.482 E3.58728
G1 X82.847 Y105.482 E3.61543
G1 X79.060 Y109.268 E3.78355
G1 X79.957 Y109.268 E3.81170
G1 X83.744 Y105.482 E3.97982
G1 X84.640 Y105.482 E4.00797
G1 X80.854 Y109.268 E4.17609
G1 X81.750 Y109.268 E4.20424
G1 X85.537 Y105.482 E4.37236
G1 X86.434 Y105.482 E4.40051
G1 X82.647 Y109.268 E4.56863
G1 X83.543 Y109.268 E4.59678
G1 X87.330 Y105.482 E4.76490
G1 X88.227 Y105.482 E4.79305
G1 X84.440 Y109.268 E4.96118
G1 X85.337 Y109.268 E4.98932
G1 X89.124 Y105.482 E5.15745
G1 X90.020 Y105.482 E5.18560
G1 X86.233 Y109.268 E5.35372
G1 X87.130 Y109.268 E5.38187
G1 X90.917 Y105.482 E5.54999
G1 X91.813 Y105.482 E5.57814
G1 X88.027 Y109.268 E5.74626
G1 X88.923 Y109.268 E5.77441
G1 X92.710 Y105.482 E5.94253
G1 X93.607 Y105.482 E5.97068
G1 X89.820 Y109.268 E6.13880
G1 X90.717 Y109.268 E6.16695
G1 X94.503 Y105.482 E6.33507
G1 X95.400 Y105.482 E6.36322
G1 X91.613 Y109.268 E6.53134
G1 X92.510 Y109.268 E6.55949
G1 X96.297 Y105.482 E6.72762
G1 X97.193 Y105.482 E6.75576
G1 X93.407 Y109.268 E6.92389
G1 X93.939 Y109.268 E6.94059
G1 X93.939 Y109.633 E6.95204
G1 X98.090 Y105.482 E7.13634
G1 X98.987 Y105.482 E7.16449
G1 X93.939 Y110.529 E7.38860
G1 X93.939 Y111.426 E7.41675
G1 X99.883 Y105.482 E7.68067
G1 X100.780 Y105.482 E7.70882
G1 X93.939 Y112.323 E8.01254
G1 X93.939 Y113.219 E8.04069
G1 X101.677 Y105.482 E8.38423
G1 X102.573 Y105.482 E8.41238
G1 X93.939 Y114.116 E8.79573
G1 X93.939 Y115.013 E8.82387
G1 X103.470 Y105.482 E9.24703
G1 X104.129 Y105.482 E9.26771
G1 X104.173 Y105.675 E9.27395
G1 X102.793 Y107.055 E9.33519
G1 E7.33519 F2400.00000
G92 E0
G1 X100.199 Y109.649 F7800.000
G1 E2.00000 F2400.00000
G1 F1800.000
G1 X93.939 Y115.909 E2.27793
G1 X93.939 Y116.806 E2.30608
G1 X98.917 Y111.827 E2.52712
G1 X98.807 Y112.052 E2.53499
G1 X98.414 Y113.052 E2.56871
G1 X98.338 Y113.303 E2.57695
G1 X93.939 Y117.703 E2.77227
G1 X93.939 Y118.599 E2.80042
G1 X98.010 Y114.529 E2.98115
G1 X97.883 Y115.126 E3.00033
G1 X97.821 Y115.614 E3.01575
G1 X93.939 Y119.496 E3.18812
G1 X93.939 Y120.393 E3.21626
G1 X97.731 Y116.600 E3.38465
G1 X97.704 Y117.257 E3.40529
G1 X97.715 Y117.513 E3.41335
G1 X93.939 Y121.289 E3.58099
G1 X93.939 Y122.186 E3.60914
G1 X97.754 Y118.370 E3.77853
G1 X97.855 Y119.167 E3.80373
G1 X93.939 Y123.083 E3.97759
G1 X93.939 Y123.979 E4.00574
G1 X97.996 Y119.922 E4.18587
G1 X98.105 Y120.435 E4.20234
G1 X98.168 Y120.646 E4.20926
G1 X93.939 Y124.876 E4.39704
G1 X93.939 Y125.772 E4.42519
G1 X98.376 Y121.336 E4.62217
G1 X98.620 Y121.988 E4.64403
G1 X91.090 Y129.518 E4.97838
G1 X91.986 Y129.518 E5.00653
G1 X98.885 Y122.620 E5.31281
G1 X99.180 Y123.221 E5.33384
G1 X92.883 Y129.518 E5.61342
G1 X93.779 Y129.518 E5.64157
G1 X99.502 Y123.796 E5.89562
G1 X99.837 Y124.357 E5.91615
G1 X94.676 Y129.518 E6.14529
G1 X95.573 Y129.518 E6.17344
G1 X100.210 Y124.881 E6.37934
G1 X100.595 Y125.392 E6.39944
G1 X96.469 Y129.518 E6.58262
G1 X97.366 Y129.518 E6.61077
G1 X101.005 Y125.880 E6.77232
G1 X101.437 Y126.345 E6.79224
G1 X98.263 Y129.518 E6.93315
G1 X99.159 Y129.518 E6.96130
G1 X101.882 Y126.796 E7.08216
G1 X102.359 Y127.216 E7.10211
G1 X100.056 Y129.518 E7.20435
G1 X100.953 Y129.518 E7.23250
G1 X102.846 Y127.625 E7.31656
G1 X103.362 Y128.006 E7.33669
G1 X101.849 Y129.518 E7.40384
G1 X102.746 Y129.518 E7.43198
G1 X103.895 Y128.369 E7.48299
G1 X104.231 Y128.580 E7.49546
G1 X104.129 Y129.032 E7.51001
G1 X103.643 Y129.518 E7.53159
G1 E5.53159 F2400.00000
G92 E0
G1 X104.537 Y105.771 F7800.000
G1 E2.00000 F2400.00000
G1 F1800.000
G1 X106.028 Y105.433 E2.02141
G1 X107.377 Y105.200 F7800.000
G1 F1800.000
G1 X107.839 Y105.140 E2.03562
G1 F1800.000
G1 X108.301 Y105.080 E2.04792
G1 F1800.000
G1 X108.552 Y105.048 E2.05355
G1 F1800.000
G1 X109.069 Y105.000 E2.06380
G1 F1800.000
G1 X109.587 Y104.952 E2.07158
G1 F1800.000
G1 X110.290 Y104.913 E2.07906
G1 F1800.000
G1 X111.680 Y104.875 E2.08858
G1 X112.731 Y104.894 E2.09577
G1 F1800.000
G1 X113.421 Y104.932 E2.10312
G1 F1800.000
G1 X114.038 Y104.976 E2.11238
G1 F1800.000
G1 X114.555 Y105.024 E2.12262
G1 F1800.000
G1 X115.065 Y105.080 E2.13510
G1 F1800.000
G1 X115.527 Y105.140 E2.14835
G1 F1800.000
G1 X115.989 Y105.200 E2.16351
G1 X117.338 Y105.433 F7800.000
G1 F1800.000
G1 X118.829 Y105.771 E2.18492
G1 X119.237 Y105.968 F7800.000
G1 F1800.000
G1 X119.723 Y105.482 E2.20627
G1 X120.610 Y105.482 E2.23383
G1 X119.465 Y106.627 E2.28414
G1 X119.993 Y106.986 E2.30398
G1 X121.498 Y105.482 E2.37006
G1 X122.385 Y105.482 E2.39762
