; Gcode updated with 'stl_info' on 2019-12-09 14:00:42.018836

; stl_min_x = -50.0
; stl_max_x = 15.0
; stl_min_y = -37.23529815673828
; stl_max_y = 37.23529815673828
; stl_min_z = 0.0

; generated by Slic3r 1.3.1-dev (Build adea0d9) on 2019-12-09 at 14:00:41

; external perimeters extrusion width = 0.44mm (2.86mm^3/s)
; perimeters extrusion width = 0.56mm (4.14mm^3/s)
; infill extrusion width = 0.50mm (3.66mm^3/s)
; solid infill extrusion width = 0.56mm (3.10mm^3/s)
; top infill extrusion width = 0.56mm (3.10mm^3/s)

M107
G92 E0
;D3D:START:START
T0
M104 S215 T0

G21
G90
M107
T0
G28
G29
M109 T0 S215 T0
G0 F3000
M107
T0
G92 E0
G0 X0 Y149 Z0.1 F3600
G1 Y49 E6.5 F1200
G0 Z1
G92 E0
; Filament gcode

G21 ; set units to millimeters
G90 ; use absolute coordinates
M82 ; use absolute distances for extrusion
G92 E0
G1 Z0.300 F7800.000
G1 E-2.00000 F2400.00000
G92 E0
G1 X64.833 Y96.904 F7800.000
G1 E2.00000 F2400.00000
G1 F1800.000
G1 X66.357 Y97.391 E2.05301
G1 X66.052 Y98.728 E2.09844
G1 X65.117 Y98.596 E2.12971
G1 X64.301 Y98.156 E2.16042
G1 X64.810 Y96.959 E2.20348
G1 X64.983 Y97.231 F7800.000
G1 F1800.000
G1 X66.044 Y97.570 E2.24038
G1 X65.847 Y98.431 E2.26964
G1 X65.201 Y98.340 E2.29124
G1 X64.641 Y98.037 E2.31236
G1 X64.960 Y97.286 E2.33939
G1 X65.133 Y97.558 F7800.000
G1 F1800.000
G1 X65.731 Y97.749 E2.36018
G1 X65.643 Y98.134 E2.37327
G1 X65.286 Y98.083 E2.38521
G1 X64.980 Y97.918 E2.39673
G1 X65.109 Y97.613 E2.40772
G1 E0.40772 F2400.00000
G92 E0
G1 X66.298 Y77.082 F7800.000
G1 E2.00000 F2400.00000
G1 F1800.000
G1 X65.096 Y75.000 E2.07964
G1 X66.298 Y72.918 E2.15928
G1 X68.702 Y72.918 E2.23892
G1 X69.904 Y75.000 E2.31857
G1 X68.702 Y77.082 E2.39821
G1 X66.358 Y77.082 E2.47586
G1 X66.451 Y76.816 F7800.000
G1 F1800.000
G1 X65.403 Y75.000 E2.54534
G1 X66.451 Y73.184 E2.61482
G1 X68.549 Y73.184 E2.68430
G1 X69.597 Y75.000 E2.75378
G1 X68.549 Y76.816 E2.82326
G1 X66.511 Y76.816 E2.89076
G1 X66.605 Y76.551 F7800.000
G1 F1800.000
G1 X65.709 Y75.000 E2.95008
G1 X66.605 Y73.449 E3.00939
G1 X68.395 Y73.449 E3.06871
G1 X69.291 Y75.000 E3.12803
G1 X68.395 Y76.551 E3.18735
G1 X66.665 Y76.551 E3.24468
G1 E1.24468 F2400.00000
G92 E0
G1 X61.071 Y82.200 F7800.000
G1 E2.00000 F2400.00000
G1 F1800.000
G1 X61.071 Y84.572 E2.07857
G1 X55.866 Y84.572 E2.25101
G1 X53.791 Y84.620 E2.31978
G1 X53.791 Y82.293 E2.39689
G1 X53.683 Y81.873 E2.41124
G1 X53.664 Y81.377 E2.42769
G1 X53.825 Y80.427 E2.45960
G1 X54.699 Y80.427 E2.48857
G1 X54.227 Y79.907 E2.51184
G1 X53.906 Y79.313 E2.53420
G1 X53.719 Y78.650 E2.55704
G1 X53.658 Y77.898 E2.58202
G1 X53.895 Y76.518 E2.62842
G1 X54.673 Y75.437 E2.67254
G1 X55.702 Y74.924 E2.71064
G1 X54.869 Y74.631 E2.73988
G1 X54.165 Y73.952 E2.77230
G1 X53.775 Y73.019 E2.80581
G1 X53.661 Y71.921 E2.84237
G1 X53.699 Y71.292 E2.86327
G1 X53.820 Y70.726 E2.88242
G1 X54.035 Y70.211 E2.90092
G1 X54.353 Y69.765 E2.91907
G1 X54.763 Y69.410 E2.93704
G1 X55.246 Y69.163 E2.95501
G1 X55.736 Y69.034 E2.97180
G1 X55.716 Y68.894 E2.97649
G1 X53.791 Y68.939 E3.04030
G1 X53.791 Y66.611 E3.11741
G1 X53.683 Y66.191 E3.13176
G1 X53.664 Y65.695 E3.14821
G1 X53.825 Y64.746 E3.18012
G1 X56.140 Y64.746 E3.25684
G1 X55.963 Y65.747 E3.29055
G1 X55.954 Y65.940 E3.29693
G1 X55.970 Y66.080 E3.30160
G1 X56.050 Y66.220 E3.30694
G1 X56.151 Y66.298 E3.31118
G1 X56.324 Y66.381 E3.31753
G1 X56.572 Y66.453 E3.32609
G1 X56.897 Y66.501 E3.33696
G1 X57.309 Y66.519 E3.35063
G1 X61.071 Y66.519 E3.47527
G1 X61.071 Y68.916 E3.55470
G1 X61.131 Y69.331 E3.56857
G1 X61.115 Y69.911 E3.58780
G1 X61.025 Y70.274 E3.60020
G1 X60.862 Y70.603 E3.61237
G1 X60.615 Y70.884 E3.62476
G1 X60.827 Y71.192 E3.63715
G1 X60.996 Y71.551 E3.65027
G1 X61.112 Y71.931 E3.66345
G1 X61.179 Y72.331 E3.67688
G1 X61.200 Y72.756 E3.69097
G1 X61.164 Y73.272 E3.70813
G1 X61.045 Y73.761 E3.72478
G1 X60.831 Y74.207 E3.74118
G1 X60.521 Y74.586 E3.75740
G1 X60.138 Y74.876 E3.77330
G1 X59.740 Y75.061 E3.78785
G1 X60.155 Y75.294 E3.80362
G1 X60.755 Y75.993 E3.83414
G1 X61.097 Y76.875 E3.86547
G1 X61.202 Y77.883 E3.89905
G1 X61.143 Y78.626 E3.92373
G1 X60.958 Y79.300 E3.94690
G1 X60.637 Y79.902 E3.96950
G1 X60.181 Y80.408 E3.99206
G1 X59.609 Y80.796 E4.01496
G1 X58.947 Y81.061 E4.03860
G1 X58.208 Y81.211 E4.06358
G1 X57.392 Y81.259 E4.09065
G1 X56.608 Y81.210 E4.11667
G1 X56.024 Y81.087 E4.13646
G1 X55.963 Y81.429 E4.14797
G1 X55.954 Y81.622 E4.15436
G1 X55.970 Y81.761 E4.15902
G1 X56.000 Y81.836 E4.16168
G1 X56.050 Y81.902 E4.16441
G1 X56.151 Y81.980 E4.16865
G1 X56.324 Y82.063 E4.17500
G1 X56.572 Y82.134 E4.18356
G1 X56.897 Y82.182 E4.19444
G1 X57.309 Y82.200 E4.20811
G1 X61.011 Y82.200 E4.33076
G1 X60.806 Y82.466 F7800.000
G1 F1800.000
G1 X60.806 Y84.306 E4.39172
G1 X55.863 Y84.306 E4.55547
G1 X54.056 Y84.348 E4.61534
G1 X54.056 Y82.568 E4.67431
G1 X54.236 Y82.562 E4.68026
G1 X54.138 Y82.426 E4.68578
G1 X54.017 Y82.147 E4.69587
G1 X53.948 Y81.838 E4.70635
G1 X53.930 Y81.394 E4.72108
G1 X54.049 Y80.693 E4.74465
G1 X55.368 Y80.693 E4.78834
G1 X55.403 Y80.581 E4.79223
G1 X54.857 Y80.206 E4.81417
G1 X54.446 Y79.752 E4.83445
G1 X54.153 Y79.213 E4.85477
G1 X53.982 Y78.603 E4.87577
G1 X53.925 Y77.910 E4.89879
G1 X54.146 Y76.623 E4.94204
G1 X54.851 Y75.646 E4.98196
G1 X55.986 Y75.079 E5.02402
G1 X57.449 Y74.905 E5.07283
G1 X57.751 Y74.905 E5.08283
G1 X57.783 Y74.786 E5.08688
G1 X57.348 Y74.535 E5.10351
G1 X57.000 Y74.199 E5.11955
G1 X56.731 Y73.769 E5.13634
G1 X56.572 Y73.334 E5.15170
G1 X56.446 Y73.350 E5.15593
G1 X56.310 Y74.855 E5.20600
G1 X55.012 Y74.400 E5.25158
G1 X54.389 Y73.799 E5.28026
G1 X54.036 Y72.952 E5.31066
G1 X53.927 Y71.915 E5.34520
G1 X53.963 Y71.328 E5.36471
G1 X54.074 Y70.805 E5.38239
G1 X54.268 Y70.341 E5.39908
G1 X54.550 Y69.945 E5.41518
G1 X54.913 Y69.632 E5.43104
G1 X55.342 Y69.412 E5.44700
G1 X55.823 Y69.286 E5.46350
G1 X56.334 Y69.246 E5.48049
G1 X58.884 Y69.246 E5.56495
G1 X59.218 Y69.222 E5.57606
G1 X59.355 Y69.190 E5.58070
G1 X59.288 Y68.624 E5.59955
G1 X55.863 Y68.624 E5.71301
G1 X54.056 Y68.667 E5.77288
G1 X54.056 Y66.887 E5.83185
G1 X54.236 Y66.880 E5.83780
G1 X54.138 Y66.745 E5.84332
G1 X54.017 Y66.466 E5.85341
G1 X53.948 Y66.157 E5.86389
G1 X53.930 Y65.713 E5.87862
G1 X54.049 Y65.011 E5.90219
G1 X55.824 Y65.011 E5.96098
G1 X55.698 Y65.718 E5.98476
G1 X55.688 Y65.949 E5.99242
G1 X55.710 Y66.145 E5.99895
G1 X55.766 Y66.287 E6.00400
G1 X55.860 Y66.409 E6.00911
G1 X56.011 Y66.525 E6.01541
G1 X56.229 Y66.630 E6.02344
G1 X56.516 Y66.713 E6.03332
G1 X56.872 Y66.766 E6.04524
G1 X57.303 Y66.784 E6.05956
G1 X60.806 Y66.784 E6.17559
G1 X60.806 Y68.624 E6.23655
G1 X60.761 Y68.624 E6.23804
G1 X60.865 Y69.346 E6.26219
G1 X60.850 Y69.875 E6.27972
G1 X60.774 Y70.182 E6.29020
G1 X60.639 Y70.454 E6.30026
G1 X60.441 Y70.680 E6.31022
G1 X60.209 Y70.836 E6.31948
G1 X60.391 Y71.026 E6.32818
G1 X60.596 Y71.325 E6.34018
G1 X60.747 Y71.647 E6.35196
G1 X60.853 Y71.992 E6.36392
G1 X60.914 Y72.360 E6.37627
G1 X60.934 Y72.753 E6.38933
G1 X60.901 Y73.231 E6.40520
G1 X60.793 Y73.671 E6.42019
G1 X60.605 Y74.063 E6.43462
G1 X60.335 Y74.393 E6.44874
G1 X60.001 Y74.647 E6.46265
G1 X59.620 Y74.824 E6.47657
G1 X59.031 Y74.967 E6.49665
G1 X59.984 Y75.502 E6.53289
G1 X60.524 Y76.132 E6.56035
G1 X60.837 Y76.938 E6.58900
G1 X60.935 Y77.886 E6.62058
G1 X60.880 Y78.579 E6.64363
G1 X60.710 Y79.201 E6.66498
G1 X60.418 Y79.748 E6.68552
G1 X60.005 Y80.206 E6.70595
G1 X59.484 Y80.560 E6.72682
G1 X58.870 Y80.805 E6.74871
G1 X58.173 Y80.947 E6.77227
G1 X57.392 Y80.993 E6.79819
G1 X56.644 Y80.946 E6.82304
G1 X55.969 Y80.804 E6.84588
G1 X55.815 Y80.741 E6.85139
G1 X55.698 Y81.400 E6.87356
G1 X55.688 Y81.631 E6.88122
G1 X55.710 Y81.827 E6.88775
G1 X55.766 Y81.968 E6.89280
G1 X55.860 Y82.091 E6.89791
G1 X56.011 Y82.207 E6.90421
G1 X56.229 Y82.312 E6.91224
G1 X56.516 Y82.394 E6.92212
G1 X56.872 Y82.447 E6.93404
G1 X57.303 Y82.466 E6.94836
G1 X60.746 Y82.466 E7.06240
G1 X60.540 Y82.731 F7800.000
G1 F1800.000
G1 X60.540 Y84.040 E7.10577
G1 X55.860 Y84.040 E7.26082
G1 X54.322 Y84.076 E7.31178
G1 X54.322 Y82.824 E7.35326
G1 X54.731 Y82.809 E7.36682
G1 X54.761 Y82.695 E7.37075
G1 X54.513 Y82.492 E7.38135
G1 X54.371 Y82.294 E7.38943
G1 X54.271 Y82.064 E7.39773
G1 X54.212 Y81.804 E7.40658
G1 X54.197 Y81.411 E7.41959
G1 X54.274 Y80.958 E7.43481
G1 X55.507 Y80.958 E7.47567
G1 X55.434 Y81.370 E7.48952
G1 X55.421 Y81.640 E7.49846
G1 X55.450 Y81.892 E7.50686
G1 X55.533 Y82.100 E7.51429
G1 X55.670 Y82.280 E7.52178
G1 X55.870 Y82.434 E7.53015
G1 X56.134 Y82.561 E7.53985
G1 X56.459 Y82.655 E7.55106
G1 X56.846 Y82.712 E7.56402
G1 X57.298 Y82.731 E7.57899
G1 X60.480 Y82.731 E7.68442
G1 E5.68442 F2400.00000
G92 E0
G1 X58.640 Y76.446 F7800.000
G1 E2.00000 F2400.00000
G1 F1800.000
G1 X58.987 Y75.248 E2.04133
G1 X59.813 Y75.711 E2.07271
G1 X60.293 Y76.270 E2.09711
G1 X60.576 Y77.001 E2.12307
G1 X60.669 Y77.889 E2.15267
G1 X60.617 Y78.533 E2.17408
G1 X60.461 Y79.102 E2.19361
G1 X60.199 Y79.594 E2.21210
G1 X59.829 Y80.004 E2.23038
G1 X59.359 Y80.324 E2.24923
G1 X58.794 Y80.549 E2.26937
G1 X58.139 Y80.683 E2.29152
G1 X57.393 Y80.726 E2.31628
G1 X56.680 Y80.682 E2.33996
G1 X56.048 Y80.549 E2.36136
G1 X55.497 Y80.324 E2.38105
G1 X55.033 Y80.004 E2.39973
G1 X54.664 Y79.597 E2.41793
G1 X54.401 Y79.113 E2.43620
G1 X54.245 Y78.555 E2.45537
G1 X54.193 Y77.922 E2.47643
G1 X54.398 Y76.729 E2.51653
G1 X55.028 Y75.854 E2.55225
G1 X56.064 Y75.337 E2.59061
G1 X57.465 Y75.170 E2.63736
G1 X57.770 Y75.170 E2.64746
G1 X57.770 Y79.359 E2.78624
G1 X58.075 Y79.343 E2.79634
G1 X58.481 Y79.269 E2.81004
G1 X58.825 Y79.148 E2.82210
G1 X59.106 Y78.982 E2.83291
G1 X59.323 Y78.776 E2.84284
G1 X59.477 Y78.530 E2.85246
G1 X59.571 Y78.236 E2.86267
G1 X59.604 Y77.888 E2.87426
G1 X59.588 Y77.608 E2.88354
G1 X59.543 Y77.360 E2.89189
G1 X59.470 Y77.147 E2.89937
G1 X59.368 Y76.964 E2.90629
G1 X59.244 Y76.808 E2.91289
G1 X59.106 Y76.681 E2.91913
G1 X58.953 Y76.582 E2.92515
G1 X58.695 Y76.470 E2.93448
G1 E0.93448 F2400.00000
G92 E0
G1 X56.076 Y74.492 F7800.000
G1 E2.00000 F2400.00000
G1 F1800.000
G1 X55.155 Y74.169 E2.03236
G1 X54.613 Y73.646 E2.05729
G1 X54.296 Y72.886 E2.08458
G1 X54.193 Y71.910 E2.11711
G1 X54.227 Y71.363 E2.13523
G1 X54.329 Y70.885 E2.15144
G1 X54.502 Y70.471 E2.16631
G1 X54.748 Y70.125 E2.18037
G1 X55.062 Y69.854 E2.19411
G1 X55.437 Y69.662 E2.20807
G1 X55.868 Y69.549 E2.22282
G1 X56.345 Y69.512 E2.23867
G1 X58.894 Y69.512 E2.32312
G1 X59.259 Y69.485 E2.33525
G1 X59.386 Y69.455 E2.33956
G1 X59.538 Y69.375 E2.34528
G1 X59.605 Y69.241 E2.35024
G1 X59.615 Y69.130 E2.35392
G1 X59.557 Y68.642 E2.37020
G1 X60.495 Y68.642 E2.40126
G1 X60.599 Y69.361 E2.42534
G1 X60.586 Y69.839 E2.44117
G1 X60.524 Y70.090 E2.44974
G1 X60.417 Y70.305 E2.45768
G1 X60.264 Y70.479 E2.46536
G1 X60.070 Y70.610 E2.47313
G1 X59.709 Y70.758 E2.48604
G1 X59.951 Y70.951 E2.49629
G1 X60.184 Y71.194 E2.50745
G1 X60.365 Y71.458 E2.51803
G1 X60.499 Y71.742 E2.52846
G1 X60.593 Y72.053 E2.53921
G1 X60.650 Y72.389 E2.55049
G1 X60.668 Y72.751 E2.56250
G1 X60.637 Y73.190 E2.57709
G1 X60.542 Y73.581 E2.59042
G1 X60.379 Y73.920 E2.60287
G1 X60.149 Y74.201 E2.61490
G1 X59.863 Y74.418 E2.62682
G1 X59.531 Y74.572 E2.63892
G1 X59.158 Y74.663 E2.65165
G1 X58.744 Y74.693 E2.66541
G1 X58.282 Y74.652 E2.68077
G1 X57.869 Y74.529 E2.69505
G1 X57.509 Y74.322 E2.70881
G1 X57.208 Y74.031 E2.72269
G1 X56.971 Y73.652 E2.73748
G1 X56.801 Y73.185 E2.75396
G1 X56.694 Y72.632 E2.77262
G1 X56.648 Y71.994 E2.79379
G1 X56.629 Y70.836 E2.83218
G1 X56.145 Y70.850 E2.84823
G1 X55.886 Y70.901 E2.85696
G1 X55.684 Y70.983 E2.86418
G1 X55.535 Y71.091 E2.87028
G1 X55.424 Y71.232 E2.87622
G1 X55.340 Y71.415 E2.88290
G1 X55.288 Y71.647 E2.89078
G1 X55.269 Y71.930 E2.90016
G1 X55.282 Y72.218 E2.90973
G1 X55.320 Y72.458 E2.91779
G1 X55.380 Y72.647 E2.92435
G1 X55.457 Y72.787 E2.92965
G1 X55.556 Y72.893 E2.93444
G1 X55.684 Y72.977 E2.93951
G1 X55.846 Y73.040 E2.94526
G1 X56.201 Y73.111 E2.95726
G1 X56.082 Y74.432 E3.00119
G1 E1.00119 F2400.00000
G92 E0
G1 X54.322 Y68.395 F7800.000
G1 E2.00000 F2400.00000
G1 F1800.000
G1 X54.322 Y67.143 E2.04148
G1 X54.731 Y67.128 E2.05504
G1 X54.761 Y67.013 E2.05896
G1 X54.513 Y66.811 E2.06957
G1 X54.371 Y66.613 E2.07765
G1 X54.271 Y66.383 E2.08595
G1 X54.212 Y66.122 E2.09480
G1 X54.197 Y65.730 E2.10781
G1 X54.274 Y65.277 E2.12303
G1 X55.507 Y65.277 E2.16388
G1 X55.434 Y65.689 E2.17774
G1 X55.421 Y65.958 E2.18668
G1 X55.450 Y66.210 E2.19507
G1 X55.533 Y66.419 E2.20251
G1 X55.670 Y66.598 E2.21000
G1 X55.870 Y66.753 E2.21837
G1 X56.134 Y66.880 E2.22807
G1 X56.459 Y66.973 E2.23928
G1 X56.846 Y67.030 E2.25224
G1 X57.298 Y67.050 E2.26721
G1 X60.540 Y67.050 E2.37463
G1 X60.540 Y68.359 E2.41799
G1 X55.860 Y68.359 E2.57304
G1 X54.382 Y68.393 E2.62202
G1 E0.62202 F2400.00000
G92 E0
G1 X48.702 Y72.918 F7800.000
G1 E2.00000 F2400.00000
G1 F1800.000
G1 X49.904 Y75.000 E2.07964
G1 X48.702 Y77.082 E2.15928
G1 X46.298 Y77.082 E2.23892
G1 X45.096 Y75.000 E2.31857
G1 X46.298 Y72.918 E2.39821
G1 X48.642 Y72.918 E2.47586
G1 X48.549 Y73.184 F7800.000
G1 F1800.000
G1 X49.597 Y75.000 E2.54534
G1 X48.549 Y76.816 E2.61482
G1 X46.451 Y76.816 E2.68430
G1 X45.403 Y75.000 E2.75378
G1 X46.451 Y73.184 E2.82326
G1 X48.489 Y73.184 E2.89076
G1 X48.395 Y73.449 F7800.000
G1 F1800.000
G1 X49.291 Y75.000 E2.95008
G1 X48.395 Y76.551 E3.00939
G1 X46.605 Y76.551 E3.06871
G1 X45.709 Y75.000 E3.12803
G1 X46.605 Y73.449 E3.18735
G1 X48.335 Y73.449 E3.24468
G1 E1.24468 F2400.00000
G92 E0
G1 X64.833 Y53.096 F7800.000
G1 E2.00000 F2400.00000
G1 F1800.000
G1 X64.301 Y51.844 E2.04505
G1 X65.117 Y51.404 E2.07576
G1 X66.052 Y51.272 E2.10703
G1 X66.357 Y52.609 E2.15246
G1 X64.890 Y53.078 E2.20348
G1 X64.983 Y52.769 F7800.000
G1 F1800.000
G1 X64.641 Y51.963 E2.23249
G1 X65.201 Y51.660 E2.25361
G1 X65.847 Y51.569 E2.27522
G1 X66.044 Y52.430 E2.30447
G1 X65.040 Y52.751 E2.33939
G1 X65.133 Y52.442 F7800.000
G1 F1800.000
G1 X64.980 Y52.082 E2.35236
G1 X65.286 Y51.917 E2.36388
G1 X65.643 Y51.866 E2.37583
G1 X65.731 Y52.251 E2.38891
G1 X65.190 Y52.424 E2.40772
G1 E0.40772 F2400.00000
G92 E0
G1 X71.804 Y45.521 F7800.000
G1 E2.00000 F2400.00000
G1 F1800.000
G1 X71.804 Y104.479 E3.95325
G1 X43.196 Y104.479 E4.90100
G1 X43.196 Y45.521 E6.85425
G1 X71.744 Y45.521 E7.80001
G1 E5.80001 F2400.00000
G92 E0
G1 X58.301 Y76.878 F7800.000
G1 E2.00000 F2400.00000
G1 F1800.000
G1 X58.701 Y77.051 E2.01442
G1 X58.854 Y77.172 E2.02089
G1 X58.925 Y77.261 E2.02467
G1 X59.028 Y77.495 E2.03314
G1 X59.071 Y77.878 E2.04590
G1 X59.048 Y78.130 E2.05428
G1 X58.992 Y78.305 E2.06037
G1 X58.909 Y78.438 E2.06556
G1 X58.785 Y78.555 E2.07122
G1 X58.600 Y78.664 E2.07832
G1 X58.301 Y78.769 E2.08881
G1 X58.301 Y76.938 E2.14946
G1 E0.14946 F2400.00000
G92 E0
G1 X57.112 Y74.677 F7800.000
G1 E2.00000 F2400.00000
G1 F1800.000
G1 X56.587 Y74.740 E2.01751
G1 X56.626 Y74.307 E2.03189
G1 X56.738 Y74.281 E2.03568
G1 X56.792 Y74.368 E2.03907
G1 X57.069 Y74.635 E2.05185
G1 E0.05185 F2400.00000
G92 E0
G1 X56.156 Y72.561 F7800.000
G1 E2.00000 F2400.00000
G1 F1800.000
G1 X55.996 Y72.528 E2.00544
G1 X55.894 Y72.479 E2.00918
G1 X55.838 Y72.337 E2.01425
G1 X55.801 Y71.935 E2.02761
G1 X55.815 Y71.724 E2.03463
G1 X55.880 Y71.511 E2.04199
G1 X55.944 Y71.451 E2.04490
G1 X56.107 Y71.385 E2.05071
G1 X56.117 Y72.018 E2.07169
G1 X56.152 Y72.501 E2.08773
G1 E0.08773 F2400.00000
G92 E0
G1 X42.931 Y45.306 F7800.000
G1 E2.00000 F2400.00000
G1 F1800.000
G1 X43.076 Y45.255 E2.00510
G1 X72.069 Y45.255 E2.96564
G1 X72.069 Y104.745 E4.93648
G1 X43.076 Y104.745 E5.89702
G1 X42.931 Y104.694 E5.90212
G1 X42.931 Y45.366 E7.86762
G1 E5.86762 F2400.00000
G92 E0
G1 X58.320 Y76.597 F7800.000
G1 E2.00000 F2400.00000
G1 F1800.000
G1 X58.827 Y76.816 E2.01831
G1 X59.049 Y76.990 E2.02766
G1 X59.147 Y77.112 E2.03285
G1 X59.226 Y77.255 E2.03826
G1 X59.285 Y77.428 E2.04430
G1 X59.324 Y77.640 E2.05143
G1 X59.337 Y77.883 E2.05951
G1 X59.309 Y78.183 E2.06949
G1 X59.234 Y78.417 E2.07764
G1 X59.116 Y78.607 E2.08505
G1 X58.945 Y78.769 E2.09284
G1 X58.712 Y78.906 E2.10180
G1 X58.413 Y79.011 E2.11231
G1 X58.036 Y79.080 E2.12502
G1 X58.036 Y74.856 E2.26495
G1 X58.232 Y74.915 E2.27174
G1 X58.793 Y74.963 E2.29040
