; Gcode updated with 'stl_info' on 2019-12-05 15:39:50.707438

; stl_min_x = -6.699999809265137
; stl_max_x = 46.663299560546875
; stl_min_y = -10.199999809265137
; stl_max_y = 10.199999809265137
; stl_min_z = 0.0

; generated by Slic3r 1.3.1-dev (Build adea0d9) on 2019-12-05 at 15:39:50

; external perimeters extrusion width = 0.44mm (2.86mm^3/s)
; perimeters extrusion width = 0.56mm (4.14mm^3/s)
; infill extrusion width = 0.50mm (3.66mm^3/s)
; solid infill extrusion width = 0.56mm (3.10mm^3/s)
; top infill extrusion width = 0.56mm (3.10mm^3/s)

M107
G92 E0
;D3D:START:START
T0
M104 S215 T0

G21
G90
M107
T0
G28
G29
M109 T0 S215 T0
G0 F3000
M107
T0
G92 E0
G0 X0 Y149 Z0.1 F3600
G1 Y49 E6.5 F1200
G0 Z1
G92 E0
; Filament gcode

G21 ; set units to millimeters
G90 ; use absolute coordinates
M82 ; use absolute distances for extrusion
G92 E0
G1 Z0.300 F7800.000
G1 E-2.00000 F2400.00000
G92 E0
G1 X93.141 Y73.650 F7800.000
G1 E2.00000 F2400.00000
G1 F1800.000
G1 X93.325 Y73.427 E2.00956
G1 X93.535 Y73.230 E2.01912
G1 X93.769 Y73.060 E2.02868
G1 X94.022 Y72.921 E2.03824
G1 X94.290 Y72.815 E2.04780
G1 X94.569 Y72.743 E2.05736
G1 X94.856 Y72.707 E2.06691
G1 X95.144 Y72.707 E2.07647
G1 X95.431 Y72.743 E2.08603
G1 X95.710 Y72.815 E2.09559
G1 X95.978 Y72.921 E2.10515
G1 X96.231 Y73.060 E2.11471
G1 X96.465 Y73.230 E2.12427
G1 X96.675 Y73.427 E2.13383
G1 X96.859 Y73.650 E2.14339
G1 X97.013 Y73.893 E2.15295
G1 X97.136 Y74.154 E2.16251
G1 X97.225 Y74.429 E2.17206
G1 X97.280 Y74.712 E2.18162
G1 X97.298 Y75.000 E2.19118
G1 X97.280 Y75.288 E2.20074
G1 X97.225 Y75.571 E2.21030
G1 X97.136 Y75.846 E2.21986
G1 X97.013 Y76.107 E2.22942
G1 X96.859 Y76.350 E2.23898
G1 X96.675 Y76.573 E2.24853
G1 X96.465 Y76.770 E2.25810
G1 X96.231 Y76.940 E2.26766
G1 X95.978 Y77.079 E2.27722
G1 X95.710 Y77.185 E2.28677
G1 X95.431 Y77.257 E2.29633
G1 X95.144 Y77.293 E2.30589
G1 X94.856 Y77.293 E2.31545
G1 X94.569 Y77.257 E2.32501
G1 X94.290 Y77.185 E2.33457
G1 X94.022 Y77.079 E2.34413
G1 X93.769 Y76.940 E2.35368
G1 X93.535 Y76.770 E2.36324
G1 X93.325 Y76.573 E2.37281
G1 X93.141 Y76.350 E2.38236
G1 X92.987 Y76.107 E2.39192
G1 X92.864 Y75.846 E2.40148
G1 X92.775 Y75.571 E2.41104
G1 X92.720 Y75.288 E2.42060
G1 X92.702 Y75.000 E2.43016
G1 X92.720 Y74.712 E2.43972
G1 X92.775 Y74.429 E2.44928
G1 X92.864 Y74.154 E2.45883
G1 X92.987 Y73.893 E2.46839
G1 X93.109 Y73.700 E2.47597
G1 X93.357 Y73.806 F7800.000
G1 F1800.000
G1 X93.519 Y73.609 E2.48441
G1 X93.705 Y73.435 E2.49287
G1 X93.912 Y73.285 E2.50132
G1 X94.135 Y73.162 E2.50977
G1 X94.372 Y73.068 E2.51823
G1 X94.619 Y73.005 E2.52668
G1 X94.872 Y72.973 E2.53513
G1 X95.128 Y72.973 E2.54358
G1 X95.381 Y73.005 E2.55203
G1 X95.628 Y73.068 E2.56048
G1 X95.865 Y73.162 E2.56893
G1 X96.088 Y73.285 E2.57739
G1 X96.295 Y73.435 E2.58584
G1 X96.481 Y73.609 E2.59429
G1 X96.643 Y73.806 E2.60274
G1 X96.780 Y74.021 E2.61120
G1 X96.889 Y74.252 E2.61965
G1 X96.968 Y74.495 E2.62810
G1 X97.015 Y74.745 E2.63655
G1 X97.031 Y75.000 E2.64500
G1 X97.015 Y75.255 E2.65345
G1 X96.968 Y75.505 E2.66191
G1 X96.889 Y75.748 E2.67036
G1 X96.780 Y75.979 E2.67881
G1 X96.643 Y76.194 E2.68726
G1 X96.481 Y76.391 E2.69571
G1 X96.295 Y76.565 E2.70417
G1 X96.088 Y76.715 E2.71262
G1 X95.865 Y76.838 E2.72107
G1 X95.628 Y76.932 E2.72952
G1 X95.381 Y76.995 E2.73797
G1 X95.128 Y77.027 E2.74642
G1 X94.872 Y77.027 E2.75488
G1 X94.619 Y76.995 E2.76333
G1 X94.372 Y76.932 E2.77178
G1 X94.135 Y76.838 E2.78023
G1 X93.912 Y76.715 E2.78868
G1 X93.705 Y76.565 E2.79713
G1 X93.519 Y76.391 E2.80559
G1 X93.357 Y76.194 E2.81404
G1 X93.220 Y75.979 E2.82249
G1 X93.111 Y75.748 E2.83094
G1 X93.032 Y75.505 E2.83939
G1 X92.985 Y75.255 E2.84784
G1 X92.969 Y75.000 E2.85630
G1 X92.985 Y74.745 E2.86475
G1 X93.032 Y74.495 E2.87320
G1 X93.111 Y74.252 E2.88165
G1 X93.220 Y74.021 E2.89010
G1 X93.324 Y73.857 E2.89657
G1 X93.572 Y73.962 F7800.000
G1 F1800.000
G1 X93.713 Y73.792 E2.90391
G1 X93.875 Y73.640 E2.91126
G1 X94.054 Y73.509 E2.91860
G1 X94.248 Y73.403 E2.92595
G1 X94.455 Y73.321 E2.93329
G1 X94.669 Y73.266 E2.94063
G1 X94.889 Y73.238 E2.94798
G1 X95.111 Y73.238 E2.95532
G1 X95.331 Y73.266 E2.96267
G1 X95.545 Y73.321 E2.97001
G1 X95.752 Y73.403 E2.97736
G1 X95.946 Y73.509 E2.98470
G1 X96.125 Y73.640 E2.99205
G1 X96.287 Y73.792 E2.99939
G1 X96.428 Y73.962 E3.00673
G1 X96.547 Y74.150 E3.01408
G1 X96.641 Y74.350 E3.02142
G1 X96.710 Y74.561 E3.02877
G1 X96.751 Y74.779 E3.03611
G1 X96.765 Y75.000 E3.04346
G1 X96.751 Y75.221 E3.05080
G1 X96.710 Y75.439 E3.05815
G1 X96.641 Y75.650 E3.06549
G1 X96.547 Y75.850 E3.07283
G1 X96.428 Y76.038 E3.08018
G1 X96.287 Y76.208 E3.08752
G1 X96.125 Y76.360 E3.09487
G1 X95.946 Y76.491 E3.10221
G1 X95.752 Y76.597 E3.10956
G1 X95.545 Y76.679 E3.11690
G1 X95.331 Y76.734 E3.12425
G1 X95.111 Y76.762 E3.13159
G1 X94.889 Y76.762 E3.13894
G1 X94.669 Y76.734 E3.14628
G1 X94.455 Y76.679 E3.15362
G1 X94.248 Y76.597 E3.16097
G1 X94.054 Y76.491 E3.16831
G1 X93.875 Y76.360 E3.17566
G1 X93.713 Y76.208 E3.18300
G1 X93.572 Y76.038 E3.19035
G1 X93.453 Y75.850 E3.19769
G1 X93.359 Y75.650 E3.20504
G1 X93.290 Y75.439 E3.21238
G1 X93.249 Y75.221 E3.21972
G1 X93.235 Y75.000 E3.22707
G1 X93.249 Y74.779 E3.23441
G1 X93.290 Y74.561 E3.24176
G1 X93.359 Y74.350 E3.24910
G1 X93.540 Y74.013 E3.26178
G1 X93.482 Y73.760 F7800.000
G1 E1.26178 F2400.00000
G92 E0
G1 X57.298 Y75.000 F7800.000
G1 E2.00000 F2400.00000
G1 F1800.000
G1 X57.279 Y75.288 E2.00956
G1 X57.225 Y75.571 E2.01912
G1 X57.136 Y75.846 E2.02868
G1 X57.013 Y76.107 E2.03824
G1 X56.859 Y76.351 E2.04780
G1 X56.675 Y76.573 E2.05735
G1 X56.465 Y76.770 E2.06691
G1 X56.231 Y76.940 E2.07647
G1 X55.978 Y77.079 E2.08603
G1 X55.710 Y77.185 E2.09559
G1 X55.431 Y77.257 E2.10515
G1 X55.144 Y77.293 E2.11471
G1 X54.856 Y77.293 E2.12427
G1 X54.569 Y77.257 E2.13383
G1 X54.290 Y77.185 E2.14339
G1 X54.022 Y77.079 E2.15295
G1 X53.769 Y76.940 E2.16250
G1 X53.535 Y76.770 E2.17206
G1 X53.325 Y76.573 E2.18162
G1 X53.141 Y76.351 E2.19118
G1 X52.987 Y76.107 E2.20074
G1 X52.864 Y75.846 E2.21030
G1 X52.775 Y75.571 E2.21986
G1 X52.721 Y75.288 E2.22942
G1 X52.702 Y75.000 E2.23898
G1 X52.721 Y74.712 E2.24854
G1 X52.775 Y74.429 E2.25810
G1 X52.864 Y74.154 E2.26765
G1 X52.987 Y73.893 E2.27721
G1 X53.141 Y73.649 E2.28677
G1 X53.325 Y73.427 E2.29633
G1 X53.535 Y73.230 E2.30589
G1 X53.769 Y73.060 E2.31545
G1 X54.022 Y72.921 E2.32501
G1 X54.290 Y72.815 E2.33457
G1 X54.569 Y72.743 E2.34413
G1 X54.856 Y72.707 E2.35369
G1 X55.144 Y72.707 E2.36324
G1 X55.431 Y72.743 E2.37280
G1 X55.710 Y72.815 E2.38236
G1 X55.978 Y72.921 E2.39192
G1 X56.231 Y73.060 E2.40148
G1 X56.465 Y73.230 E2.41104
G1 X56.675 Y73.427 E2.42060
G1 X56.859 Y73.649 E2.43016
G1 X57.013 Y73.893 E2.43972
G1 X57.136 Y74.154 E2.44928
G1 X57.225 Y74.429 E2.45884
G1 X57.279 Y74.712 E2.46839
G1 X57.294 Y74.940 E2.47597
G1 X57.031 Y75.000 F7800.000
G1 F1800.000
G1 X57.015 Y75.255 E2.48442
G1 X56.968 Y75.505 E2.49287
G1 X56.889 Y75.748 E2.50132
G1 X56.780 Y75.979 E2.50977
G1 X56.643 Y76.194 E2.51823
G1 X56.481 Y76.391 E2.52668
G1 X56.295 Y76.565 E2.53513
G1 X56.089 Y76.715 E2.54358
G1 X55.865 Y76.838 E2.55203
G1 X55.628 Y76.932 E2.56048
G1 X55.381 Y76.995 E2.56894
G1 X55.128 Y77.027 E2.57739
G1 X54.872 Y77.027 E2.58584
G1 X54.619 Y76.995 E2.59429
G1 X54.372 Y76.932 E2.60274
G1 X54.135 Y76.838 E2.61120
G1 X53.911 Y76.715 E2.61965
G1 X53.705 Y76.565 E2.62810
G1 X53.519 Y76.391 E2.63655
G1 X53.357 Y76.194 E2.64500
G1 X53.220 Y75.979 E2.65345
G1 X53.111 Y75.748 E2.66191
G1 X53.032 Y75.505 E2.67036
G1 X52.985 Y75.255 E2.67881
G1 X52.969 Y75.000 E2.68726
G1 X52.985 Y74.745 E2.69571
G1 X53.032 Y74.495 E2.70416
G1 X53.111 Y74.252 E2.71262
G1 X53.220 Y74.021 E2.72107
G1 X53.357 Y73.806 E2.72952
G1 X53.519 Y73.609 E2.73797
G1 X53.705 Y73.435 E2.74642
G1 X53.911 Y73.285 E2.75488
G1 X54.135 Y73.162 E2.76333
G1 X54.372 Y73.068 E2.77178
G1 X54.619 Y73.005 E2.78023
G1 X54.872 Y72.973 E2.78868
G1 X55.128 Y72.973 E2.79713
G1 X55.381 Y73.005 E2.80559
G1 X55.628 Y73.068 E2.81404
G1 X55.865 Y73.162 E2.82249
G1 X56.089 Y73.285 E2.83094
G1 X56.295 Y73.435 E2.83939
G1 X56.481 Y73.609 E2.84785
G1 X56.643 Y73.806 E2.85630
G1 X56.780 Y74.021 E2.86475
G1 X56.889 Y74.252 E2.87320
G1 X56.968 Y74.495 E2.88165
G1 X57.015 Y74.745 E2.89010
G1 X57.028 Y74.940 E2.89657
G1 X56.765 Y75.000 F7800.000
G1 F1800.000
G1 X56.751 Y75.221 E2.90391
G1 X56.710 Y75.439 E2.91126
G1 X56.641 Y75.650 E2.91860
G1 X56.547 Y75.850 E2.92595
G1 X56.428 Y76.038 E2.93329
G1 X56.287 Y76.208 E2.94064
G1 X56.125 Y76.360 E2.94798
G1 X55.946 Y76.491 E2.95532
G1 X55.752 Y76.597 E2.96267
G1 X55.546 Y76.679 E2.97001
G1 X55.331 Y76.734 E2.97736
G1 X55.111 Y76.762 E2.98470
G1 X54.889 Y76.762 E2.99205
G1 X54.669 Y76.734 E2.99939
G1 X54.454 Y76.679 E3.00674
G1 X54.248 Y76.597 E3.01408
G1 X54.054 Y76.491 E3.02143
G1 X53.875 Y76.360 E3.02877
G1 X53.713 Y76.208 E3.03611
G1 X53.572 Y76.038 E3.04346
G1 X53.453 Y75.850 E3.05080
G1 X53.359 Y75.650 E3.05815
G1 X53.290 Y75.439 E3.06549
G1 X53.249 Y75.221 E3.07284
G1 X53.235 Y75.000 E3.08018
G1 X53.249 Y74.779 E3.08753
G1 X53.290 Y74.561 E3.09487
G1 X53.359 Y74.350 E3.10222
G1 X53.453 Y74.150 E3.10956
G1 X53.572 Y73.962 E3.11690
G1 X53.713 Y73.792 E3.12425
G1 X53.875 Y73.640 E3.13159
G1 X54.054 Y73.509 E3.13894
G1 X54.248 Y73.403 E3.14628
G1 X54.454 Y73.321 E3.15363
G1 X54.669 Y73.266 E3.16097
G1 X54.889 Y73.238 E3.16832
G1 X55.111 Y73.238 E3.17566
G1 X55.331 Y73.266 E3.18301
G1 X55.546 Y73.321 E3.19035
G1 X55.752 Y73.403 E3.19769
G1 X55.946 Y73.509 E3.20504
G1 X56.125 Y73.640 E3.21238
G1 X56.287 Y73.792 E3.21973
G1 X56.428 Y73.962 E3.22707
G1 X56.547 Y74.150 E3.23442
G1 X56.641 Y74.350 E3.24176
G1 X56.710 Y74.561 E3.24911
G1 X56.762 Y74.940 E3.26178
G1 X56.957 Y75.111 F7800.000
G1 E1.26178 F2400.00000
G92 E0
G1 X53.758 Y69.127 F7800.000
G1 E2.00000 F2400.00000
G1 F1800.000
G1 X72.995 Y65.710 E2.64727
G1 X74.007 Y65.549 E2.68122
G1 X75.000 Y65.497 E2.71418
G1 X76.007 Y65.549 E2.74758
G1 X77.019 Y65.710 E2.78152
G1 X96.141 Y69.106 E3.42494
G1 X96.858 Y69.292 E3.44947
G1 X97.442 Y69.516 E3.47019
G1 X98.001 Y69.801 E3.49100
G1 X98.528 Y70.144 E3.51182
G1 X99.017 Y70.539 E3.53264
G1 X99.461 Y70.983 E3.55345
G1 X99.856 Y71.472 E3.57427
G1 X100.199 Y71.999 E3.59509
G1 X100.484 Y72.558 E3.61590
G1 X100.709 Y73.145 E3.63672
G1 X100.872 Y73.752 E3.65753
G1 X100.970 Y74.373 E3.67835
G1 X101.003 Y75.000 E3.69916
G1 X100.970 Y75.627 E3.71998
G1 X100.872 Y76.248 E3.74080
G1 X100.709 Y76.855 E3.76161
G1 X100.484 Y77.442 E3.78243
G1 X100.199 Y78.001 E3.80324
G1 X99.856 Y78.528 E3.82406
G1 X99.461 Y79.017 E3.84488
G1 X99.017 Y79.461 E3.86569
G1 X98.528 Y79.856 E3.88651
G1 X98.001 Y80.199 E3.90733
G1 X97.442 Y80.484 E3.92814
G1 X96.855 Y80.709 E3.94896
G1 X96.242 Y80.873 E3.96999
G1 X77.019 Y84.290 E4.61682
G1 X76.007 Y84.451 E4.65076
G1 X75.000 Y84.503 E4.68416
G1 X74.007 Y84.451 E4.71712
G1 X72.995 Y84.290 E4.75107
G1 X53.758 Y80.873 E5.39834
G1 X53.145 Y80.709 E5.41937
G1 X52.558 Y80.484 E5.44018
G1 X51.999 Y80.199 E5.46100
G1 X51.472 Y79.856 E5.48182
G1 X50.983 Y79.461 E5.50263
G1 X50.539 Y79.017 E5.52345
G1 X50.144 Y78.528 E5.54426
G1 X49.801 Y78.001 E5.56508
G1 X49.516 Y77.442 E5.58590
G1 X49.291 Y76.855 E5.60671
G1 X49.128 Y76.248 E5.62753
G1 X49.030 Y75.627 E5.64835
G1 X48.997 Y75.000 E5.66916
G1 X49.030 Y74.373 E5.68998
G1 X49.128 Y73.752 E5.71079
G1 X49.291 Y73.145 E5.73161
G1 X49.516 Y72.558 E5.75243
G1 X49.801 Y71.999 E5.77324
G1 X50.144 Y71.472 E5.79406
G1 X50.539 Y70.983 E5.81487
G1 X50.983 Y70.539 E5.83569
G1 X51.472 Y70.144 E5.85651
G1 X51.999 Y69.801 E5.87732
G1 X52.558 Y69.516 E5.89814
G1 X53.145 Y69.291 E5.91895
G1 X53.700 Y69.142 E5.93800
G1 X53.701 Y68.867 F7800.000
G1 F1800.000
G1 X72.951 Y65.448 E6.58573
G1 X73.979 Y65.285 E6.62022
G1 X75.000 Y65.231 E6.65410
G1 X76.035 Y65.285 E6.68842
G1 X77.063 Y65.448 E6.72291
G1 X96.198 Y68.847 E7.36676
G1 X96.939 Y69.039 E7.39212
G1 X97.550 Y69.273 E7.41380
G1 X98.134 Y69.571 E7.43554
G1 X98.685 Y69.928 E7.45728
G1 X99.195 Y70.341 E7.47902
G1 X99.659 Y70.805 E7.50076
G1 X100.072 Y71.315 E7.52249
G1 X100.429 Y71.866 E7.54423
G1 X100.727 Y72.450 E7.56597
G1 X100.962 Y73.063 E7.58771
G1 X101.132 Y73.697 E7.60945
G1 X101.234 Y74.345 E7.63119
G1 X101.269 Y75.000 E7.65293
G1 X101.234 Y75.655 E7.67466
G1 X101.132 Y76.303 E7.69640
G1 X100.962 Y76.937 E7.71814
G1 X100.727 Y77.550 E7.73988
G1 X100.429 Y78.134 E7.76162
G1 X100.072 Y78.685 E7.78336
G1 X99.659 Y79.195 E7.80510
G1 X99.195 Y79.659 E7.82683
G1 X98.685 Y80.072 E7.84857
G1 X98.134 Y80.429 E7.87031
G1 X97.550 Y80.727 E7.89205
G1 X96.937 Y80.962 E7.91379
G1 X96.299 Y81.133 E7.93566
G1 X77.063 Y84.552 E8.58295
G1 X76.035 Y84.715 E8.61743
G1 X75.000 Y84.769 E8.65176
G1 X73.979 Y84.715 E8.68564
G1 X72.951 Y84.552 E8.72013
G1 X53.701 Y81.133 E9.36786
G1 X53.063 Y80.962 E9.38973
G1 X52.450 Y80.727 E9.41147
G1 X51.866 Y80.429 E9.43321
G1 X51.315 Y80.072 E9.45495
G1 X50.805 Y79.659 E9.47668
G1 X50.341 Y79.195 E9.49842
G1 X49.928 Y78.685 E9.52016
G1 X49.571 Y78.134 E9.54190
G1 X49.273 Y77.550 E9.56364
G1 X49.038 Y76.937 E9.58538
G1 X48.868 Y76.303 E9.60712
G1 X48.766 Y75.655 E9.62885
G1 X48.731 Y75.000 E9.65059
G1 X48.766 Y74.345 E9.67233
G1 X48.868 Y73.697 E9.69407
G1 X49.038 Y73.063 E9.71581
G1 X49.273 Y72.450 E9.73755
G1 X49.571 Y71.866 E9.75928
G1 X49.928 Y71.315 E9.78102
G1 X50.341 Y70.805 E9.80276
G1 X50.805 Y70.341 E9.82450
G1 X51.315 Y69.928 E9.84624
G1 X51.866 Y69.571 E9.86798
G1 X52.450 Y69.273 E9.88972
G1 X53.063 Y69.038 E9.91145
G1 X53.643 Y68.883 E9.93134
G1 X53.643 Y68.608 F7800.000
G1 F1800.000
G1 X72.907 Y65.186 E10.57953
G1 X73.951 Y65.020 E10.61456
G1 X75.000 Y64.965 E10.64936
G1 X76.063 Y65.020 E10.68461
G1 X77.107 Y65.186 E10.71964
G1 X96.254 Y68.587 E11.36392
G1 X97.020 Y68.785 E11.39012
G1 X97.658 Y69.030 E11.41276
G1 X98.267 Y69.341 E11.43542
G1 X98.841 Y69.713 E11.45808
G1 X99.373 Y70.144 E11.48074
G1 X99.856 Y70.627 E11.50340
G1 X100.287 Y71.159 E11.52606
G1 X100.659 Y71.733 E11.54872
G1 X100.970 Y72.342 E11.57138
G1 X101.215 Y72.981 E11.59405
G1 X101.392 Y73.641 E11.61671
G1 X101.499 Y74.317 E11.63937
G1 X101.535 Y75.000 E11.66203
G1 X101.499 Y75.683 E11.68469
G1 X101.392 Y76.359 E11.70735
G1 X101.215 Y77.019 E11.73001
G1 X100.970 Y77.658 E11.75267
G1 X100.659 Y78.267 E11.77533
G1 X100.287 Y78.841 E11.79799
G1 X99.856 Y79.373 E11.82065
G1 X99.373 Y79.856 E11.84331
G1 X98.841 Y80.287 E11.86597
G1 X98.267 Y80.659 E11.88864
G1 X97.658 Y80.970 E11.91130
G1 X97.019 Y81.215 E11.93396
G1 X96.357 Y81.392 E11.95667
G1 X77.107 Y84.814 E12.60442
G1 X76.063 Y84.980 E12.63945
G1 X75.000 Y85.035 E12.67470
G1 X73.951 Y84.980 E12.70950
G1 X72.907 Y84.814 E12.74453
G1 X53.643 Y81.392 E13.39272
G1 X52.981 Y81.215 E13.41543
G1 X52.342 Y80.970 E13.43809
G1 X51.733 Y80.659 E13.46076
G1 X51.159 Y80.287 E13.48342
G1 X50.627 Y79.856 E13.50608
G1 X50.144 Y79.373 E13.52874
G1 X49.713 Y78.841 E13.55140
G1 X49.341 Y78.267 E13.57406
G1 X49.030 Y77.658 E13.59672
G1 X48.785 Y77.019 E13.61938
G1 X48.608 Y76.359 E13.64204
G1 X48.501 Y75.683 E13.66470
G1 X48.465 Y75.000 E13.68736
G1 X48.501 Y74.317 E13.71002
G1 X48.608 Y73.641 E13.73269
G1 X48.785 Y72.981 E13.75535
G1 X49.030 Y72.342 E13.77801
G1 X49.341 Y71.733 E13.80067
G1 X49.713 Y71.159 E13.82333
G1 X50.144 Y70.627 E13.84599
G1 X50.627 Y70.144 E13.86865
G1 X51.159 Y69.713 E13.89131
G1 X51.733 Y69.341 E13.91397
G1 X52.342 Y69.030 E13.93663
G1 X52.981 Y68.785 E13.95929
G1 X53.585 Y68.623 E13.98002
G1 X53.914 Y68.902 F7800.000
G1 E11.98002 F2400.00000
G92 E0
G1 X51.059 Y70.839 F7800.000
G1 E2.00000 F2400.00000
G1 F1800.000
G1 X50.633 Y71.265 E2.02005
G1 X51.266 Y70.633 E2.04983
G1 X51.731 Y70.255 E2.06976
G1 X52.235 Y69.928 E2.08974
G1 X52.463 Y69.812 E2.09827
G1 X49.812 Y72.463 E2.22301
G1 X49.656 Y72.770 E2.23445
G1 X49.515 Y73.138 E2.24757
G1 X53.138 Y69.515 E2.41805
G1 X53.331 Y69.441 E2.42491
G1 X53.684 Y69.346 E2.43708
G1 X49.346 Y73.684 E2.64116
G1 X49.285 Y73.911 E2.64897
G1 X49.245 Y74.162 E2.65742
G1 X54.168 Y69.239 E2.88903
G1 X54.627 Y69.157 E2.90453
G1 X49.186 Y74.598 E3.16050
G1 X49.165 Y74.996 E3.17376
G1 X55.086 Y69.076 E3.45229
G1 X55.544 Y68.994 E3.46779
