; Gcode updated with 'stl_info' on 2019-12-03 19:07:34.968252

; stl_min_x = -12.149999618530273
; stl_max_x = 37.11249923706055
; stl_min_y = -12.149999618530273
; stl_max_y = 12.149999618530273
; stl_min_z = 0.0

; generated by Slic3r 1.3.1-dev (Build adea0d9) on 2019-12-03 at 19:07:34

; external perimeters extrusion width = 0.55mm (1.90mm^3/s)
; perimeters extrusion width = 0.70mm (2.71mm^3/s)
; infill extrusion width = 0.62mm (2.41mm^3/s)
; solid infill extrusion width = 0.70mm (2.04mm^3/s)
; top infill extrusion width = 0.70mm (2.04mm^3/s)

M107
G92 E0
;D3D:START:START
T0
M104 S215 T0

G21
G90
M107
T0
G28
G29
M109 T0 S215 T0
G0 F3000
M107
T0
G92 E0
G0 X0 Y149 Z0.1 F3600
G1 Y49 E6.5 F1200
G0 Z1
G92 E0
; Filament gcode

G21 ; set units to millimeters
G90 ; use absolute coordinates
M82 ; use absolute distances for extrusion
G92 E0
G1 Z0.090 F7800.000
G1 E-2.00000 F2400.00000
G92 E0
G1 X50.845 Y60.987 F7800.000
G1 E2.00000 F2400.00000
G1 F1800.000
G1 X51.981 Y60.115 E2.00427
G1 X52.774 Y59.585 E2.00711
G1 X53.181 Y59.336 E2.00854
G1 X54.439 Y58.653 E2.01280
G1 X55.746 Y58.071 E2.01707
G1 X57.095 Y57.593 E2.02134
G1 X58.013 Y57.334 E2.02418
G1 X58.478 Y57.223 E2.02561
G1 X59.885 Y56.962 E2.02987
G1 X61.308 Y56.813 E2.03414
G1 X62.500 Y56.770 E2.03770
G1 X87.739 Y56.775 E2.11295
G1 X88.692 Y56.813 E2.11579
G1 X90.115 Y56.962 E2.12006
G1 X91.522 Y57.223 E2.12433
G1 X91.987 Y57.334 E2.12575
G1 X92.905 Y57.593 E2.12860
G1 X94.254 Y58.071 E2.13286
G1 X94.695 Y58.254 E2.13429
G1 X95.986 Y58.870 E2.13855
G1 X96.819 Y59.336 E2.14140
G1 X97.226 Y59.585 E2.14282
G1 X98.406 Y60.396 E2.14709
G1 X99.155 Y60.987 E2.14993
G1 X99.518 Y61.297 E2.15136
G1 X100.218 Y61.944 E2.15420
G1 X100.556 Y62.282 E2.15562
G1 X101.513 Y63.345 E2.15989
G1 X102.104 Y64.094 E2.16273
G1 X102.385 Y64.481 E2.16416
G1 X102.915 Y65.274 E2.16700
G1 X103.164 Y65.681 E2.16843
G1 X103.630 Y66.514 E2.17127
G1 X104.246 Y67.805 E2.17554
G1 X104.429 Y68.246 E2.17696
G1 X104.907 Y69.595 E2.18123
G1 X105.166 Y70.513 E2.18407
G1 X105.277 Y70.978 E2.18550
G1 X105.538 Y72.385 E2.18976
G1 X105.650 Y73.332 E2.19261
G1 X105.725 Y74.761 E2.19687
G1 X105.725 Y75.239 E2.19830
G1 X105.687 Y76.192 E2.20114
G1 X105.538 Y77.615 E2.20541
G1 X105.463 Y78.087 E2.20683
G1 X105.277 Y79.022 E2.20968
G1 X105.166 Y79.487 E2.21110
G1 X104.907 Y80.405 E2.21395
G1 X104.429 Y81.754 E2.21821
G1 X104.246 Y82.195 E2.21964
G1 X103.630 Y83.486 E2.22390
G1 X103.164 Y84.319 E2.22675
G1 X102.915 Y84.726 E2.22817
G1 X102.385 Y85.519 E2.23102
G1 X102.104 Y85.906 E2.23244
G1 X101.203 Y87.018 E2.23671
G1 X100.218 Y88.056 E2.24097
G1 X99.518 Y88.703 E2.24382
G1 X99.155 Y89.013 E2.24524
G1 X98.406 Y89.604 E2.24809
G1 X97.226 Y90.415 E2.25235
G1 X96.819 Y90.664 E2.25378
G1 X95.561 Y91.347 E2.25804
G1 X94.695 Y91.746 E2.26089
G1 X93.359 Y92.259 E2.26516
G1 X91.987 Y92.666 E2.26942
G1 X91.522 Y92.777 E2.27085
G1 X90.587 Y92.963 E2.27369
G1 X89.168 Y93.150 E2.27796
G1 X88.692 Y93.187 E2.27938
G1 X87.500 Y93.230 E2.28294
G1 X62.261 Y93.225 E2.35819
G1 X61.308 Y93.187 E2.36104
G1 X59.885 Y93.038 E2.36530
G1 X58.478 Y92.777 E2.36957
G1 X58.013 Y92.666 E2.37099
G1 X57.095 Y92.407 E2.37384
G1 X55.746 Y91.929 E2.37811
G1 X55.305 Y91.746 E2.37953
G1 X54.014 Y91.130 E2.38380
G1 X53.181 Y90.664 E2.38664
G1 X52.774 Y90.415 E2.38806
G1 X51.981 Y89.885 E2.39091
G1 X50.845 Y89.013 E2.39518
G1 X49.782 Y88.056 E2.39944
G1 X49.444 Y87.718 E2.40087
G1 X48.487 Y86.655 E2.40513
G1 X47.896 Y85.906 E2.40798
G1 X47.085 Y84.726 E2.41224
G1 X46.836 Y84.319 E2.41367
G1 X46.153 Y83.061 E2.41794
G1 X45.571 Y81.754 E2.42220
G1 X45.093 Y80.405 E2.42647
G1 X44.834 Y79.487 E2.42931
G1 X44.723 Y79.022 E2.43074
G1 X44.537 Y78.087 E2.43358
G1 X44.462 Y77.615 E2.43501
G1 X44.313 Y76.192 E2.43927
G1 X44.275 Y75.239 E2.44212
G1 X44.275 Y74.761 E2.44354
G1 X44.313 Y73.808 E2.44639
G1 X44.462 Y72.385 E2.45065
G1 X44.723 Y70.978 E2.45492
G1 X44.834 Y70.513 E2.45634
G1 X45.241 Y69.141 E2.46061
G1 X45.754 Y67.805 E2.46488
G1 X46.370 Y66.514 E2.46914
G1 X46.836 Y65.681 E2.47199
G1 X47.085 Y65.274 E2.47341
G1 X47.615 Y64.481 E2.47626
G1 X47.896 Y64.094 E2.47768
G1 X48.797 Y62.982 E2.48195
G1 X49.782 Y61.944 E2.48621
G1 X50.788 Y61.035 E2.49026
G1 E0.49026 F2400.00000
G92 E0
G1 X64.055 Y76.879 F7800.000
G1 E2.00000 F2400.00000
G1 F1800.000
G1 X63.807 Y77.059 E2.00091
G1 X63.539 Y77.207 E2.00183
G1 X63.254 Y77.320 E2.00274
G1 X62.957 Y77.396 E2.00365
G1 X62.653 Y77.434 E2.00457
G1 X62.347 Y77.434 E2.00548
G1 X62.043 Y77.396 E2.00639
G1 X61.746 Y77.320 E2.00731
G1 X61.461 Y77.207 E2.00822
G1 X61.193 Y77.059 E2.00913
G1 X60.945 Y76.879 E2.01005
G1 X60.722 Y76.670 E2.01096
G1 X60.527 Y76.434 E2.01187
G1 X60.363 Y76.175 E2.01279
G1 X60.232 Y75.898 E2.01370
G1 X60.138 Y75.607 E2.01461
G1 X60.080 Y75.306 E2.01553
G1 X60.061 Y75.000 E2.01644
G1 X60.080 Y74.694 E2.01735
G1 X60.138 Y74.393 E2.01827
G1 X60.232 Y74.102 E2.01918
G1 X60.363 Y73.825 E2.02009
G1 X60.527 Y73.566 E2.02101
G1 X60.722 Y73.330 E2.02192
G1 X60.945 Y73.121 E2.02283
G1 X61.193 Y72.941 E2.02375
G1 X61.461 Y72.793 E2.02466
G1 X61.746 Y72.680 E2.02557
G1 X62.043 Y72.604 E2.02649
G1 X62.347 Y72.566 E2.02740
G1 X62.653 Y72.566 E2.02831
G1 X62.957 Y72.604 E2.02923
G1 X63.254 Y72.680 E2.03014
G1 X63.539 Y72.793 E2.03105
G1 X63.807 Y72.941 E2.03197
G1 X64.055 Y73.121 E2.03288
G1 X64.278 Y73.330 E2.03379
G1 X64.473 Y73.566 E2.03471
G1 X64.637 Y73.825 E2.03562
G1 X64.768 Y74.102 E2.03653
G1 X64.862 Y74.393 E2.03745
G1 X64.920 Y74.694 E2.03836
G1 X64.939 Y75.000 E2.03927
G1 X64.920 Y75.306 E2.04019
G1 X64.862 Y75.607 E2.04110
G1 X64.768 Y75.898 E2.04201
G1 X64.637 Y76.175 E2.04293
G1 X64.473 Y76.434 E2.04384
G1 X64.278 Y76.670 E2.04475
G1 X64.109 Y76.828 E2.04544
G1 X64.004 Y76.818 F7800.000
G1 F1800.000
G1 X63.764 Y76.992 E2.04633
G1 X63.505 Y77.135 E2.04721
G1 X63.229 Y77.244 E2.04809
G1 X62.942 Y77.317 E2.04898
G1 X62.648 Y77.355 E2.04986
G1 X62.352 Y77.355 E2.05074
G1 X62.058 Y77.317 E2.05163
G1 X61.771 Y77.244 E2.05251
G1 X61.495 Y77.135 E2.05339
G1 X61.236 Y76.992 E2.05428
G1 X60.996 Y76.818 E2.05516
G1 X60.780 Y76.615 E2.05604
G1 X60.591 Y76.387 E2.05693
G1 X60.433 Y76.137 E2.05781
G1 X60.306 Y75.869 E2.05869
G1 X60.215 Y75.587 E2.05958
G1 X60.159 Y75.296 E2.06046
G1 X60.141 Y75.000 E2.06134
G1 X60.159 Y74.704 E2.06223
G1 X60.215 Y74.413 E2.06311
G1 X60.306 Y74.131 E2.06399
G1 X60.433 Y73.863 E2.06488
G1 X60.591 Y73.613 E2.06576
G1 X60.780 Y73.385 E2.06664
G1 X60.996 Y73.182 E2.06753
G1 X61.236 Y73.008 E2.06841
G1 X61.495 Y72.865 E2.06929
G1 X61.771 Y72.756 E2.07018
G1 X62.058 Y72.683 E2.07106
G1 X62.352 Y72.645 E2.07194
G1 X62.648 Y72.645 E2.07283
G1 X62.942 Y72.683 E2.07371
G1 X63.229 Y72.756 E2.07459
G1 X63.505 Y72.865 E2.07548
G1 X63.764 Y73.008 E2.07636
G1 X64.004 Y73.182 E2.07724
G1 X64.220 Y73.385 E2.07813
G1 X64.409 Y73.613 E2.07901
G1 X64.567 Y73.863 E2.07989
G1 X64.694 Y74.131 E2.08078
G1 X64.785 Y74.413 E2.08166
G1 X64.841 Y74.704 E2.08254
G1 X64.859 Y75.000 E2.08343
G1 X64.841 Y75.296 E2.08431
G1 X64.785 Y75.587 E2.08520
G1 X64.694 Y75.869 E2.08608
G1 X64.567 Y76.137 E2.08696
G1 X64.409 Y76.387 E2.08785
G1 X64.220 Y76.615 E2.08873
G1 X64.059 Y76.767 E2.08939
G1 X63.953 Y76.756 F7800.000
G1 F1800.000
G1 X63.721 Y76.925 E2.09024
G1 X63.471 Y77.062 E2.09110
G1 X63.204 Y77.168 E2.09195
G1 X62.927 Y77.239 E2.09280
G1 X62.643 Y77.275 E2.09366
G1 X62.357 Y77.275 E2.09451
G1 X62.073 Y77.239 E2.09536
G1 X61.796 Y77.168 E2.09622
G1 X61.529 Y77.062 E2.09707
G1 X61.279 Y76.925 E2.09792
G1 X61.047 Y76.756 E2.09878
G1 X60.838 Y76.560 E2.09963
G1 X60.656 Y76.340 E2.10048
G1 X60.503 Y76.098 E2.10134
G1 X60.381 Y75.839 E2.10219
G1 X60.292 Y75.567 E2.10304
G1 X60.239 Y75.286 E2.10390
G1 X60.221 Y75.000 E2.10475
G1 X60.239 Y74.714 E2.10561
G1 X60.292 Y74.433 E2.10646
G1 X60.381 Y74.161 E2.10731
G1 X60.503 Y73.902 E2.10817
G1 X60.656 Y73.660 E2.10902
G1 X60.838 Y73.440 E2.10987
G1 X61.047 Y73.244 E2.11073
G1 X61.279 Y73.075 E2.11158
G1 X61.529 Y72.937 E2.11243
G1 X61.796 Y72.832 E2.11329
G1 X62.073 Y72.761 E2.11414
G1 X62.357 Y72.725 E2.11499
G1 X62.643 Y72.725 E2.11585
G1 X62.927 Y72.761 E2.11670
G1 X63.204 Y72.832 E2.11755
G1 X63.471 Y72.937 E2.11841
G1 X63.721 Y73.075 E2.11926
G1 X63.953 Y73.244 E2.12011
G1 X64.162 Y73.440 E2.12097
G1 X64.344 Y73.660 E2.12182
G1 X64.497 Y73.902 E2.12268
G1 X64.619 Y74.161 E2.12353
G1 X64.708 Y74.433 E2.12438
G1 X64.761 Y74.714 E2.12524
G1 X64.779 Y75.000 E2.12609
G1 X64.761 Y75.286 E2.12694
G1 X64.708 Y75.567 E2.12780
G1 X64.619 Y75.839 E2.12865
G1 X64.497 Y76.098 E2.12950
G1 X64.344 Y76.340 E2.13036
G1 X64.162 Y76.560 E2.13121
G1 X64.008 Y76.705 E2.13184
G1 X63.902 Y76.695 F7800.000
G1 F1800.000
G1 X63.679 Y76.857 E2.13266
G1 X63.437 Y76.990 E2.13349
G1 X63.180 Y77.092 E2.13431
G1 X62.912 Y77.161 E2.13513
G1 X62.638 Y77.195 E2.13596
G1 X62.362 Y77.195 E2.13678
G1 X62.088 Y77.161 E2.13761
G1 X61.820 Y77.092 E2.13843
G1 X61.563 Y76.990 E2.13925
G1 X61.321 Y76.857 E2.14008
G1 X61.098 Y76.695 E2.14090
G1 X60.897 Y76.506 E2.14172
G1 X60.720 Y76.293 E2.14255
G1 X60.572 Y76.060 E2.14337
G1 X60.455 Y75.810 E2.14419
G1 X60.370 Y75.547 E2.14502
G1 X60.318 Y75.276 E2.14584
G1 X60.300 Y75.000 E2.14667
G1 X60.318 Y74.724 E2.14749
G1 X60.370 Y74.453 E2.14831
G1 X60.455 Y74.190 E2.14914
G1 X60.572 Y73.940 E2.14996
G1 X60.720 Y73.707 E2.15078
G1 X60.897 Y73.494 E2.15161
G1 X61.098 Y73.305 E2.15243
G1 X61.321 Y73.143 E2.15325
G1 X61.563 Y73.010 E2.15408
G1 X61.820 Y72.908 E2.15490
G1 X62.088 Y72.839 E2.15573
G1 X62.362 Y72.805 E2.15655
G1 X62.638 Y72.805 E2.15737
G1 X62.912 Y72.839 E2.15820
G1 X63.180 Y72.908 E2.15902
G1 X63.437 Y73.010 E2.15984
G1 X63.679 Y73.143 E2.16067
G1 X63.902 Y73.305 E2.16149
G1 X64.103 Y73.494 E2.16231
G1 X64.280 Y73.707 E2.16314
G1 X64.428 Y73.940 E2.16396
G1 X64.545 Y74.190 E2.16479
G1 X64.630 Y74.453 E2.16561
G1 X64.682 Y74.724 E2.16643
G1 X64.700 Y75.000 E2.16726
G1 X64.682 Y75.276 E2.16808
G1 X64.630 Y75.547 E2.16890
G1 X64.545 Y75.810 E2.16973
G1 X64.428 Y76.060 E2.17055
G1 X64.280 Y76.293 E2.17137
G1 X64.103 Y76.506 E2.17220
G1 X63.957 Y76.643 E2.17280
G1 X63.902 Y76.695 F7800.000
G1 E0.17280 F2400.00000
G92 E0
G1 X69.878 Y84.276 F7800.000
G1 E2.00000 F2400.00000
G1 F1800.000
G1 X69.472 Y84.596 E2.00154
G1 X68.697 Y85.113 E2.00432
G1 X67.885 Y85.568 E2.00710
G1 X67.039 Y85.958 E2.00987
G1 X66.165 Y86.281 E2.01265
G1 X65.269 Y86.533 E2.01543
G1 X64.356 Y86.715 E2.01820
G1 X63.431 Y86.825 E2.02098
G1 X62.500 Y86.861 E2.02376
G1 X61.569 Y86.825 E2.02654
G1 X60.644 Y86.715 E2.02931
G1 X59.731 Y86.533 E2.03209
G1 X58.835 Y86.281 E2.03487
G1 X57.961 Y85.958 E2.03764
G1 X57.115 Y85.568 E2.04042
G1 X56.303 Y85.113 E2.04320
G1 X55.528 Y84.596 E2.04597
G1 X54.797 Y84.019 E2.04875
G1 X54.113 Y83.387 E2.05153
G1 X53.481 Y82.703 E2.05430
G1 X52.904 Y81.972 E2.05708
G1 X52.387 Y81.197 E2.05986
G1 X51.932 Y80.385 E2.06264
G1 X51.542 Y79.539 E2.06541
G1 X51.219 Y78.665 E2.06819
G1 X50.966 Y77.769 E2.07097
G1 X50.785 Y76.856 E2.07374
G1 X50.675 Y75.931 E2.07652
G1 X50.639 Y75.000 E2.07930
G1 X50.675 Y74.069 E2.08207
G1 X50.785 Y73.144 E2.08485
G1 X50.966 Y72.231 E2.08763
G1 X51.219 Y71.335 E2.09040
G1 X51.542 Y70.461 E2.09318
G1 X51.932 Y69.615 E2.09596
G1 X52.387 Y68.803 E2.09874
G1 X52.904 Y68.028 E2.10151
G1 X53.481 Y67.297 E2.10429
G1 X54.113 Y66.613 E2.10707
G1 X54.797 Y65.981 E2.10984
G1 X55.528 Y65.404 E2.11262
G1 X56.303 Y64.887 E2.11540
G1 X57.115 Y64.432 E2.11817
G1 X57.961 Y64.042 E2.12095
G1 X58.835 Y63.719 E2.12373
G1 X59.731 Y63.466 E2.12651
G1 X60.644 Y63.285 E2.12928
G1 X61.569 Y63.175 E2.13206
G1 X62.500 Y63.139 E2.13484
G1 X63.431 Y63.175 E2.13761
G1 X64.356 Y63.285 E2.14039
G1 X65.269 Y63.466 E2.14317
G1 X66.165 Y63.719 E2.14594
G1 X67.039 Y64.042 E2.14872
G1 X67.885 Y64.432 E2.15150
G1 X68.697 Y64.887 E2.15427
G1 X69.472 Y65.404 E2.15705
G1 X70.203 Y65.981 E2.15983
G1 X70.887 Y66.613 E2.16261
G1 X71.519 Y67.297 E2.16538
G1 X72.096 Y68.028 E2.16816
G1 X72.613 Y68.803 E2.17094
G1 X73.068 Y69.615 E2.17371
G1 X73.458 Y70.461 E2.17649
G1 X73.781 Y71.335 E2.17927
G1 X74.033 Y72.231 E2.18204
G1 X74.215 Y73.144 E2.18482
G1 X74.325 Y74.069 E2.18760
G1 X74.361 Y75.000 E2.19037
G1 X74.325 Y75.931 E2.19315
G1 X74.215 Y76.856 E2.19593
G1 X74.033 Y77.769 E2.19871
G1 X73.781 Y78.665 E2.20148
G1 X73.458 Y79.539 E2.20426
G1 X73.068 Y80.385 E2.20704
G1 X72.613 Y81.197 E2.20981
G1 X72.096 Y81.972 E2.21259
G1 X71.519 Y82.703 E2.21537
G1 X70.887 Y83.387 E2.21814
G1 X70.203 Y84.019 E2.22092
G1 X69.937 Y84.229 E2.22193
G1 X69.928 Y84.338 F7800.000
G1 F1800.000
G1 X69.519 Y84.660 E2.22348
G1 X68.739 Y85.181 E2.22628
G1 X67.921 Y85.639 E2.22907
G1 X67.070 Y86.032 E2.23187
G1 X66.190 Y86.357 E2.23467
G1 X65.288 Y86.611 E2.23746
G1 X64.368 Y86.794 E2.24026
G1 X63.437 Y86.904 E2.24305
G1 X62.500 Y86.941 E2.24585
G1 X61.563 Y86.904 E2.24864
G1 X60.632 Y86.794 E2.25144
G1 X59.712 Y86.611 E2.25423
G1 X58.810 Y86.357 E2.25703
G1 X57.930 Y86.032 E2.25983
G1 X57.079 Y85.639 E2.26262
G1 X56.261 Y85.181 E2.26542
G1 X55.481 Y84.660 E2.26821
G1 X54.745 Y84.080 E2.27101
G1 X54.056 Y83.444 E2.27380
G1 X53.420 Y82.755 E2.27660
G1 X52.840 Y82.019 E2.27940
G1 X52.319 Y81.239 E2.28219
G1 X51.861 Y80.421 E2.28499
G1 X51.468 Y79.570 E2.28778
G1 X51.143 Y78.690 E2.29058
G1 X50.889 Y77.788 E2.29337
G1 X50.706 Y76.868 E2.29617
G1 X50.596 Y75.937 E2.29896
G1 X50.559 Y75.000 E2.30176
G1 X50.596 Y74.063 E2.30456
G1 X50.706 Y73.132 E2.30735
G1 X50.889 Y72.212 E2.31015
G1 X51.143 Y71.310 E2.31294
G1 X51.468 Y70.430 E2.31574
G1 X51.861 Y69.579 E2.31853
G1 X52.319 Y68.761 E2.32133
G1 X52.840 Y67.981 E2.32412
G1 X53.420 Y67.245 E2.32692
G1 X54.056 Y66.556 E2.32972
G1 X54.745 Y65.920 E2.33251
G1 X55.481 Y65.340 E2.33531
G1 X56.261 Y64.819 E2.33810
G1 X57.079 Y64.361 E2.34090
G1 X57.930 Y63.968 E2.34369
G1 X58.810 Y63.643 E2.34649
G1 X59.712 Y63.389 E2.34929
G1 X60.632 Y63.206 E2.35208
G1 X61.563 Y63.096 E2.35488
G1 X62.500 Y63.059 E2.35767
G1 X63.437 Y63.096 E2.36047
G1 X64.368 Y63.206 E2.36326
G1 X65.288 Y63.389 E2.36606
G1 X66.190 Y63.643 E2.36885
G1 X67.070 Y63.968 E2.37165
G1 X67.921 Y64.361 E2.37445
G1 X68.739 Y64.819 E2.37724
G1 X69.519 Y65.340 E2.38004
G1 X70.255 Y65.920 E2.38283
G1 X70.944 Y66.556 E2.38563
G1 X71.580 Y67.245 E2.38842
G1 X72.160 Y67.981 E2.39122
G1 X72.681 Y68.761 E2.39401
G1 X73.139 Y69.579 E2.39681
G1 X73.532 Y70.430 E2.39961
G1 X73.856 Y71.310 E2.40240
G1 X74.111 Y72.212 E2.40520
G1 X74.294 Y73.132 E2.40799
G1 X74.404 Y74.063 E2.41079
G1 X74.441 Y75.000 E2.41358
G1 X74.404 Y75.937 E2.41638
G1 X74.294 Y76.868 E2.41918
G1 X74.111 Y77.788 E2.42197
G1 X73.856 Y78.690 E2.42477
G1 X73.532 Y79.570 E2.42756
G1 X73.139 Y80.421 E2.43036
G1 X72.681 Y81.239 E2.43315
G1 X72.160 Y82.019 E2.43595
G1 X71.580 Y82.755 E2.43874
G1 X70.944 Y83.444 E2.44154
G1 X70.255 Y84.080 E2.44434
G1 X69.987 Y84.292 E2.44536
G1 X69.977 Y84.401 F7800.000
G1 F1800.000
G1 X69.566 Y84.725 E2.44692
G1 X68.781 Y85.249 E2.44973
G1 X67.957 Y85.711 E2.45255
G1 X67.100 Y86.106 E2.45536
G1 X66.215 Y86.432 E2.45817
G1 X65.306 Y86.689 E2.46099
G1 X64.380 Y86.873 E2.46380
G1 X63.443 Y86.984 E2.46662
G1 X62.500 Y87.021 E2.46943
G1 X61.557 Y86.984 E2.47225
G1 X60.620 Y86.873 E2.47506
G1 X59.694 Y86.689 E2.47787
G1 X58.785 Y86.432 E2.48069
G1 X57.900 Y86.106 E2.48350
G1 X57.043 Y85.711 E2.48632
G1 X56.219 Y85.249 E2.48913
G1 X55.434 Y84.725 E2.49195
G1 X54.693 Y84.141 E2.49476
G1 X54.000 Y83.500 E2.49757
G1 X53.359 Y82.807 E2.50039
G1 X52.775 Y82.066 E2.50320
G1 X52.251 Y81.281 E2.50602
G1 X51.789 Y80.457 E2.50883
G1 X51.394 Y79.600 E2.51165
G1 X51.068 Y78.715 E2.51446
G1 X50.811 Y77.806 E2.51727
G1 X50.627 Y76.880 E2.52009
G1 X50.516 Y75.943 E2.52290
G1 X50.479 Y75.000 E2.52572
G1 X50.516 Y74.057 E2.52853
G1 X50.627 Y73.120 E2.53135
G1 X50.811 Y72.194 E2.53416
G1 X51.068 Y71.285 E2.53697
G1 X51.394 Y70.400 E2.53979
G1 X51.789 Y69.543 E2.54260
G1 X52.251 Y68.719 E2.54542
G1 X52.775 Y67.934 E2.54823
G1 X53.359 Y67.193 E2.55105
G1 X54.000 Y66.500 E2.55386
G1 X54.693 Y65.859 E2.55667
G1 X55.434 Y65.275 E2.55949
G1 X56.219 Y64.751 E2.56230
G1 X57.043 Y64.289 E2.56512
G1 X57.900 Y63.894 E2.56793
