; Gcode updated with 'stl_info' on 2019-12-09 14:11:50.900133

; stl_min_x = 0.0
; stl_max_x = 72.6322021484375
; stl_min_y = -85.53359985351562
; stl_max_y = -41.5
; stl_min_z = -40.0

; generated by Slic3r 1.3.1-dev (Build adea0d9) on 2019-12-09 at 14:11:50

; external perimeters extrusion width = 0.44mm (2.86mm^3/s)
; perimeters extrusion width = 0.56mm (4.14mm^3/s)
; infill extrusion width = 0.50mm (3.66mm^3/s)
; solid infill extrusion width = 0.56mm (3.10mm^3/s)
; top infill extrusion width = 0.56mm (3.10mm^3/s)

M107
G92 E0
;D3D:START:START
T0
M104 S215 T0

G21
G90
M107
T0
G28
G29
M109 T0 S215 T0
G0 F3000
M107
T0
G92 E0
G0 X0 Y149 Z0.1 F3600
G1 Y49 E6.5 F1200
G0 Z1
G92 E0
; Filament gcode

G21 ; set units to millimeters
G90 ; use absolute coordinates
M82 ; use absolute distances for extrusion
G92 E0
G1 Z0.300 F7800.000
G1 E-2.00000 F2400.00000
G92 E0
G1 X56.841 Y57.019 F7800.000
G1 E2.00000 F2400.00000
G1 F1800.000
G1 X58.434 Y57.402 E2.05428
G1 X60.971 Y58.096 E2.14144
G1 X63.486 Y58.869 E2.22860
G1 X65.975 Y59.722 E2.31575
G1 X68.733 Y60.764 E2.41344
G1 X68.733 Y59.711 E2.44833
G1 X71.257 Y60.756 E2.53884
G1 X73.683 Y61.851 E2.62702
G1 X76.073 Y63.022 E2.71520
G1 X78.426 Y64.268 E2.80339
G1 X80.738 Y65.587 E2.89157
G1 X83.007 Y66.977 E2.97975
G1 X85.232 Y68.439 E3.06793
G1 X87.410 Y69.969 E3.15612
G1 X89.538 Y71.567 E3.24430
G1 X91.616 Y73.232 E3.33248
G1 X93.640 Y74.960 E3.42066
G1 X95.608 Y76.752 E3.50885
G1 X97.520 Y78.604 E3.59703
G1 X99.372 Y80.515 E3.68521
G1 X101.164 Y82.484 E3.77339
G1 X102.892 Y84.508 E3.86157
G1 X104.556 Y86.586 E3.94976
G1 X106.155 Y88.714 E4.03794
G1 X107.685 Y90.892 E4.12612
G1 X109.146 Y93.116 E4.21430
G1 X110.537 Y95.386 E4.30249
G1 X111.070 Y96.321 E4.33813
G1 X104.987 Y96.321 E4.53967
G1 X103.354 Y93.835 E4.63819
G1 X101.918 Y91.792 E4.72092
G1 X100.419 Y89.795 E4.80365
G1 X98.857 Y87.846 E4.88639
G1 X97.236 Y85.947 E4.96912
G1 X95.555 Y84.100 E5.05185
G1 X93.817 Y82.307 E5.13459
G1 X92.024 Y80.569 E5.21732
G1 X90.177 Y78.888 E5.30005
G1 X88.278 Y77.266 E5.38278
G1 X86.329 Y75.705 E5.46552
G1 X84.332 Y74.206 E5.54825
G1 X82.289 Y72.770 E5.63098
G1 X80.202 Y71.399 E5.71371
G1 X78.072 Y70.094 E5.79645
G1 X75.903 Y68.856 E5.87918
G1 X73.696 Y67.688 E5.96191
G1 X71.453 Y66.589 E6.04464
G1 X69.177 Y65.562 E6.12738
G1 X66.870 Y64.606 E6.21011
G1 X64.534 Y63.723 E6.29284
G1 X62.172 Y62.914 E6.37557
G1 X59.785 Y62.180 E6.45831
G1 X57.376 Y61.521 E6.54104
G1 X56.583 Y61.331 E6.56805
G1 X56.583 Y55.946 E6.74644
G1 X56.841 Y56.008 E6.75521
G1 X56.841 Y56.959 E6.78672
G1 X57.106 Y56.810 F7800.000
G1 F1800.000
G1 X58.500 Y57.144 E6.83420
G1 X61.046 Y57.841 E6.92164
G1 X63.568 Y58.617 E7.00907
G1 X66.065 Y59.472 E7.09651
G1 X68.468 Y60.379 E7.18160
G1 X68.468 Y59.329 E7.21642
G1 X71.363 Y60.512 E7.32003
G1 X73.796 Y61.611 E7.40849
G1 X76.194 Y62.786 E7.49695
G1 X78.554 Y64.035 E7.58541
G1 X80.873 Y65.358 E7.67387
G1 X83.150 Y66.753 E7.76233
G1 X85.381 Y68.219 E7.85078
G1 X87.566 Y69.754 E7.93924
G1 X89.701 Y71.357 E8.02770
G1 X91.785 Y73.027 E8.11616
G1 X93.815 Y74.761 E8.20462
G1 X95.790 Y76.558 E8.29308
G1 X97.708 Y78.416 E8.38154
G1 X99.566 Y80.334 E8.47000
G1 X101.363 Y82.308 E8.55846
G1 X103.097 Y84.339 E8.64691
G1 X104.766 Y86.423 E8.73537
G1 X106.369 Y88.558 E8.82383
G1 X107.905 Y90.742 E8.91229
G1 X109.371 Y92.974 E9.00075
G1 X110.766 Y95.251 E9.08921
G1 X111.528 Y96.586 E9.14014
G1 X104.844 Y96.586 E9.36158
G1 X103.134 Y93.984 E9.46471
G1 X101.703 Y91.948 E9.54716
G1 X100.209 Y89.958 E9.62962
G1 X98.653 Y88.015 E9.71208
G1 X97.036 Y86.123 E9.79453
G1 X95.361 Y84.282 E9.87699
G1 X93.629 Y82.495 E9.95945
G1 X91.842 Y80.762 E10.04190
G1 X90.001 Y79.087 E10.12436
G1 X88.108 Y77.471 E10.20681
G1 X86.166 Y75.915 E10.28927
G1 X84.176 Y74.420 E10.37173
G1 X82.139 Y72.989 E10.45418
G1 X80.059 Y71.623 E10.53664
G1 X77.937 Y70.322 E10.61910
G1 X75.775 Y69.089 E10.70155
G1 X73.576 Y67.925 E10.78401
G1 X71.340 Y66.830 E10.86646
G1 X69.072 Y65.805 E10.94892
G1 X66.773 Y64.853 E11.03137
G1 X64.444 Y63.973 E11.11383
G1 X62.090 Y63.167 E11.19629
G1 X59.711 Y62.435 E11.27874
G1 X57.310 Y61.778 E11.36120
G1 X56.318 Y61.540 E11.39501
G1 X56.318 Y55.609 E11.59150
G1 X57.106 Y55.799 E11.61837
G1 X57.106 Y56.750 E11.64988
G1 X57.372 Y56.600 F7800.000
G1 F1800.000
G1 X58.566 Y56.887 E11.69056
G1 X61.120 Y57.586 E11.77827
G1 X63.650 Y58.364 E11.86599
G1 X66.155 Y59.222 E11.95370
G1 X68.202 Y59.995 E12.02619
G1 X68.202 Y58.944 E12.06101
G1 X68.994 Y59.243 E12.08904
G1 X71.468 Y60.268 E12.17778
G1 X73.909 Y61.371 E12.26651
G1 X76.315 Y62.549 E12.35525
G1 X78.682 Y63.802 E12.44399
G1 X81.008 Y65.129 E12.53272
G1 X83.292 Y66.529 E12.62146
G1 X85.531 Y67.999 E12.71019
G1 X87.722 Y69.539 E12.79893
G1 X89.864 Y71.148 E12.88766
G1 X91.954 Y72.822 E12.97640
G1 X93.991 Y74.562 E13.06513
G1 X95.972 Y76.364 E13.15387
G1 X97.895 Y78.228 E13.24260
G1 X99.759 Y80.152 E13.33134
G1 X101.562 Y82.133 E13.42007
G1 X103.302 Y84.169 E13.50881
G1 X104.976 Y86.260 E13.59755
G1 X106.584 Y88.402 E13.68628
G1 X108.125 Y90.593 E13.77502
G1 X109.595 Y92.832 E13.86375
G1 X110.994 Y95.116 E13.95249
G1 X111.985 Y96.852 E14.01871
G1 X37.772 Y96.852 E16.47734
G1 X37.772 Y96.382 E16.49292
G1 X104.391 Y96.382 E18.69999
G1 X102.915 Y94.134 E18.78910
G1 X101.488 Y92.104 E18.87127
G1 X99.999 Y90.121 E18.95345
G1 X98.448 Y88.185 E19.03564
G1 X96.837 Y86.298 E19.11781
G1 X95.168 Y84.464 E19.19999
G1 X93.441 Y82.682 E19.28217
G1 X91.660 Y80.956 E19.36435
G1 X89.825 Y79.287 E19.44653
G1 X87.939 Y77.676 E19.52871
G1 X86.003 Y76.125 E19.61089
G1 X84.020 Y74.635 E19.69307
G1 X81.990 Y73.209 E19.77525
G1 X79.917 Y71.847 E19.85743
G1 X77.802 Y70.551 E19.93961
G1 X75.647 Y69.322 E20.02179
G1 X73.455 Y68.161 E20.10397
G1 X71.227 Y67.070 E20.18615
G1 X68.966 Y66.049 E20.26833
G1 X66.675 Y65.100 E20.35051
G1 X64.354 Y64.223 E20.43269
G1 X62.008 Y63.420 E20.51487
G1 X59.637 Y62.690 E20.59705
G1 X57.244 Y62.036 E20.67923
G1 X56.052 Y61.750 E20.71984
G1 X56.052 Y55.944 E20.91216
G1 X53.461 Y55.408 E20.99982
G1 X50.842 Y54.951 E21.08788
G1 X48.211 Y54.576 E21.17594
G1 X45.569 Y54.285 E21.26399
G1 X42.920 Y54.076 E21.35205
G1 X40.265 Y53.951 E21.44010
G1 X38.242 Y53.919 E21.50712
G1 X38.242 Y59.565 E21.69416
G1 X37.772 Y59.558 E21.70973
G1 X37.772 Y53.259 E21.91842
G1 X40.285 Y53.298 E22.00168
G1 X42.961 Y53.424 E22.09042
G1 X45.631 Y53.634 E22.17915
G1 X48.293 Y53.928 E22.26789
G1 X50.945 Y54.306 E22.35662
G1 X53.583 Y54.766 E22.44536
G1 X56.206 Y55.309 E22.53410
G1 X57.372 Y55.589 E22.57382
G1 X57.372 Y56.540 E22.60533
G1 X56.185 Y55.638 F7800.000
G1 F1800.000
G1 X53.522 Y55.087 E22.71493
G1 X50.894 Y54.628 E22.82248
G1 X48.252 Y54.252 E22.93002
G1 X45.603 Y53.960 E23.03745
G1 X42.940 Y53.750 E23.14512
G1 X40.275 Y53.624 E23.25266
G1 X38.099 Y53.591 E23.34038
G1 X38.053 Y53.687 E23.34470
G1 F1800.000
G1 X38.007 Y53.784 E23.34780
G1 F1800.000
G1 X38.007 Y59.428 E23.44636
G1 E21.44636 F2400.00000
G92 E0
G1 X56.952 Y57.191 F7800.000
G1 E2.00000 F2400.00000
G1 F1800.000
G1 X56.746 Y57.398 E2.00970
G1 X56.746 Y57.774 E2.02218
G1 X57.256 Y57.264 E2.04611
G1 X57.559 Y57.337 E2.05646
G1 X56.746 Y58.150 E2.09462
G1 X56.746 Y58.526 E2.10709
G1 X57.862 Y57.409 E2.15948
G1 X58.166 Y57.482 E2.16983
G1 X56.746 Y58.902 E2.23644
G1 X56.746 Y59.278 E2.24892
G1 X58.469 Y57.555 E2.32976
G1 X58.764 Y57.636 E2.33992
G1 X56.746 Y59.654 E2.43462
G1 X56.746 Y60.031 E2.44710
G1 X59.060 Y57.717 E2.55565
G1 X59.355 Y57.797 E2.56581
G1 X56.746 Y60.407 E2.68822
G1 X56.746 Y60.783 E2.70069
G1 X59.650 Y57.878 E2.83695
G1 X59.946 Y57.959 E2.84711
G1 X56.746 Y61.159 E2.99723
G1 X56.746 Y61.225 E2.99941
G1 X56.996 Y61.285 E3.00794
G1 X60.241 Y58.040 E3.16017
G1 X60.536 Y58.121 E3.17033
G1 X57.299 Y61.358 E3.32218
G1 X57.595 Y61.437 E3.33237
G1 X60.832 Y58.201 E3.48417
G1 X61.124 Y58.285 E3.49425
G1 X57.891 Y61.518 E3.64590
G1 X58.186 Y61.599 E3.65606
G1 X61.411 Y58.374 E3.80735
G1 X61.699 Y58.462 E3.81733
G1 X58.481 Y61.680 E3.96826
G1 X58.777 Y61.761 E3.97842
G1 X61.986 Y58.551 E4.12899
G1 X62.274 Y58.639 E4.13897
G1 X59.072 Y61.841 E4.28918
G1 X59.367 Y61.922 E4.29934
G1 X62.562 Y58.728 E4.44918
G1 X62.849 Y58.816 E4.45917
G1 X59.663 Y62.003 E4.60865
G1 X59.953 Y62.089 E4.61869
G1 X63.137 Y58.905 E4.76806
G1 X63.425 Y58.993 E4.77804
G1 X60.240 Y62.177 E4.92742
G1 X60.528 Y62.266 E4.93740
G1 X63.707 Y59.087 E5.08652
G1 X63.987 Y59.183 E5.09635
G1 X60.816 Y62.354 E5.24512
G1 X61.103 Y62.443 E5.25511
G1 X64.267 Y59.279 E5.40353
G1 X64.547 Y59.375 E5.41336
G1 X61.391 Y62.531 E5.56143
G1 X61.679 Y62.620 E5.57142
G1 X64.828 Y59.471 E5.71914
G1 X65.108 Y59.567 E5.72897
G1 X61.966 Y62.708 E5.87635
G1 X62.251 Y62.800 E5.88627
G1 X65.388 Y59.663 E6.03343
G1 X65.668 Y59.759 E6.04325
G1 X62.531 Y62.895 E6.19041
G1 X62.812 Y62.991 E6.20023
G1 X65.948 Y59.854 E6.34739
G1 X66.222 Y59.957 E6.35709
G1 X63.092 Y63.087 E6.50395
G1 X63.372 Y63.183 E6.51378
G1 X66.495 Y60.060 E6.66030
G1 X66.768 Y60.163 E6.66998
G1 X63.652 Y63.279 E6.81617
G1 X63.932 Y63.375 E6.82599
G1 X67.041 Y60.266 E6.97184
G1 X67.314 Y60.369 E6.98152
G1 X64.212 Y63.471 E7.12703
G1 X64.493 Y63.567 E7.13686
G1 X67.587 Y60.472 E7.28203
G1 X67.860 Y60.575 E7.29171
G1 X64.766 Y63.669 E7.43684
G1 X65.039 Y63.773 E7.44652
G1 X68.133 Y60.679 E7.59166
G1 X68.406 Y60.782 E7.60134
G1 X65.312 Y63.876 E7.74648
G1 X65.585 Y63.979 E7.75616
G1 X68.679 Y60.885 E7.90129
G1 X68.952 Y60.988 E7.91097
G1 X65.858 Y64.082 E8.05611
G1 X66.131 Y64.185 E8.06579
G1 X69.957 Y60.359 E8.24528
G1 X70.223 Y60.469 E8.25483
G1 X66.404 Y64.288 E8.43399
G1 X66.677 Y64.391 E8.44367
G1 X70.489 Y60.579 E8.62250
G1 X70.755 Y60.689 E8.63205
G1 X66.948 Y64.497 E8.81066
G1 X67.214 Y64.607 E8.82021
G1 X71.021 Y60.800 E8.99881
G1 X71.286 Y60.911 E9.00834
G1 X67.480 Y64.717 E9.18691
G1 X67.746 Y64.827 E9.19646
G1 X71.545 Y61.028 E9.37471
G1 X71.805 Y61.145 E9.38414
G1 X68.012 Y64.937 E9.56206
G1 X68.278 Y65.048 E9.57161
G1 X72.064 Y61.262 E9.74921
G1 X72.323 Y61.379 E9.75865
G1 X68.544 Y65.158 E9.93593
G1 X68.810 Y65.268 E9.94548
G1 X72.582 Y61.496 E10.12244
G1 X72.841 Y61.613 E10.13187
G1 X69.076 Y65.378 E10.30851
G1 X69.337 Y65.492 E10.31799
G1 X73.100 Y61.730 E10.49451
G1 X73.359 Y61.847 E10.50394
G1 X69.596 Y65.609 E10.68045
G1 X69.856 Y65.726 E10.68988
G1 X73.618 Y61.964 E10.86640
G1 X73.872 Y62.086 E10.87575
G1 X70.115 Y65.843 E11.05202
G1 X70.374 Y65.960 E11.06145
G1 X74.125 Y62.209 E11.23740
G1 X74.377 Y62.333 E11.24673
G1 X70.633 Y66.077 E11.42237
G1 X70.892 Y66.194 E11.43180
G1 X74.630 Y62.457 E11.60713
G1 X74.882 Y62.580 E11.61646
G1 X71.151 Y66.311 E11.79147
G1 X71.410 Y66.428 E11.80090
G1 X75.134 Y62.704 E11.97561
G1 X75.387 Y62.828 E11.98493
G1 X71.664 Y66.551 E12.15957
G1 X71.917 Y66.674 E12.16890
G1 X75.639 Y62.952 E12.34354
G1 X75.892 Y63.075 E12.35286
G1 X72.169 Y66.798 E12.52750
G1 X72.421 Y66.922 E12.53682
G1 X76.142 Y63.201 E12.71136
G1 X76.388 Y63.331 E12.72059
G1 X72.674 Y67.045 E12.89481
G1 X72.926 Y67.169 E12.90414
G1 X76.634 Y63.462 E13.07806
G1 X76.880 Y63.592 E13.08729
G1 X73.179 Y67.293 E13.26090
G1 X73.431 Y67.416 E13.27022
G1 X77.126 Y63.722 E13.44353
G1 X77.371 Y63.852 E13.45276
G1 X73.684 Y67.540 E13.62576
G1 X73.930 Y67.669 E13.63500
G1 X77.617 Y63.982 E13.80796
G1 X77.863 Y64.113 E13.81719
G1 X74.176 Y67.800 E13.99016
G1 X74.422 Y67.930 E13.99939
G1 X78.109 Y64.243 E14.17235
G1 X78.355 Y64.373 E14.18158
G1 X74.668 Y68.060 E14.35454
G1 X74.914 Y68.190 E14.36377
G1 X78.596 Y64.508 E14.53649
G1 X78.835 Y64.645 E14.54564
G1 X75.160 Y68.320 E14.71806
G1 X75.406 Y68.451 E14.72729
G1 X79.075 Y64.782 E14.89940
G1 X79.314 Y64.918 E14.90855
G1 X75.652 Y68.581 E15.08037
G1 X75.898 Y68.711 E15.08960
G1 X79.554 Y65.055 E15.26111
G1 X79.793 Y65.191 E15.27026
G1 X76.138 Y68.847 E15.44174
G1 X76.377 Y68.983 E15.45089
G1 X80.033 Y65.328 E15.62237
G1 X80.272 Y65.465 E15.63151
G1 X76.617 Y69.120 E15.80299
G1 X76.856 Y69.257 E15.81214
G1 X80.512 Y65.601 E15.98362
G1 X80.750 Y65.739 E15.99275
G1 X77.096 Y69.393 E16.16418
G1 X77.335 Y69.530 E16.17332
G1 X80.983 Y65.882 E16.34445
G1 X81.217 Y66.025 E16.35352
G1 X77.575 Y69.667 E16.52436
G1 X77.814 Y69.803 E16.53350
G1 X81.450 Y66.168 E16.70404
G1 X81.683 Y66.311 E16.71312
G1 X78.054 Y69.940 E16.88336
G1 X78.288 Y70.081 E16.89245
G1 X81.916 Y66.454 E17.06263
G1 X82.149 Y66.597 E17.07170
G1 X78.522 Y70.224 E17.24188
G1 X78.755 Y70.367 E17.25096
G1 X82.383 Y66.739 E17.42114
G1 X82.616 Y66.882 E17.43021
G1 X78.988 Y70.510 E17.60039
G1 X79.221 Y70.653 E17.60947
G1 X82.849 Y67.025 E17.77965
G1 X82.968 Y67.098 E17.78429
G1 X83.079 Y67.171 E17.78869
G1 X79.455 Y70.796 E17.95873
G1 X79.688 Y70.939 E17.96780
G1 X83.306 Y67.320 E18.13755
G1 X83.533 Y67.469 E18.14656
G1 X79.921 Y71.082 E18.31602
G1 X80.154 Y71.225 E18.32509
G1 X83.760 Y67.619 E18.49426
G1 X83.987 Y67.768 E18.50327
G1 X80.383 Y71.371 E18.67233
G1 X80.610 Y71.521 E18.68134
G1 X84.214 Y67.917 E18.85040
G1 X84.441 Y68.066 E18.85941
G1 X80.837 Y71.670 E19.02847
G1 X81.064 Y71.819 E19.03747
G1 X84.668 Y68.215 E19.20653
G1 X84.895 Y68.364 E19.21554
G1 X81.291 Y71.968 E19.38460
G1 X81.518 Y72.117 E19.39361
G1 X85.122 Y68.513 E19.56267
G1 X85.186 Y68.555 E19.56520
G1 X85.345 Y68.667 E19.57164
G1 X81.745 Y72.266 E19.74050
G1 X81.972 Y72.415 E19.74951
G1 X85.566 Y68.822 E19.91807
G1 X85.787 Y68.977 E19.92703
G1 X82.199 Y72.564 E20.09531
G1 X82.424 Y72.716 E20.10429
G1 X86.008 Y69.132 E20.27240
G1 X86.228 Y69.288 E20.28136
G1 X82.645 Y72.871 E20.44946
G1 X82.866 Y73.026 E20.45842
G1 X86.449 Y69.443 E20.62653
G1 X86.670 Y69.598 E20.63548
G1 X83.087 Y73.182 E20.80359
G1 X83.308 Y73.337 E20.81254
G1 X86.891 Y69.753 E20.98065
G1 X87.112 Y69.909 E20.98961
G1 X83.528 Y73.492 E21.15771
G1 X83.749 Y73.647 E21.16667
G1 X87.333 Y70.064 E21.33478
G1 X87.357 Y70.081 E21.33575
G1 X87.548 Y70.224 E21.34369
G1 X83.970 Y73.803 E21.51154
G1 X84.191 Y73.958 E21.52050
G1 X87.763 Y70.386 E21.68807
G1 X87.978 Y70.547 E21.69698
G1 X84.411 Y74.114 E21.86430
G1 X84.626 Y74.275 E21.87321
G1 X88.193 Y70.708 E22.04053
G1 X88.408 Y70.870 E22.04944
G1 X84.841 Y74.436 E22.21676
G1 X85.056 Y74.598 E22.22567
G1 X88.622 Y71.031 E22.39299
G1 X88.837 Y71.192 E22.40190
G1 X85.270 Y74.759 E22.56922
G1 X85.485 Y74.920 E22.57813
G1 X89.052 Y71.354 E22.74545
G1 X89.267 Y71.515 E22.75437
G1 X85.700 Y75.082 E22.92169
G1 X85.915 Y75.243 E22.93060
G1 X89.482 Y71.676 E23.09791
G1 X89.690 Y71.844 E23.10679
G1 X86.130 Y75.404 E23.27382
G1 X86.345 Y75.565 E23.28273
G1 X89.899 Y72.011 E23.44949
G1 X90.108 Y72.178 E23.45836
G1 X86.555 Y75.732 E23.62506
G1 X86.763 Y75.899 E23.63394
G1 X90.317 Y72.345 E23.80063
G1 X90.526 Y72.513 E23.80951
G1 X86.972 Y76.066 E23.97621
G1 X87.181 Y76.233 E23.98508
G1 X90.735 Y72.680 E24.15178
G1 X90.943 Y72.847 E24.16065
G1 X87.390 Y76.401 E24.32735
G1 X87.599 Y76.568 E24.33623
G1 X91.152 Y73.015 E24.50292
G1 X91.361 Y73.182 E24.51180
G1 X87.808 Y76.735 E24.67850
G1 X88.016 Y76.903 E24.68737
G1 X91.569 Y73.350 E24.85404
G1 X91.772 Y73.523 E24.86289
G1 X88.225 Y77.070 E25.02928
G1 X88.431 Y77.240 E25.03815
G1 X91.975 Y73.696 E25.20438
G1 X92.178 Y73.869 E25.21323
G1 X88.634 Y77.413 E25.37946
G1 X88.837 Y77.586 E25.38831
G1 X92.381 Y74.043 E25.55454
G1 X92.584 Y74.216 E25.56339
G1 X89.040 Y77.760 E25.72962
G1 X89.243 Y77.933 E25.73847
G1 X92.786 Y74.389 E25.90470
G1 X92.989 Y74.563 E25.91355
G1 X89.446 Y78.106 E26.07978
G1 X89.649 Y78.279 E26.08863
G1 X93.192 Y74.736 E26.25486
G1 X93.395 Y74.909 E26.26371
G1 X89.851 Y78.453 E26.42994
G1 X90.054 Y78.626 E26.43879
G1 X93.597 Y75.083 E26.60498
G1 X93.794 Y75.262 E26.61381
G1 X90.257 Y78.799 E26.77974
G1 X90.454 Y78.979 E26.78857
G1 X93.991 Y75.442 E26.95449
G1 X94.188 Y75.621 E26.96332
G1 X90.651 Y79.158 E27.12924
G1 X90.848 Y79.337 E27.13808
G1 X94.385 Y75.800 E27.30400
G1 X94.582 Y75.979 E27.31283
G1 X91.045 Y79.516 E27.47875
G1 X91.242 Y79.695 E27.48759
G1 X94.778 Y76.158 E27.65351
G1 X94.975 Y76.338 E27.66234
G1 X91.438 Y79.874 E27.82826
G1 X91.635 Y80.054 E27.83709
G1 X95.172 Y76.517 E28.00302
G1 X95.369 Y76.696 E28.01185
G1 X91.832 Y80.233 E28.17777
G1 X92.029 Y80.412 E28.18660
G1 X95.565 Y76.876 E28.35248
