; generated by Slic3r 1.3.1-dev (Build 2ef957d) on 2019-11-25 at 09:24:23

; external perimeters extrusion width = 0.55mm (4.37mm^3/s)
; perimeters extrusion width = 0.70mm (11.44mm^3/s)
; infill extrusion width = 0.62mm (13.45mm^3/s)
; solid infill extrusion width = 0.70mm (3.81mm^3/s)
; top infill extrusion width = 0.70mm (2.86mm^3/s)

M107
G92 E0
M104 S200 ; set temperature
G28 ; home all axes
G1 Z5 F5000 ; lift nozzle

; Filament gcode

M109 S200 ; set temperature and wait for it to be reached
G21 ; set units to millimeters
G90 ; use absolute coordinates
M82 ; use absolute distances for extrusion
G92 E0
G1 Z0.350 F7800.000
G1 E-2.00000 F2400.00000
G92 E0
G1 X37.460 Y62.803 F7800.000
G1 E2.00000 F2400.00000
G1 F1800.000
G1 X39.601 Y62.137 E2.06938
G1 X97.866 Y54.432 E3.88787
G1 X98.735 Y54.375 E3.91480
G1 X108.735 Y54.375 E4.22422
G1 X111.476 Y54.969 E4.31098
G1 X150.778 Y72.834 E5.64680
G1 X152.094 Y73.504 E5.69247
G1 X153.729 Y74.456 E5.75103
G1 X155.302 Y75.509 E5.80958
G1 X155.638 Y75.753 E5.82246
G1 X157.126 Y76.923 E5.88101
G1 X158.233 Y77.900 E5.92669
G1 X159.580 Y79.229 E5.98524
G1 X160.842 Y80.639 E6.04379
G1 X161.107 Y80.960 E6.05667
G1 X162.256 Y82.463 E6.11523
G1 X163.309 Y84.036 E6.17377
G1 X164.262 Y85.673 E6.23238
G1 X165.107 Y87.361 E6.29078
G1 X165.848 Y89.105 E6.34944
G1 X166.348 Y90.494 E6.39512
G1 X166.889 Y92.307 E6.45364
G1 X167.314 Y94.152 E6.51221
G1 X167.623 Y96.018 E6.57075
G1 X167.814 Y97.901 E6.62930
G1 X167.887 Y99.794 E6.68791
G1 X167.841 Y101.682 E6.74636
G1 X167.814 Y102.099 E6.75930
G1 X167.623 Y103.982 E6.81785
G1 X167.392 Y105.440 E6.86353
G1 X166.992 Y107.289 E6.92207
G1 X166.477 Y109.111 E6.98064
G1 X165.848 Y110.895 E7.03916
G1 X165.694 Y111.285 E7.05214
G1 X164.932 Y113.012 E7.11056
G1 X164.060 Y114.694 E7.16916
G1 X163.309 Y115.964 E7.21484
G1 X162.256 Y117.537 E7.27338
G1 X162.012 Y117.873 E7.28626
G1 X160.842 Y119.361 E7.34481
G1 X159.580 Y120.771 E7.40337
G1 X158.536 Y121.815 E7.44905
G1 X157.126 Y123.077 E7.50760
G1 X155.638 Y124.247 E7.56615
G1 X155.302 Y124.491 E7.57903
G1 X153.729 Y125.544 E7.63758
G1 X152.094 Y126.496 E7.69613
G1 X150.511 Y127.295 E7.75098
G1 X111.476 Y145.031 E9.07763
G1 X108.735 Y145.625 E9.16439
G1 X98.735 Y145.625 E9.47380
G1 X97.866 Y145.568 E9.50073
G1 X39.601 Y137.863 E11.31922
G1 X37.414 Y137.173 E11.39019
G1 X35.593 Y135.779 E11.46115
G1 X34.357 Y133.847 E11.53211
G1 X33.855 Y131.662 E11.60149
G1 X32.120 Y100.367 E12.57129
G1 X32.120 Y99.633 E12.59398
G1 X33.855 Y68.338 E13.56378
G1 X34.377 Y66.105 E13.63474
G1 X35.628 Y64.183 E13.70570
G1 X37.400 Y62.848 E13.77434
G1 E11.77434 F2400.00000
G92 E0
G1 X46.458 Y115.257 F7800.000
G1 E2.00000 F2400.00000
G1 F1800.000
G1 X46.206 Y116.032 E2.02521
G1 X45.727 Y116.691 E2.05042
G1 X45.068 Y117.170 E2.07564
G1 X44.293 Y117.422 E2.10085
G1 X43.478 Y117.422 E2.12606
G1 X42.703 Y117.170 E2.15127
G1 X42.044 Y116.691 E2.17648
G1 X41.565 Y116.032 E2.20169
G1 X41.313 Y115.257 E2.22690
G1 X41.313 Y114.442 E2.25211
G1 X41.565 Y113.667 E2.27733
G1 X42.044 Y113.008 E2.30254
G1 X42.703 Y112.529 E2.32775
G1 X43.478 Y112.277 E2.35296
G1 X44.293 Y112.277 E2.37817
G1 X45.068 Y112.529 E2.40338
G1 X45.727 Y113.008 E2.42860
G1 X46.206 Y113.667 E2.45381
G1 X46.458 Y114.442 E2.47902
G1 X46.458 Y115.182 E2.50191
G1 X46.458 Y115.257 F7800.000
G1 E0.50191 F2400.00000
G92 E0
G1 X44.293 Y87.723 F7800.000
G1 E2.00000 F2400.00000
G1 F1800.000
G1 X43.478 Y87.723 E2.02521
G1 X42.703 Y87.471 E2.05042
G1 X42.044 Y86.992 E2.07563
G1 X41.565 Y86.333 E2.10085
G1 X41.313 Y85.558 E2.12606
G1 X41.313 Y84.743 E2.15127
G1 X41.565 Y83.968 E2.17648
G1 X42.044 Y83.309 E2.20169
G1 X42.703 Y82.830 E2.22690
G1 X43.478 Y82.579 E2.25211
G1 X44.293 Y82.579 E2.27732
G1 X45.068 Y82.830 E2.30254
G1 X45.727 Y83.309 E2.32775
G1 X46.206 Y83.968 E2.35296
G1 X46.458 Y84.743 E2.37817
G1 X46.458 Y85.558 E2.40338
G1 X46.206 Y86.333 E2.42860
G1 X45.727 Y86.992 E2.45381
G1 X45.068 Y87.471 E2.47902
G1 X44.364 Y87.700 E2.50191
G1 X44.293 Y87.723 F7800.000
G1 E0.50191 F2400.00000
G92 E0
G1 X70.848 Y112.113 F7800.000
G1 E2.00000 F2400.00000
G1 F1800.000
G1 X71.827 Y111.401 E2.03746
G1 X72.979 Y111.027 E2.07492
G1 X74.190 Y111.027 E2.11238
G1 X75.341 Y111.401 E2.14985
G1 X76.321 Y112.113 E2.18731
G1 X77.032 Y113.092 E2.22477
G1 X77.406 Y114.244 E2.26223
G1 X77.406 Y115.455 E2.29969
G1 X77.032 Y116.606 E2.33715
G1 X76.321 Y117.586 E2.37461
G1 X75.341 Y118.297 E2.41207
G1 X74.190 Y118.671 E2.44953
G1 X72.979 Y118.671 E2.48699
G1 X71.827 Y118.297 E2.52445
G1 X70.848 Y117.586 E2.56191
G1 X70.136 Y116.606 E2.59937
G1 X69.762 Y115.455 E2.63683
G1 X69.762 Y114.244 E2.67430
G1 X70.136 Y113.092 E2.71176
G1 X70.804 Y112.174 E2.74690
G1 X71.295 Y112.560 F7800.000
G1 F1800.000
G1 X72.115 Y111.965 E2.77823
G1 X73.078 Y111.652 E2.80957
G1 X74.091 Y111.652 E2.84091
G1 X75.054 Y111.965 E2.87224
G1 X75.873 Y112.560 E2.90358
G1 X76.468 Y113.380 E2.93492
G1 X76.781 Y114.343 E2.96625
G1 X76.781 Y115.356 E2.99759
G1 X76.468 Y116.319 E3.02892
G1 X75.873 Y117.138 E3.06026
G1 X75.054 Y117.733 E3.09160
G1 X74.091 Y118.046 E3.12293
G1 X73.078 Y118.046 E3.15427
G1 X72.115 Y117.733 E3.18560
G1 X71.295 Y117.138 E3.21694
G1 X70.700 Y116.319 E3.24827
G1 X70.387 Y115.356 E3.27961
G1 X70.387 Y114.343 E3.31095
G1 X70.700 Y113.380 E3.34229
G1 X71.251 Y112.621 E3.37130
G1 X71.743 Y113.008 F7800.000
G1 F1800.000
G1 X72.402 Y112.529 E3.39651
G1 X73.177 Y112.277 E3.42172
G1 X73.992 Y112.277 E3.44694
G1 X74.767 Y112.529 E3.47215
G1 X75.426 Y113.008 E3.49736
G1 X75.905 Y113.667 E3.52257
G1 X76.157 Y114.442 E3.54778
G1 X76.157 Y115.257 E3.57299
G1 X75.905 Y116.032 E3.59820
G1 X75.426 Y116.691 E3.62342
G1 X74.767 Y117.170 E3.64863
G1 X73.992 Y117.422 E3.67384
G1 X73.177 Y117.422 E3.69905
G1 X72.402 Y117.170 E3.72426
G1 X71.743 Y116.691 E3.74947
G1 X71.264 Y116.032 E3.77468
G1 X71.012 Y115.257 E3.79990
G1 X71.012 Y114.442 E3.82511
G1 X71.264 Y113.667 E3.85032
G1 X71.699 Y113.068 E3.87321
G1 X71.743 Y113.008 F7800.000
G1 E1.87321 F2400.00000
G92 E0
G1 X65.215 Y106.480 F7800.000
G1 E2.00000 F2400.00000
G1 F1800.000
G1 X64.686 Y106.968 E2.02226
G1 X64.121 Y107.413 E2.04453
G1 X63.523 Y107.813 E2.06679
G1 X62.895 Y108.165 E2.08905
G1 X62.242 Y108.466 E2.11131
G1 X61.567 Y108.715 E2.13358
G1 X60.874 Y108.910 E2.15584
G1 X60.168 Y109.051 E2.17810
G1 X59.454 Y109.135 E2.20036
G1 X58.735 Y109.164 E2.22263
G1 X58.016 Y109.135 E2.24489
G1 X57.302 Y109.051 E2.26715
G1 X56.596 Y108.910 E2.28942
G1 X55.903 Y108.715 E2.31168
G1 X55.228 Y108.466 E2.33394
G1 X54.575 Y108.165 E2.35620
G1 X53.947 Y107.813 E2.37847
G1 X53.349 Y107.413 E2.40073
G1 X52.784 Y106.968 E2.42299
G1 X52.255 Y106.480 E2.44525
G1 X51.767 Y105.951 E2.46752
G1 X51.322 Y105.386 E2.48978
G1 X50.922 Y104.788 E2.51204
G1 X50.570 Y104.160 E2.53431
G1 X50.269 Y103.507 E2.55657
G1 X50.020 Y102.832 E2.57883
G1 X49.825 Y102.139 E2.60109
G1 X49.684 Y101.433 E2.62336
G1 X49.600 Y100.719 E2.64562
G1 X49.571 Y100.000 E2.66788
G1 X49.600 Y99.281 E2.69015
G1 X49.684 Y98.567 E2.71241
G1 X49.825 Y97.861 E2.73467
G1 X50.020 Y97.168 E2.75693
G1 X50.269 Y96.493 E2.77920
G1 X50.570 Y95.840 E2.80146
G1 X50.922 Y95.212 E2.82372
G1 X51.322 Y94.614 E2.84598
G1 X51.767 Y94.049 E2.86825
G1 X52.255 Y93.520 E2.89051
G1 X52.784 Y93.032 E2.91277
G1 X53.349 Y92.587 E2.93504
G1 X53.947 Y92.187 E2.95730
G1 X54.575 Y91.835 E2.97956
G1 X55.228 Y91.534 E3.00182
G1 X55.903 Y91.285 E3.02409
G1 X56.596 Y91.090 E3.04635
G1 X57.302 Y90.949 E3.06861
G1 X58.016 Y90.865 E3.09088
G1 X58.735 Y90.836 E3.11314
G1 X59.454 Y90.865 E3.13540
G1 X60.168 Y90.949 E3.15766
G1 X60.874 Y91.090 E3.17993
G1 X61.567 Y91.285 E3.20219
G1 X62.242 Y91.534 E3.22445
G1 X62.895 Y91.835 E3.24671
G1 X63.523 Y92.187 E3.26898
G1 X64.121 Y92.587 E3.29124
G1 X64.686 Y93.032 E3.31350
G1 X65.215 Y93.520 E3.33577
G1 X65.703 Y94.049 E3.35803
G1 X66.148 Y94.614 E3.38029
G1 X66.548 Y95.212 E3.40255
G1 X66.900 Y95.840 E3.42482
G1 X67.201 Y96.493 E3.44708
G1 X67.450 Y97.168 E3.46934
G1 X67.645 Y97.861 E3.49160
G1 X67.786 Y98.567 E3.51387
G1 X67.870 Y99.281 E3.53613
G1 X67.899 Y100.000 E3.55839
G1 X67.870 Y100.719 E3.58066
G1 X67.786 Y101.433 E3.60292
G1 X67.645 Y102.139 E3.62518
G1 X67.450 Y102.832 E3.64744
G1 X67.201 Y103.507 E3.66971
G1 X66.900 Y104.160 E3.69197
G1 X66.548 Y104.788 E3.71423
G1 X66.148 Y105.386 E3.73649
G1 X65.703 Y105.951 E3.75876
G1 X65.265 Y106.425 E3.77870
G1 X64.772 Y106.037 F7800.000
G1 F1800.000
G1 X64.280 Y106.492 E3.79944
G1 X63.754 Y106.908 E3.82019
G1 X63.196 Y107.280 E3.84093
G1 X62.611 Y107.608 E3.86167
G1 X62.002 Y107.888 E3.88242
G1 X61.373 Y108.120 E3.90316
G1 X60.728 Y108.302 E3.92390
G1 X60.071 Y108.433 E3.94465
G1 X59.405 Y108.512 E3.96539
G1 X58.735 Y108.538 E3.98613
G1 X58.065 Y108.512 E4.00688
G1 X57.399 Y108.433 E4.02762
G1 X56.742 Y108.302 E4.04836
G1 X56.097 Y108.120 E4.06911
G1 X55.468 Y107.888 E4.08985
G1 X54.859 Y107.608 E4.11059
G1 X54.274 Y107.280 E4.13134
G1 X53.716 Y106.908 E4.15208
G1 X53.190 Y106.492 E4.17282
G1 X52.698 Y106.037 E4.19357
G1 X52.243 Y105.545 E4.21431
G1 X51.827 Y105.019 E4.23506
G1 X51.455 Y104.461 E4.25580
G1 X51.127 Y103.876 E4.27654
G1 X50.847 Y103.267 E4.29729
G1 X50.615 Y102.638 E4.31803
G1 X50.433 Y101.993 E4.33877
G1 X50.302 Y101.336 E4.35952
G1 X50.223 Y100.670 E4.38026
G1 X50.197 Y100.000 E4.40100
G1 X50.223 Y99.330 E4.42175
G1 X50.302 Y98.664 E4.44249
G1 X50.433 Y98.007 E4.46323
G1 X50.615 Y97.362 E4.48398
G1 X50.847 Y96.733 E4.50472
G1 X51.127 Y96.124 E4.52546
G1 X51.455 Y95.539 E4.54621
G1 X51.827 Y94.981 E4.56695
G1 X52.243 Y94.455 E4.58769
G1 X52.698 Y93.963 E4.60844
G1 X53.190 Y93.508 E4.62918
G1 X53.716 Y93.092 E4.64992
G1 X54.274 Y92.720 E4.67067
G1 X54.859 Y92.392 E4.69141
G1 X55.468 Y92.112 E4.71215
G1 X56.097 Y91.880 E4.73290
G1 X56.742 Y91.698 E4.75364
G1 X57.399 Y91.567 E4.77438
G1 X58.065 Y91.488 E4.79513
G1 X58.735 Y91.462 E4.81587
G1 X59.405 Y91.488 E4.83661
G1 X60.071 Y91.567 E4.85736
G1 X60.728 Y91.698 E4.87810
G1 X61.373 Y91.880 E4.89884
G1 X62.002 Y92.112 E4.91959
G1 X62.611 Y92.392 E4.94033
G1 X63.196 Y92.720 E4.96107
G1 X63.754 Y93.092 E4.98182
G1 X64.280 Y93.508 E5.00256
G1 X64.772 Y93.963 E5.02330
G1 X65.227 Y94.455 E5.04405
G1 X65.642 Y94.981 E5.06479
G1 X66.015 Y95.539 E5.08554
G1 X66.343 Y96.124 E5.10628
G1 X66.623 Y96.733 E5.12702
G1 X66.855 Y97.362 E5.14777
G1 X67.037 Y98.007 E5.16851
G1 X67.168 Y98.664 E5.18925
G1 X67.247 Y99.330 E5.21000
G1 X67.273 Y100.000 E5.23074
G1 X67.247 Y100.670 E5.25148
G1 X67.168 Y101.336 E5.27223
G1 X67.037 Y101.993 E5.29297
G1 X66.855 Y102.638 E5.31371
G1 X66.623 Y103.267 E5.33446
G1 X66.343 Y103.876 E5.35520
G1 X66.015 Y104.461 E5.37594
G1 X65.642 Y105.019 E5.39669
G1 X65.227 Y105.545 E5.41743
G1 X64.823 Y105.982 E5.43585
G1 X64.330 Y105.595 F7800.000
G1 F1800.000
G1 X63.874 Y106.017 E5.45508
G1 X63.386 Y106.402 E5.47430
G1 X62.869 Y106.747 E5.49353
G1 X62.327 Y107.050 E5.51275
G1 X61.763 Y107.310 E5.53197
G1 X61.180 Y107.525 E5.55120
G1 X60.582 Y107.694 E5.57042
G1 X59.973 Y107.815 E5.58965
G1 X59.356 Y107.888 E5.60887
G1 X58.735 Y107.913 E5.62809
G1 X58.114 Y107.888 E5.64732
G1 X57.497 Y107.815 E5.66654
G1 X56.888 Y107.694 E5.68577
G1 X56.290 Y107.525 E5.70499
G1 X55.707 Y107.310 E5.72421
G1 X55.143 Y107.050 E5.74344
G1 X54.601 Y106.747 E5.76266
G1 X54.084 Y106.402 E5.78189
G1 X53.596 Y106.017 E5.80111
G1 X53.140 Y105.595 E5.82033
G1 X52.718 Y105.139 E5.83956
G1 X52.333 Y104.651 E5.85878
G1 X51.988 Y104.134 E5.87801
G1 X51.685 Y103.592 E5.89723
G1 X51.425 Y103.028 E5.91645
G1 X51.210 Y102.445 E5.93568
G1 X51.041 Y101.847 E5.95490
G1 X50.920 Y101.238 E5.97413
G1 X50.847 Y100.621 E5.99335
G1 X50.822 Y100.000 E6.01258
G1 X50.847 Y99.379 E6.03180
G1 X50.920 Y98.762 E6.05102
G1 X51.041 Y98.153 E6.07025
G1 X51.210 Y97.555 E6.08947
G1 X51.425 Y96.972 E6.10870
G1 X51.685 Y96.408 E6.12792
G1 X51.988 Y95.866 E6.14714
G1 X52.333 Y95.349 E6.16637
G1 X52.718 Y94.861 E6.18559
G1 X53.140 Y94.405 E6.20482
G1 X53.596 Y93.983 E6.22404
G1 X54.084 Y93.598 E6.24326
G1 X54.601 Y93.253 E6.26249
G1 X55.143 Y92.950 E6.28171
G1 X55.707 Y92.690 E6.30094
G1 X56.290 Y92.475 E6.32016
G1 X56.888 Y92.306 E6.33938
G1 X57.497 Y92.185 E6.35861
G1 X58.114 Y92.112 E6.37783
G1 X58.735 Y92.087 E6.39706
G1 X59.356 Y92.112 E6.41628
G1 X59.973 Y92.185 E6.43550
G1 X60.582 Y92.306 E6.45473
G1 X61.180 Y92.475 E6.47395
G1 X61.763 Y92.690 E6.49318
G1 X62.327 Y92.950 E6.51240
G1 X62.869 Y93.253 E6.53163
G1 X63.386 Y93.598 E6.55085
G1 X63.874 Y93.983 E6.57007
G1 X64.330 Y94.405 E6.58930
G1 X64.752 Y94.861 E6.60852
G1 X65.137 Y95.349 E6.62775
G1 X65.482 Y95.866 E6.64697
G1 X65.785 Y96.408 E6.66619
G1 X66.045 Y96.972 E6.68542
G1 X66.260 Y97.555 E6.70464
G1 X66.429 Y98.153 E6.72387
G1 X66.550 Y98.762 E6.74309
G1 X66.623 Y99.379 E6.76231
G1 X66.648 Y100.000 E6.78154
G1 X66.623 Y100.621 E6.80076
G1 X66.550 Y101.238 E6.81999
G1 X66.429 Y101.847 E6.83921
G1 X66.260 Y102.445 E6.85843
G1 X66.045 Y103.028 E6.87766
G1 X65.785 Y103.592 E6.89688
G1 X65.482 Y104.134 E6.91611
G1 X65.137 Y104.651 E6.93533
G1 X64.752 Y105.139 E6.95456
G1 X64.381 Y105.540 E6.97146
G1 X64.330 Y105.595 F7800.000
G1 E4.97146 F2400.00000
G92 E0
G1 X71.827 Y88.599 F7800.000
G1 E2.00000 F2400.00000
G1 F1800.000
G1 X70.848 Y87.887 E2.03746
G1 X70.136 Y86.908 E2.07492
G1 X69.762 Y85.756 E2.11238
G1 X69.762 Y84.545 E2.14984
G1 X70.136 Y83.394 E2.18731
G1 X70.848 Y82.414 E2.22476
G1 X71.827 Y81.703 E2.26222
G1 X72.979 Y81.329 E2.29969
G1 X74.190 Y81.329 E2.33714
G1 X75.341 Y81.703 E2.37461
G1 X76.321 Y82.414 E2.41207
G1 X77.032 Y83.394 E2.44953
G1 X77.406 Y84.545 E2.48699
G1 X77.406 Y85.756 E2.52445
G1 X77.032 Y86.908 E2.56191
G1 X76.321 Y87.887 E2.59937
G1 X75.341 Y88.599 E2.63683
G1 X74.190 Y88.973 E2.67429
G1 X72.979 Y88.973 E2.71175
G1 X71.899 Y88.622 E2.74690
G1 X72.115 Y88.035 F7800.000
G1 F1800.000
G1 X71.295 Y87.440 E2.77823
G1 X70.700 Y86.620 E2.80957
G1 X70.387 Y85.657 E2.84090
G1 X70.387 Y84.644 E2.87224
G1 X70.700 Y83.681 E2.90358
G1 X71.295 Y82.862 E2.93491
G1 X72.115 Y82.267 E2.96625
G1 X73.078 Y81.954 E2.99759
G1 X74.091 Y81.954 E3.02892
G1 X75.054 Y82.267 E3.06026
G1 X75.873 Y82.862 E3.09159
G1 X76.468 Y83.681 E3.12293
G1 X76.781 Y84.644 E3.15427
G1 X76.781 Y85.657 E3.18560
G1 X76.468 Y86.620 E3.21694
G1 X75.873 Y87.440 E3.24827
G1 X75.054 Y88.035 E3.27961
G1 X74.091 Y88.348 E3.31095
G1 X73.078 Y88.348 E3.34228
G1 X72.186 Y88.058 E3.37130
G1 X72.402 Y87.471 F7800.000
G1 F1800.000
G1 X71.743 Y86.992 E3.39651
G1 X71.264 Y86.333 E3.42172
G1 X71.012 Y85.558 E3.44694
G1 X71.012 Y84.743 E3.47215
G1 X71.264 Y83.968 E3.49736
G1 X71.743 Y83.309 E3.52257
G1 X72.402 Y82.830 E3.54778
G1 X73.177 Y82.579 E3.57299
G1 X73.992 Y82.579 E3.59820
G1 X74.767 Y82.830 E3.62341
G1 X75.426 Y83.309 E3.64863
G1 X75.905 Y83.968 E3.67384
G1 X76.157 Y84.743 E3.69905
G1 X76.157 Y85.558 E3.72426
G1 X75.905 Y86.333 E3.74947
G1 X75.426 Y86.992 E3.77468
G1 X74.767 Y87.471 E3.79989
G1 X73.992 Y87.723 E3.82511
G1 X73.177 Y87.723 E3.85032
G1 X72.473 Y87.494 E3.87321
G1 X72.402 Y87.471 F7800.000
G1 E1.87321 F2400.00000
G92 E0
G1 X87.635 Y84.900 F7800.000
G1 E2.00000 F2400.00000
G1 F1800.000
G1 X106.835 Y84.900 E2.59406
G1 X106.835 Y115.100 E3.52847
G1 X87.635 Y115.100 E4.12253
G1 X87.635 Y84.975 E5.05463
G1 X88.260 Y85.525 F7800.000
G1 F1800.000
G1 X106.210 Y85.525 E5.61002
G1 X106.210 Y114.475 E6.50576
G1 X88.260 Y114.475 E7.06115
G1 X88.260 Y85.600 E7.95457
G1 X88.885 Y86.150 F7800.000
G1 F1800.000
G1 X105.585 Y86.150 E8.47129
G1 X105.585 Y113.850 E9.32837
G1 X88.885 Y113.850 E9.84509
G1 X88.885 Y86.225 E10.69984
G1 X88.795 Y85.658 F7800.000
G1 E8.69984 F2400.00000
G92 E0
G1 X127.004 Y95.661 F7800.000
G1 E2.00000 F2400.00000
G1 F1800.000
G1 X126.700 Y95.530 E2.01023
G1 X126.170 Y95.216 E2.02928
G1 X125.684 Y94.839 E2.04833
G1 X125.248 Y94.403 E2.06738
G1 X124.871 Y93.917 E2.08643
G1 X124.558 Y93.387 E2.10549
G1 X124.313 Y92.822 E2.12454
G1 X124.141 Y92.231 E2.14358
G1 X124.045 Y91.622 E2.16264
G1 X124.026 Y91.007 E2.18169
G1 X124.084 Y90.394 E2.20074
G1 X124.218 Y89.793 E2.21979
G1 X124.426 Y89.214 E2.23884
G1 X124.706 Y88.665 E2.25790
G1 X125.052 Y88.156 E2.27695
