; generated by Slic3r 1.3.1-dev (Build 2ef957d) on 2019-11-25 at 09:24:22

; external perimeters extrusion width = 0.55mm (4.37mm^3/s)
; perimeters extrusion width = 0.70mm (11.44mm^3/s)
; infill extrusion width = 0.62mm (13.45mm^3/s)
; solid infill extrusion width = 0.70mm (3.81mm^3/s)
; top infill extrusion width = 0.70mm (2.86mm^3/s)

M107
G92 E0
M104 S200 ; set temperature
G28 ; home all axes
G1 Z5 F5000 ; lift nozzle

; Filament gcode

M109 S200 ; set temperature and wait for it to be reached
G21 ; set units to millimeters
G90 ; use absolute coordinates
M82 ; use absolute distances for extrusion
G92 E0
G1 Z0.350 F7800.000
G1 E-2.00000 F2400.00000
G92 E0
G1 X79.746 Y84.529 F7800.000
G1 E2.00000 F2400.00000
G1 F1800.000
G1 X81.624 Y83.212 E2.07096
G1 X84.431 Y82.588 E2.15992
G1 X115.569 Y82.588 E3.12339
G1 X117.828 Y82.985 E3.19435
G1 X120.254 Y84.529 E3.28332
G1 X124.018 Y88.293 E3.44802
G1 X125.334 Y90.171 E3.51898
G1 X125.958 Y92.977 E3.60794
G1 X125.958 Y107.198 E4.04793
G1 X125.561 Y109.456 E4.11889
G1 X124.418 Y111.445 E4.18986
G1 X122.665 Y112.924 E4.26082
G1 X120.513 Y113.717 E4.33178
G1 X119.333 Y113.823 E4.36843
G1 X80.667 Y113.823 E5.56483
G1 X78.408 Y113.426 E5.63579
G1 X76.420 Y112.282 E5.70675
G1 X74.941 Y110.529 E5.77771
G1 X74.148 Y108.377 E5.84868
G1 X74.042 Y107.198 E5.88533
G1 X74.042 Y92.977 E6.32532
G1 X74.439 Y90.719 E6.39628
G1 X75.982 Y88.293 E6.48524
G1 X79.693 Y84.582 E6.64762
G1 E4.64762 F2400.00000
G92 E0
G1 X116.852 Y105.328 F7800.000
G1 E2.00000 F2400.00000
G1 F1800.000
G1 X113.148 Y105.328 E2.11461
G1 X111.296 Y102.120 E2.22922
G1 X113.148 Y98.912 E2.34383
G1 X116.852 Y98.912 E2.45844
G1 X118.704 Y102.120 E2.57306
G1 X116.890 Y105.263 E2.68535
G1 X116.852 Y105.828 F7800.000
G1 E0.68535 F2400.00000
G92 E0
G1 X110.667 Y100.710 F7800.000
G1 E2.00000 F2400.00000
G1 F1800.000
G1 X109.660 Y98.967 E2.06228
G1 X111.673 Y98.967 E2.12456
G1 X110.704 Y100.645 E2.18452
G1 X110.667 Y101.960 F7800.000
G1 F1800.000
G1 X108.578 Y98.342 E2.31377
G1 X112.755 Y98.342 E2.44303
G1 X110.704 Y101.895 E2.56997
G1 X110.667 Y103.530 F7800.000
G1 F1800.000
G1 X111.861 Y105.598 E2.64386
G1 X109.473 Y105.598 E2.71774
G1 X110.629 Y103.595 E2.78931
G1 X110.667 Y102.280 F7800.000
G1 F1800.000
G1 X112.943 Y106.223 E2.93018
G1 X108.390 Y106.223 E3.07104
G1 X110.629 Y102.345 E3.20959
G1 E1.20959 F2400.00000
G92 E0
G1 X117.057 Y106.223 F7800.000
G1 E2.00000 F2400.00000
G1 F1800.000
G1 X118.081 Y104.450 E2.06334
G1 X118.358 Y104.524 E2.07224
G1 X118.358 Y106.223 E2.12479
G1 X117.132 Y106.223 E2.16274
G1 E0.16274 F2400.00000
G92 E0
G1 X116.714 Y93.730 F7800.000
G1 E2.00000 F2400.00000
G1 F1800.000
G1 X115.828 Y92.196 E2.05482
G1 X116.089 Y91.995 E2.06500
G1 X117.734 Y93.640 E2.13696
G1 X117.734 Y97.662 E2.26142
G1 X114.444 Y97.662 E2.36321
G1 X116.676 Y93.795 E2.50139
G1 X115.992 Y93.730 F7800.000
G1 F1800.000
G1 X113.948 Y90.188 E2.62793
G1 X115.165 Y90.188 E2.66561
G1 X118.358 Y93.381 E2.80533
G1 X118.358 Y99.716 E3.00133
G1 X118.081 Y99.790 E3.01023
G1 X117.213 Y98.287 E3.06392
G1 X113.361 Y98.287 E3.18309
G1 X115.955 Y93.795 E3.34359
G1 E1.34359 F2400.00000
G92 E0
G1 X104.619 Y93.730 F7800.000
G1 E2.00000 F2400.00000
G1 F1800.000
G1 X106.890 Y97.662 E2.14049
G1 X103.600 Y97.662 E2.24229
G1 X103.600 Y93.640 E2.36675
G1 X105.245 Y91.995 E2.43872
G1 X105.505 Y92.195 E2.44889
G1 X104.657 Y93.665 E2.50140
G1 X105.341 Y93.730 F7800.000
G1 F1800.000
G1 X107.972 Y98.287 E2.66422
G1 X104.120 Y98.287 E2.78339
G1 X103.253 Y99.790 E2.83709
G1 X102.975 Y99.716 E2.84599
G1 X102.975 Y93.381 E3.04199
G1 X106.168 Y90.188 E3.18170
G1 X107.386 Y90.188 E3.21939
G1 X105.378 Y93.665 E3.34361
G1 E1.34361 F2400.00000
G92 E0
G1 X104.481 Y98.912 F7800.000
G1 E2.00000 F2400.00000
G1 F1800.000
G1 X108.185 Y98.912 E2.11461
G1 X110.037 Y102.120 E2.22922
G1 X108.185 Y105.328 E2.34383
G1 X104.481 Y105.328 E2.45844
G1 X102.629 Y102.120 E2.57306
G1 X104.444 Y98.977 E2.68535
G1 X104.481 Y98.412 F7800.000
G1 E0.68535 F2400.00000
G92 E0
G1 X103.253 Y104.450 F7800.000
G1 E2.00000 F2400.00000
G1 F1800.000
G1 X104.276 Y106.223 E2.06334
G1 X102.975 Y106.223 E2.10361
G1 X102.975 Y104.524 E2.15616
G1 X103.180 Y104.469 E2.16274
G1 E0.16274 F2400.00000
G92 E0
G1 X102.620 Y102.120 F7800.000
G1 E2.00000 F2400.00000
G1 F1800.000
G1 X102.350 Y102.048 E2.00863
G1 X102.350 Y93.122 E2.28480
G1 X105.909 Y89.563 E2.44053
G1 X108.468 Y89.563 E2.51972
G1 X106.063 Y93.730 E2.66858
G1 X108.365 Y97.717 E2.81104
G1 X112.969 Y97.717 E2.95350
G1 X115.271 Y93.730 E3.09596
G1 X112.865 Y89.563 E3.24483
G1 X115.424 Y89.563 E3.32401
G1 X118.983 Y93.122 E3.47975
G1 X118.983 Y102.048 E3.75591
G1 X118.714 Y102.120 E3.76455
G1 X118.983 Y102.192 E3.77319
G1 X118.983 Y106.848 E3.91723
G1 X102.350 Y106.848 E4.43189
G1 X102.350 Y102.192 E4.57593
G1 X102.547 Y102.139 E4.58224
G1 X102.673 Y101.846 F7800.000
G1 E2.58224 F2400.00000
G92 E0
G1 X108.416 Y89.653 F7800.000
G1 E2.00000 F2400.00000
G1 F1800.000
G1 X112.917 Y89.653 E2.17923
G1 E0.17923 F2400.00000
G92 E0
G1 X114.735 Y90.501 F7800.000
G1 E2.00000 F2400.00000
G1 F1800.000
G1 X115.079 Y90.950 E2.01461
G1 F1800.000
G1 X115.424 Y91.399 E2.03163
G1 F1800.000
G1 X115.768 Y91.848 E2.05107
G1 X116.826 Y93.226 F7800.000
G1 F1800.000
G1 X116.941 Y93.375 E2.05158
G1 F1800.000
G1 X117.170 Y93.675 E2.05430
G1 F1800.000
G1 X117.206 Y93.769 E2.05544
G1 F1800.000
G1 X117.325 Y94.587 E2.06813
G1 X116.973 Y95.052 F7800.000
G1 F1800.000
G1 X116.018 Y96.007 E2.11826
G1 X115.283 Y97.281 E2.17287
G1 X115.805 Y97.281 E2.19225
G1 X117.352 Y95.734 E2.27347
G1 X117.352 Y96.794 E2.31284
G1 X116.865 Y97.281 E2.33837
G1 E0.33837 F2400.00000
G92 E0
G1 X116.774 Y106.088 F7800.000
G1 E2.00000 F2400.00000
G1 F1800.000
G1 X113.226 Y106.088 E2.14402
G1 E0.14402 F2400.00000
G92 E0
G1 X108.107 Y106.088 F7800.000
G1 E2.00000 F2400.00000
G1 F1800.000
G1 X104.559 Y106.088 E2.14402
G1 E0.14402 F2400.00000
G92 E0
G1 X105.564 Y97.281 F7800.000
G1 E2.00000 F2400.00000
G1 F1800.000
G1 X106.050 Y96.794 E2.02553
G1 X105.662 Y96.122 E2.05435
G1 X104.504 Y97.281 E2.11518
G1 X103.982 Y97.281 E2.13457
G1 X103.982 Y96.742 E2.15456
G1 X105.274 Y95.450 E2.22242
G1 X104.994 Y94.964 E2.24323
G1 X104.980 Y95.070 E2.24718
G1 X104.639 Y95.025 E2.25996
G1 X103.982 Y95.682 E2.29446
G1 X103.982 Y95.488 E2.30164
G1 X104.153 Y95.511 E2.30805
G1 X104.008 Y94.586 F7800.000
G1 F1800.000
G1 X104.109 Y93.816 E2.31998
G1 F1800.000
G1 X104.145 Y93.722 E2.32112
G1 F1800.000
G1 X104.278 Y93.525 E2.32284
G1 F1800.000
G1 X104.508 Y93.226 E2.32386
G1 X105.565 Y91.847 F7800.000
G1 F1800.000
G1 X105.910 Y91.399 E2.34209
G1 F1800.000
G1 X106.254 Y90.950 E2.35790
G1 F1800.000
G1 X106.599 Y90.501 E2.37130
G1 E0.37130 F2400.00000
G92 E0
G1 X97.371 Y102.120 F7800.000
G1 E2.00000 F2400.00000
G1 F1800.000
G1 X95.519 Y105.328 E2.11461
G1 X91.815 Y105.328 E2.22922
G1 X89.963 Y102.120 E2.34383
G1 X91.815 Y98.912 E2.45844
G1 X95.519 Y98.912 E2.57306
G1 X97.333 Y102.055 E2.68535
G1 X97.804 Y102.370 F7800.000
G1 E0.68535 F2400.00000
G92 E0
G1 X90.527 Y105.598 F7800.000
G1 E2.00000 F2400.00000
G1 F1800.000
G1 X88.139 Y105.598 E2.07389
G1 X89.333 Y103.530 E2.14778
G1 X90.490 Y105.533 E2.21934
G1 X91.610 Y106.223 F7800.000
G1 F1800.000
G1 X87.057 Y106.223 E2.36021
G1 X89.333 Y102.280 E2.50108
G1 X91.572 Y106.158 E2.63962
G1 E0.63962 F2400.00000
G92 E0
G1 X95.724 Y106.223 F7800.000
G1 E2.00000 F2400.00000
G1 F1800.000
G1 X96.747 Y104.450 E2.06334
G1 X97.025 Y104.524 E2.07224
G1 X97.025 Y106.223 E2.12479
G1 X95.799 Y106.223 E2.16274
G1 E0.16274 F2400.00000
G92 E0
G1 X90.760 Y96.481 F7800.000
G1 E2.00000 F2400.00000
G1 F1800.000
G1 X90.303 Y96.714 E2.01588
G1 X89.333 Y96.867 E2.04625
G1 X88.364 Y96.714 E2.07662
G1 X87.489 Y96.268 E2.10698
G1 X86.795 Y95.574 E2.13735
G1 X86.350 Y94.699 E2.16772
G1 X86.196 Y93.730 E2.19809
G1 X86.350 Y92.761 E2.22846
G1 X86.795 Y91.886 E2.25882
G1 X87.489 Y91.192 E2.28919
G1 X88.364 Y90.746 E2.31956
G1 X89.333 Y90.593 E2.34993
G1 X90.303 Y90.746 E2.38030
G1 X91.177 Y91.192 E2.41067
G1 X91.871 Y91.886 E2.44104
G1 X92.317 Y92.761 E2.47141
G1 X92.470 Y93.730 E2.50177
G1 X92.317 Y94.699 E2.53214
G1 X91.871 Y95.574 E2.56251
G1 X91.177 Y96.268 E2.59288
G1 X90.827 Y96.446 E2.60505
G1 X90.476 Y95.924 F7800.000
G1 F1800.000
G1 X90.107 Y96.112 E2.61787
G1 X89.333 Y96.234 E2.64211
G1 X88.559 Y96.112 E2.66635
G1 X87.861 Y95.756 E2.69060
G1 X87.307 Y95.202 E2.71484
G1 X86.952 Y94.504 E2.73908
G1 X86.829 Y93.730 E2.76333
G1 X86.952 Y92.956 E2.78757
G1 X87.307 Y92.258 E2.81181
G1 X87.861 Y91.704 E2.83606
G1 X88.559 Y91.348 E2.86030
G1 X89.333 Y91.226 E2.88455
G1 X90.107 Y91.348 E2.90879
G1 X90.805 Y91.704 E2.93303
G1 X91.359 Y92.258 E2.95728
G1 X91.715 Y92.956 E2.98152
G1 X91.838 Y93.730 E3.00576
G1 X91.715 Y94.504 E3.03001
G1 X91.359 Y95.202 E3.05425
G1 X90.805 Y95.756 E3.07850
G1 X90.543 Y95.890 E3.08760
G1 X90.484 Y96.338 F7800.000
G1 X91.093 Y97.662 F7800.000
G1 F1800.000
G1 X89.333 Y100.710 E3.19650
G1 X87.574 Y97.662 E3.30539
G1 X82.266 Y97.662 E3.46960
G1 X82.266 Y93.640 E3.59406
G1 X85.093 Y90.813 E3.71776
G1 X86.985 Y90.813 E3.77628
G1 X86.283 Y91.514 E3.80696
G1 X85.748 Y92.565 E3.84345
G1 X85.564 Y93.730 E3.87994
G1 X85.748 Y94.895 E3.91644
G1 X86.283 Y95.946 E3.95293
G1 X87.118 Y96.780 E3.98942
G1 X88.168 Y97.315 E4.02591
G1 X89.333 Y97.500 E4.06241
G1 X90.498 Y97.315 E4.09890
G1 X91.549 Y96.780 E4.13539
G1 X92.383 Y95.946 E4.17189
G1 X92.919 Y94.895 E4.20838
G1 X93.103 Y93.730 E4.24487
G1 X92.919 Y92.565 E4.28137
G1 X92.383 Y91.514 E4.31786
G1 X91.682 Y90.813 E4.34854
G1 X93.573 Y90.813 E4.40706
G1 X96.400 Y93.640 E4.53076
G1 X96.400 Y97.662 E4.65522
G1 X91.168 Y97.662 E4.81711
G1 X91.454 Y98.287 F7800.000
G1 F1800.000
G1 X89.333 Y101.960 E4.94833
G1 X87.213 Y98.287 E5.07955
G1 X82.787 Y98.287 E5.21649
G1 X81.919 Y99.790 E5.27018
G1 X81.642 Y99.716 E5.27908
G1 X81.642 Y93.381 E5.47508
G1 X84.835 Y90.188 E5.61479
G1 X93.832 Y90.188 E5.89319
G1 X97.025 Y93.381 E6.03291
G1 X97.025 Y99.716 E6.22891
G1 X96.747 Y99.790 E6.23781
G1 X95.880 Y98.287 E6.29150
G1 X91.529 Y98.287 E6.42612
G1 E4.42612 F2400.00000
G92 E0
G1 X86.852 Y98.912 F7800.000
G1 E2.00000 F2400.00000
G1 F1800.000
G1 X88.704 Y102.120 E2.11461
G1 X86.852 Y105.328 E2.22922
G1 X83.148 Y105.328 E2.34383
G1 X81.296 Y102.120 E2.45844
G1 X83.148 Y98.912 E2.57306
G1 X86.777 Y98.912 E2.68535
G1 X87.285 Y98.662 F7800.000
G1 E0.68535 F2400.00000
G92 E0
G1 X81.919 Y104.450 F7800.000
G1 E2.00000 F2400.00000
G1 F1800.000
G1 X82.943 Y106.223 E2.06334
G1 X81.642 Y106.223 E2.10361
G1 X81.642 Y104.524 E2.15615
G1 X81.847 Y104.469 E2.16274
G1 E0.16274 F2400.00000
G92 E0
G1 X81.286 Y102.120 F7800.000
G1 E2.00000 F2400.00000
G1 F1800.000
G1 X81.017 Y102.048 E2.00864
G1 X81.017 Y93.122 E2.28480
G1 X84.576 Y89.563 E2.44054
G1 X94.091 Y89.563 E2.73495
G1 X97.650 Y93.122 E2.89069
G1 X97.650 Y102.048 E3.16685
G1 X97.381 Y102.120 E3.17548
G1 X97.650 Y102.192 E3.18412
G1 X97.650 Y106.848 E3.32816
G1 X81.017 Y106.848 E3.84282
G1 X81.017 Y102.192 E3.98686
G1 X81.214 Y102.139 E3.99318
G1 X81.340 Y101.846 F7800.000
G1 E1.99318 F2400.00000
G92 E0
G1 X83.226 Y106.088 F7800.000
G1 E2.00000 F2400.00000
G1 F1800.000
G1 X86.774 Y106.088 E2.14402
G1 E0.14402 F2400.00000
G92 E0
G1 X91.893 Y106.088 F7800.000
G1 E2.00000 F2400.00000
G1 F1800.000
G1 X95.441 Y106.088 E2.14402
G1 E0.14402 F2400.00000
G92 E0
G1 X95.532 Y97.281 F7800.000
G1 E2.00000 F2400.00000
G1 F1800.000
G1 X96.018 Y96.794 E2.02202
G1 X96.018 Y95.880 E2.05131
G1 X94.618 Y97.281 E2.11476
G1 X93.703 Y97.281 E2.14405
G1 X96.018 Y94.965 E2.24892
G1 X96.018 Y94.050 E2.27821
G1 X92.788 Y97.281 E2.42451
G1 X91.986 Y97.281 E2.45020
G1 X91.963 Y97.249 E2.45143
G1 X92.652 Y96.561 E2.48263
G1 X92.713 Y96.441 E2.48692
G1 X95.758 Y93.396 E2.62485
G1 X95.301 Y92.938 E2.64556
G1 X93.347 Y94.892 E2.73405
G1 X93.493 Y93.973 E2.76386
G1 X93.473 Y93.851 E2.76781
G1 X94.844 Y92.481 E2.82986
G1 X94.386 Y92.024 E2.85058
G1 X93.348 Y93.062 E2.89758
G1 X93.277 Y92.613 E2.91214
G1 X93.216 Y92.493 E2.91643
G1 X93.443 Y92.053 E2.93229
G1 X93.929 Y91.566 E2.95432
G1 X93.159 Y91.468 F7800.000
G1 F1800.000
G1 X92.492 Y91.126 E2.96188
G1 X91.180 Y90.803 F7800.000
G1 F1800.000
G1 X90.764 Y90.501 E2.96337
G1 E0.96337 F2400.00000
G92 E0
G1 X87.903 Y90.501 F7800.000
G1 E2.00000 F2400.00000
G1 F1800.000
G1 X87.487 Y90.803 E2.00275
G1 X86.175 Y91.126 F7800.000
G1 F1800.000
G1 X85.508 Y91.468 E2.01031
G1 X84.738 Y92.052 F7800.000
G1 F1800.000
G1 X82.648 Y94.142 E2.10912
G1 X85.224 Y91.566 E2.23092
G1 X85.450 Y92.007 E2.24749
G1 X85.390 Y92.127 E2.25197
G1 X85.346 Y92.399 E2.26119
G1 X82.648 Y95.097 E2.38877
G1 X82.648 Y96.052 E2.42070
G1 X85.179 Y93.521 E2.54039
G1 X85.310 Y94.345 E2.56830
G1 X82.648 Y97.007 E2.69416
G1 X82.648 Y97.281 E2.70330
G1 X83.330 Y97.281 E2.72609
G1 X85.516 Y95.095 E2.82945
G1 X85.838 Y95.728 E2.85319
G1 X84.285 Y97.281 E2.92663
G1 X85.240 Y97.281 E2.95856
G1 X86.230 Y96.290 E3.00539
G1 X86.704 Y96.763 E3.02777
G1 X86.195 Y97.281 E3.05203
G1 X87.115 Y97.169 F7800.000
G1 F1800.000
G1 X87.364 Y97.350 E3.05290
G1 X88.892 Y97.781 F7800.000
G1 F1800.000
G1 X88.314 Y98.359 E3.08324
G1 X88.702 Y99.031 E3.11206
G1 X89.894 Y97.839 E3.17466
G1 X90.420 Y97.756 E3.19444
G1 X89.577 Y99.217 E3.25710
G1 X89.090 Y99.703 E3.28263
G1 E1.28263 F2400.00000
G92 E0
G1 X91.303 Y97.350 F7800.000
G1 E2.00000 F2400.00000
G1 F1800.000
G1 X91.552 Y97.169 E2.00087
G1 Z0.650 F7800.000
G1 E0.00087 F2400.00000
G92 E0
G1 X111.382 Y102.120 F7800.000
G1 E2.00000 F2400.00000
G1 F900.000
G1 X113.191 Y98.987 E2.07456
G1 X116.809 Y98.987 E2.14912
G1 X118.618 Y102.120 E2.22368
G1 X116.809 Y105.253 E2.29823
G1 X113.191 Y105.253 E2.37279
G1 X111.420 Y102.185 E2.44581
G1 X110.949 Y101.870 F7800.000
G1 X110.667 Y103.273 F7800.000
G1 F900.000
G1 X112.271 Y106.051 E2.53236
G1 X109.062 Y106.051 E2.61892
G1 X110.629 Y103.338 E2.70345
G1 X110.667 Y100.967 F7800.000
G1 F900.000
G1 X109.438 Y98.839 E2.76976
G1 X111.896 Y98.839 E2.83607
G1 X110.704 Y100.902 E2.90036
G1 X110.598 Y102.120 F7800.000
G1 F3600.000
G1 X108.337 Y98.203 E3.02237
G1 X112.997 Y98.203 E3.14808
G1 X110.735 Y102.120 E3.27010
G1 X112.868 Y105.814 E3.38515
G1 X117.132 Y105.814 E3.50020
G1 X118.215 Y103.938 E3.55861
G1 X118.498 Y104.014 E3.56651
G1 X118.498 Y106.687 E3.63861
G1 X102.836 Y106.687 E4.06112
G1 X102.836 Y104.014 E4.13322
G1 X103.118 Y103.938 E4.14112
G1 X104.201 Y105.814 E4.19953
G1 X108.466 Y105.814 E4.31458
G1 X110.561 Y102.185 E4.42761
G1 X109.951 Y102.120 F7800.000
G1 F900.000
G1 X108.142 Y105.253 E4.50217
G1 X104.525 Y105.253 E4.57672
G1 X102.716 Y102.120 E4.65128
G1 X104.525 Y98.987 E4.72584
G1 X108.142 Y98.987 E4.80040
G1 X109.913 Y102.055 E4.87341
G1 X110.384 Y102.370 F7800.000
G1 X104.768 Y93.730 F7800.000
G1 F900.000
G1 X107.112 Y97.791 E4.99991
G1 X103.834 Y97.791 E5.08835
G1 X103.754 Y97.929 E5.09267
G1 X103.471 Y97.854 E5.10056
G1 X103.471 Y93.587 E5.21567
G1 X105.829 Y91.229 E5.30561
G1 X106.094 Y91.433 E5.31463
G1 X104.805 Y93.665 E5.38416
G1 X105.502 Y93.730 F7800.000
G1 F900.000
G1 X108.213 Y98.427 E5.53046
G1 X104.201 Y98.427 E5.63870
G1 X103.118 Y100.302 E5.69711
G1 X102.836 Y100.226 E5.70500
G1 X102.836 Y93.324 E5.89121
G1 X106.110 Y90.049 E6.01613
G1 X107.627 Y90.049 E6.05705
G1 X105.539 Y93.665 E6.16969
G1 X106.149 Y93.730 F7800.000
G1 F900.000
G1 X108.408 Y89.818 E6.26280
G1 X112.925 Y89.818 E6.35591
G1 X115.184 Y93.730 E6.44902
G1 X112.925 Y97.642 E6.54213
G1 X108.408 Y97.642 E6.63524
G1 X106.187 Y93.795 E6.72680
G1 X105.716 Y93.480 F7800.000
G1 E4.72680 F2400.00000
G92 E0
G1 X116.566 Y93.730 F7800.000
G1 E2.00000 F2400.00000
G1 F900.000
G1 X115.239 Y91.433 E2.07155
G1 X115.505 Y91.229 E2.08058
G1 X117.862 Y93.587 E2.17051
G1 X117.862 Y97.854 E2.28562
G1 X117.579 Y97.929 E2.29351
G1 X117.499 Y97.791 E2.29783
G1 X114.221 Y97.791 E2.38627
G1 X116.528 Y93.795 E2.51074
G1 X115.832 Y93.730 F7800.000
G1 F900.000
G1 X113.706 Y90.049 E2.62541
G1 X115.223 Y90.049 E2.66633
G1 X118.498 Y93.324 E2.79125
G1 X118.498 Y100.226 E2.97745
G1 X118.215 Y100.302 E2.98535
G1 X117.132 Y98.427 E3.04375
G1 X113.120 Y98.427 E3.15199
G1 X115.794 Y93.795 E3.29627
