; generated by Slic3r 1.3.1-dev (Build 2ef957d) on 2019-11-25 at 09:24:30

; external perimeters extrusion width = 0.55mm (4.37mm^3/s)
; perimeters extrusion width = 0.70mm (11.44mm^3/s)
; infill extrusion width = 0.62mm (13.45mm^3/s)
; solid infill extrusion width = 0.70mm (3.81mm^3/s)
; top infill extrusion width = 0.70mm (2.86mm^3/s)

M107
G92 E0
M104 S200 ; set temperature
G28 ; home all axes
G1 Z5 F5000 ; lift nozzle

; Filament gcode

M109 S200 ; set temperature and wait for it to be reached
G21 ; set units to millimeters
G90 ; use absolute coordinates
M82 ; use absolute distances for extrusion
G92 E0
G1 Z0.350 F7800.000
G1 E-2.00000 F2400.00000
G92 E0
G1 X34.668 Y58.774 F7800.000
G1 E2.00000 F2400.00000
G1 F1800.000
G1 X36.820 Y57.981 E2.07096
G1 X38.000 Y57.875 E2.10761
G1 X73.666 Y57.875 E3.21118
G1 X74.416 Y57.918 E3.23442
G1 X100.750 Y60.918 E4.05448
G1 X101.299 Y61.004 E4.07168
G1 X153.212 Y71.384 E5.70975
G1 X155.594 Y72.372 E5.78953
G1 X157.216 Y73.456 E5.84989
G1 X159.044 Y75.284 E5.92987
G1 X160.128 Y76.906 E5.99023
G1 X160.791 Y78.178 E6.03463
G1 X168.172 Y97.092 E6.66281
G1 X168.625 Y99.500 E6.73864
G1 X168.625 Y135.500 E7.85253
G1 X168.228 Y137.759 E7.92349
G1 X167.085 Y139.747 E7.99445
G1 X165.332 Y141.226 E8.06541
G1 X163.180 Y142.019 E8.13637
G1 X162.000 Y142.125 E8.17303
G1 X126.334 Y142.125 E9.27659
G1 X125.584 Y142.082 E9.29983
G1 X99.250 Y139.082 E10.11990
G1 X98.701 Y138.996 E10.13709
G1 X46.788 Y128.616 E11.77516
G1 X44.406 Y127.628 E11.85494
G1 X42.784 Y126.544 E11.91531
G1 X40.956 Y124.716 E11.99528
G1 X39.872 Y123.094 E12.05564
G1 X39.209 Y121.822 E12.10004
G1 X31.828 Y102.908 E12.72822
G1 X31.375 Y100.500 E12.80405
G1 X31.375 Y64.500 E13.91794
G1 X31.772 Y62.241 E13.98890
G1 X32.915 Y60.253 E14.05986
G1 X34.611 Y58.822 E14.12850
G1 E12.12850 F2400.00000
G92 E0
G1 X159.975 Y133.475 F7800.000
G1 E2.00000 F2400.00000
G1 F1800.000
G1 X126.811 Y133.475 E3.02614
G1 X126.012 Y133.068 E3.05388
G1 X124.434 Y132.043 E3.11210
G1 X122.972 Y130.859 E3.17032
G1 X121.641 Y129.528 E3.22854
G1 X120.457 Y128.066 E3.28676
G1 X119.432 Y126.488 E3.34498
G1 X118.578 Y124.812 E3.40320
G1 X117.904 Y123.055 E3.46142
G1 X117.417 Y121.237 E3.51964
G1 X117.122 Y119.379 E3.57786
G1 X117.024 Y117.500 E3.63608
G1 X117.122 Y115.621 E3.69430
G1 X117.417 Y113.763 E3.75252
G1 X117.904 Y111.945 E3.81073
G1 X118.578 Y110.188 E3.86895
G1 X119.432 Y108.512 E3.92717
G1 X120.457 Y106.934 E3.98539
G1 X121.641 Y105.472 E4.04361
G1 X122.972 Y104.141 E4.10183
G1 X124.434 Y102.957 E4.16005
G1 X126.012 Y101.932 E4.21827
G1 X126.811 Y101.525 E4.24601
G1 X159.975 Y101.525 E5.27215
G1 X159.975 Y133.400 E6.25840
G1 X159.350 Y132.850 F7800.000
G1 F1800.000
G1 X126.961 Y132.850 E7.26057
G1 X126.325 Y132.526 E7.28265
G1 X124.802 Y131.537 E7.33884
G1 X123.390 Y130.394 E7.39504
G1 X122.106 Y129.110 E7.45123
G1 X120.963 Y127.698 E7.50743
G1 X119.974 Y126.175 E7.56362
G1 X119.150 Y124.557 E7.61981
G1 X118.499 Y122.862 E7.67600
G1 X118.029 Y121.107 E7.73219
G1 X117.745 Y119.314 E7.78839
G1 X117.650 Y117.500 E7.84458
G1 X117.745 Y115.686 E7.90077
G1 X118.029 Y113.893 E7.95697
G1 X118.499 Y112.138 E8.01316
G1 X119.150 Y110.443 E8.06935
G1 X119.974 Y108.825 E8.12554
G1 X120.963 Y107.302 E8.18174
G1 X122.106 Y105.890 E8.23793
G1 X123.390 Y104.606 E8.29412
G1 X124.802 Y103.463 E8.35032
G1 X126.325 Y102.474 E8.40651
G1 X126.961 Y102.150 E8.42859
G1 X159.350 Y102.150 E9.43076
G1 X159.350 Y132.775 E10.37834
G1 X159.484 Y133.332 F7800.000
G1 E8.37834 F2400.00000
G92 E0
G1 X103.102 Y118.297 F7800.000
G1 E2.00000 F2400.00000
G1 F1800.000
G1 X102.978 Y118.679 E2.01245
G1 X102.807 Y119.043 E2.02489
G1 X102.591 Y119.383 E2.03734
G1 X102.335 Y119.693 E2.04979
G1 X102.042 Y119.968 E2.06223
G1 X101.716 Y120.204 E2.07467
G1 X101.364 Y120.398 E2.08712
G1 X100.990 Y120.546 E2.09956
G1 X100.600 Y120.646 E2.11202
G1 X100.201 Y120.697 E2.12447
G1 X99.799 Y120.697 E2.13689
G1 X99.400 Y120.646 E2.14934
G1 X99.010 Y120.546 E2.16180
G1 X98.636 Y120.398 E2.17424
G1 X98.284 Y120.204 E2.18668
G1 X97.958 Y119.968 E2.19912
G1 X97.665 Y119.693 E2.21157
G1 X97.409 Y119.383 E2.22402
G1 X97.193 Y119.043 E2.23647
G1 X97.022 Y118.679 E2.24891
G1 X96.898 Y118.297 E2.26136
G1 X96.822 Y117.901 E2.27380
G1 X96.797 Y117.500 E2.28625
G1 X96.822 Y117.099 E2.29869
G1 X96.898 Y116.703 E2.31114
G1 X97.022 Y116.321 E2.32358
G1 X97.193 Y115.957 E2.33603
G1 X97.409 Y115.617 E2.34847
G1 X97.665 Y115.307 E2.36093
G1 X97.958 Y115.032 E2.37337
G1 X98.284 Y114.796 E2.38581
G1 X98.636 Y114.602 E2.39825
G1 X99.010 Y114.454 E2.41069
G1 X99.400 Y114.354 E2.42315
G1 X99.799 Y114.303 E2.43560
G1 X100.201 Y114.303 E2.44803
G1 X100.600 Y114.354 E2.46048
G1 X100.990 Y114.454 E2.47294
G1 X101.364 Y114.602 E2.48538
G1 X101.716 Y114.796 E2.49782
G1 X102.042 Y115.032 E2.51026
G1 X102.335 Y115.307 E2.52270
G1 X102.591 Y115.617 E2.53516
G1 X102.807 Y115.957 E2.54761
G1 X102.978 Y116.321 E2.56005
G1 X103.102 Y116.703 E2.57249
G1 X103.178 Y117.099 E2.58494
G1 X103.203 Y117.500 E2.59738
G1 X103.178 Y117.901 E2.60983
G1 X103.116 Y118.223 E2.61995
G1 X102.496 Y118.141 F7800.000
G1 F1800.000
G1 X102.396 Y118.449 E2.62997
G1 X102.258 Y118.741 E2.63998
G1 X102.085 Y119.015 E2.64999
G1 X101.878 Y119.264 E2.66001
G1 X101.642 Y119.486 E2.67002
G1 X101.381 Y119.676 E2.68003
G1 X101.097 Y119.832 E2.69004
G1 X100.796 Y119.951 E2.70005
G1 X100.483 Y120.031 E2.71007
G1 X100.162 Y120.072 E2.72009
G1 X99.838 Y120.072 E2.73009
G1 X99.517 Y120.031 E2.74010
G1 X99.204 Y119.951 E2.75012
G1 X98.903 Y119.832 E2.76013
G1 X98.619 Y119.676 E2.77014
G1 X98.358 Y119.486 E2.78015
G1 X98.122 Y119.264 E2.79016
G1 X97.915 Y119.015 E2.80018
G1 X97.742 Y118.741 E2.81019
G1 X97.604 Y118.449 E2.82021
G1 X97.504 Y118.141 E2.83022
G1 X97.444 Y117.823 E2.84023
G1 X97.423 Y117.500 E2.85024
G1 X97.444 Y117.177 E2.86025
G1 X97.504 Y116.859 E2.87027
G1 X97.604 Y116.551 E2.88028
G1 X97.742 Y116.259 E2.89029
G1 X97.915 Y115.985 E2.90031
G1 X98.122 Y115.736 E2.91032
G1 X98.358 Y115.514 E2.92033
G1 X98.619 Y115.324 E2.93034
G1 X98.903 Y115.168 E2.94035
G1 X99.204 Y115.049 E2.95036
G1 X99.517 Y114.969 E2.96039
G1 X99.838 Y114.928 E2.97040
G1 X100.162 Y114.928 E2.98040
G1 X100.483 Y114.969 E2.99041
G1 X100.796 Y115.049 E3.00044
G1 X101.097 Y115.168 E3.01045
G1 X101.381 Y115.324 E3.02046
G1 X101.642 Y115.514 E3.03047
G1 X101.878 Y115.736 E3.04048
G1 X102.085 Y115.985 E3.05049
G1 X102.258 Y116.259 E3.06051
G1 X102.396 Y116.551 E3.07052
G1 X102.496 Y116.859 E3.08053
G1 X102.556 Y117.177 E3.09055
G1 X102.577 Y117.500 E3.10056
G1 X102.556 Y117.823 E3.11057
G1 X102.510 Y118.067 E3.11826
G1 X101.889 Y117.985 F7800.000
G1 F1800.000
G1 X101.814 Y118.218 E3.12584
G1 X101.709 Y118.440 E3.13342
G1 X101.578 Y118.647 E3.14100
G1 X101.422 Y118.835 E3.14858
G1 X101.243 Y119.003 E3.15616
G1 X101.045 Y119.147 E3.16374
G1 X100.831 Y119.265 E3.17132
G1 X100.603 Y119.355 E3.17890
G1 X100.365 Y119.416 E3.18648
G1 X100.122 Y119.447 E3.19406
G1 X99.878 Y119.447 E3.20164
G1 X99.635 Y119.416 E3.20922
G1 X99.397 Y119.355 E3.21680
G1 X99.169 Y119.265 E3.22438
G1 X98.955 Y119.147 E3.23196
G1 X98.757 Y119.003 E3.23954
G1 X98.578 Y118.835 E3.24711
G1 X98.422 Y118.647 E3.25470
G1 X98.291 Y118.440 E3.26228
G1 X98.186 Y118.218 E3.26986
G1 X98.111 Y117.985 E3.27744
G1 X98.065 Y117.744 E3.28502
G1 X98.049 Y117.500 E3.29259
G1 X98.065 Y117.256 E3.30017
G1 X98.111 Y117.015 E3.30775
G1 X98.186 Y116.782 E3.31533
G1 X98.291 Y116.560 E3.32291
G1 X98.422 Y116.353 E3.33049
G1 X98.578 Y116.165 E3.33807
G1 X98.757 Y115.997 E3.34565
G1 X98.955 Y115.853 E3.35323
G1 X99.169 Y115.735 E3.36081
G1 X99.397 Y115.645 E3.36839
G1 X99.635 Y115.584 E3.37597
G1 X99.878 Y115.553 E3.38355
G1 X100.122 Y115.553 E3.39113
G1 X100.365 Y115.584 E3.39871
G1 X100.603 Y115.645 E3.40629
G1 X100.831 Y115.735 E3.41387
G1 X101.045 Y115.853 E3.42145
G1 X101.243 Y115.997 E3.42903
G1 X101.422 Y116.165 E3.43661
G1 X101.578 Y116.353 E3.44419
G1 X101.709 Y116.560 E3.45177
G1 X101.814 Y116.782 E3.45935
G1 X101.889 Y117.015 E3.46693
G1 X101.935 Y117.256 E3.47451
G1 X101.951 Y117.500 E3.48209
G1 X101.935 Y117.744 E3.48966
G1 X101.903 Y117.911 E3.49492
G1 X101.889 Y117.985 F7800.000
G1 E1.49492 F2400.00000
G92 E0
G1 X123.731 Y132.616 F7800.000
G1 E2.00000 F2400.00000
G1 F1800.000
G1 X100.216 Y130.912 E2.72951
G1 X50.505 Y120.972 E4.29806
G1 X50.497 Y120.673 E4.30731
G1 X50.990 Y120.546 E4.32305
G1 X51.364 Y120.398 E4.33549
G1 X51.716 Y120.204 E4.34793
G1 X52.041 Y119.968 E4.36037
G1 X52.335 Y119.693 E4.37282
G1 X52.591 Y119.383 E4.38527
G1 X52.807 Y119.043 E4.39772
G1 X52.978 Y118.679 E4.41016
G1 X53.102 Y118.297 E4.42260
G1 X53.178 Y117.902 E4.43505
G1 X53.203 Y117.500 E4.44750
G1 X53.178 Y117.098 E4.45994
G1 X53.102 Y116.703 E4.47239
G1 X52.978 Y116.321 E4.48483
G1 X52.807 Y115.957 E4.49727
G1 X52.591 Y115.617 E4.50972
G1 X52.335 Y115.307 E4.52217
G1 X52.041 Y115.032 E4.53462
G1 X51.716 Y114.796 E4.54707
G1 X51.364 Y114.602 E4.55950
G1 X50.990 Y114.454 E4.57194
G1 X50.497 Y114.327 E4.58769
G1 X50.505 Y114.028 E4.59694
G1 X100.216 Y104.088 E6.16549
G1 X123.731 Y102.384 E6.89499
G1 X123.832 Y102.640 E6.90351
G1 X122.553 Y103.676 E6.95445
G1 X121.176 Y105.053 E7.01470
G1 X119.951 Y106.566 E7.07494
G1 X118.890 Y108.199 E7.13518
G1 X118.006 Y109.934 E7.19543
G1 X117.308 Y111.752 E7.25568
G1 X116.805 Y113.632 E7.31592
G1 X116.500 Y115.556 E7.37617
G1 X116.398 Y117.500 E7.43642
G1 X116.500 Y119.444 E7.49666
G1 X116.805 Y121.368 E7.55691
G1 X117.308 Y123.248 E7.61715
G1 X118.006 Y125.066 E7.67740
G1 X118.890 Y126.801 E7.73765
G1 X119.951 Y128.434 E7.79789
G1 X121.176 Y129.947 E7.85814
G1 X122.553 Y131.324 E7.91839
G1 X123.832 Y132.360 E7.96932
G1 X123.759 Y132.546 E7.97552
G1 E5.97552 F2400.00000
G92 E0
G1 X52.496 Y118.141 F7800.000
G1 E2.00000 F2400.00000
G1 F1800.000
G1 X52.396 Y118.449 E2.01001
G1 X52.258 Y118.741 E2.02002
G1 X52.085 Y119.015 E2.03003
G1 X51.878 Y119.264 E2.04005
G1 X51.642 Y119.486 E2.05006
G1 X51.381 Y119.676 E2.06007
G1 X51.097 Y119.832 E2.07008
G1 X50.796 Y119.951 E2.08009
G1 X50.483 Y120.031 E2.09011
G1 X50.162 Y120.072 E2.10013
G1 X49.838 Y120.072 E2.11013
G1 X49.517 Y120.031 E2.12014
G1 X49.204 Y119.951 E2.13016
G1 X48.903 Y119.832 E2.14017
G1 X48.619 Y119.676 E2.15018
G1 X48.358 Y119.486 E2.16019
G1 X48.122 Y119.264 E2.17021
G1 X47.915 Y119.015 E2.18022
G1 X47.742 Y118.741 E2.19024
G1 X47.604 Y118.449 E2.20025
G1 X47.504 Y118.141 E2.21026
G1 X47.443 Y117.823 E2.22027
G1 X47.423 Y117.500 E2.23028
G1 X47.443 Y117.177 E2.24030
G1 X47.504 Y116.859 E2.25031
G1 X47.604 Y116.551 E2.26032
G1 X47.742 Y116.259 E2.27033
G1 X47.915 Y115.985 E2.28035
G1 X48.122 Y115.736 E2.29036
G1 X48.358 Y115.514 E2.30038
G1 X48.619 Y115.324 E2.31039
G1 X48.903 Y115.168 E2.32040
G1 X49.204 Y115.049 E2.33041
G1 X49.517 Y114.969 E2.34043
G1 X49.838 Y114.928 E2.35044
G1 X50.162 Y114.928 E2.36044
G1 X50.483 Y114.969 E2.37046
G1 X50.796 Y115.049 E2.38048
G1 X51.097 Y115.168 E2.39049
G1 X51.381 Y115.324 E2.40050
G1 X51.642 Y115.514 E2.41051
G1 X51.878 Y115.736 E2.42052
G1 X52.085 Y115.985 E2.43054
G1 X52.258 Y116.259 E2.44055
G1 X52.396 Y116.551 E2.45056
G1 X52.496 Y116.859 E2.46057
G1 X52.557 Y117.177 E2.47059
G1 X52.577 Y117.500 E2.48060
G1 X52.557 Y117.823 E2.49061
G1 X52.510 Y118.067 E2.49831
G1 X51.889 Y117.985 F7800.000
G1 F1800.000
G1 X51.814 Y118.218 E2.50589
G1 X51.709 Y118.440 E2.51346
G1 X51.578 Y118.647 E2.52105
G1 X51.422 Y118.835 E2.52862
G1 X51.243 Y119.003 E2.53621
G1 X51.045 Y119.147 E2.54379
G1 X50.831 Y119.265 E2.55136
G1 X50.603 Y119.355 E2.55894
G1 X50.365 Y119.416 E2.56652
G1 X50.122 Y119.447 E2.57410
G1 X49.878 Y119.447 E2.58168
G1 X49.635 Y119.416 E2.58926
G1 X49.397 Y119.355 E2.59684
G1 X49.169 Y119.265 E2.60442
G1 X48.955 Y119.147 E2.61200
G1 X48.757 Y119.003 E2.61958
G1 X48.578 Y118.835 E2.62716
G1 X48.422 Y118.647 E2.63474
G1 X48.291 Y118.440 E2.64232
G1 X48.186 Y118.218 E2.64990
G1 X48.111 Y117.985 E2.65748
G1 X48.065 Y117.744 E2.66506
G1 X48.049 Y117.500 E2.67264
G1 X48.065 Y117.256 E2.68022
G1 X48.111 Y117.015 E2.68780
G1 X48.186 Y116.782 E2.69538
G1 X48.291 Y116.560 E2.70296
G1 X48.422 Y116.353 E2.71054
G1 X48.578 Y116.165 E2.71812
G1 X48.757 Y115.997 E2.72570
G1 X48.955 Y115.853 E2.73328
G1 X49.169 Y115.735 E2.74086
G1 X49.397 Y115.645 E2.74843
G1 X49.635 Y115.584 E2.75602
G1 X49.878 Y115.553 E2.76360
G1 X50.122 Y115.553 E2.77117
G1 X50.365 Y115.584 E2.77875
G1 X50.603 Y115.645 E2.78633
G1 X50.831 Y115.735 E2.79391
G1 X51.045 Y115.853 E2.80149
G1 X51.243 Y115.997 E2.80907
G1 X51.422 Y116.165 E2.81665
G1 X51.578 Y116.353 E2.82423
G1 X51.709 Y116.560 E2.83181
G1 X51.814 Y116.782 E2.83939
G1 X51.889 Y117.015 E2.84697
G1 X51.935 Y117.256 E2.85455
G1 X51.951 Y117.500 E2.86213
G1 X51.935 Y117.744 E2.86971
G1 X51.903 Y117.911 E2.87497
G1 X51.889 Y117.985 F7800.000
G1 E0.87497 F2400.00000
G92 E0
G1 X161.025 Y134.525 F7800.000
G1 E2.00000 F2400.00000
G1 F1800.000
G1 X126.568 Y134.525 E3.06616
G1 X125.488 Y133.975 E3.10365
G1 X124.439 Y133.294 E3.14235
G1 X100.131 Y131.532 E3.89644
G1 X48.467 Y121.201 E5.52663
G1 X47.167 Y120.333 E5.57501
G1 X46.299 Y119.033 E5.62337
G1 X45.994 Y117.500 E5.67174
G1 X46.299 Y115.967 E5.72010
G1 X47.167 Y114.667 E5.76846
G1 X48.467 Y113.799 E5.81684
G1 X100.131 Y103.468 E7.44704
G1 X124.439 Y101.706 E8.20113
G1 X125.488 Y101.025 E8.23983
G1 X126.568 Y100.475 E8.27732
G1 X161.025 Y100.475 E9.34347
G1 X161.025 Y134.450 E10.39471
G1 X161.650 Y135.150 F7800.000
G1 F1800.000
G1 X126.418 Y135.150 E11.48485
G1 X125.175 Y134.517 E11.52799
G1 X124.234 Y133.905 E11.56273
G1 X100.047 Y132.153 E12.31306
G1 X48.223 Y121.790 E13.94830
G1 X46.717 Y120.783 E14.00436
G1 X45.710 Y119.277 E14.06041
G1 X45.357 Y117.500 E14.11647
G1 X45.710 Y115.723 E14.17252
G1 X46.717 Y114.217 E14.22858
G1 X48.223 Y113.210 E14.28464
G1 X100.047 Y102.847 E15.91988
G1 X124.234 Y101.095 E16.67020
G1 X125.175 Y100.483 E16.70494
G1 X126.418 Y99.850 E16.74809
G1 X161.650 Y99.850 E17.83822
G1 X161.650 Y135.075 E18.92813
G1 X161.167 Y135.020 F7800.000
G1 E16.92813 F2400.00000
G92 E0
G1 X124.096 Y132.542 F7800.000
G1 E2.00000 F2400.00000
G1 F1800.000
G1 X124.657 Y132.811 E2.01151
G1 X125.750 Y133.521 E2.03565
G1 X126.640 Y133.975 E2.05415
G1 X126.736 Y134.000 E2.05598
G1 X160.287 Y134.000 E2.67722
G1 X160.464 Y133.964 E2.68055
G1 X160.500 Y133.787 E2.68389
G1 X160.500 Y101.213 E3.28704
G1 X160.464 Y101.036 E3.29037
G1 X160.287 Y101.000 E3.29370
G1 X126.736 Y101.000 E3.91495
G1 X126.640 Y101.025 E3.91678
G1 X125.750 Y101.479 E3.93527
G1 X124.657 Y102.189 E3.95941
G1 X124.096 Y102.458 E3.97093
G1 X123.128 Y102.771 F7800.000
G1 F1800.000
G1 X123.062 Y102.797 E3.97102
G1 X122.909 Y102.935 E3.97128
G1 E1.97128 F2400.00000
G92 E0
G1 X122.909 Y132.065 F7800.000
G1 E2.00000 F2400.00000
G1 F1800.000
G1 X123.062 Y132.203 E2.00027
G1 X123.128 Y132.229 E2.00036
G1 X121.991 Y132.124 F7800.000
G1 F1800.000
G1 X122.483 Y131.631 E2.02204
G1 X122.028 Y131.197 E2.04163
G1 X121.161 Y132.064 E2.07983
G1 X120.332 Y132.004 E2.10573
G1 X121.583 Y130.752 E2.16087
G1 X121.138 Y130.307 E2.18047
G1 X119.502 Y131.944 E2.25256
G1 X118.672 Y131.883 E2.27846
G1 X120.721 Y129.835 E2.36871
G1 X120.323 Y129.343 E2.38841
G1 X117.843 Y131.823 E2.49766
G1 X117.013 Y131.763 E2.52357
G1 X119.925 Y128.852 E2.65182
G1 X119.687 Y128.559 E2.66357
G1 X119.546 Y128.341 E2.67166
G1 X116.184 Y131.703 E2.81977
G1 X115.354 Y131.643 E2.84568
G1 X119.196 Y127.801 E3.01491
G1 X118.845 Y127.262 E3.03494
G1 X114.525 Y131.583 E3.22528
G1 X113.695 Y131.523 E3.25119
G1 X118.509 Y126.709 E3.46325
G1 X118.209 Y126.120 E3.48386
G1 X112.866 Y131.463 E3.71923
G1 X112.036 Y131.402 E3.74514
G1 X117.908 Y125.530 E4.00382
G1 X117.678 Y125.078 E4.01965
G1 X117.620 Y124.928 E4.02462
G1 X111.206 Y131.342 E4.30717
G1 X110.377 Y131.282 E4.33308
G1 X117.374 Y124.286 E4.64130
G1 X117.127 Y123.643 E4.66275
G1 X109.547 Y131.222 E4.99664
G1 X108.718 Y131.162 E5.02255
G1 X116.898 Y122.982 E5.38292
G1 X116.710 Y122.280 E5.40555
G1 X107.888 Y131.102 E5.79417
G1 X107.059 Y131.042 E5.82008
G1 X116.522 Y121.578 E6.23697
G1 X116.435 Y121.255 E6.24741
G1 X116.370 Y120.841 E6.26046
