; generated by Slic3r 1.3.1-dev (Build adea0d9) on 2019-12-16 at 00:49:50

; external perimeters extrusion width = 0.44mm (2.86mm^3/s)
; perimeters extrusion width = 0.56mm (4.14mm^3/s)
; infill extrusion width = 0.50mm (3.66mm^3/s)
; solid infill extrusion width = 0.56mm (3.10mm^3/s)
; top infill extrusion width = 0.56mm (3.10mm^3/s)

M107
G92 E0
;D3D:START:START
T0
M104 S215 T0

G21
G90
M107
T0
G28
G29
M109 T0 S215 T0
G0 F3000
M107
T0
G92 E0
G0 X0 Y149 Z0.1 F3600
G1 Y49 E6.5 F1200
G0 Z1
G92 E0
; Filament gcode

G21 ; set units to millimeters
G90 ; use absolute coordinates
M82 ; use absolute distances for extrusion
G92 E0
G1 Z0.300 F7800.000
G1 E-2.00000 F2400.00000
G92 E0
G1 X73.398 Y73.496 F7800.000
G1 E2.00000 F2400.00000
G1 F1800.000
G1 X73.615 Y73.292 E2.00987
G1 X74.063 Y73.008 E2.02742
G1 X74.566 Y72.844 E2.04497
G1 X74.862 Y72.807 E2.05485
G1 X75.160 Y72.807 E2.06472
G1 X75.659 Y72.902 E2.08153
G1 X75.956 Y73.020 E2.09214
G1 X76.403 Y73.303 E2.10969
G1 X76.766 Y73.690 E2.12724
G1 X76.938 Y73.960 E2.13784
G1 X77.124 Y74.432 E2.15466
G1 X77.184 Y74.746 E2.16526
G1 X77.184 Y75.254 E2.18208
G1 X77.129 Y75.547 E2.19195
G1 X77.036 Y75.830 E2.20182
G1 X76.781 Y76.294 E2.21937
G1 X76.403 Y76.697 E2.23766
G1 X75.937 Y76.992 E2.25594
G1 X75.434 Y77.156 E2.27349
G1 X75.138 Y77.193 E2.28336
G1 X74.840 Y77.193 E2.29324
G1 X74.341 Y77.098 E2.31005
G1 X74.044 Y76.980 E2.32065
G1 X73.597 Y76.696 E2.33821
G1 X73.219 Y76.294 E2.35649
G1 X72.964 Y75.830 E2.37404
G1 X72.865 Y75.526 E2.38464
G1 X72.798 Y75.000 E2.40219
G1 X72.865 Y74.474 E2.41975
G1 X72.964 Y74.170 E2.43035
G1 X73.208 Y73.725 E2.44717
G1 X73.360 Y73.542 E2.45505
G1 X73.592 Y73.678 F7800.000
G1 F1800.000
G1 X73.779 Y73.502 E2.46354
G1 X74.177 Y73.250 E2.47914
G1 X74.625 Y73.104 E2.49475
G1 X74.879 Y73.072 E2.50324
G1 X75.135 Y73.072 E2.51172
G1 X75.584 Y73.158 E2.52688
G1 X75.835 Y73.257 E2.53581
G1 X76.233 Y73.510 E2.55142
G1 X76.555 Y73.853 E2.56703
G1 X76.700 Y74.081 E2.57597
G1 X76.868 Y74.506 E2.59112
G1 X76.919 Y74.771 E2.60006
G1 X76.919 Y75.229 E2.61521
G1 X76.871 Y75.480 E2.62370
G1 X76.792 Y75.724 E2.63219
G1 X76.565 Y76.137 E2.64780
G1 X76.233 Y76.490 E2.66386
G1 X75.823 Y76.750 E2.67992
G1 X75.375 Y76.896 E2.69552
G1 X75.121 Y76.928 E2.70401
G1 X74.865 Y76.928 E2.71250
G1 X74.416 Y76.842 E2.72765
G1 X74.165 Y76.743 E2.73659
G1 X73.767 Y76.490 E2.75220
G1 X73.435 Y76.137 E2.76826
G1 X73.208 Y75.724 E2.78387
G1 X73.125 Y75.467 E2.79280
G1 X73.066 Y75.000 E2.80841
G1 X73.125 Y74.533 E2.82402
G1 X73.208 Y74.276 E2.83296
G1 X73.429 Y73.875 E2.84811
G1 X73.554 Y73.724 E2.85461
G1 X73.786 Y73.860 F7800.000
G1 F1800.000
G1 X73.942 Y73.713 E2.86171
G1 X74.291 Y73.492 E2.87537
G1 X74.683 Y73.365 E2.88904
G1 X74.895 Y73.338 E2.89614
G1 X75.110 Y73.338 E2.90324
G1 X75.510 Y73.414 E2.91673
G1 X75.714 Y73.495 E2.92400
G1 X76.062 Y73.716 E2.93767
G1 X76.344 Y74.017 E2.95133
G1 X76.462 Y74.202 E2.95861
G1 X76.612 Y74.581 E2.97210
G1 X76.653 Y74.796 E2.97937
G1 X76.653 Y75.204 E2.99286
G1 X76.613 Y75.414 E2.99996
G1 X76.547 Y75.618 E3.00706
G1 X76.348 Y75.979 E3.02073
G1 X76.062 Y76.284 E3.03457
G1 X75.709 Y76.508 E3.04840
G1 X75.317 Y76.635 E3.06207
G1 X75.105 Y76.662 E3.06917
G1 X74.890 Y76.662 E3.07627
G1 X74.490 Y76.586 E3.08976
G1 X74.286 Y76.505 E3.09703
G1 X73.938 Y76.284 E3.11070
G1 X73.652 Y75.979 E3.12454
G1 X73.453 Y75.618 E3.13820
G1 X73.385 Y75.409 E3.14547
G1 X73.334 Y75.000 E3.15914
G1 X73.385 Y74.591 E3.17280
G1 X73.453 Y74.382 E3.18008
G1 X73.649 Y74.025 E3.19357
G1 X73.748 Y73.906 E3.19868
G1 E1.19868 F2400.00000
G92 E0
G1 X41.539 Y-409.304 F7800.000
G1 E2.00000 F2400.00000
G1 F1800.000
G1 X108.461 Y-409.304 E4.21709
G1 X108.461 Y559.304 E36.30660
G1 X41.539 Y559.304 E38.52369
G1 X41.539 Y-409.244 E70.61121
G1 X41.273 Y-409.569 F7800.000
G1 F1800.000
G1 X108.727 Y-409.569 E72.84591
G1 X108.727 Y559.569 E104.95301
G1 X41.273 Y559.569 E107.18770
G1 X41.273 Y-409.509 E139.29282
G1 X41.008 Y-409.835 F7800.000
G1 F1800.000
G1 X108.992 Y-409.835 E141.54512
G1 X108.992 Y559.835 E173.66982
G1 X41.008 Y559.835 E175.92211
G1 X41.008 Y-409.775 E208.04483
G1 X41.703 Y-408.935 F7800.000
G1 F1800.000
G1 X41.910 Y-409.141 E208.05451
G1 X42.285 Y-409.141 E208.06697
G1 X41.701 Y-408.557 E208.09433
G1 X41.701 Y-408.182 E208.10679
G1 X42.661 Y-409.141 E208.15177
G1 X43.037 Y-409.141 E208.16422
G1 X41.701 Y-407.806 E208.22681
G1 X41.701 Y-407.430 E208.23926
G1 X43.413 Y-409.141 E208.31946
G1 X43.788 Y-409.141 E208.33191
G1 X41.701 Y-407.054 E208.42973
G1 X41.701 Y-406.679 E208.44218
G1 X44.164 Y-409.141 E208.55760
G1 X44.540 Y-409.141 E208.57005
G1 X41.701 Y-406.303 E208.70309
G1 X41.701 Y-405.927 E208.71554
G1 X44.916 Y-409.141 E208.86618
G1 X45.291 Y-409.141 E208.87863
G1 X41.701 Y-405.551 E209.04689
G1 X41.701 Y-405.176 E209.05934
G1 X45.667 Y-409.141 E209.24520
G1 X46.043 Y-409.141 E209.25766
G1 X41.701 Y-404.800 E209.46113
G1 X41.701 Y-404.424 E209.47359
G1 X46.419 Y-409.141 E209.69467
G1 X46.794 Y-409.141 E209.70712
G1 X41.701 Y-404.048 E209.94582
G1 X41.701 Y-403.673 E209.95827
G1 X47.170 Y-409.141 E210.21458
G1 X47.546 Y-409.141 E210.22703
G1 X41.701 Y-403.297 E210.50095
G1 X41.701 Y-402.921 E210.51340
G1 X47.922 Y-409.141 E210.80493
G1 X48.297 Y-409.141 E210.81738
G1 X41.701 Y-402.545 E211.12652
G1 X41.701 Y-402.170 E211.13897
G1 X48.673 Y-409.141 E211.46572
G1 X49.049 Y-409.141 E211.47818
G1 X41.701 Y-401.794 E211.82254
G1 X41.701 Y-401.418 E211.83499
G1 X49.425 Y-409.141 E212.19696
G1 X49.800 Y-409.141 E212.20941
G1 X41.701 Y-401.042 E212.58899
G1 X41.701 Y-400.667 E212.60145
G1 X50.176 Y-409.141 E212.99864
G1 X50.552 Y-409.141 E213.01109
G1 X41.701 Y-400.291 E213.42589
G1 X41.701 Y-399.915 E213.43835
G1 X50.928 Y-409.141 E213.87076
G1 X51.303 Y-409.141 E213.88321
G1 X41.701 Y-399.539 E214.33324
G1 X41.701 Y-399.164 E214.34569
G1 X51.679 Y-409.141 E214.81332
G1 X52.055 Y-409.141 E214.82578
G1 X41.701 Y-398.788 E215.31102
G1 X41.701 Y-398.412 E215.32347
G1 X52.431 Y-409.141 E215.82633
G1 X52.807 Y-409.141 E215.83878
G1 X41.701 Y-398.036 E216.35925
G1 X41.701 Y-397.660 E216.37170
G1 X53.182 Y-409.141 E216.90978
G1 X53.558 Y-409.141 E216.92223
G1 X41.701 Y-397.285 E217.47792
G1 X41.701 Y-396.909 E217.49037
G1 X53.934 Y-409.141 E218.06367
G1 X54.310 Y-409.141 E218.07612
G1 X41.701 Y-396.533 E218.66703
G1 X41.701 Y-396.157 E218.67948
G1 X54.685 Y-409.141 E219.28800
G1 X55.061 Y-409.141 E219.30046
G1 X41.701 Y-395.782 E219.92659
G1 X41.701 Y-395.406 E219.93904
G1 X55.437 Y-409.141 E220.58278
G1 X55.813 Y-409.141 E220.59523
G1 X41.701 Y-395.030 E221.25658
G1 X41.701 Y-394.654 E221.26904
G1 X56.188 Y-409.141 E221.94800
G1 X56.564 Y-409.141 E221.96045
G1 X41.701 Y-394.279 E222.65702
G1 X41.701 Y-393.903 E222.66948
G1 X56.940 Y-409.141 E223.38366
G1 X57.316 Y-409.141 E223.39611
G1 X41.701 Y-393.527 E224.12791
G1 X41.701 Y-393.151 E224.14036
G1 X57.691 Y-409.141 E224.88976
G1 X58.067 Y-409.141 E224.90222
G1 X41.701 Y-392.776 E225.66923
G1 X41.701 Y-392.400 E225.68168
G1 X58.443 Y-409.141 E226.46631
G1 X58.819 Y-409.141 E226.47876
G1 X41.701 Y-392.024 E227.28100
G1 X41.701 Y-391.648 E227.29345
G1 X59.194 Y-409.141 E228.11330
G1 X59.570 Y-409.141 E228.12575
G1 X41.701 Y-391.273 E228.96321
G1 X41.701 Y-390.897 E228.97566
G1 X59.946 Y-409.141 E229.83073
G1 X60.322 Y-409.141 E229.84318
G1 X41.701 Y-390.521 E230.71586
G1 X41.701 Y-390.145 E230.72832
G1 X60.697 Y-409.141 E231.61861
G1 X61.073 Y-409.141 E231.63106
G1 X41.701 Y-389.770 E232.53896
G1 X41.701 Y-389.394 E232.55141
G1 X61.449 Y-409.141 E233.47692
G1 X61.825 Y-409.141 E233.48937
G1 X41.701 Y-389.018 E234.43250
G1 X41.701 Y-388.642 E234.44495
G1 X62.201 Y-409.141 E235.40568
G1 X62.576 Y-409.141 E235.41813
G1 X41.701 Y-388.266 E236.39648
G1 X41.701 Y-387.891 E236.40893
G1 X62.952 Y-409.141 E237.40488
G1 X63.328 Y-409.141 E237.41734
G1 X41.701 Y-387.515 E238.43090
G1 X41.701 Y-387.139 E238.44335
G1 X63.704 Y-409.141 E239.47453
G1 X64.079 Y-409.141 E239.48698
G1 X41.701 Y-386.763 E240.53576
G1 X41.701 Y-386.388 E240.54822
G1 X64.455 Y-409.141 E241.61461
G1 X64.831 Y-409.141 E241.62707
G1 X41.701 Y-386.012 E242.71107
G1 X41.701 Y-385.636 E242.72353
G1 X65.207 Y-409.141 E243.82514
G1 X65.582 Y-409.141 E243.83760
G1 X41.701 Y-385.260 E244.95682
G1 X41.701 Y-384.885 E244.96928
G1 X65.958 Y-409.141 E246.10611
G1 X66.334 Y-409.141 E246.11857
G1 X41.701 Y-384.509 E247.27302
G1 X41.701 Y-384.133 E247.28547
G1 X66.710 Y-409.141 E248.45753
G1 X67.085 Y-409.141 E248.46998
G1 X41.701 Y-383.757 E249.65965
G1 X41.701 Y-383.382 E249.67210
G1 X67.461 Y-409.141 E250.87939
G1 X67.837 Y-409.141 E250.89184
G1 X41.701 Y-383.006 E252.11673
G1 X41.701 Y-382.630 E252.12918
G1 X68.213 Y-409.141 E253.37169
G1 X68.588 Y-409.141 E253.38414
G1 X41.701 Y-382.254 E254.64425
G1 X41.701 Y-381.879 E254.65670
G1 X68.964 Y-409.141 E255.93443
G1 X69.340 Y-409.141 E255.94688
G1 X41.701 Y-381.503 E257.24221
G1 X41.701 Y-381.127 E257.25467
G1 X69.716 Y-409.141 E258.56761
G1 X70.091 Y-409.141 E258.58006
G1 X41.701 Y-380.751 E259.91062
G1 X41.701 Y-380.376 E259.92307
G1 X70.467 Y-409.141 E261.27124
G1 X70.843 Y-409.141 E261.28369
G1 X41.701 Y-380.000 E262.64947
G1 X41.701 Y-379.624 E262.66192
G1 X71.219 Y-409.141 E264.04531
G1 X71.594 Y-409.141 E264.05776
G1 X41.701 Y-379.248 E265.45876
G1 X41.701 Y-378.873 E265.47121
G1 X71.970 Y-409.141 E266.88982
G1 X72.346 Y-409.141 E266.90227
G1 X41.701 Y-378.497 E268.33849
G1 X41.701 Y-378.121 E268.35094
G1 X72.722 Y-409.141 E269.80477
G1 X73.098 Y-409.141 E269.81723
G1 X41.701 Y-377.745 E271.28867
G1 X41.701 Y-377.369 E271.30112
G1 X73.473 Y-409.141 E272.79017
G1 X73.849 Y-409.141 E272.80262
G1 X41.701 Y-376.994 E274.30929
G1 X41.701 Y-376.618 E274.32174
G1 X74.225 Y-409.141 E275.84601
G1 X74.601 Y-409.141 E275.85846
G1 X41.701 Y-376.242 E277.40035
G1 X41.701 Y-375.866 E277.41280
G1 X74.976 Y-409.141 E278.97229
G1 X75.352 Y-409.141 E278.98475
G1 X41.701 Y-375.491 E280.56185
G1 X41.701 Y-375.115 E280.57430
G1 X75.728 Y-409.141 E282.16902
G1 X76.104 Y-409.141 E282.18147
G1 X41.701 Y-374.739 E283.79380
G1 X41.701 Y-374.363 E283.80625
G1 X76.479 Y-409.141 E285.43619
G1 X76.855 Y-409.141 E285.44864
G1 X41.701 Y-373.988 E287.09618
G1 X41.701 Y-373.612 E287.10864
G1 X77.231 Y-409.141 E288.77379
G1 X77.607 Y-409.141 E288.78625
G1 X41.701 Y-373.236 E290.46902
G1 X41.701 Y-372.860 E290.48147
G1 X77.982 Y-409.141 E292.18185
G1 X78.358 Y-409.141 E292.19430
G1 X41.701 Y-372.485 E293.91229
G1 X41.701 Y-372.109 E293.92474
G1 X78.734 Y-409.141 E295.66034
G1 X79.110 Y-409.141 E295.67279
G1 X41.701 Y-371.733 E297.42601
G1 X41.701 Y-371.357 E297.43846
G1 X79.485 Y-409.141 E299.20928
G1 X79.861 Y-409.141 E299.22173
G1 X41.701 Y-370.982 E301.01016
G1 X41.701 Y-370.606 E301.02262
G1 X80.237 Y-409.141 E302.82866
G1 X80.613 Y-409.141 E302.84111
G1 X41.701 Y-370.230 E304.66476
G1 X41.701 Y-369.854 E304.67722
G1 X80.988 Y-409.141 E306.51848
G1 X81.364 Y-409.141 E306.53093
G1 X41.701 Y-369.479 E308.38981
G1 X41.701 Y-369.103 E308.40226
G1 X81.740 Y-409.141 E310.27875
G1 X82.116 Y-409.141 E310.29120
G1 X41.701 Y-368.727 E312.18529
G1 X41.701 Y-368.351 E312.19775
G1 X82.492 Y-409.141 E314.10945
G1 X82.867 Y-409.141 E314.12191
G1 X41.701 Y-367.975 E316.05122
G1 X41.701 Y-367.600 E316.06368
G1 X83.243 Y-409.141 E318.01060
G1 X83.619 Y-409.141 E318.02306
G1 X41.701 Y-367.224 E319.98759
G1 X41.701 Y-366.848 E320.00005
G1 X83.995 Y-409.141 E321.98220
G1 X84.370 Y-409.141 E321.99465
G1 X41.701 Y-366.472 E323.99441
G1 X41.701 Y-366.097 E324.00686
G1 X84.746 Y-409.141 E326.02423
G1 X85.122 Y-409.141 E326.03668
G1 X41.701 Y-365.721 E328.07166
G1 X41.701 Y-365.345 E328.08412
G1 X85.498 Y-409.141 E330.13671
G1 X85.873 Y-409.141 E330.14916
G1 X41.701 Y-364.969 E332.21936
G1 X41.701 Y-364.594 E332.23182
G1 X86.249 Y-409.141 E334.31963
G1 X86.625 Y-409.141 E334.33208
G1 X41.701 Y-364.218 E336.43750
G1 X41.701 Y-363.842 E336.44996
G1 X87.001 Y-409.141 E338.57299
G1 X87.376 Y-409.141 E338.58544
G1 X41.701 Y-363.466 E340.72609
G1 X41.701 Y-363.091 E340.73854
G1 X87.752 Y-409.141 E342.89680
G1 X88.128 Y-409.141 E342.90925
G1 X41.701 Y-362.715 E345.08512
G1 X41.701 Y-362.339 E345.09757
G1 X88.504 Y-409.141 E347.29104
G1 X88.879 Y-409.141 E347.30350
G1 X41.701 Y-361.963 E349.51458
G1 X41.701 Y-361.588 E349.52704
G1 X89.255 Y-409.141 E351.75573
G1 X89.631 Y-409.141 E351.76819
G1 X41.701 Y-361.212 E354.01450
G1 X41.701 Y-360.836 E354.02695
G1 X90.007 Y-409.141 E356.29087
G1 X90.382 Y-409.141 E356.30332
G1 X41.701 Y-360.460 E358.58485
G1 X41.701 Y-360.085 E358.59730
G1 X90.758 Y-409.141 E360.89644
G1 X91.134 Y-409.141 E360.90889
G1 X41.701 Y-359.709 E363.22565
G1 X41.701 Y-359.333 E363.23810
G1 X91.510 Y-409.141 E365.57246
G1 X91.886 Y-409.141 E365.58491
G1 X41.701 Y-358.957 E367.93688
G1 X41.701 Y-358.582 E367.94934
G1 X92.261 Y-409.141 E370.31892
G1 X92.637 Y-409.141 E370.33137
G1 X41.701 Y-358.206 E372.71857
G1 X41.701 Y-357.830 E372.73102
G1 X93.013 Y-409.141 E375.13582
G1 X93.389 Y-409.141 E375.14828
G1 X41.701 Y-357.454 E377.57069
G1 X41.701 Y-357.078 E377.58314
G1 X93.764 Y-409.141 E380.02317
G1 X94.140 Y-409.141 E380.03562
G1 X41.701 Y-356.703 E382.49326
G1 X41.701 Y-356.327 E382.50571
G1 X94.516 Y-409.141 E384.98096
G1 X94.892 Y-409.141 E384.99341
G1 X41.701 Y-355.951 E387.48627
G1 X41.701 Y-355.575 E387.49872
G1 X95.267 Y-409.141 E390.00919
G1 X95.643 Y-409.141 E390.02164
G1 X41.701 Y-355.200 E392.54972
G1 X41.701 Y-354.824 E392.56217
G1 X96.019 Y-409.141 E395.10786
G1 X96.395 Y-409.141 E395.12031
G1 X41.701 Y-354.448 E397.68361
G1 X41.701 Y-354.072 E397.69606
G1 X96.770 Y-409.141 E400.27697
G1 X97.146 Y-409.141 E400.28943
G1 X41.701 Y-353.697 E402.88795
G1 X41.701 Y-353.321 E402.90040
G1 X97.522 Y-409.141 E405.51653
G1 X97.898 Y-409.141 E405.52899
G1 X41.701 Y-352.945 E408.16273
G1 X41.701 Y-352.569 E408.17518
G1 X98.273 Y-409.141 E410.82653
G1 X98.649 Y-409.141 E410.83899
G1 X41.701 Y-352.194 E413.50795
G1 X41.701 Y-351.818 E413.52040
G1 X99.025 Y-409.141 E416.20698
G1 X99.401 Y-409.141 E416.21943
G1 X41.701 Y-351.442 E418.92361
G1 X41.701 Y-351.066 E418.93607
G1 X99.776 Y-409.141 E421.65786
G1 X100.152 Y-409.141 E421.67031
G1 X41.701 Y-350.691 E424.40972
G1 X41.701 Y-350.315 E424.42217
G1 X100.528 Y-409.141 E427.17919
G1 X100.904 Y-409.141 E427.19164
G1 X41.701 Y-349.939 E429.96627
G1 X41.701 Y-349.563 E429.97872
G1 X101.279 Y-409.141 E432.77096
G1 X101.655 Y-409.141 E432.78341
G1 X41.701 Y-349.188 E435.59326
G1 X41.701 Y-348.812 E435.60571
G1 X102.031 Y-409.141 E438.43317
G1 X102.407 Y-409.141 E438.44563
G1 X41.701 Y-348.436 E441.29070
G1 X41.701 Y-348.060 E441.30315
G1 X102.783 Y-409.141 E444.16583
G1 X103.158 Y-409.141 E444.17828
G1 X41.701 Y-347.684 E447.05857
G1 X41.701 Y-347.309 E447.07103
G1 X103.534 Y-409.141 E449.96893
G1 X103.910 Y-409.141 E449.98138
G1 X41.701 Y-346.933 E452.89689
G1 X41.701 Y-346.557 E452.90935
G1 X104.286 Y-409.141 E455.84247
G1 X104.661 Y-409.141 E455.85492
G1 X41.701 Y-346.181 E458.80566
G1 X41.701 Y-345.806 E458.81811
G1 X105.037 Y-409.141 E461.78645
G1 X105.413 Y-409.141 E461.79890
G1 X41.701 Y-345.430 E464.78486
G1 X41.701 Y-345.054 E464.79731
G1 X105.789 Y-409.141 E467.80088
G1 X106.164 Y-409.141 E467.81333
G1 X41.701 Y-344.678 E470.83451
G1 X41.701 Y-344.303 E470.84696
G1 X106.540 Y-409.141 E473.88575
G1 X106.916 Y-409.141 E473.89820
G1 X41.701 Y-343.927 E476.95460
G1 X41.701 Y-343.551 E476.96705
G1 X107.292 Y-409.141 E480.04106
G1 X107.667 Y-409.141 E480.05351
G1 X41.701 Y-343.175 E483.14513
G1 X41.701 Y-342.800 E483.15758
G1 X108.043 Y-409.141 E486.26681
G1 X108.299 Y-409.141 E486.27528
G1 X108.299 Y-409.021 E486.27926
G1 X41.701 Y-342.424 E489.40047
G1 X41.701 Y-342.048 E489.41292
G1 X108.299 Y-408.645 E492.53413
G1 X108.299 Y-408.270 E492.54658
G1 X41.701 Y-341.672 E495.66779
G1 X41.701 Y-341.297 E495.68024
G1 X108.299 Y-407.894 E498.80145
G1 X108.299 Y-407.518 E498.81390
G1 X41.701 Y-340.921 E501.93510
G1 X41.701 Y-340.545 E501.94756
G1 X108.299 Y-407.142 E505.06876
G1 X108.299 Y-406.767 E505.08122
G1 X41.701 Y-340.169 E508.20242
G1 X41.701 Y-339.794 E508.21487
