; generated by Slic3r 1.3.1-dev (Build 2ef957d) on 2019-11-25 at 09:20:33

; external perimeters extrusion width = 0.55mm (4.37mm^3/s)
; perimeters extrusion width = 0.70mm (11.44mm^3/s)
; infill extrusion width = 0.62mm (13.45mm^3/s)
; solid infill extrusion width = 0.70mm (3.81mm^3/s)
; top infill extrusion width = 0.70mm (2.86mm^3/s)

M107
G92 E0
M104 S200 ; set temperature
G28 ; home all axes
G1 Z5 F5000 ; lift nozzle

; Filament gcode

M109 S200 ; set temperature and wait for it to be reached
G21 ; set units to millimeters
G90 ; use absolute coordinates
M82 ; use absolute distances for extrusion
G92 E0
G1 Z0.350 F7800.000
G1 E-2.00000 F2400.00000
G92 E0
G1 X59.172 Y-385.000 F7800.000
G1 E2.00000 F2400.00000
G1 F1800.000
G1 X59.569 Y-387.259 E2.07096
G1 X60.713 Y-389.247 E2.14192
G1 X62.465 Y-390.726 E2.21289
G1 X64.618 Y-391.519 E2.28385
G1 X65.797 Y-391.625 E2.32050
G1 X134.203 Y-391.625 E4.43705
G1 X136.462 Y-391.228 E4.50802
G1 X138.450 Y-390.085 E4.57898
G1 X139.929 Y-388.332 E4.64994
G1 X140.722 Y-386.180 E4.72090
G1 X140.828 Y-385.000 E4.75755
G1 X140.828 Y585.000 E34.77063
G1 X140.431 Y587.259 E34.84159
G1 X139.287 Y589.247 E34.91255
G1 X137.535 Y590.726 E34.98352
G1 X135.382 Y591.519 E35.05448
G1 X134.203 Y591.625 E35.09113
G1 X65.797 Y591.625 E37.20768
G1 X63.538 Y591.228 E37.27864
G1 X61.550 Y590.085 E37.34961
G1 X60.071 Y588.332 E37.42057
G1 X59.278 Y586.180 E37.49153
G1 X59.172 Y585.000 E37.52818
G1 X59.172 Y-384.925 E67.53894
G1 E65.53894 F2400.00000
G92 E0
G1 X100.245 Y96.903 F7800.000
G1 E2.00000 F2400.00000
G1 F1800.000
G1 X100.912 Y97.030 E2.02099
G1 X101.368 Y97.211 E2.03617
G1 X101.984 Y97.602 E2.05874
G1 X102.518 Y98.171 E2.08288
G1 X102.894 Y98.854 E2.10702
G1 X103.075 Y99.561 E2.12959
G1 X103.103 Y100.000 E2.14321
G1 X103.075 Y100.439 E2.15683
G1 X102.894 Y101.146 E2.17940
G1 X102.543 Y101.785 E2.20197
G1 X102.262 Y102.124 E2.21559
G1 X101.941 Y102.425 E2.22921
G1 X101.325 Y102.816 E2.25178
G1 X100.632 Y103.042 E2.27434
G1 X100.195 Y103.097 E2.28796
G1 X99.755 Y103.097 E2.30159
G1 X99.088 Y102.970 E2.32257
G1 X98.632 Y102.789 E2.33776
G1 X98.016 Y102.398 E2.36033
G1 X97.482 Y101.829 E2.38447
G1 X97.131 Y101.190 E2.40704
G1 X96.979 Y100.724 E2.42222
G1 X96.888 Y100.000 E2.44479
G1 X96.979 Y99.276 E2.46736
G1 X97.131 Y98.810 E2.48254
G1 X97.457 Y98.215 E2.50354
G1 X97.738 Y97.876 E2.51716
G1 X98.059 Y97.575 E2.53078
G1 X98.675 Y97.184 E2.55335
G1 X99.368 Y96.958 E2.57591
G1 X99.805 Y96.903 E2.58953
G1 X100.170 Y96.903 E2.60083
G1 X100.186 Y97.528 F7800.000
G1 F1800.000
G1 X100.737 Y97.633 E2.61817
G1 X101.083 Y97.770 E2.62970
G1 X101.582 Y98.087 E2.64800
G1 X102.008 Y98.541 E2.66725
G1 X102.308 Y99.086 E2.68651
G1 X102.455 Y99.659 E2.70480
G1 X102.477 Y100.000 E2.71538
G1 X102.455 Y100.341 E2.72596
G1 X102.308 Y100.914 E2.74425
G1 X102.023 Y101.432 E2.76255
G1 X101.806 Y101.695 E2.77313
G1 X101.556 Y101.930 E2.78371
G1 X101.057 Y102.246 E2.80200
G1 X100.495 Y102.429 E2.82030
G1 X100.156 Y102.472 E2.83087
G1 X99.814 Y102.472 E2.84145
G1 X99.263 Y102.367 E2.85879
G1 X98.917 Y102.230 E2.87032
G1 X98.418 Y101.913 E2.88862
G1 X97.992 Y101.459 E2.90787
G1 X97.707 Y100.941 E2.92617
G1 X97.591 Y100.587 E2.93770
G1 X97.517 Y100.000 E2.95599
G1 X97.591 Y99.413 E2.97429
G1 X97.707 Y99.059 E2.98582
G1 X97.977 Y98.568 E3.00316
G1 X98.194 Y98.305 E3.01374
G1 X98.444 Y98.070 E3.02431
G1 X98.943 Y97.754 E3.04261
G1 X99.505 Y97.571 E3.06091
G1 X99.844 Y97.528 E3.07148
G1 X100.111 Y97.528 E3.07974
G1 X100.127 Y98.153 F7800.000
G1 F1800.000
G1 X100.562 Y98.236 E3.09342
G1 X100.798 Y98.329 E3.10130
G1 X101.181 Y98.572 E3.11532
G1 X101.499 Y98.911 E3.12969
G1 X101.723 Y99.318 E3.14406
G1 X101.835 Y99.757 E3.15809
G1 X101.851 Y100.000 E3.16562
G1 X101.835 Y100.243 E3.17316
G1 X101.723 Y100.682 E3.18718
G1 X101.504 Y101.079 E3.20121
G1 X101.349 Y101.267 E3.20874
G1 X101.172 Y101.434 E3.21627
G1 X100.789 Y101.676 E3.23030
G1 X100.358 Y101.816 E3.24433
G1 X100.116 Y101.847 E3.25186
G1 X99.873 Y101.847 E3.25939
G1 X99.438 Y101.764 E3.27307
G1 X99.202 Y101.671 E3.28095
G1 X98.819 Y101.428 E3.29497
G1 X98.501 Y101.089 E3.30934
G1 X98.283 Y100.692 E3.32337
G1 X98.204 Y100.450 E3.33125
G1 X98.147 Y100.000 E3.34527
G1 X98.204 Y99.550 E3.35930
G1 X98.283 Y99.308 E3.36717
G1 X98.496 Y98.921 E3.38086
G1 X98.651 Y98.733 E3.38839
G1 X98.828 Y98.566 E3.39592
G1 X99.211 Y98.324 E3.40995
G1 X99.642 Y98.183 E3.42397
G1 X99.884 Y98.153 E3.43151
G1 X100.052 Y98.153 E3.43672
G1 X100.127 Y98.153 F7800.000
G1 E1.43672 F2400.00000
G92 E0
G1 X132.603 Y-383.400 F7800.000
G1 E2.00000 F2400.00000
G1 F1800.000
G1 X132.603 Y583.400 E31.91408
G1 X67.397 Y583.400 E33.93163
G1 X67.397 Y-383.400 E63.84571
G1 X132.528 Y-383.400 E65.86094
G1 X133.228 Y-384.025 F7800.000
G1 F1800.000
G1 X133.228 Y584.025 E95.81369
G1 X66.772 Y584.025 E97.86991
G1 X66.772 Y-384.025 E127.82266
G1 X133.153 Y-384.025 E129.87656
G1 X133.853 Y-384.650 F7800.000
G1 F1800.000
G1 X133.853 Y584.650 E159.86798
G1 X66.147 Y584.650 E161.96287
G1 X66.147 Y-384.650 E191.95429
G1 X133.778 Y-384.650 E194.04687
G1 X133.841 Y-384.150 F7800.000
G1 E192.04687 F2400.00000
G92 E0
G1 X68.266 Y-383.018 F7800.000
G1 E2.00000 F2400.00000
G1 F1800.000
G1 X67.779 Y-382.531 E2.02135
G1 X67.779 Y-381.646 E2.04874
G1 X69.151 Y-383.018 E2.10882
G1 X70.035 Y-383.018 E2.13621
G1 X67.779 Y-380.762 E2.23502
G1 X67.779 Y-379.878 E2.26241
G1 X70.920 Y-383.018 E2.39996
G1 X71.804 Y-383.018 E2.42735
G1 X67.779 Y-378.993 E2.60363
G1 X67.779 Y-378.109 E2.63102
G1 X72.689 Y-383.018 E2.84604
G1 X73.573 Y-383.018 E2.87342
G1 X67.779 Y-377.224 E3.12717
G1 X67.779 Y-376.340 E3.15456
G1 X74.458 Y-383.018 E3.44705
G1 X75.342 Y-383.018 E3.47443
G1 X67.779 Y-375.455 E3.80565
G1 X67.779 Y-374.571 E3.83304
G1 X76.226 Y-383.018 E4.20299
G1 X77.111 Y-383.018 E4.23038
G1 X67.779 Y-373.686 E4.63906
G1 X67.779 Y-372.802 E4.66645
G1 X77.995 Y-383.018 E5.11387
G1 X78.880 Y-383.018 E5.14126
G1 X67.779 Y-371.917 E5.62741
G1 X67.779 Y-371.033 E5.65479
G1 X79.764 Y-383.018 E6.17968
G1 X80.649 Y-383.018 E6.20707
G1 X67.779 Y-370.149 E6.77069
G1 X67.779 Y-369.264 E6.79807
G1 X81.533 Y-383.018 E7.40042
G1 X82.418 Y-383.018 E7.42781
G1 X67.779 Y-368.380 E8.06890
G1 X67.779 Y-367.495 E8.09629
G1 X83.302 Y-383.018 E8.77610
G1 X84.187 Y-383.018 E8.80349
G1 X67.779 Y-366.611 E9.52205
G1 X67.779 Y-365.726 E9.54943
G1 X85.071 Y-383.018 E10.30672
G1 X85.955 Y-383.018 E10.33411
G1 X67.779 Y-364.842 E11.13013
G1 X67.779 Y-363.957 E11.15751
G1 X86.840 Y-383.018 E11.99227
G1 X87.724 Y-383.018 E12.01966
G1 X67.779 Y-363.073 E12.89314
G1 X67.779 Y-362.188 E12.92053
G1 X88.609 Y-383.018 E13.83275
G1 X89.493 Y-383.018 E13.86014
G1 X67.779 Y-361.304 E14.81109
G1 X67.779 Y-360.420 E14.83848
G1 X90.378 Y-383.018 E15.82817
G1 X91.262 Y-383.018 E15.85555
G1 X67.779 Y-359.535 E16.88397
G1 X67.779 Y-358.651 E16.91136
G1 X92.147 Y-383.018 E17.97852
G1 X93.031 Y-383.018 E18.00590
G1 X67.779 Y-357.766 E19.11179
G1 X67.779 Y-356.882 E19.13918
G1 X93.916 Y-383.018 E20.28380
G1 X94.800 Y-383.018 E20.31119
G1 X67.779 Y-355.997 E21.49454
G1 X67.779 Y-355.113 E21.52193
G1 X95.684 Y-383.018 E22.74402
G1 X96.569 Y-383.018 E22.77141
G1 X67.779 Y-354.228 E24.03223
G1 X67.779 Y-353.344 E24.05962
G1 X97.453 Y-383.018 E25.35917
G1 X98.338 Y-383.018 E25.38656
G1 X67.779 Y-352.459 E26.72485
G1 X67.779 Y-351.575 E26.75224
G1 X99.222 Y-383.018 E28.12926
G1 X100.107 Y-383.018 E28.15665
G1 X67.779 Y-350.691 E29.57240
G1 X67.779 Y-349.806 E29.59979
G1 X100.991 Y-383.018 E31.05428
G1 X101.876 Y-383.018 E31.08167
G1 X67.779 Y-348.922 E32.57489
G1 X67.779 Y-348.037 E32.60228
G1 X102.760 Y-383.018 E34.13423
G1 X103.645 Y-383.018 E34.16162
G1 X67.779 Y-347.153 E35.73231
G1 X67.779 Y-346.268 E35.75970
G1 X104.529 Y-383.018 E37.36912
G1 X105.414 Y-383.018 E37.39651
G1 X67.779 Y-345.384 E39.04467
G1 X67.779 Y-344.499 E39.07206
G1 X106.298 Y-383.018 E40.75894
G1 X107.182 Y-383.018 E40.78633
G1 X67.779 Y-343.615 E42.51196
G1 X67.779 Y-342.730 E42.53934
G1 X108.067 Y-383.018 E44.30370
G1 X108.951 Y-383.018 E44.33109
G1 X67.779 Y-341.846 E46.13418
G1 X67.779 Y-340.962 E46.16157
G1 X109.836 Y-383.018 E48.00339
G1 X110.720 Y-383.018 E48.03078
G1 X67.779 Y-340.077 E49.91134
G1 X67.779 Y-339.193 E49.93873
G1 X111.605 Y-383.018 E51.85802
G1 X112.489 Y-383.018 E51.88541
G1 X67.779 Y-338.308 E53.84343
G1 X67.779 Y-337.424 E53.87082
G1 X113.374 Y-383.018 E55.86758
G1 X114.258 Y-383.018 E55.89497
G1 X67.779 Y-336.539 E57.93046
G1 X67.779 Y-335.655 E57.95785
G1 X115.143 Y-383.018 E60.03207
G1 X116.027 Y-383.018 E60.05946
G1 X67.779 Y-334.770 E62.17242
G1 X67.779 Y-333.886 E62.19981
G1 X116.911 Y-383.018 E64.35150
G1 X117.796 Y-383.018 E64.37889
G1 X67.779 Y-333.001 E66.56931
G1 X67.779 Y-332.117 E66.59670
G1 X118.680 Y-383.018 E68.82586
G1 X119.565 Y-383.018 E68.85325
G1 X67.779 Y-331.233 E71.12114
G1 X67.779 Y-330.348 E71.14853
G1 X120.449 Y-383.018 E73.45515
G1 X121.334 Y-383.018 E73.48254
G1 X67.779 Y-329.464 E75.82790
G1 X67.779 Y-328.579 E75.85529
G1 X122.218 Y-383.018 E78.23938
G1 X123.103 Y-383.018 E78.26677
G1 X67.779 Y-327.695 E80.68960
G1 X67.779 Y-326.810 E80.71699
G1 X123.987 Y-383.018 E83.17855
G1 X124.872 Y-383.018 E83.20594
G1 X67.779 Y-325.926 E85.70623
G1 X67.779 Y-325.041 E85.73362
G1 X125.756 Y-383.018 E88.27264
G1 X126.640 Y-383.018 E88.30003
G1 X67.779 Y-324.157 E90.87779
G1 X67.779 Y-323.272 E90.90518
G1 X127.525 Y-383.018 E93.52168
G1 X128.409 Y-383.018 E93.54906
G1 X67.779 Y-322.388 E96.20429
G1 X67.779 Y-321.504 E96.23168
G1 X129.294 Y-383.018 E98.92564
G1 X130.178 Y-383.018 E98.95303
G1 X67.779 Y-320.619 E101.68572
G1 X67.779 Y-319.735 E101.71311
G1 X131.063 Y-383.018 E104.48454
G1 X131.947 Y-383.018 E104.51193
G1 X67.779 Y-318.850 E107.32209
G1 X67.779 Y-317.966 E107.34948
G1 X132.221 Y-382.408 E110.17164
G1 X132.221 Y-381.523 E110.19903
G1 X67.779 Y-317.081 E113.02118
G1 X67.779 Y-316.197 E113.04857
G1 X132.221 Y-380.639 E115.87073
G1 X132.221 Y-379.754 E115.89812
G1 X67.779 Y-315.312 E118.72028
G1 X67.779 Y-314.428 E118.74767
G1 X132.221 Y-378.870 E121.56982
G1 X132.221 Y-377.986 E121.59721
G1 X67.779 Y-313.543 E124.41937
G1 X67.779 Y-312.659 E124.44676
G1 X132.221 Y-377.101 E127.26892
G1 X132.221 Y-376.217 E127.29631
G1 X67.779 Y-311.775 E130.11846
G1 X67.779 Y-310.890 E130.14585
G1 X132.221 Y-375.332 E132.96801
G1 X132.221 Y-374.448 E132.99540
G1 X67.779 Y-310.006 E135.81756
G1 X67.779 Y-309.121 E135.84495
G1 X132.221 Y-373.563 E138.66710
G1 X132.221 Y-372.679 E138.69449
G1 X67.779 Y-308.237 E141.51665
G1 X67.779 Y-307.352 E141.54404
G1 X132.221 Y-371.794 E144.36620
G1 X132.221 Y-370.910 E144.39359
G1 X67.779 Y-306.468 E147.21574
G1 X67.779 Y-305.583 E147.24313
G1 X132.221 Y-370.025 E150.06529
G1 X132.221 Y-369.141 E150.09268
G1 X67.779 Y-304.699 E152.91484
G1 X67.779 Y-303.814 E152.94223
G1 X132.221 Y-368.257 E155.76438
G1 X132.221 Y-367.372 E155.79177
G1 X67.779 Y-302.930 E158.61393
G1 X67.779 Y-302.046 E158.64132
G1 X132.221 Y-366.488 E161.46348
G1 X132.221 Y-365.603 E161.49087
G1 X67.779 Y-301.161 E164.31302
G1 X67.779 Y-300.277 E164.34041
G1 X132.221 Y-364.719 E167.16257
G1 X132.221 Y-363.834 E167.18996
G1 X67.779 Y-299.392 E170.01212
G1 X67.779 Y-298.508 E170.03951
G1 X132.221 Y-362.950 E172.86166
G1 X132.221 Y-362.065 E172.88905
G1 X67.779 Y-297.623 E175.71121
G1 X67.779 Y-296.739 E175.73860
G1 X132.221 Y-361.181 E178.56076
G1 X132.221 Y-360.296 E178.58815
G1 X67.779 Y-295.854 E181.41030
G1 X67.779 Y-294.970 E181.43769
G1 X132.221 Y-359.412 E184.25985
G1 X132.221 Y-358.528 E184.28724
G1 X67.779 Y-294.085 E187.10940
G1 X67.779 Y-293.201 E187.13679
G1 X132.221 Y-357.643 E189.95894
G1 X132.221 Y-356.759 E189.98633
G1 X67.779 Y-292.317 E192.80849
G1 X67.779 Y-291.432 E192.83588
G1 X132.221 Y-355.874 E195.65804
G1 X132.221 Y-354.990 E195.68543
G1 X67.779 Y-290.548 E198.50758
G1 X67.779 Y-289.663 E198.53497
G1 X132.221 Y-354.105 E201.35713
G1 X132.221 Y-353.221 E201.38452
G1 X67.779 Y-288.779 E204.20668
G1 X67.779 Y-287.894 E204.23406
G1 X132.221 Y-352.336 E207.05622
G1 X132.221 Y-351.452 E207.08361
G1 X67.779 Y-287.010 E209.90577
G1 X67.779 Y-286.125 E209.93316
G1 X132.221 Y-350.567 E212.75532
G1 X132.221 Y-349.683 E212.78270
G1 X67.779 Y-285.241 E215.60486
G1 X67.779 Y-284.356 E215.63225
G1 X132.221 Y-348.799 E218.45441
G1 X132.221 Y-347.914 E218.48180
G1 X67.779 Y-283.472 E221.30396
G1 X67.779 Y-282.588 E221.33134
G1 X132.221 Y-347.030 E224.15350
G1 X132.221 Y-346.145 E224.18089
G1 X67.779 Y-281.703 E227.00305
G1 X67.779 Y-280.819 E227.03044
G1 X132.221 Y-345.261 E229.85260
G1 X132.221 Y-344.376 E229.87998
G1 X67.779 Y-279.934 E232.70214
G1 X67.779 Y-279.050 E232.72953
G1 X132.221 Y-343.492 E235.55169
G1 X132.221 Y-342.607 E235.57908
G1 X67.779 Y-278.165 E238.40124
G1 X67.779 Y-277.281 E238.42862
G1 X132.221 Y-341.723 E241.25078
G1 X132.221 Y-340.838 E241.27817
G1 X67.779 Y-276.396 E244.10033
G1 X67.779 Y-275.512 E244.12772
G1 X132.221 Y-339.954 E246.94988
G1 X132.221 Y-339.070 E246.97726
G1 X67.779 Y-274.627 E249.79942
G1 X67.779 Y-273.743 E249.82681
G1 X132.221 Y-338.185 E252.64897
G1 X132.221 Y-337.301 E252.67636
G1 X67.779 Y-272.859 E255.49852
G1 X67.779 Y-271.974 E255.52590
G1 X132.221 Y-336.416 E258.34806
G1 X132.221 Y-335.532 E258.37545
G1 X67.779 Y-271.090 E261.19761
G1 X67.779 Y-270.205 E261.22500
G1 X132.221 Y-334.647 E264.04716
G1 X132.221 Y-333.763 E264.07454
G1 X67.779 Y-269.321 E266.89670
G1 X67.779 Y-268.436 E266.92409
G1 X132.221 Y-332.878 E269.74625
G1 X132.221 Y-331.994 E269.77364
G1 X67.779 Y-267.552 E272.59580
G1 X67.779 Y-266.667 E272.62318
G1 X132.221 Y-331.109 E275.44534
G1 X132.221 Y-330.225 E275.47273
G1 X67.779 Y-265.783 E278.29489
G1 X67.779 Y-264.898 E278.32228
G1 X132.221 Y-329.341 E281.14444
G1 X132.221 Y-328.456 E281.17182
G1 X67.779 Y-264.014 E283.99398
G1 X67.779 Y-263.130 E284.02137
G1 X132.221 Y-327.572 E286.84353
G1 X132.221 Y-326.687 E286.87092
G1 X67.779 Y-262.245 E289.69308
G1 X67.779 Y-261.361 E289.72046
G1 X132.221 Y-325.803 E292.54262
G1 X132.221 Y-324.918 E292.57001
G1 X67.779 Y-260.476 E295.39217
G1 X67.779 Y-259.592 E295.41956
G1 X132.221 Y-324.034 E298.24172
G1 X132.221 Y-323.149 E298.26910
G1 X67.779 Y-258.707 E301.09126
G1 X67.779 Y-257.823 E301.11865
G1 X132.221 Y-322.265 E303.94081
G1 X132.221 Y-321.380 E303.96820
G1 X67.779 Y-256.938 E306.79036
G1 X67.779 Y-256.054 E306.81774
G1 X132.221 Y-320.496 E309.63990
G1 X132.221 Y-319.612 E309.66729
G1 X67.779 Y-255.169 E312.48945
G1 X67.779 Y-254.285 E312.51684
G1 X132.221 Y-318.727 E315.33900
G1 X132.221 Y-317.843 E315.36638
G1 X67.779 Y-253.401 E318.18854
G1 X67.779 Y-252.516 E318.21593
G1 X132.221 Y-316.958 E321.03809
G1 X132.221 Y-316.074 E321.06548
G1 X67.779 Y-251.632 E323.88764
G1 X67.779 Y-250.747 E323.91502
G1 X132.221 Y-315.189 E326.73718
G1 X132.221 Y-314.305 E326.76457
G1 X67.779 Y-249.863 E329.58673
G1 X67.779 Y-248.978 E329.61412
G1 X132.221 Y-313.420 E332.43627
G1 X132.221 Y-312.536 E332.46366
G1 X67.779 Y-248.094 E335.28582
G1 X67.779 Y-247.209 E335.31321
G1 X132.221 Y-311.651 E338.13537
G1 X132.221 Y-310.767 E338.16276
G1 X67.779 Y-246.325 E340.98491
G1 X67.779 Y-245.440 E341.01230
G1 X132.221 Y-309.883 E343.83446
G1 X132.221 Y-308.998 E343.86185
G1 X67.779 Y-244.556 E346.68401
G1 X67.779 Y-243.672 E346.71140
G1 X132.221 Y-308.114 E349.53356
G1 X132.221 Y-307.229 E349.56094
G1 X67.779 Y-242.787 E352.38310
G1 X67.779 Y-241.903 E352.41049
G1 X132.221 Y-306.345 E355.23265
G1 X132.221 Y-305.460 E355.26004
G1 X67.779 Y-241.018 E358.08219
G1 X67.779 Y-240.134 E358.10958
G1 X132.221 Y-304.576 E360.93174
G1 X132.221 Y-303.691 E360.95913
G1 X67.779 Y-239.249 E363.78129
G1 X67.779 Y-238.365 E363.80868
G1 X132.221 Y-302.807 E366.63084
G1 X132.221 Y-301.922 E366.65822
G1 X67.779 Y-237.480 E369.48038
G1 X67.779 Y-236.596 E369.50777
G1 X132.221 Y-301.038 E372.32993
G1 X132.221 Y-300.154 E372.35732
G1 X67.779 Y-235.711 E375.17948
G1 X67.779 Y-234.827 E375.20686
G1 X132.221 Y-299.269 E378.02902
G1 X132.221 Y-298.385 E378.05641
G1 X67.779 Y-233.943 E380.87857
G1 X67.779 Y-233.058 E380.90596
G1 X132.221 Y-297.500 E383.72812
