; generated by Slic3r 1.3.1-dev (Build 2ef957d) on 2019-11-25 at 09:20:26

; external perimeters extrusion width = 0.55mm (4.37mm^3/s)
; perimeters extrusion width = 0.70mm (11.44mm^3/s)
; infill extrusion width = 0.62mm (13.45mm^3/s)
; solid infill extrusion width = 0.70mm (3.81mm^3/s)
; top infill extrusion width = 0.70mm (2.86mm^3/s)

M107
G92 E0
M104 S200 ; set temperature
G28 ; home all axes
G1 Z5 F5000 ; lift nozzle

; Filament gcode

M109 S200 ; set temperature and wait for it to be reached
G21 ; set units to millimeters
G90 ; use absolute coordinates
M82 ; use absolute distances for extrusion
G92 E0
G1 Z0.350 F7800.000
G1 E-2.00000 F2400.00000
G92 E0
G1 X89.633 Y89.694 F7800.000
G1 E2.00000 F2400.00000
G1 F1800.000
G1 X90.366 Y89.007 E2.03109
G1 X91.007 Y88.476 E2.05683
G1 X91.819 Y87.886 E2.08791
G1 X92.522 Y87.440 E2.11365
G1 X93.402 Y86.956 E2.14474
G1 X94.155 Y86.602 E2.17048
G1 X95.089 Y86.232 E2.20157
G1 X95.880 Y85.975 E2.22731
G1 X96.853 Y85.725 E2.25839
G1 X97.671 Y85.569 E2.28414
G1 X98.667 Y85.443 E2.31522
G1 X99.498 Y85.391 E2.34096
G1 X100.502 Y85.391 E2.37205
G1 X101.333 Y85.443 E2.39779
G1 X102.329 Y85.569 E2.42887
G1 X103.147 Y85.725 E2.45462
G1 X104.120 Y85.975 E2.48570
G1 X104.911 Y86.232 E2.51144
G1 X105.845 Y86.602 E2.54253
G1 X106.598 Y86.956 E2.56827
G1 X107.478 Y87.440 E2.59936
G1 X108.181 Y87.886 E2.62510
G1 X108.993 Y88.476 E2.65618
G1 X109.634 Y89.007 E2.68192
G1 X110.367 Y89.694 E2.71301
G1 X110.936 Y90.301 E2.73875
G1 X111.577 Y91.075 E2.76984
G1 X112.066 Y91.748 E2.79558
G1 X112.604 Y92.596 E2.82666
G1 X113.005 Y93.325 E2.85241
G1 X113.433 Y94.234 E2.88349
G1 X113.739 Y95.008 E2.90923
G1 X114.049 Y95.963 E2.94032
G1 X114.256 Y96.769 E2.96606
G1 X114.444 Y97.756 E2.99714
G1 X114.549 Y98.581 E3.02289
G1 X114.612 Y99.584 E3.05397
G1 X114.612 Y100.416 E3.07971
G1 X114.549 Y101.419 E3.11080
G1 X114.444 Y102.244 E3.13654
G1 X114.256 Y103.231 E3.16763
G1 X114.049 Y104.037 E3.19337
G1 X113.739 Y104.992 E3.22445
G1 X113.433 Y105.766 E3.25020
G1 X113.005 Y106.675 E3.28128
G1 X112.604 Y107.404 E3.30702
G1 X112.066 Y108.252 E3.33811
G1 X111.577 Y108.925 E3.36385
G1 X110.936 Y109.699 E3.39493
G1 X110.367 Y110.306 E3.42068
G1 X109.634 Y110.993 E3.45176
G1 X108.993 Y111.524 E3.47751
G1 X108.181 Y112.114 E3.50859
G1 X107.478 Y112.560 E3.53433
G1 X106.598 Y113.044 E3.56542
G1 X105.845 Y113.398 E3.59116
G1 X104.911 Y113.768 E3.62224
G1 X104.120 Y114.025 E3.64798
G1 X103.147 Y114.275 E3.67907
G1 X102.329 Y114.431 E3.70481
G1 X101.333 Y114.557 E3.73590
G1 X100.502 Y114.609 E3.76164
G1 X99.498 Y114.609 E3.79272
G1 X98.667 Y114.557 E3.81847
G1 X97.671 Y114.431 E3.84955
G1 X96.853 Y114.275 E3.87529
G1 X95.880 Y114.025 E3.90638
G1 X95.089 Y113.768 E3.93212
G1 X94.155 Y113.398 E3.96321
G1 X93.402 Y113.044 E3.98895
G1 X92.522 Y112.560 E4.02003
G1 X91.819 Y112.114 E4.04577
G1 X91.007 Y111.524 E4.07686
G1 X90.366 Y110.993 E4.10260
G1 X89.633 Y110.306 E4.13369
G1 X89.064 Y109.699 E4.15943
G1 X88.423 Y108.925 E4.19051
G1 X87.934 Y108.252 E4.21626
G1 X87.396 Y107.404 E4.24734
G1 X86.995 Y106.675 E4.27308
G1 X86.567 Y105.766 E4.30417
G1 X86.261 Y104.992 E4.32991
G1 X85.951 Y104.037 E4.36100
G1 X85.744 Y103.231 E4.38674
G1 X85.556 Y102.244 E4.41782
G1 X85.451 Y101.419 E4.44357
G1 X85.388 Y100.416 E4.47465
G1 X85.388 Y99.584 E4.50039
G1 X85.451 Y98.581 E4.53148
G1 X85.556 Y97.756 E4.55722
G1 X85.744 Y96.769 E4.58831
G1 X85.951 Y95.963 E4.61405
G1 X86.261 Y95.008 E4.64513
G1 X86.567 Y94.234 E4.67087
G1 X86.995 Y93.325 E4.70196
G1 X87.396 Y92.596 E4.72770
G1 X87.934 Y91.748 E4.75878
G1 X88.423 Y91.075 E4.78453
G1 X89.064 Y90.301 E4.81561
G1 X89.582 Y89.749 E4.83903
G1 E2.83903 F2400.00000
G92 E0
G1 X102.210 Y102.287 F7800.000
G1 E2.00000 F2400.00000
G1 F1800.000
G1 X101.892 Y102.605 E2.01390
G1 X100.995 Y103.062 E2.04507
G1 X100.000 Y103.220 E2.07624
G1 X99.005 Y103.062 E2.10741
G1 X98.108 Y102.605 E2.13858
G1 X97.395 Y101.892 E2.16975
G1 X96.938 Y100.995 E2.20092
G1 X96.780 Y100.000 E2.23208
G1 X96.938 Y99.005 E2.26325
G1 X97.395 Y98.107 E2.29442
G1 X98.107 Y97.395 E2.32559
G1 X99.005 Y96.938 E2.35676
G1 X100.000 Y96.780 E2.38793
G1 X100.995 Y96.938 E2.41910
G1 X101.892 Y97.395 E2.45026
G1 X102.605 Y98.108 E2.48143
G1 X103.062 Y99.005 E2.51260
G1 X103.220 Y100.000 E2.54377
G1 X103.062 Y100.995 E2.57494
G1 X102.605 Y101.892 E2.60611
G1 X102.263 Y102.234 E2.62105
G1 X101.768 Y101.845 F7800.000
G1 F1800.000
G1 X101.521 Y102.093 E2.63189
G1 X100.799 Y102.460 E2.65694
G1 X100.000 Y102.587 E2.68198
G1 X99.201 Y102.460 E2.70703
G1 X98.479 Y102.093 E2.73207
G1 X97.907 Y101.521 E2.75711
G1 X97.540 Y100.799 E2.78216
G1 X97.413 Y100.000 E2.80720
G1 X97.540 Y99.201 E2.83225
G1 X97.907 Y98.479 E2.85729
G1 X98.479 Y97.907 E2.88233
G1 X99.201 Y97.540 E2.90738
G1 X100.000 Y97.413 E2.93242
G1 X100.799 Y97.540 E2.95747
G1 X101.521 Y97.907 E2.98251
G1 X102.093 Y98.479 E3.00756
G1 X102.460 Y99.201 E3.03260
G1 X102.587 Y100.000 E3.05764
G1 X102.460 Y100.799 E3.08269
G1 X102.093 Y101.521 E3.10773
G1 X101.821 Y101.792 E3.11961
G1 X101.326 Y101.403 F7800.000
G1 F1800.000
G1 X101.149 Y101.581 E3.12739
G1 X100.604 Y101.859 E3.14631
G1 X100.000 Y101.954 E3.16523
G1 X99.396 Y101.859 E3.18415
G1 X98.851 Y101.581 E3.20307
G1 X98.419 Y101.149 E3.22199
G1 X98.141 Y100.604 E3.24091
G1 X98.046 Y100.000 E3.25983
G1 X98.141 Y99.396 E3.27875
G1 X98.419 Y98.851 E3.29767
G1 X98.851 Y98.419 E3.31659
G1 X99.396 Y98.141 E3.33551
G1 X100.000 Y98.046 E3.35442
G1 X100.604 Y98.141 E3.37334
G1 X101.149 Y98.419 E3.39226
G1 X101.581 Y98.851 E3.41118
G1 X101.859 Y99.396 E3.43010
G1 X101.954 Y100.000 E3.44902
G1 X101.859 Y100.604 E3.46794
G1 X101.581 Y101.149 E3.48686
G1 X101.380 Y101.350 E3.49568
G1 X101.407 Y101.641 F7800.000
G1 E1.49568 F2400.00000
G92 E0
G1 X104.375 Y104.650 F7800.000
G1 E2.00000 F2400.00000
G1 F1800.000
G1 X104.078 Y104.929 E2.01262
G1 X103.428 Y105.401 E2.03748
G1 X102.724 Y105.788 E2.06234
G1 X101.977 Y106.084 E2.08719
G1 X101.199 Y106.284 E2.11205
G1 X100.402 Y106.384 E2.13691
G1 X99.598 Y106.384 E2.16176
G1 X98.801 Y106.284 E2.18662
G1 X98.023 Y106.084 E2.21148
G1 X97.276 Y105.788 E2.23633
G1 X96.572 Y105.401 E2.26119
G1 X95.922 Y104.929 E2.28605
G1 X95.337 Y104.379 E2.31090
G1 X94.825 Y103.760 E2.33576
G1 X94.394 Y103.082 E2.36062
G1 X94.052 Y102.355 E2.38547
G1 X93.804 Y101.591 E2.41033
G1 X93.653 Y100.802 E2.43519
G1 X93.603 Y100.000 E2.46004
G1 X93.653 Y99.198 E2.48490
G1 X93.804 Y98.409 E2.50976
G1 X94.052 Y97.645 E2.53461
G1 X94.394 Y96.918 E2.55947
G1 X94.825 Y96.240 E2.58433
G1 X95.337 Y95.621 E2.60918
G1 X95.922 Y95.071 E2.63404
G1 X96.572 Y94.599 E2.65890
G1 X97.276 Y94.212 E2.68375
G1 X98.023 Y93.916 E2.70861
G1 X98.801 Y93.716 E2.73347
G1 X99.598 Y93.616 E2.75832
G1 X100.402 Y93.616 E2.78318
G1 X101.199 Y93.716 E2.80804
G1 X101.977 Y93.916 E2.83289
G1 X102.724 Y94.212 E2.85775
G1 X103.428 Y94.599 E2.88261
G1 X104.078 Y95.071 E2.90746
G1 X104.663 Y95.621 E2.93232
G1 X105.175 Y96.240 E2.95718
G1 X105.606 Y96.918 E2.98203
G1 X105.948 Y97.645 E3.00689
G1 X106.196 Y98.409 E3.03175
G1 X106.347 Y99.198 E3.05660
G1 X106.397 Y100.000 E3.08146
G1 X106.347 Y100.802 E3.10632
G1 X106.196 Y101.591 E3.13117
G1 X105.948 Y102.355 E3.15603
G1 X105.606 Y103.082 E3.18089
G1 X105.175 Y103.760 E3.20574
G1 X104.663 Y104.379 E3.23060
G1 X104.430 Y104.598 E3.24051
G1 X104.803 Y105.105 F7800.000
G1 F1800.000
G1 X104.477 Y105.411 E3.25435
G1 X103.763 Y105.930 E3.28164
G1 X102.990 Y106.355 E3.30893
G1 X102.170 Y106.679 E3.33622
G1 X101.316 Y106.899 E3.36351
G1 X100.441 Y107.009 E3.39080
G1 X99.559 Y107.009 E3.41809
G1 X98.684 Y106.899 E3.44538
G1 X97.830 Y106.679 E3.47267
G1 X97.010 Y106.355 E3.49996
G1 X96.237 Y105.930 E3.52725
G1 X95.523 Y105.411 E3.55454
G1 X94.880 Y104.808 E3.58183
G1 X94.318 Y104.128 E3.60912
G1 X93.846 Y103.383 E3.63641
G1 X93.470 Y102.585 E3.66370
G1 X93.197 Y101.747 E3.69099
G1 X93.032 Y100.880 E3.71828
G1 X92.977 Y100.000 E3.74557
G1 X93.032 Y99.120 E3.77286
G1 X93.197 Y98.253 E3.80014
G1 X93.470 Y97.415 E3.82743
G1 X93.846 Y96.617 E3.85472
G1 X94.318 Y95.872 E3.88201
G1 X94.880 Y95.192 E3.90930
G1 X95.523 Y94.589 E3.93659
G1 X96.237 Y94.070 E3.96388
G1 X97.010 Y93.645 E3.99117
G1 X97.830 Y93.321 E4.01846
G1 X98.684 Y93.101 E4.04575
G1 X99.559 Y92.991 E4.07304
G1 X100.441 Y92.991 E4.10033
G1 X101.316 Y93.101 E4.12762
G1 X102.170 Y93.321 E4.15491
G1 X102.990 Y93.645 E4.18220
G1 X103.763 Y94.070 E4.20949
G1 X104.477 Y94.589 E4.23678
G1 X105.120 Y95.192 E4.26407
G1 X105.682 Y95.872 E4.29136
G1 X106.154 Y96.617 E4.31865
G1 X106.530 Y97.415 E4.34594
G1 X106.803 Y98.253 E4.37323
G1 X106.968 Y99.120 E4.40052
G1 X107.023 Y100.000 E4.42781
G1 X106.968 Y100.880 E4.45509
G1 X106.803 Y101.747 E4.48238
G1 X106.530 Y102.585 E4.50967
G1 X106.154 Y103.383 E4.53696
G1 X105.682 Y104.128 E4.56425
G1 X105.120 Y104.808 E4.59154
G1 X104.857 Y105.054 E4.60267
G1 X105.231 Y105.561 F7800.000
G1 F1800.000
G1 X104.876 Y105.894 E4.61773
G1 X104.099 Y106.459 E4.64745
G1 X103.257 Y106.921 E4.67717
G1 X102.364 Y107.275 E4.70690
G1 X101.433 Y107.514 E4.73662
G1 X100.480 Y107.634 E4.76634
G1 X99.520 Y107.634 E4.79606
G1 X98.567 Y107.514 E4.82579
G1 X97.636 Y107.275 E4.85551
G1 X96.743 Y106.921 E4.88523
G1 X95.901 Y106.459 E4.91495
G1 X95.124 Y105.894 E4.94468
G1 X94.424 Y105.236 E4.97440
G1 X93.812 Y104.496 E5.00412
G1 X93.297 Y103.685 E5.03384
G1 X92.888 Y102.816 E5.06357
G1 X92.591 Y101.902 E5.09329
G1 X92.411 Y100.959 E5.12301
G1 X92.351 Y100.000 E5.15273
G1 X92.411 Y99.041 E5.18246
G1 X92.591 Y98.098 E5.21218
G1 X92.888 Y97.184 E5.24190
G1 X93.297 Y96.315 E5.27162
G1 X93.812 Y95.504 E5.30135
G1 X94.424 Y94.764 E5.33107
G1 X95.124 Y94.106 E5.36079
G1 X95.901 Y93.541 E5.39051
G1 X96.743 Y93.079 E5.42024
G1 X97.636 Y92.725 E5.44996
G1 X98.567 Y92.486 E5.47968
G1 X99.520 Y92.366 E5.50940
G1 X100.480 Y92.366 E5.53913
G1 X101.433 Y92.486 E5.56885
G1 X102.364 Y92.725 E5.59857
G1 X103.257 Y93.079 E5.62829
G1 X104.099 Y93.541 E5.65801
G1 X104.876 Y94.106 E5.68774
G1 X105.576 Y94.764 E5.71746
G1 X106.188 Y95.504 E5.74718
G1 X106.703 Y96.315 E5.77690
G1 X107.112 Y97.184 E5.80663
G1 X107.409 Y98.098 E5.83635
G1 X107.589 Y99.041 E5.86607
G1 X107.649 Y100.000 E5.89579
G1 X107.589 Y100.959 E5.92552
G1 X107.409 Y101.902 E5.95524
G1 X107.112 Y102.816 E5.98496
G1 X106.703 Y103.685 E6.01468
G1 X106.188 Y104.496 E6.04441
G1 X105.576 Y105.236 E6.07413
G1 X105.285 Y105.509 E6.08648
G1 X104.761 Y105.433 F7800.000
G1 X103.961 Y104.196 F7800.000
G1 F1800.000
G1 X104.451 Y103.707 E6.10842
G1 X104.912 Y103.149 E6.13139
G1 X105.300 Y102.537 E6.15439
G1 X105.609 Y101.881 E6.17738
G1 X105.724 Y101.527 E6.18921
G1 X101.512 Y105.739 E6.37823
G1 X100.838 Y105.912 E6.40030
G1 X100.374 Y105.970 E6.41515
G1 X105.975 Y100.369 E6.66653
G1 X106.014 Y99.757 E6.68599
G1 X105.994 Y99.444 E6.69595
G1 X99.436 Y106.003 E6.99029
G1 X99.395 Y106.003 E6.99159
G1 X98.631 Y105.900 E7.01603
G1 X101.050 Y103.481 E7.12458
G1 X100.243 Y103.609 E7.15052
G1 X100.047 Y103.578 E7.15681
G1 X97.917 Y105.709 E7.25243
G1 X97.270 Y105.449 E7.27453
G1 X99.265 Y103.454 E7.36403
G1 X99.053 Y103.421 E7.37085
G1 X98.615 Y103.198 E7.38643
G1 X96.686 Y105.127 E7.47302
G1 X96.159 Y104.748 E7.49362
G1 X98.014 Y102.892 E7.57691
G1 X97.553 Y102.447 E7.59726
G1 X95.682 Y104.318 E7.68119
G1 X95.550 Y104.194 E7.68694
G1 X95.256 Y103.838 E7.70159
G1 X97.108 Y101.986 E7.78472
G1 X96.802 Y101.385 E7.80610
G1 X94.880 Y103.307 E7.89236
G1 X94.700 Y103.023 E7.90304
G1 X94.558 Y102.723 E7.91358
G1 X96.546 Y100.735 E8.00276
G1 X96.422 Y99.953 E8.02790
G1 X94.297 Y102.078 E8.12325
G1 X94.167 Y101.678 E8.13657
G1 X94.107 Y101.361 E8.14681
G1 X96.519 Y98.950 E8.25504
G1 E6.25504 F2400.00000
G92 E0
G1 X96.039 Y95.804 F7800.000
G1 E2.00000 F2400.00000
G1 F1800.000
G1 X95.549 Y96.293 E2.02195
G1 X95.088 Y96.851 E2.04491
G1 X94.700 Y97.463 E2.06791
G1 X94.391 Y98.119 E2.09091
G1 X94.276 Y98.473 E2.10274
G1 X98.488 Y94.261 E2.29176
G1 X99.162 Y94.088 E2.31383
G1 X99.626 Y94.030 E2.32868
G1 X94.025 Y99.631 E2.58006
G1 X93.986 Y100.243 E2.59952
G1 X94.006 Y100.556 E2.60948
G1 X100.564 Y93.997 E2.90382
G1 X100.605 Y93.997 E2.90512
G1 X101.369 Y94.100 E2.92955
G1 X98.950 Y96.519 E3.03811
G1 X99.757 Y96.391 E3.06405
G1 X99.953 Y96.422 E3.07034
G1 X102.083 Y94.291 E3.16596
G1 X102.730 Y94.551 E3.18806
G1 X100.735 Y96.546 E3.27756
G1 X100.947 Y96.579 E3.28437
G1 X101.385 Y96.802 E3.29996
G1 X103.314 Y94.873 E3.38654
G1 X103.841 Y95.252 E3.40715
G1 X101.986 Y97.108 E3.49044
G1 X102.447 Y97.553 E3.51078
G1 X104.318 Y95.682 E3.59471
G1 X104.450 Y95.806 E3.60047
G1 X104.744 Y96.162 E3.61512
G1 X102.892 Y98.014 E3.69824
G1 X103.198 Y98.615 E3.71963
G1 X105.120 Y96.693 E3.80589
G1 X105.300 Y96.977 E3.81656
G1 X105.442 Y97.277 E3.82711
G1 X103.454 Y99.265 E3.91629
G1 X103.578 Y100.047 E3.94143
G1 X105.703 Y97.922 E4.03678
G1 X105.833 Y98.322 E4.05010
G1 X105.893 Y98.639 E4.06034
G1 X103.481 Y101.050 E4.16857
G1 Z0.650 F7800.000
G1 X101.993 Y102.323 F7800.000
G1 F900.000
G1 X101.816 Y102.500 E4.17531
G1 X100.955 Y102.938 E4.20138
G1 X100.000 Y103.090 E4.22746
G1 X99.045 Y102.938 E4.25354
G1 X98.184 Y102.500 E4.27961
G1 X97.500 Y101.816 E4.30569
G1 X97.062 Y100.955 E4.33176
G1 X96.910 Y100.000 E4.35784
G1 X97.062 Y99.045 E4.38392
G1 X97.500 Y98.184 E4.40999
G1 X98.184 Y97.500 E4.43607
G1 X99.045 Y97.062 E4.46215
G1 X100.000 Y96.910 E4.48822
G1 X100.955 Y97.062 E4.51430
G1 X101.816 Y97.500 E4.54038
G1 X102.500 Y98.184 E4.56645
G1 X102.938 Y99.045 E4.59253
G1 X103.090 Y100.000 E4.61861
G1 X102.938 Y100.955 E4.64468
G1 X102.500 Y101.816 E4.67076
G1 X102.046 Y102.270 E4.68807
G1 X101.543 Y101.873 F7800.000
G1 F900.000
G1 X101.438 Y101.979 E4.69210
G1 X100.756 Y102.326 E4.71274
G1 X100.000 Y102.446 E4.73338
G1 X99.244 Y102.326 E4.75403
G1 X98.562 Y101.979 E4.77467
G1 X98.021 Y101.438 E4.79532
G1 X97.674 Y100.756 E4.81596
G1 X97.554 Y100.000 E4.83661
G1 X97.674 Y99.244 E4.85725
G1 X98.021 Y98.562 E4.87790
G1 X98.562 Y98.021 E4.89854
G1 X99.244 Y97.674 E4.91919
G1 X100.000 Y97.554 E4.93983
G1 X100.756 Y97.674 E4.96048
G1 X101.438 Y98.021 E4.98112
G1 X101.979 Y98.562 E5.00177
G1 X102.326 Y99.244 E5.02241
G1 X102.446 Y100.000 E5.04306
G1 X102.326 Y100.756 E5.06370
G1 X101.979 Y101.438 E5.08435
G1 X101.596 Y101.820 E5.09895
G1 X101.147 Y101.477 F7800.000
G1 F900.000
G1 X101.104 Y101.520 E5.10019
G1 X100.580 Y101.786 E5.11230
G1 X100.000 Y101.878 E5.12441
G1 X99.420 Y101.786 E5.13653
G1 X98.896 Y101.520 E5.14864
G1 X98.480 Y101.104 E5.16075
G1 X98.214 Y100.580 E5.17287
G1 X98.122 Y100.000 E5.18498
G1 X98.214 Y99.420 E5.19709
G1 X98.480 Y98.896 E5.20920
G1 X98.896 Y98.480 E5.22132
G1 X99.420 Y98.214 E5.23343
G1 X100.000 Y98.122 E5.24554
G1 X100.580 Y98.214 E5.25765
G1 X101.104 Y98.480 E5.26977
G1 X101.520 Y98.896 E5.28188
G1 X101.786 Y99.420 E5.29399
G1 X101.878 Y100.000 E5.30611
G1 X101.786 Y100.580 E5.31822
G1 X101.520 Y101.104 E5.33033
G1 X101.200 Y101.424 E5.33965
G1 X101.166 Y101.534 F7800.000
G1 X103.876 Y105.234 F7800.000
G1 F3600.000
G1 X103.497 Y105.510 E5.35231
G1 X102.779 Y105.905 E5.37442
G1 X102.017 Y106.206 E5.39653
G1 X101.223 Y106.410 E5.41864
G1 X100.410 Y106.513 E5.44075
G1 X99.590 Y106.513 E5.46285
G1 X98.777 Y106.410 E5.48496
G1 X97.983 Y106.206 E5.50707
G1 X97.221 Y105.905 E5.52918
G1 X96.503 Y105.510 E5.55129
G1 X95.840 Y105.028 E5.57339
G1 X95.243 Y104.467 E5.59550
G1 X94.720 Y103.836 E5.61761
G1 X94.281 Y103.144 E5.63972
G1 X93.932 Y102.402 E5.66183
G1 X93.679 Y101.623 E5.68393
G1 X93.526 Y100.818 E5.70604
G1 X93.474 Y100.000 E5.72815
G1 X93.526 Y99.182 E5.75026
G1 X93.679 Y98.377 E5.77236
G1 X93.932 Y97.598 E5.79447
G1 X94.281 Y96.856 E5.81658
G1 X94.720 Y96.164 E5.83869
G1 X95.243 Y95.533 E5.86080
G1 X95.840 Y94.972 E5.88290
G1 X96.503 Y94.490 E5.90501
G1 X97.221 Y94.095 E5.92712
G1 X97.983 Y93.794 E5.94923
G1 X98.777 Y93.590 E5.97134
G1 X99.590 Y93.487 E5.99344
G1 X100.410 Y93.487 E6.01555
G1 X101.223 Y93.590 E6.03766
G1 X102.017 Y93.794 E6.05977
G1 X102.779 Y94.095 E6.08188
G1 X103.497 Y94.490 E6.10398
G1 X104.160 Y94.972 E6.12609
G1 X104.757 Y95.533 E6.14820
G1 X105.280 Y96.164 E6.17031
G1 X105.719 Y96.856 E6.19241
