; generated by Slic3r 1.3.1-dev (Build 4f5b935) on 2019-11-26 at 14:51:20

; external perimeters extrusion width = 0.55mm (1.90mm^3/s)
; perimeters extrusion width = 0.70mm (2.71mm^3/s)
; infill extrusion width = 0.62mm (2.41mm^3/s)
; solid infill extrusion width = 0.70mm (2.04mm^3/s)
; top infill extrusion width = 0.70mm (2.04mm^3/s)

M107
G92 E0
;D3D:START:START
T0
M104 S215 T0

G21
G90
M107
T0
G28
G29
M109 T0 S215 T0
G0 F3000
M107
T0
G92 E0
G0 X0 Y149 Z0.1 F3600
G1 Y49 E6.5 F1200
G0 Z1
G92 E0
; Filament gcode

G21 ; set units to millimeters
G90 ; use absolute coordinates
M82 ; use absolute distances for extrusion
G92 E0
G1 Z0.090 F7800.000
G1 E-2.00000 F2400.00000
G92 E0
G1 X-25.163 Y52.263 F7800.000
G1 E2.00000 F2400.00000
G1 F1800.000
G1 X175.163 Y52.263 E2.59730
G1 X177.323 Y52.660 E2.60385
G1 X178.737 Y53.424 E2.60864
G1 X182.237 Y55.967 E2.62154
G1 X183.751 Y57.558 E2.62809
G1 X184.445 Y59.007 E2.63288
G1 X185.782 Y63.121 E2.64578
G1 X186.072 Y65.298 E2.65233
G1 X185.782 Y66.879 E2.65712
G1 X184.445 Y70.993 E2.67002
G1 X183.400 Y72.925 E2.67657
G1 X182.461 Y73.862 E2.68053
G1 X157.461 Y93.862 E2.77599
G1 X153.737 Y96.576 E2.78973
G1 X151.756 Y97.525 E2.79627
G1 X150.163 Y97.737 E2.80107
G1 X-25.163 Y97.737 E3.32383
G1 X-27.323 Y97.340 E3.33038
G1 X-28.737 Y96.576 E3.33517
G1 X-32.237 Y94.033 E3.34807
G1 X-33.751 Y92.442 E3.35462
G1 X-34.445 Y90.993 E3.35941
G1 X-35.782 Y86.879 E3.37231
G1 X-36.080 Y85.000 E3.37798
G1 X-36.080 Y65.000 E3.43761
G1 X-35.782 Y63.121 E3.44328
G1 X-34.445 Y59.007 E3.45618
G1 X-33.400 Y57.075 E3.46273
G1 X-32.237 Y55.967 E3.46752
G1 X-28.737 Y53.424 E3.48042
G1 X-26.756 Y52.475 E3.48697
G1 X-25.237 Y52.273 E3.49154
G1 E1.49154 F2400.00000
G92 E0
G1 X-24.854 Y86.347 F7800.000
G1 E2.00000 F2400.00000
G1 F1800.000
G1 X-25.180 Y85.708 E2.00214
G1 X-25.292 Y85.000 E2.00428
G1 X-25.180 Y84.292 E2.00641
G1 X-24.854 Y83.653 E2.00855
G1 X-24.347 Y83.146 E2.01069
G1 X-23.708 Y82.820 E2.01283
G1 X-23.000 Y82.708 E2.01497
G1 X-22.292 Y82.820 E2.01711
G1 X-21.653 Y83.146 E2.01924
G1 X-21.146 Y83.653 E2.02138
G1 X-20.820 Y84.292 E2.02352
G1 X-20.708 Y85.000 E2.02566
G1 X-20.820 Y85.708 E2.02780
G1 X-21.146 Y86.347 E2.02994
G1 X-21.653 Y86.854 E2.03207
G1 X-22.292 Y87.180 E2.03421
G1 X-23.000 Y87.292 E2.03635
G1 X-23.708 Y87.180 E2.03849
G1 X-24.347 Y86.854 E2.04063
G1 X-24.801 Y86.400 E2.04254
G1 X-24.789 Y86.300 F7800.000
G1 F1800.000
G1 X-25.103 Y85.683 E2.04460
G1 X-25.211 Y85.000 E2.04667
G1 X-25.103 Y84.317 E2.04873
G1 X-24.789 Y83.700 E2.05079
G1 X-24.300 Y83.211 E2.05286
G1 X-23.683 Y82.897 E2.05492
G1 X-23.000 Y82.789 E2.05698
G1 X-22.317 Y82.897 E2.05905
G1 X-21.700 Y83.211 E2.06111
G1 X-21.211 Y83.700 E2.06317
G1 X-20.897 Y84.317 E2.06523
G1 X-20.789 Y85.000 E2.06730
G1 X-20.897 Y85.683 E2.06936
G1 X-21.211 Y86.300 E2.07142
G1 X-21.700 Y86.789 E2.07349
G1 X-22.317 Y87.103 E2.07555
G1 X-23.000 Y87.211 E2.07761
G1 X-23.683 Y87.103 E2.07968
G1 X-24.300 Y86.789 E2.08174
G1 X-24.736 Y86.353 E2.08358
G1 X-24.724 Y86.252 F7800.000
G1 F1800.000
G1 X-25.027 Y85.658 E2.08557
G1 X-25.131 Y85.000 E2.08755
G1 X-25.027 Y84.342 E2.08954
G1 X-24.724 Y83.748 E2.09153
G1 X-24.252 Y83.276 E2.09352
G1 X-23.658 Y82.974 E2.09550
G1 X-23.000 Y82.869 E2.09749
G1 X-22.342 Y82.974 E2.09948
G1 X-21.748 Y83.276 E2.10147
G1 X-21.276 Y83.748 E2.10346
G1 X-20.973 Y84.342 E2.10544
G1 X-20.869 Y85.000 E2.10743
G1 X-20.973 Y85.658 E2.10942
G1 X-21.276 Y86.252 E2.11141
G1 X-21.748 Y86.724 E2.11339
G1 X-22.342 Y87.026 E2.11538
G1 X-23.000 Y87.131 E2.11737
G1 X-23.658 Y87.026 E2.11936
G1 X-24.252 Y86.724 E2.12135
G1 X-24.671 Y86.306 E2.12311
G1 X-24.659 Y86.205 F7800.000
G1 F1800.000
G1 X-24.950 Y85.633 E2.12502
G1 X-25.050 Y85.000 E2.12693
G1 X-24.950 Y84.367 E2.12885
G1 X-24.659 Y83.795 E2.13076
G1 X-24.205 Y83.341 E2.13267
G1 X-23.634 Y83.050 E2.13458
G1 X-23.000 Y82.950 E2.13650
G1 X-22.366 Y83.050 E2.13841
G1 X-21.795 Y83.341 E2.14032
G1 X-21.341 Y83.795 E2.14223
G1 X-21.050 Y84.367 E2.14415
G1 X-20.950 Y85.000 E2.14606
G1 X-21.050 Y85.633 E2.14797
G1 X-21.341 Y86.205 E2.14988
G1 X-21.795 Y86.659 E2.15180
G1 X-22.366 Y86.950 E2.15371
G1 X-23.000 Y87.050 E2.15562
G1 X-23.634 Y86.950 E2.15753
G1 X-24.205 Y86.659 E2.15945
G1 X-24.606 Y86.258 E2.16114
G1 X-24.659 Y86.205 F7800.000
G1 E0.16114 F2400.00000
G92 E0
G1 X-23.000 Y67.292 F7800.000
G1 E2.00000 F2400.00000
G1 F1800.000
G1 X-23.708 Y67.180 E2.00214
G1 X-24.347 Y66.854 E2.00428
G1 X-24.854 Y66.347 E2.00641
G1 X-25.180 Y65.708 E2.00855
G1 X-25.292 Y65.000 E2.01069
G1 X-25.180 Y64.292 E2.01283
G1 X-24.854 Y63.653 E2.01497
G1 X-24.347 Y63.146 E2.01711
G1 X-23.708 Y62.820 E2.01924
G1 X-23.000 Y62.708 E2.02138
G1 X-22.292 Y62.820 E2.02352
G1 X-21.653 Y63.146 E2.02566
G1 X-21.146 Y63.653 E2.02780
G1 X-20.820 Y64.292 E2.02994
G1 X-20.708 Y65.000 E2.03207
G1 X-20.820 Y65.708 E2.03421
G1 X-21.146 Y66.347 E2.03635
G1 X-21.653 Y66.854 E2.03849
G1 X-22.292 Y67.180 E2.04063
G1 X-22.926 Y67.280 E2.04254
G1 X-23.000 Y67.211 F7800.000
G1 F1800.000
G1 X-23.683 Y67.103 E2.04460
G1 X-24.300 Y66.789 E2.04667
G1 X-24.789 Y66.300 E2.04873
G1 X-25.103 Y65.683 E2.05079
G1 X-25.211 Y65.000 E2.05286
G1 X-25.103 Y64.317 E2.05492
G1 X-24.789 Y63.700 E2.05698
G1 X-24.300 Y63.211 E2.05905
G1 X-23.683 Y62.897 E2.06111
G1 X-23.000 Y62.789 E2.06317
G1 X-22.317 Y62.897 E2.06523
G1 X-21.700 Y63.211 E2.06730
G1 X-21.211 Y63.700 E2.06936
G1 X-20.897 Y64.317 E2.07142
G1 X-20.789 Y65.000 E2.07349
G1 X-20.897 Y65.683 E2.07555
G1 X-21.211 Y66.300 E2.07761
G1 X-21.700 Y66.789 E2.07968
G1 X-22.317 Y67.103 E2.08174
G1 X-22.926 Y67.200 E2.08358
G1 X-23.000 Y67.131 F7800.000
G1 F1800.000
G1 X-23.658 Y67.026 E2.08557
G1 X-24.252 Y66.724 E2.08755
G1 X-24.724 Y66.252 E2.08954
G1 X-25.027 Y65.658 E2.09153
G1 X-25.131 Y65.000 E2.09352
G1 X-25.027 Y64.342 E2.09550
G1 X-24.724 Y63.748 E2.09749
G1 X-24.252 Y63.276 E2.09948
G1 X-23.658 Y62.973 E2.10147
G1 X-23.000 Y62.869 E2.10346
G1 X-22.342 Y62.973 E2.10544
G1 X-21.748 Y63.276 E2.10743
G1 X-21.276 Y63.748 E2.10942
G1 X-20.973 Y64.342 E2.11141
G1 X-20.869 Y65.000 E2.11339
G1 X-20.973 Y65.658 E2.11538
G1 X-21.276 Y66.252 E2.11737
G1 X-21.748 Y66.724 E2.11936
G1 X-22.342 Y67.027 E2.12135
G1 X-22.926 Y67.119 E2.12311
G1 X-23.000 Y67.050 F7800.000
G1 F1800.000
G1 X-23.634 Y66.950 E2.12502
G1 X-24.205 Y66.659 E2.12693
G1 X-24.659 Y66.205 E2.12885
G1 X-24.950 Y65.634 E2.13076
G1 X-25.050 Y65.000 E2.13267
G1 X-24.950 Y64.366 E2.13458
G1 X-24.659 Y63.795 E2.13650
G1 X-24.205 Y63.341 E2.13841
G1 X-23.634 Y63.050 E2.14032
G1 X-23.000 Y62.950 E2.14223
G1 X-22.366 Y63.050 E2.14415
G1 X-21.795 Y63.341 E2.14606
G1 X-21.341 Y63.795 E2.14797
G1 X-21.050 Y64.366 E2.14988
G1 X-20.950 Y65.000 E2.15180
G1 X-21.050 Y65.634 E2.15371
G1 X-21.341 Y66.205 E2.15562
G1 X-21.795 Y66.659 E2.15753
G1 X-22.366 Y66.950 E2.15945
G1 X-22.926 Y67.038 E2.16114
G1 X-23.000 Y67.050 F7800.000
G1 E0.16114 F2400.00000
G92 E0
G1 X11.197 Y75.000 F7800.000
G1 E2.00000 F2400.00000
G1 F1800.000
G1 X11.541 Y73.940 E2.00332
G1 X12.443 Y73.285 E2.00665
G1 X13.557 Y73.285 E2.00997
G1 X14.459 Y73.940 E2.01329
G1 X14.803 Y75.000 E2.01662
G1 X14.459 Y76.060 E2.01994
G1 X13.557 Y76.715 E2.02326
G1 X12.443 Y76.715 E2.02659
G1 X11.541 Y76.060 E2.02991
G1 X11.220 Y75.071 E2.03301
G1 X11.280 Y75.000 F7800.000
G1 F1800.000
G1 X11.609 Y73.989 E2.03618
G1 X12.469 Y73.365 E2.03935
G1 X13.531 Y73.365 E2.04252
G1 X14.391 Y73.989 E2.04568
G1 X14.720 Y75.000 E2.04885
G1 X14.391 Y76.011 E2.05202
G1 X13.531 Y76.635 E2.05519
G1 X12.469 Y76.635 E2.05836
G1 X11.609 Y76.011 E2.06153
G1 X11.304 Y75.071 E2.06447
G1 X11.364 Y75.000 F7800.000
G1 F1800.000
G1 X11.677 Y74.038 E2.06749
G1 X12.495 Y73.444 E2.07050
G1 X13.505 Y73.444 E2.07352
G1 X14.323 Y74.038 E2.07653
G1 X14.636 Y75.000 E2.07955
G1 X14.323 Y75.962 E2.08256
G1 X13.505 Y76.556 E2.08558
G1 X12.495 Y76.556 E2.08859
G1 X11.677 Y75.962 E2.09160
G1 X11.387 Y75.071 E2.09439
G1 X11.448 Y75.000 F7800.000
G1 F1800.000
G1 X11.744 Y74.088 E2.09725
G1 X12.520 Y73.524 E2.10011
G1 X13.480 Y73.524 E2.10297
G1 X14.256 Y74.088 E2.10583
G1 X14.552 Y75.000 E2.10870
G1 X14.256 Y75.912 E2.11156
G1 X13.480 Y76.476 E2.11442
G1 X12.520 Y76.476 E2.11728
G1 X11.744 Y75.912 E2.12014
G1 X11.471 Y75.071 E2.12277
G1 X11.448 Y75.000 F7800.000
G1 E0.12277 F2400.00000
G92 E0
G1 X51.197 Y75.000 F7800.000
G1 E2.00000 F2400.00000
G1 F1800.000
G1 X51.541 Y73.940 E2.00332
G1 X52.443 Y73.285 E2.00665
G1 X53.557 Y73.285 E2.00997
G1 X54.459 Y73.940 E2.01329
G1 X54.803 Y75.000 E2.01662
G1 X54.459 Y76.060 E2.01994
G1 X53.557 Y76.715 E2.02326
G1 X52.443 Y76.715 E2.02659
G1 X51.541 Y76.060 E2.02991
G1 X51.220 Y75.071 E2.03301
G1 X51.280 Y75.000 F7800.000
G1 F1800.000
G1 X51.609 Y73.989 E2.03618
G1 X52.469 Y73.365 E2.03935
G1 X53.531 Y73.365 E2.04252
G1 X54.391 Y73.989 E2.04568
G1 X54.720 Y75.000 E2.04885
G1 X54.391 Y76.011 E2.05202
G1 X53.531 Y76.635 E2.05519
G1 X52.469 Y76.635 E2.05836
G1 X51.609 Y76.011 E2.06153
G1 X51.304 Y75.071 E2.06447
G1 X51.364 Y75.000 F7800.000
G1 F1800.000
G1 X51.677 Y74.038 E2.06749
G1 X52.495 Y73.444 E2.07050
G1 X53.505 Y73.444 E2.07352
G1 X54.323 Y74.038 E2.07653
G1 X54.636 Y75.000 E2.07955
G1 X54.323 Y75.962 E2.08256
G1 X53.505 Y76.556 E2.08558
G1 X52.495 Y76.556 E2.08859
G1 X51.677 Y75.962 E2.09160
G1 X51.387 Y75.071 E2.09439
G1 X51.448 Y75.000 F7800.000
G1 F1800.000
G1 X51.744 Y74.088 E2.09725
G1 X52.520 Y73.524 E2.10012
G1 X53.480 Y73.524 E2.10297
G1 X54.256 Y74.088 E2.10583
G1 X54.552 Y75.000 E2.10870
G1 X54.256 Y75.912 E2.11156
G1 X53.480 Y76.476 E2.11442
G1 X52.520 Y76.476 E2.11728
G1 X51.744 Y75.912 E2.12014
G1 X51.471 Y75.071 E2.12277
G1 X51.448 Y75.000 F7800.000
G1 E0.12277 F2400.00000
G92 E0
G1 X91.197 Y65.000 F7800.000
G1 E2.00000 F2400.00000
G1 F1800.000
G1 X91.540 Y63.940 E2.00332
G1 X92.442 Y63.285 E2.00665
G1 X93.558 Y63.285 E2.00997
G1 X94.460 Y63.940 E2.01330
G1 X94.803 Y65.000 E2.01662
G1 X94.460 Y66.060 E2.01994
G1 X93.558 Y66.715 E2.02326
G1 X92.442 Y66.715 E2.02659
G1 X91.540 Y66.060 E2.02991
G1 X91.220 Y65.071 E2.03301
G1 X91.280 Y65.000 F7800.000
G1 F1800.000
G1 X91.608 Y63.989 E2.03618
G1 X92.468 Y63.365 E2.03935
G1 X93.532 Y63.365 E2.04252
G1 X94.392 Y63.989 E2.04569
G1 X94.720 Y65.000 E2.04886
G1 X94.392 Y66.011 E2.05203
G1 X93.532 Y66.635 E2.05520
G1 X92.468 Y66.635 E2.05837
G1 X91.608 Y66.011 E2.06154
G1 X91.304 Y65.071 E2.06448
G1 X91.364 Y65.000 F7800.000
G1 F1800.000
G1 X91.676 Y64.038 E2.06750
G1 X92.494 Y63.444 E2.07051
G1 X93.506 Y63.444 E2.07353
G1 X94.324 Y64.038 E2.07654
G1 X94.636 Y65.000 E2.07956
G1 X94.324 Y65.961 E2.08257
G1 X93.506 Y66.556 E2.08558
G1 X92.494 Y66.556 E2.08860
G1 X91.676 Y65.961 E2.09162
G1 X91.387 Y65.071 E2.09441
G1 X91.448 Y65.000 F7800.000
G1 F1800.000
G1 X91.744 Y64.088 E2.09727
G1 X92.520 Y63.524 E2.10013
G1 X93.480 Y63.524 E2.10299
G1 X94.256 Y64.088 E2.10585
G1 X94.552 Y65.000 E2.10871
G1 X94.256 Y65.912 E2.11157
G1 X93.480 Y66.476 E2.11443
G1 X92.520 Y66.476 E2.11729
G1 X91.744 Y65.912 E2.12015
G1 X91.471 Y65.071 E2.12279
G1 X91.448 Y65.000 F7800.000
G1 E0.12279 F2400.00000
G92 E0
G1 X111.540 Y81.940 F7800.000
G1 E2.00000 F2400.00000
G1 F1800.000
G1 X112.442 Y81.285 E2.00332
G1 X113.558 Y81.285 E2.00665
G1 X114.460 Y81.940 E2.00997
G1 X114.803 Y83.000 E2.01330
G1 X114.460 Y84.060 E2.01662
G1 X113.558 Y84.715 E2.01994
G1 X112.442 Y84.715 E2.02327
G1 X111.540 Y84.060 E2.02659
G1 X111.197 Y83.000 E2.02991
G1 X111.517 Y82.011 E2.03301
G1 X111.608 Y81.989 F7800.000
G1 F1800.000
G1 X112.468 Y81.365 E2.03618
G1 X113.532 Y81.365 E2.03935
G1 X114.392 Y81.989 E2.04252
G1 X114.720 Y83.000 E2.04569
G1 X114.392 Y84.011 E2.04886
G1 X113.532 Y84.635 E2.05203
G1 X112.468 Y84.635 E2.05520
G1 X111.608 Y84.011 E2.05837
G1 X111.280 Y83.000 E2.06154
G1 X111.585 Y82.061 E2.06448
G1 X111.676 Y82.038 F7800.000
G1 F1800.000
G1 X112.494 Y81.444 E2.06750
G1 X113.506 Y81.444 E2.07051
G1 X114.324 Y82.038 E2.07353
G1 X114.636 Y83.000 E2.07654
G1 X114.324 Y83.962 E2.07956
G1 X113.506 Y84.556 E2.08257
G1 X112.494 Y84.556 E2.08559
G1 X111.676 Y83.962 E2.08860
G1 X111.364 Y83.000 E2.09162
G1 X111.653 Y82.110 E2.09441
G1 X111.744 Y82.088 F7800.000
G1 F1800.000
G1 X112.520 Y81.524 E2.09727
G1 X113.480 Y81.524 E2.10013
G1 X114.256 Y82.088 E2.10299
G1 X114.552 Y83.000 E2.10585
G1 X114.256 Y83.912 E2.10871
G1 X113.480 Y84.476 E2.11157
G1 X112.520 Y84.476 E2.11443
G1 X111.744 Y83.912 E2.11729
G1 X111.448 Y83.000 E2.12015
G1 X111.721 Y82.159 E2.12279
G1 X111.744 Y82.088 F7800.000
G1 E0.12279 F2400.00000
G92 E0
G1 X131.540 Y66.060 F7800.000
G1 E2.00000 F2400.00000
G1 F1800.000
G1 X131.197 Y65.000 E2.00332
G1 X131.540 Y63.940 E2.00665
G1 X132.442 Y63.285 E2.00997
G1 X133.558 Y63.285 E2.01329
G1 X134.460 Y63.940 E2.01662
G1 X134.803 Y65.000 E2.01994
G1 X134.460 Y66.060 E2.02326
G1 X133.558 Y66.715 E2.02659
G1 X132.442 Y66.715 E2.02991
G1 X131.601 Y66.104 E2.03301
G1 X131.608 Y66.011 F7800.000
G1 F1800.000
G1 X131.280 Y65.000 E2.03618
G1 X131.608 Y63.989 E2.03935
G1 X132.468 Y63.365 E2.04252
G1 X133.532 Y63.365 E2.04569
G1 X134.392 Y63.989 E2.04886
G1 X134.720 Y65.000 E2.05203
G1 X134.392 Y66.011 E2.05520
G1 X133.532 Y66.635 E2.05836
G1 X132.468 Y66.635 E2.06154
G1 X131.669 Y66.055 E2.06448
G1 X131.676 Y65.961 F7800.000
G1 F1800.000
G1 X131.364 Y65.000 E2.06750
G1 X131.676 Y64.038 E2.07051
G1 X132.494 Y63.444 E2.07352
G1 X133.506 Y63.444 E2.07654
G1 X134.324 Y64.038 E2.07956
G1 X134.636 Y65.000 E2.08257
G1 X134.324 Y65.961 E2.08558
G1 X133.506 Y66.556 E2.08860
G1 X132.494 Y66.556 E2.09162
G1 X131.737 Y66.006 E2.09441
G1 X131.744 Y65.912 F7800.000
G1 F1800.000
G1 X131.448 Y65.000 E2.09727
G1 X131.744 Y64.088 E2.10013
G1 X132.520 Y63.524 E2.10299
G1 X133.480 Y63.524 E2.10585
G1 X134.256 Y64.088 E2.10871
G1 X134.552 Y65.000 E2.11157
G1 X134.256 Y65.912 E2.11443
G1 X133.480 Y66.476 E2.11729
G1 X132.520 Y66.476 E2.12015
G1 X131.805 Y65.956 E2.12279
G1 X131.744 Y65.912 F7800.000
G1 E0.12279 F2400.00000
G92 E0
G1 X151.540 Y79.940 F7800.000
G1 E2.00000 F2400.00000
G1 F1800.000
G1 X152.442 Y79.285 E2.00332
G1 X153.558 Y79.285 E2.00665
G1 X154.460 Y79.940 E2.00997
G1 X154.803 Y81.000 E2.01330
G1 X154.460 Y82.060 E2.01662
G1 X153.558 Y82.715 E2.01994
G1 X152.442 Y82.715 E2.02327
G1 X151.540 Y82.060 E2.02659
G1 X151.197 Y81.000 E2.02991
G1 X151.517 Y80.011 E2.03301
G1 X151.608 Y79.989 F7800.000
G1 F1800.000
G1 X152.468 Y79.365 E2.03618
G1 X153.532 Y79.365 E2.03935
G1 X154.392 Y79.989 E2.04252
G1 X154.720 Y81.000 E2.04569
G1 X154.392 Y82.011 E2.04886
G1 X153.532 Y82.635 E2.05203
G1 X152.468 Y82.635 E2.05520
G1 X151.608 Y82.011 E2.05837
G1 X151.280 Y81.000 E2.06154
G1 X151.585 Y80.061 E2.06448
G1 X151.676 Y80.038 F7800.000
G1 F1800.000
G1 X152.494 Y79.444 E2.06750
G1 X153.506 Y79.444 E2.07051
G1 X154.324 Y80.038 E2.07353
G1 X154.636 Y81.000 E2.07654
G1 X154.324 Y81.962 E2.07956
G1 X153.506 Y82.556 E2.08257
G1 X152.494 Y82.556 E2.08559
G1 X151.676 Y81.962 E2.08860
G1 X151.364 Y81.000 E2.09162
G1 X151.653 Y80.110 E2.09441
G1 X151.744 Y80.088 F7800.000
G1 F1800.000
G1 X152.520 Y79.524 E2.09727
G1 X153.480 Y79.524 E2.10013
G1 X154.256 Y80.088 E2.10299
G1 X154.552 Y81.000 E2.10585
G1 X154.256 Y81.912 E2.10871
G1 X153.480 Y82.476 E2.11157
G1 X152.520 Y82.476 E2.11443
G1 X151.744 Y81.912 E2.11729
G1 X151.448 Y81.000 E2.12015
G1 X151.721 Y80.159 E2.12279
G1 X151.744 Y80.088 F7800.000
G1 E0.12279 F2400.00000
G92 E0
G1 X171.540 Y66.060 F7800.000
G1 E2.00000 F2400.00000
G1 F1800.000
G1 X171.197 Y65.000 E2.00332
G1 X171.540 Y63.940 E2.00665
G1 X172.442 Y63.285 E2.00997
G1 X173.558 Y63.285 E2.01329
G1 X174.460 Y63.940 E2.01662
G1 X174.803 Y65.000 E2.01994
G1 X174.460 Y66.060 E2.02326
G1 X173.558 Y66.715 E2.02659
G1 X172.442 Y66.715 E2.02991
G1 X171.601 Y66.104 E2.03301
G1 X171.608 Y66.011 F7800.000
G1 F1800.000
G1 X171.280 Y65.000 E2.03618
G1 X171.608 Y63.989 E2.03935
G1 X172.468 Y63.365 E2.04252
G1 X173.532 Y63.365 E2.04569
G1 X174.392 Y63.989 E2.04886
G1 X174.720 Y65.000 E2.05203
G1 X174.392 Y66.011 E2.05520
G1 X173.532 Y66.635 E2.05836
G1 X172.468 Y66.635 E2.06154
G1 X171.669 Y66.055 E2.06448
G1 X171.676 Y65.961 F7800.000
G1 F1800.000
G1 X171.364 Y65.000 E2.06750
