; generated by Slic3r 1.3.1-dev (Build 4f5b935) on 2019-11-26 at 14:50:21

; external perimeters extrusion width = 0.55mm (1.90mm^3/s)
; perimeters extrusion width = 0.70mm (2.71mm^3/s)
; infill extrusion width = 0.62mm (2.41mm^3/s)
; solid infill extrusion width = 0.70mm (2.04mm^3/s)
; top infill extrusion width = 0.70mm (2.04mm^3/s)

M107
G92 E0
;D3D:START:START
T0
M104 S215 T0

G21
G90
M107
T0
G28
G29
M109 T0 S215 T0
G0 F3000
M107
T0
G92 E0
G0 X0 Y149 Z0.1 F3600
G1 Y49 E6.5 F1200
G0 Z1
G92 E0
; Filament gcode

G21 ; set units to millimeters
G90 ; use absolute coordinates
M82 ; use absolute distances for extrusion
G92 E0
G1 Z0.090 F7800.000
G1 E-2.00000 F2400.00000
G92 E0
G1 X65.006 Y65.092 F7800.000
G1 E2.00000 F2400.00000
G1 F1800.000
G1 X65.739 Y64.404 E2.00300
G1 X66.327 Y63.917 E2.00527
G1 X67.140 Y63.327 E2.00827
G1 X67.784 Y62.918 E2.01054
G1 X68.665 Y62.434 E2.01354
G1 X69.356 Y62.109 E2.01582
G1 X70.290 Y61.739 E2.01881
G1 X71.016 Y61.503 E2.02109
G1 X71.989 Y61.253 E2.02408
G1 X72.739 Y61.110 E2.02636
G1 X73.736 Y60.984 E2.02936
G1 X74.498 Y60.936 E2.03163
G1 X75.502 Y60.936 E2.03463
G1 X76.264 Y60.984 E2.03690
G1 X77.261 Y61.110 E2.03990
G1 X78.011 Y61.253 E2.04218
G1 X78.984 Y61.503 E2.04517
G1 X79.710 Y61.739 E2.04745
G1 X80.644 Y62.109 E2.05044
G1 X81.335 Y62.434 E2.05272
G1 X82.216 Y62.918 E2.05572
G1 X82.860 Y63.327 E2.05799
G1 X83.673 Y63.917 E2.06099
G1 X84.261 Y64.404 E2.06326
G1 X84.994 Y65.092 E2.06626
G1 X85.516 Y65.648 E2.06854
G1 X86.157 Y66.422 E2.07153
G1 X86.605 Y67.040 E2.07381
G1 X87.144 Y67.888 E2.07680
G1 X87.512 Y68.557 E2.07908
G1 X87.939 Y69.466 E2.08208
G1 X88.220 Y70.176 E2.08435
G1 X88.531 Y71.132 E2.08735
G1 X88.721 Y71.871 E2.08962
G1 X88.909 Y72.858 E2.09262
G1 X89.005 Y73.616 E2.09490
G1 X89.068 Y74.618 E2.09789
G1 X89.068 Y75.382 E2.10017
G1 X89.005 Y76.384 E2.10316
G1 X88.909 Y77.142 E2.10544
G1 X88.721 Y78.129 E2.10844
G1 X88.531 Y78.868 E2.11071
G1 X88.220 Y79.824 E2.11371
G1 X87.939 Y80.534 E2.11598
G1 X87.512 Y81.443 E2.11898
G1 X87.144 Y82.112 E2.12126
G1 X86.605 Y82.960 E2.12425
G1 X86.157 Y83.578 E2.12653
G1 X85.516 Y84.352 E2.12952
G1 X84.994 Y84.908 E2.13180
G1 X84.261 Y85.596 E2.13480
G1 X83.673 Y86.083 E2.13707
G1 X82.860 Y86.673 E2.14007
G1 X82.216 Y87.082 E2.14234
G1 X81.335 Y87.566 E2.14534
G1 X80.644 Y87.891 E2.14762
G1 X79.710 Y88.261 E2.15061
G1 X78.984 Y88.497 E2.15289
G1 X78.011 Y88.747 E2.15588
G1 X77.261 Y88.890 E2.15816
G1 X76.264 Y89.016 E2.16116
G1 X75.502 Y89.064 E2.16343
G1 X74.498 Y89.064 E2.16643
G1 X73.736 Y89.016 E2.16870
G1 X72.739 Y88.890 E2.17170
G1 X71.989 Y88.747 E2.17398
G1 X71.016 Y88.497 E2.17697
G1 X70.290 Y88.261 E2.17925
G1 X69.356 Y87.891 E2.18224
G1 X68.665 Y87.566 E2.18452
G1 X67.784 Y87.082 E2.18752
G1 X67.140 Y86.673 E2.18979
G1 X66.327 Y86.083 E2.19279
G1 X65.739 Y85.596 E2.19506
G1 X65.006 Y84.908 E2.19806
G1 X64.484 Y84.352 E2.20034
G1 X63.843 Y83.578 E2.20333
G1 X63.395 Y82.960 E2.20561
G1 X62.856 Y82.112 E2.20860
G1 X62.488 Y81.443 E2.21088
G1 X62.061 Y80.534 E2.21388
G1 X61.780 Y79.824 E2.21615
G1 X61.469 Y78.868 E2.21915
G1 X61.279 Y78.129 E2.22142
G1 X61.091 Y77.142 E2.22442
G1 X60.995 Y76.384 E2.22670
G1 X60.932 Y75.382 E2.22969
G1 X60.932 Y74.618 E2.23197
G1 X60.995 Y73.616 E2.23496
G1 X61.091 Y72.858 E2.23724
G1 X61.279 Y71.871 E2.24024
G1 X61.469 Y71.132 E2.24251
G1 X61.780 Y70.176 E2.24551
G1 X62.061 Y69.466 E2.24778
G1 X62.488 Y68.557 E2.25078
G1 X62.856 Y67.888 E2.25306
G1 X63.395 Y67.040 E2.25605
G1 X63.843 Y66.422 E2.25833
G1 X64.484 Y65.648 E2.26132
G1 X64.955 Y65.146 E2.26338
G1 E0.26338 F2400.00000
G92 E0
G1 X76.271 Y76.372 F7800.000
G1 E2.00000 F2400.00000
G1 F1800.000
G1 X76.112 Y76.531 E2.00067
G1 X75.585 Y76.800 E2.00243
G1 X75.000 Y76.892 E2.00420
G1 X74.415 Y76.800 E2.00596
G1 X73.888 Y76.531 E2.00773
G1 X73.469 Y76.112 E2.00950
G1 X73.200 Y75.585 E2.01126
G1 X73.108 Y75.000 E2.01303
G1 X73.200 Y74.415 E2.01479
G1 X73.469 Y73.888 E2.01656
G1 X73.888 Y73.469 E2.01832
G1 X74.415 Y73.200 E2.02009
G1 X75.000 Y73.108 E2.02185
G1 X75.585 Y73.200 E2.02362
G1 X76.112 Y73.469 E2.02538
G1 X76.531 Y73.888 E2.02715
G1 X76.800 Y74.415 E2.02891
G1 X76.892 Y75.000 E2.03068
G1 X76.800 Y75.585 E2.03244
G1 X76.531 Y76.112 E2.03421
G1 X76.324 Y76.319 E2.03508
G1 X76.215 Y76.316 F7800.000
G1 F1800.000
G1 X76.065 Y76.466 E2.03571
G1 X75.560 Y76.723 E2.03740
G1 X75.000 Y76.811 E2.03909
G1 X74.440 Y76.723 E2.04078
G1 X73.935 Y76.466 E2.04247
G1 X73.534 Y76.065 E2.04416
G1 X73.277 Y75.560 E2.04585
G1 X73.189 Y75.000 E2.04754
G1 X73.277 Y74.440 E2.04923
G1 X73.534 Y73.935 E2.05092
G1 X73.935 Y73.534 E2.05261
G1 X74.440 Y73.277 E2.05430
G1 X75.000 Y73.189 E2.05599
G1 X75.560 Y73.277 E2.05768
G1 X76.065 Y73.534 E2.05937
G1 X76.466 Y73.935 E2.06106
G1 X76.723 Y74.440 E2.06275
G1 X76.811 Y75.000 E2.06444
G1 X76.723 Y75.560 E2.06613
G1 X76.466 Y76.065 E2.06782
G1 X76.268 Y76.263 E2.06865
G1 X76.158 Y76.259 F7800.000
G1 F1800.000
G1 X76.017 Y76.400 E2.06925
G1 X75.535 Y76.646 E2.07086
G1 X75.000 Y76.731 E2.07248
G1 X74.465 Y76.646 E2.07409
G1 X73.983 Y76.400 E2.07571
G1 X73.600 Y76.017 E2.07732
G1 X73.354 Y75.535 E2.07893
G1 X73.269 Y75.000 E2.08055
G1 X73.354 Y74.465 E2.08216
G1 X73.600 Y73.983 E2.08378
G1 X73.983 Y73.600 E2.08539
G1 X74.465 Y73.354 E2.08701
G1 X75.000 Y73.269 E2.08862
G1 X75.535 Y73.354 E2.09024
G1 X76.017 Y73.600 E2.09185
G1 X76.400 Y73.983 E2.09347
G1 X76.646 Y74.465 E2.09508
G1 X76.731 Y75.000 E2.09670
G1 X76.646 Y75.535 E2.09831
G1 X76.400 Y76.017 E2.09992
G1 X76.211 Y76.206 E2.10072
G1 X76.102 Y76.203 F7800.000
G1 F1800.000
G1 X75.970 Y76.335 E2.10128
G1 X75.510 Y76.569 E2.10282
G1 X75.000 Y76.650 E2.10436
G1 X74.490 Y76.569 E2.10590
G1 X74.030 Y76.335 E2.10744
G1 X73.665 Y75.970 E2.10897
G1 X73.431 Y75.510 E2.11051
G1 X73.350 Y75.000 E2.11205
G1 X73.431 Y74.490 E2.11359
G1 X73.665 Y74.030 E2.11513
G1 X74.030 Y73.665 E2.11667
G1 X74.490 Y73.431 E2.11821
G1 X75.000 Y73.350 E2.11975
G1 X75.510 Y73.431 E2.12129
G1 X75.970 Y73.665 E2.12283
G1 X76.335 Y74.030 E2.12437
G1 X76.569 Y74.490 E2.12591
G1 X76.650 Y75.000 E2.12745
G1 X76.569 Y75.510 E2.12899
G1 X76.335 Y75.970 E2.13053
G1 X76.155 Y76.150 E2.13128
G1 X76.162 Y76.380 F7800.000
G1 E0.13128 F2400.00000
G92 E0
G1 X80.253 Y80.624 F7800.000
G1 E2.00000 F2400.00000
G1 F1800.000
G1 X79.915 Y80.941 E2.00138
G1 X79.132 Y81.511 E2.00427
G1 X78.283 Y81.977 E2.00716
G1 X77.383 Y82.333 E2.01004
G1 X76.445 Y82.574 E2.01293
G1 X75.484 Y82.696 E2.01582
G1 X74.516 Y82.696 E2.01871
G1 X73.555 Y82.574 E2.02159
G1 X72.617 Y82.333 E2.02448
G1 X71.717 Y81.977 E2.02737
G1 X70.868 Y81.511 E2.03026
G1 X70.085 Y80.941 E2.03314
G1 X69.379 Y80.278 E2.03603
G1 X68.762 Y79.532 E2.03892
G1 X68.243 Y78.715 E2.04180
G1 X67.831 Y77.839 E2.04469
G1 X67.531 Y76.918 E2.04758
G1 X67.350 Y75.966 E2.05047
G1 X67.289 Y75.000 E2.05335
G1 X67.350 Y74.034 E2.05624
G1 X67.531 Y73.082 E2.05913
G1 X67.831 Y72.161 E2.06202
G1 X68.243 Y71.285 E2.06490
G1 X68.762 Y70.468 E2.06779
G1 X69.379 Y69.722 E2.07068
G1 X70.085 Y69.059 E2.07356
G1 X70.868 Y68.489 E2.07645
G1 X71.717 Y68.023 E2.07934
G1 X72.617 Y67.667 E2.08223
G1 X73.555 Y67.426 E2.08511
G1 X74.516 Y67.304 E2.08800
G1 X75.484 Y67.304 E2.09089
G1 X76.445 Y67.426 E2.09378
G1 X77.383 Y67.667 E2.09666
G1 X78.283 Y68.023 E2.09955
G1 X79.132 Y68.489 E2.10244
G1 X79.915 Y69.059 E2.10532
G1 X80.621 Y69.722 E2.10821
G1 X81.238 Y70.468 E2.11110
G1 X81.757 Y71.285 E2.11399
G1 X82.169 Y72.161 E2.11687
G1 X82.469 Y73.082 E2.11976
G1 X82.650 Y74.034 E2.12265
G1 X82.711 Y75.000 E2.12554
G1 X82.650 Y75.966 E2.12842
G1 X82.469 Y76.918 E2.13131
G1 X82.169 Y77.839 E2.13420
G1 X81.757 Y78.715 E2.13708
G1 X81.238 Y79.532 E2.13997
G1 X80.621 Y80.278 E2.14286
G1 X80.308 Y80.572 E2.14414
G1 X80.308 Y80.682 F7800.000
G1 F1800.000
G1 X79.966 Y81.003 E2.14554
G1 X79.174 Y81.578 E2.14845
G1 X78.317 Y82.049 E2.15137
G1 X77.407 Y82.409 E2.15429
G1 X76.460 Y82.653 E2.15721
G1 X75.489 Y82.775 E2.16012
G1 X74.511 Y82.775 E2.16304
G1 X73.540 Y82.653 E2.16596
G1 X72.593 Y82.409 E2.16887
G1 X71.683 Y82.049 E2.17179
G1 X70.826 Y81.578 E2.17471
G1 X70.034 Y81.003 E2.17763
G1 X69.321 Y80.333 E2.18054
G1 X68.697 Y79.579 E2.18346
G1 X68.173 Y78.753 E2.18638
G1 X67.756 Y77.868 E2.18929
G1 X67.454 Y76.937 E2.19221
G1 X67.271 Y75.976 E2.19513
G1 X67.209 Y75.000 E2.19805
G1 X67.271 Y74.024 E2.20096
G1 X67.454 Y73.063 E2.20388
G1 X67.756 Y72.132 E2.20680
G1 X68.173 Y71.247 E2.20971
G1 X68.697 Y70.421 E2.21263
G1 X69.321 Y69.667 E2.21555
G1 X70.034 Y68.997 E2.21847
G1 X70.826 Y68.422 E2.22138
G1 X71.683 Y67.951 E2.22430
G1 X72.593 Y67.591 E2.22722
G1 X73.540 Y67.347 E2.23013
G1 X74.511 Y67.225 E2.23305
G1 X75.489 Y67.225 E2.23597
G1 X76.460 Y67.347 E2.23889
G1 X77.407 Y67.591 E2.24180
G1 X78.317 Y67.951 E2.24472
G1 X79.174 Y68.422 E2.24764
G1 X79.966 Y68.997 E2.25055
G1 X80.679 Y69.667 E2.25347
G1 X81.303 Y70.421 E2.25639
G1 X81.827 Y71.247 E2.25931
G1 X82.244 Y72.132 E2.26222
G1 X82.546 Y73.063 E2.26514
G1 X82.729 Y74.024 E2.26806
G1 X82.791 Y75.000 E2.27098
G1 X82.729 Y75.976 E2.27389
G1 X82.546 Y76.937 E2.27681
G1 X82.244 Y77.868 E2.27973
G1 X81.827 Y78.753 E2.28264
G1 X81.303 Y79.579 E2.28556
G1 X80.679 Y80.333 E2.28848
G1 X80.362 Y80.631 E2.28977
G1 X80.362 Y80.740 F7800.000
G1 F1800.000
G1 X80.017 Y81.064 E2.29119
G1 X79.217 Y81.645 E2.29413
G1 X78.351 Y82.121 E2.29708
G1 X77.432 Y82.485 E2.30003
G1 X76.475 Y82.731 E2.30297
G1 X75.494 Y82.855 E2.30592
G1 X74.506 Y82.855 E2.30887
G1 X73.525 Y82.731 E2.31182
G1 X72.568 Y82.485 E2.31476
G1 X71.649 Y82.121 E2.31771
G1 X70.783 Y81.645 E2.32066
G1 X69.983 Y81.064 E2.32360
G1 X69.263 Y80.388 E2.32655
G1 X68.633 Y79.626 E2.32950
G1 X68.103 Y78.792 E2.33245
G1 X67.682 Y77.897 E2.33539
G1 X67.377 Y76.957 E2.33834
G1 X67.191 Y75.986 E2.34129
G1 X67.129 Y75.000 E2.34423
G1 X67.191 Y74.014 E2.34718
G1 X67.377 Y73.043 E2.35013
G1 X67.682 Y72.103 E2.35307
G1 X68.103 Y71.208 E2.35602
G1 X68.633 Y70.374 E2.35897
G1 X69.263 Y69.612 E2.36192
G1 X69.983 Y68.936 E2.36486
G1 X70.783 Y68.355 E2.36781
G1 X71.649 Y67.878 E2.37076
G1 X72.568 Y67.515 E2.37370
G1 X73.525 Y67.269 E2.37665
G1 X74.506 Y67.145 E2.37960
G1 X75.494 Y67.145 E2.38254
G1 X76.475 Y67.269 E2.38549
G1 X77.432 Y67.515 E2.38844
G1 X78.351 Y67.878 E2.39139
G1 X79.217 Y68.355 E2.39433
G1 X80.017 Y68.936 E2.39728
G1 X80.737 Y69.612 E2.40023
G1 X81.367 Y70.374 E2.40317
G1 X81.897 Y71.208 E2.40612
G1 X82.318 Y72.103 E2.40907
G1 X82.623 Y73.043 E2.41202
G1 X82.808 Y74.014 E2.41496
G1 X82.871 Y75.000 E2.41791
G1 X82.808 Y75.986 E2.42086
G1 X82.623 Y76.957 E2.42380
G1 X82.318 Y77.897 E2.42675
G1 X81.897 Y78.792 E2.42970
G1 X81.367 Y79.626 E2.43264
G1 X80.737 Y80.388 E2.43559
G1 X80.417 Y80.689 E2.43690
G1 X80.417 Y80.798 F7800.000
G1 F1800.000
G1 X80.068 Y81.126 E2.43833
G1 X79.260 Y81.713 E2.44131
G1 X78.385 Y82.194 E2.44428
G1 X77.457 Y82.561 E2.44726
G1 X76.490 Y82.810 E2.45024
G1 X75.499 Y82.935 E2.45321
G1 X74.501 Y82.935 E2.45619
G1 X73.510 Y82.810 E2.45917
G1 X72.543 Y82.561 E2.46215
G1 X71.615 Y82.194 E2.46512
G1 X70.740 Y81.713 E2.46810
G1 X69.932 Y81.126 E2.47108
G1 X69.204 Y80.442 E2.47405
G1 X68.568 Y79.673 E2.47703
G1 X68.033 Y78.830 E2.48001
G1 X67.608 Y77.927 E2.48298
G1 X67.299 Y76.977 E2.48596
G1 X67.112 Y75.996 E2.48894
G1 X67.050 Y75.000 E2.49192
G1 X67.112 Y74.004 E2.49489
G1 X67.299 Y73.023 E2.49787
G1 X67.608 Y72.073 E2.50085
G1 X68.033 Y71.170 E2.50382
G1 X68.568 Y70.327 E2.50680
G1 X69.204 Y69.558 E2.50978
G1 X69.932 Y68.874 E2.51275
G1 X70.740 Y68.287 E2.51573
G1 X71.615 Y67.806 E2.51871
G1 X72.543 Y67.439 E2.52168
G1 X73.510 Y67.190 E2.52466
G1 X74.501 Y67.065 E2.52764
G1 X75.499 Y67.065 E2.53062
G1 X76.490 Y67.190 E2.53359
G1 X77.457 Y67.439 E2.53657
G1 X78.385 Y67.806 E2.53955
G1 X79.260 Y68.287 E2.54252
G1 X80.068 Y68.874 E2.54550
G1 X80.796 Y69.558 E2.54848
G1 X81.432 Y70.327 E2.55145
G1 X81.967 Y71.170 E2.55443
G1 X82.392 Y72.073 E2.55741
G1 X82.701 Y73.023 E2.56038
G1 X82.888 Y74.004 E2.56336
G1 X82.950 Y75.000 E2.56634
G1 X82.888 Y75.996 E2.56932
G1 X82.701 Y76.977 E2.57229
G1 X82.392 Y77.927 E2.57527
G1 X81.967 Y78.830 E2.57825
G1 X81.432 Y79.673 E2.58122
G1 X80.796 Y80.442 E2.58420
G1 X80.472 Y80.747 E2.58553
G1 X79.955 Y80.672 F7800.000
G1 X80.529 Y80.257 F7800.000
G1 F1800.000
G1 X81.135 Y79.538 E2.58834
G1 X79.575 Y81.098 E2.59493
G1 X79.162 Y81.398 E2.59645
G1 X81.376 Y79.185 E2.60581
G1 X81.572 Y78.876 E2.60690
G1 X78.870 Y81.577 E2.61832
G1 X78.620 Y81.715 E2.61917
G1 X81.744 Y78.591 E2.63238
G1 X81.844 Y78.378 E2.63308
G1 X78.369 Y81.853 E2.64777
G1 X78.143 Y81.965 E2.64852
G1 X81.944 Y78.164 E2.66458
G1 X82.045 Y77.951 E2.66529
G1 X77.956 Y82.039 E2.68257
G1 X77.769 Y82.113 E2.68317
G1 X82.136 Y77.746 E2.70162
G1 X82.191 Y77.579 E2.70215
G1 X77.583 Y82.187 E2.72163
G1 X77.396 Y82.261 E2.72223
G1 X82.245 Y77.412 E2.74272
G1 X82.300 Y77.245 E2.74325
G1 X77.231 Y82.313 E2.76467
G1 X77.079 Y82.352 E2.76514
G1 X82.354 Y77.077 E2.78743
G1 X82.408 Y76.910 E2.78796
G1 X76.927 Y82.391 E2.81112
G1 X76.775 Y82.430 E2.81159
G1 X82.442 Y76.763 E2.83554
G1 X82.469 Y76.624 E2.83597
G1 X76.623 Y82.469 E2.86067
G1 X76.471 Y82.508 E2.86114
G1 X82.495 Y76.484 E2.88660
G1 X82.522 Y76.344 E2.88703
G1 X76.331 Y82.535 E2.91319
G1 X76.202 Y82.552 E2.91358
G1 X82.549 Y76.205 E2.94040
G1 X82.575 Y76.065 E2.94083
G1 X76.072 Y82.568 E2.96831
G1 X75.943 Y82.584 E2.96870
G1 X82.602 Y75.926 E2.99684
G1 X82.609 Y75.805 E2.99720
G1 X75.814 Y82.601 E3.02592
G1 X75.685 Y82.617 E3.02631
G1 X82.617 Y75.685 E3.05561
G1 X82.625 Y75.564 E3.05597
G1 X75.555 Y82.633 E3.08584
G1 X75.429 Y82.647 E3.08622
G1 X82.632 Y75.444 E3.11667
G1 X82.640 Y75.323 E3.11703
G1 X75.316 Y82.647 E3.14798
G1 X75.203 Y82.647 E3.14832
G1 X82.647 Y75.203 E3.17978
G1 X82.655 Y75.082 E3.18014
G1 X75.090 Y82.647 E3.21211
G1 X74.977 Y82.647 E3.21245
G1 X82.662 Y74.962 E3.24493
G1 X82.655 Y74.856 E3.24524
G1 X74.864 Y82.647 E3.27817
G1 X74.751 Y82.647 E3.27851
G1 X82.648 Y74.750 E3.31188
G1 X82.642 Y74.644 E3.31220
G1 X74.638 Y82.647 E3.34602
G1 X74.525 Y82.647 E3.34636
G1 X82.635 Y74.537 E3.38063
G1 X82.628 Y74.431 E3.38095
G1 X74.421 Y82.638 E3.41564
G1 X74.321 Y82.626 E3.41594
G1 X82.622 Y74.325 E3.45102
G1 X82.615 Y74.219 E3.45134
G1 X74.220 Y82.613 E3.48682
G1 X74.120 Y82.600 E3.48712
G1 X82.608 Y74.112 E3.52299
G1 X82.601 Y74.007 E3.52331
G1 X74.020 Y82.588 E3.55957
G1 X73.920 Y82.575 E3.55987
G1 X82.583 Y73.912 E3.59648
G1 X82.565 Y73.817 E3.59677
G1 X73.819 Y82.562 E3.63373
G1 X73.719 Y82.550 E3.63403
G1 X82.546 Y73.722 E3.67134
G1 X82.528 Y73.627 E3.67163
G1 X73.619 Y82.537 E3.70928
G1 X73.521 Y82.522 E3.70958
G1 X82.510 Y73.532 E3.74757
G1 X82.492 Y73.438 E3.74786
G1 X73.431 Y82.499 E3.78615
G1 X73.341 Y82.476 E3.78643
G1 X82.474 Y73.343 E3.82503
G1 X82.456 Y73.248 E3.82532
G1 X73.251 Y82.453 E3.86422
G1 X73.161 Y82.430 E3.86450
G1 X82.438 Y73.153 E3.90370
G1 X82.418 Y73.060 E3.90399
G1 X73.071 Y82.407 E3.94349
G1 X72.981 Y82.384 E3.94377
G1 X82.391 Y72.974 E3.98354
G1 X82.363 Y72.889 E3.98380
G1 X72.892 Y82.361 E4.02383
G1 X72.802 Y82.338 E4.02411
G1 X82.335 Y72.804 E4.06440
G1 X82.308 Y72.719 E4.06467
G1 X72.712 Y82.314 E4.10522
G1 X72.622 Y82.291 E4.10550
G1 X82.280 Y72.633 E4.14632
G1 X82.252 Y72.548 E4.14658
G1 X72.540 Y82.260 E4.18763
G1 X72.459 Y82.228 E4.18789
G1 X82.225 Y72.463 E4.22916
G1 X82.197 Y72.378 E4.22943
G1 X72.378 Y82.196 E4.27093
G1 X72.297 Y82.164 E4.27119
G1 X82.169 Y72.292 E4.31291
G1 X82.141 Y72.207 E4.31317
G1 X72.216 Y82.132 E4.35512
G1 X72.135 Y82.100 E4.35538
G1 X82.110 Y72.126 E4.39754
G1 X82.074 Y72.049 E4.39779
G1 X72.054 Y82.068 E4.44013
G1 X71.974 Y82.036 E4.44039
G1 X82.038 Y71.972 E4.48293
G1 X82.002 Y71.895 E4.48318
G1 X71.893 Y82.004 E4.52590
G1 X71.812 Y81.972 E4.52616
G1 X81.965 Y71.818 E4.56908
G1 X81.929 Y71.742 E4.56933
G1 X71.731 Y81.940 E4.61243
G1 X71.657 Y81.901 E4.61268
G1 X81.893 Y71.665 E4.65594
G1 X81.857 Y71.588 E4.65619
G1 X71.584 Y81.861 E4.69961
G1 X71.511 Y81.821 E4.69986
G1 X81.821 Y71.511 E4.74343
G1 X81.785 Y71.434 E4.74368
G1 X71.438 Y81.781 E4.78741
G1 X71.365 Y81.741 E4.78766
G1 X81.749 Y71.358 E4.83154
G1 X81.711 Y71.282 E4.83179
