; Gcode updated with 'stl_info' on 2019-12-09 21:42:32.323425

; stl_min_x = 0.0
; stl_max_x = 100.0
; stl_min_y = 0.0
; stl_max_y = 35.0
; stl_min_z = 0.0

; generated by Slic3r 1.3.1-dev (Build adea0d9) on 2019-12-09 at 21:42:31

; external perimeters extrusion width = 0.44mm (2.86mm^3/s)
; perimeters extrusion width = 0.56mm (4.14mm^3/s)
; infill extrusion width = 0.50mm (3.66mm^3/s)
; solid infill extrusion width = 0.56mm (3.10mm^3/s)
; top infill extrusion width = 0.56mm (3.10mm^3/s)

M107
G92 E0
;D3D:START:START
T0
M104 S215 T0

G21
G90
M107
T0
G28
G29
M109 T0 S215 T0
G0 F3000
M107
T0
G92 E0
G0 X0 Y149 Z0.1 F3600
G1 Y49 E6.5 F1200
G0 Z1
G92 E0
; Filament gcode

G21 ; set units to millimeters
G90 ; use absolute coordinates
M82 ; use absolute distances for extrusion
G92 E0
G1 Z0.300 F7800.000
G1 E-2.00000 F2400.00000
G92 E0
G1 X74.167 Y88.598 F7800.000
G1 E2.00000 F2400.00000
G1 F1800.000
G1 X74.000 Y88.477 E2.00685
G1 X73.833 Y88.598 E2.01371
G1 X73.833 Y88.355 E2.02176
G1 X71.952 Y86.988 E2.09879
G1 X71.468 Y85.500 E2.15064
G1 X71.952 Y84.012 E2.20248
G1 X73.218 Y83.092 E2.25433
G1 X74.782 Y83.092 E2.30617
G1 X76.048 Y84.012 E2.35802
G1 X76.532 Y85.500 E2.40986
G1 X76.048 Y86.988 E2.46170
G1 X74.167 Y88.355 E2.53874
G1 X74.167 Y88.538 E2.54481
G1 X74.098 Y88.077 F7800.000
G1 F1800.000
G1 X74.098 Y87.643 E2.55920
G1 X73.902 Y87.643 E2.56571
G1 X73.902 Y88.077 E2.58010
G1 X72.177 Y86.824 E2.65071
G1 X71.747 Y85.500 E2.69683
G1 X72.177 Y84.176 E2.74296
G1 X73.304 Y83.357 E2.78908
G1 X74.696 Y83.357 E2.83521
G1 X75.822 Y84.176 E2.88133
G1 X76.253 Y85.500 E2.92746
G1 X75.822 Y86.824 E2.97359
G1 X74.147 Y88.042 E3.04221
G1 X74.364 Y87.556 F7800.000
G1 F1800.000
G1 X74.364 Y87.377 E3.04813
G1 X73.636 Y87.377 E3.07224
G1 X73.636 Y87.556 E3.07816
G1 X72.403 Y86.660 E3.12864
G1 X72.027 Y85.500 E3.16904
G1 X72.403 Y84.340 E3.20945
G1 X73.390 Y83.623 E3.24986
G1 X74.610 Y83.623 E3.29026
G1 X75.597 Y84.340 E3.33067
G1 X75.973 Y85.500 E3.37108
G1 X75.597 Y86.660 E3.41149
G1 X74.412 Y87.520 E3.45998
G1 E1.45998 F2400.00000
G92 E0
G1 X64.987 Y85.783 F7800.000
G1 E2.00000 F2400.00000
G1 F1800.000
G1 X63.250 Y85.783 E2.05755
G1 X62.278 Y83.247 E2.14754
G1 X61.940 Y84.265 E2.18307
G1 X61.477 Y84.962 E2.21079
G1 X60.844 Y85.495 E2.23820
G1 X60.085 Y85.815 E2.26549
G1 X59.237 Y85.916 E2.29378
G1 X58.392 Y85.814 E2.32200
G1 X57.634 Y85.494 E2.34924
G1 X57.003 Y84.961 E2.37661
G1 X56.541 Y84.265 E2.40431
G1 X56.213 Y83.277 E2.43879
G1 X55.251 Y85.783 E2.52774
G1 X53.514 Y85.783 E2.58530
G1 X52.259 Y82.509 E2.70149
G1 X52.128 Y82.533 E2.70588
G1 X52.128 Y84.311 E2.76481
G1 X50.018 Y84.311 E2.83472
G1 X50.018 Y82.023 E2.91054
G1 X52.072 Y82.023 E2.97861
G1 X51.919 Y81.624 E2.99278
G1 X50.018 Y81.624 E3.05578
G1 X50.018 Y79.335 E3.13160
G1 X53.258 Y79.335 E3.23895
G1 X53.721 Y80.615 E3.28405
G1 X55.037 Y80.615 E3.32764
G1 X55.500 Y79.335 E3.37274
G1 X57.727 Y79.335 E3.44651
G1 X57.612 Y79.633 E3.45710
G1 X58.392 Y79.304 E3.48514
G1 X59.237 Y79.202 E3.51335
G1 X60.084 Y79.304 E3.54163
G1 X60.897 Y79.645 E3.57083
G1 X60.778 Y79.335 E3.58182
G1 X62.994 Y79.335 E3.65524
G1 X63.457 Y80.615 E3.70034
G1 X64.773 Y80.615 E3.74393
G1 X65.236 Y79.335 E3.78903
G1 X67.463 Y79.335 E3.86280
G1 X65.009 Y85.727 E4.08965
G1 X64.805 Y85.518 F7800.000
G1 F1800.000
G1 X63.433 Y85.518 E4.13510
G1 X62.122 Y82.098 E4.25645
G1 X61.986 Y82.129 E4.26106
G1 X62.027 Y82.557 E4.27530
G1 X61.947 Y83.401 E4.30338
G1 X61.700 Y84.148 E4.32944
G1 X61.277 Y84.783 E4.35472
G1 X60.704 Y85.266 E4.37954
G1 X60.016 Y85.555 E4.40426
G1 X59.237 Y85.649 E4.43025
G1 X58.461 Y85.555 E4.45617
G1 X57.775 Y85.265 E4.48084
G1 X57.204 Y84.782 E4.50562
G1 X56.782 Y84.147 E4.53088
G1 X56.534 Y83.401 E4.55693
G1 X56.455 Y82.557 E4.58501
G1 X56.488 Y82.204 E4.59676
G1 X56.353 Y82.172 E4.60136
G1 X55.069 Y85.518 E4.72008
G1 X53.696 Y85.518 E4.76554
G1 X51.993 Y81.074 E4.92322
G1 X51.863 Y81.098 E4.92761
G1 X51.863 Y81.358 E4.93623
G1 X50.283 Y81.358 E4.98855
G1 X50.283 Y79.601 E5.04677
G1 X53.072 Y79.601 E5.13915
G1 X53.535 Y80.881 E5.18425
G1 X55.223 Y80.881 E5.24019
G1 X55.686 Y79.601 E5.28529
G1 X57.340 Y79.601 E5.34007
G1 X57.077 Y80.286 E5.36441
G1 X57.178 Y80.358 E5.36850
G1 X57.775 Y79.853 E5.39441
G1 X58.461 Y79.563 E5.41907
G1 X59.237 Y79.470 E5.44499
G1 X60.016 Y79.563 E5.47097
G1 X60.703 Y79.852 E5.49567
G1 X61.276 Y80.333 E5.52047
G1 X61.317 Y80.394 E5.52290
G1 X61.444 Y80.329 E5.52763
G1 X61.165 Y79.601 E5.55346
G1 X62.808 Y79.601 E5.60791
G1 X63.271 Y80.881 E5.65301
G1 X64.960 Y80.881 E5.70895
G1 X65.423 Y79.601 E5.75405
G1 X67.076 Y79.601 E5.80884
G1 X64.826 Y85.462 E6.01683
G1 E4.01683 F2400.00000
G92 E0
G1 X61.459 Y84.030 F7800.000
G1 E2.00000 F2400.00000
G1 F1800.000
G1 X61.077 Y84.604 E2.02284
G1 X60.564 Y85.037 E2.04507
G1 X59.947 Y85.296 E2.06722
G1 X59.237 Y85.381 E2.09092
G1 X58.529 Y85.296 E2.11454
G1 X57.915 Y85.037 E2.13662
G1 X57.404 Y84.604 E2.15881
G1 X57.023 Y84.030 E2.18164
G1 X56.796 Y83.346 E2.20552
G1 X56.722 Y82.557 E2.23177
G1 X56.796 Y81.771 E2.25794
G1 X57.023 Y81.088 E2.28177
G1 X57.404 Y80.514 E2.30459
G1 X57.915 Y80.082 E2.32678
G1 X58.529 Y79.822 E2.34887
G1 X59.237 Y79.737 E2.37248
G1 X59.947 Y79.822 E2.39618
G1 X60.563 Y80.081 E2.41831
G1 X61.076 Y80.512 E2.44052
G1 X61.459 Y81.085 E2.46333
G1 X61.686 Y81.769 E2.48719
G1 X61.760 Y82.557 E2.51344
G1 X61.686 Y83.346 E2.53969
G1 X61.478 Y83.973 E2.56158
G1 E0.56158 F2400.00000
G92 E0
G1 X56.954 Y79.866 F7800.000
G1 E2.00000 F2400.00000
G1 F1800.000
G1 X54.886 Y85.252 E2.19113
G1 X53.879 Y85.252 E2.22449
G1 X51.815 Y79.866 E2.41558
G1 X52.885 Y79.866 E2.45106
G1 X53.348 Y81.146 E2.49615
G1 X55.410 Y81.146 E2.56444
G1 X55.873 Y79.866 E2.60954
G1 X56.894 Y79.866 E2.64336
G1 E0.64336 F2400.00000
G92 E0
G1 X51.597 Y79.866 F7800.000
G1 E2.00000 F2400.00000
G1 F1800.000
G1 X51.597 Y81.092 E2.04062
G1 X50.549 Y81.092 E2.07534
G1 X50.549 Y79.866 E2.11596
G1 X51.537 Y79.866 E2.14869
G1 E0.14869 F2400.00000
G92 E0
G1 X61.551 Y79.866 F7800.000
G1 E2.00000 F2400.00000
G1 F1800.000
G1 X62.622 Y79.866 E2.03547
G1 X63.085 Y81.146 E2.08057
G1 X65.146 Y81.146 E2.14887
G1 X65.609 Y79.866 E2.19396
G1 X66.690 Y79.866 E2.22977
G1 X64.622 Y85.252 E2.42090
G1 X63.615 Y85.252 E2.45426
G1 X61.572 Y79.922 E2.64337
G1 E0.64337 F2400.00000
G92 E0
G1 X51.863 Y82.289 F7800.000
G1 E2.00000 F2400.00000
G1 F1800.000
G1 X51.863 Y84.046 E2.05822
G1 X50.283 Y84.046 E2.11054
G1 X50.283 Y82.289 E2.16875
G1 X51.803 Y82.289 E2.21908
G1 X51.597 Y82.554 F7800.000
G1 F1800.000
G1 X51.597 Y83.780 E2.25970
G1 X50.549 Y83.780 E2.29442
G1 X50.549 Y82.554 E2.33504
G1 X51.537 Y82.554 E2.36777
G1 E0.36777 F2400.00000
G92 E0
G1 X47.975 Y81.862 F7800.000
G1 E2.00000 F2400.00000
G1 F1800.000
G1 X46.638 Y81.280 E2.04829
G1 X46.329 Y81.207 E2.05883
G1 X45.939 Y81.177 E2.07179
G1 X45.657 Y81.198 E2.08115
G1 X45.475 Y81.246 E2.08739
G1 X45.385 Y81.295 E2.09079
G1 X45.330 Y81.378 E2.09408
G1 X45.316 Y81.492 E2.09789
G1 X45.346 Y81.628 E2.10249
G1 X45.450 Y81.706 E2.10679
G1 X45.588 Y81.747 E2.11155
G1 X45.835 Y81.767 E2.11978
G1 X47.096 Y81.767 E2.16154
G1 X47.096 Y83.666 E2.22445
G1 X47.821 Y83.452 E2.24949
G1 X47.821 Y85.587 E2.32020
G1 X46.745 Y85.816 E2.35664
G1 X46.233 Y85.888 E2.37378
G1 X45.734 Y85.913 E2.39033
G1 X45.133 Y85.864 E2.41031
G1 X44.570 Y85.702 E2.42972
G1 X44.070 Y85.410 E2.44888
G1 X43.671 Y84.993 E2.46802
G1 X43.424 Y84.472 E2.48712
G1 X43.348 Y83.906 E2.50604
G1 X43.391 Y83.479 E2.52027
G1 X43.524 Y83.084 E2.53406
G1 X43.694 Y82.820 E2.54448
G1 X43.420 Y82.390 E2.56137
G1 X43.275 Y81.956 E2.57650
G1 X43.229 Y81.489 E2.59207
G1 X43.309 Y80.842 E2.61367
G1 X43.568 Y80.251 E2.63505
G1 X44.004 Y79.772 E2.65649
G1 X44.566 Y79.443 E2.67808
G1 X45.209 Y79.261 E2.70021
G1 X45.915 Y79.205 E2.72368
G1 X46.442 Y79.240 E2.74118
G1 X46.973 Y79.340 E2.75906
G1 X47.975 Y79.642 E2.79375
G1 X47.975 Y81.802 E2.86530
G1 X47.709 Y81.456 F7800.000
G1 F1800.000
G1 X46.728 Y81.029 E2.90075
G1 X46.364 Y80.943 E2.91313
G1 X45.939 Y80.911 E2.92726
G1 X45.613 Y80.935 E2.93808
G1 X45.375 Y80.997 E2.94624
G1 X45.220 Y81.083 E2.95210
G1 X45.128 Y81.180 E2.95655
G1 X45.072 Y81.306 E2.96111
G1 X45.049 Y81.492 E2.96733
G1 X45.069 Y81.658 E2.97287
G1 X45.120 Y81.774 E2.97708
G1 X45.206 Y81.869 E2.98132
G1 X45.342 Y81.951 E2.98657
G1 X45.539 Y82.009 E2.99336
G1 X45.824 Y82.033 E3.00286
G1 X46.830 Y82.033 E3.03618
G1 X46.830 Y83.470 E3.08379
G1 X45.795 Y83.470 E3.11808
G1 X45.538 Y83.488 E3.12662
G1 X45.369 Y83.533 E3.13242
G1 X45.267 Y83.588 E3.13626
G1 X45.214 Y83.644 E3.13880
G1 X45.182 Y83.712 E3.14131
G1 X45.168 Y83.827 E3.14514
G1 X45.183 Y83.948 E3.14918
G1 X45.218 Y84.022 E3.15190
G1 X45.277 Y84.084 E3.15471
G1 X45.384 Y84.143 E3.15879
G1 X45.559 Y84.189 E3.16478
G1 X45.807 Y84.207 E3.17302
G1 X46.146 Y84.183 E3.18426
G1 X46.534 Y84.108 E3.19737
G1 X47.555 Y83.807 E3.23264
G1 X47.555 Y85.372 E3.28446
G1 X46.699 Y85.554 E3.31347
G1 X46.208 Y85.623 E3.32991
G1 X45.738 Y85.647 E3.34549
G1 X45.181 Y85.601 E3.36400
G1 X44.675 Y85.456 E3.38143
G1 X44.236 Y85.200 E3.39826
G1 X43.892 Y84.840 E3.41474
G1 X43.681 Y84.395 E3.43105
G1 X43.615 Y83.901 E3.44757
G1 X43.652 Y83.535 E3.45977
G1 X43.765 Y83.200 E3.47148
G1 X43.957 Y82.902 E3.48321
G1 X44.070 Y82.795 E3.48839
G1 X43.872 Y82.606 E3.49746
G1 X43.661 Y82.275 E3.51047
G1 X43.537 Y81.901 E3.52353
G1 X43.496 Y81.492 E3.53713
G1 X43.567 Y80.913 E3.55646
G1 X43.794 Y80.398 E3.57511
G1 X44.173 Y79.981 E3.59377
G1 X44.671 Y79.689 E3.61290
G1 X45.256 Y79.524 E3.63303
G1 X45.917 Y79.472 E3.65499
G1 X46.409 Y79.504 E3.67133
G1 X46.909 Y79.598 E3.68821
G1 X47.709 Y79.839 E3.71588
G1 X47.709 Y81.396 E3.76747
G1 X47.444 Y81.051 F7800.000
G1 F1800.000
G1 X46.818 Y80.779 E3.79009
G1 X46.614 Y80.721 E3.79709
G1 X46.400 Y80.679 E3.80433
G1 X45.939 Y80.645 E3.81962
G1 X45.570 Y80.671 E3.83190
G1 X45.276 Y80.749 E3.84197
G1 X45.056 Y80.870 E3.85030
G1 X44.904 Y81.030 E3.85760
G1 X44.813 Y81.233 E3.86498
G1 X44.781 Y81.492 E3.87362
G1 X44.810 Y81.730 E3.88154
G1 X44.895 Y81.921 E3.88846
G1 X45.036 Y82.077 E3.89542
G1 X45.234 Y82.196 E3.90310
G1 X45.490 Y82.272 E3.91193
G1 X45.813 Y82.298 E3.92269
G1 X46.565 Y82.298 E3.94758
G1 X46.565 Y83.204 E3.97759
G1 X45.786 Y83.204 E4.00340
G1 X45.495 Y83.225 E4.01306
G1 X45.270 Y83.284 E4.02076
G1 X45.104 Y83.375 E4.02702
G1 X44.991 Y83.492 E4.03240
G1 X44.924 Y83.638 E4.03775
G1 X44.900 Y83.827 E4.04405
G1 X44.925 Y84.022 E4.05057
G1 X44.995 Y84.175 E4.05612
G1 X45.113 Y84.297 E4.06175
G1 X45.285 Y84.392 E4.06825
G1 X45.515 Y84.452 E4.07615
G1 X45.807 Y84.474 E4.08583
G1 X46.181 Y84.447 E4.09824
G1 X46.597 Y84.367 E4.11229
G1 X47.290 Y84.163 E4.13622
G1 X47.290 Y85.157 E4.16915
G1 X46.653 Y85.292 E4.19072
G1 X46.182 Y85.358 E4.20646
G1 X45.742 Y85.381 E4.22107
G1 X45.229 Y85.339 E4.23812
G1 X44.781 Y85.209 E4.25358
G1 X44.402 Y84.989 E4.26808
G1 X44.114 Y84.688 E4.28190
G1 X43.939 Y84.319 E4.29542
G1 X43.882 Y83.897 E4.30953
G1 X43.913 Y83.592 E4.31969
G1 X44.006 Y83.316 E4.32932
G1 X44.163 Y83.073 E4.33890
G1 X44.375 Y82.872 E4.34858
G1 X44.526 Y82.784 E4.35438
G1 X44.317 Y82.663 E4.36238
G1 X44.079 Y82.436 E4.37327
G1 X43.903 Y82.159 E4.38413
G1 X43.798 Y81.845 E4.39511
G1 X43.764 Y81.495 E4.40675
G1 X43.826 Y80.984 E4.42381
G1 X44.020 Y80.544 E4.43972
G1 X44.342 Y80.190 E4.45561
G1 X44.776 Y79.935 E4.47227
G1 X45.303 Y79.786 E4.49041
G1 X45.919 Y79.738 E4.51087
G1 X46.375 Y79.768 E4.52604
G1 X46.846 Y79.856 E4.54191
G1 X47.444 Y80.037 E4.56258
G1 X47.444 Y80.991 E4.59420
G1 E2.59420 F2400.00000
G92 E0
G1 X36.048 Y84.012 F7800.000
G1 E2.00000 F2400.00000
G1 F1800.000
G1 X36.532 Y85.500 E2.05184
G1 X36.048 Y86.988 E2.10369
G1 X34.782 Y87.908 E2.15553
G1 X33.218 Y87.908 E2.20738
G1 X31.952 Y86.988 E2.25922
G1 X31.468 Y85.500 E2.31107
G1 X31.952 Y84.012 E2.36291
G1 X33.218 Y83.092 E2.41475
G1 X34.782 Y83.092 E2.46660
G1 X36.000 Y83.976 E2.51646
G1 X35.823 Y84.176 F7800.000
G1 F1800.000
G1 X36.253 Y85.500 E2.56258
G1 X35.822 Y86.824 E2.60871
G1 X34.696 Y87.643 E2.65483
G1 X33.304 Y87.643 E2.70096
G1 X32.177 Y86.824 E2.74709
G1 X31.747 Y85.500 E2.79321
G1 X32.177 Y84.176 E2.83934
G1 X33.304 Y83.357 E2.88546
G1 X34.696 Y83.357 E2.93159
G1 X35.774 Y84.141 E2.97573
G1 X35.597 Y84.340 F7800.000
G1 F1800.000
G1 X35.973 Y85.500 E3.01613
G1 X35.597 Y86.660 E3.05654
G1 X34.610 Y87.377 E3.09695
G1 X33.390 Y87.377 E3.13736
G1 X32.403 Y86.660 E3.17776
G1 X32.027 Y85.500 E3.21817
G1 X32.403 Y84.340 E3.25858
G1 X33.390 Y83.623 E3.29899
G1 X34.610 Y83.623 E3.33939
G1 X35.548 Y84.305 E3.37781
G1 E1.37781 F2400.00000
G92 E0
G1 X51.952 Y68.988 F7800.000
G1 E2.00000 F2400.00000
G1 F1800.000
G1 X51.468 Y67.500 E2.05184
G1 X51.952 Y66.012 E2.10369
G1 X53.218 Y65.092 E2.15553
G1 X54.782 Y65.092 E2.20738
G1 X56.048 Y66.012 E2.25922
G1 X56.532 Y67.500 E2.31107
G1 X56.048 Y68.988 E2.36291
G1 X54.782 Y69.908 E2.41475
G1 X53.218 Y69.908 E2.46660
G1 X52.000 Y69.024 E2.51645
G1 X52.177 Y68.824 F7800.000
G1 F1800.000
G1 X51.747 Y67.500 E2.56258
G1 X52.177 Y66.176 E2.60871
G1 X53.304 Y65.357 E2.65483
G1 X54.696 Y65.357 E2.70096
G1 X55.822 Y66.176 E2.74708
G1 X56.253 Y67.500 E2.79321
G1 X55.822 Y68.824 E2.83933
G1 X54.696 Y69.643 E2.88546
G1 X53.304 Y69.643 E2.93159
G1 X52.226 Y68.859 E2.97572
G1 X52.403 Y68.660 F7800.000
G1 F1800.000
G1 X52.027 Y67.500 E3.01613
G1 X52.403 Y66.340 E3.05654
G1 X53.390 Y65.623 E3.09695
G1 X54.610 Y65.623 E3.13735
G1 X55.597 Y66.340 E3.17776
G1 X55.973 Y67.500 E3.21817
G1 X55.597 Y68.660 E3.25857
G1 X54.610 Y69.377 E3.29898
G1 X53.390 Y69.377 E3.33939
G1 X52.452 Y68.695 E3.37781
G1 E1.37781 F2400.00000
G92 E0
G1 X79.555 Y66.866 F7800.000
G1 E2.00000 F2400.00000
G1 F1800.000
G1 X79.555 Y78.371 E2.38114
G1 X76.026 Y78.371 E2.49807
G1 X74.585 Y78.291 E2.54587
G1 X73.299 Y78.040 E2.58927
G1 X72.185 Y77.607 E2.62887
G1 X71.258 Y76.976 E2.66603
G1 X70.538 Y76.142 E2.70252
G1 X70.035 Y75.126 E2.74010
G1 X69.744 Y73.952 E2.78017
G1 X69.650 Y72.628 E2.82412
G1 X69.744 Y71.299 E2.86827
G1 X70.037 Y70.120 E2.90850
G1 X70.542 Y69.100 E2.94624
G1 X71.265 Y68.264 E2.98285
G1 X72.194 Y67.632 E3.02006
G1 X73.307 Y67.198 E3.05965
G1 X74.590 Y66.947 E3.10297
G1 X76.026 Y66.866 E3.15060
G1 X79.495 Y66.866 E3.26555
G1 X79.290 Y67.132 F7800.000
G1 F1800.000
G1 X79.290 Y78.105 E3.62909
G1 X76.033 Y78.105 E3.73698
G1 X74.618 Y78.026 E3.78393
G1 X73.374 Y77.784 E3.82594
G1 X72.310 Y77.370 E3.86375
G1 X71.436 Y76.776 E3.89876
G1 X70.761 Y75.994 E3.93297
G1 X70.286 Y75.034 E3.96848
G1 X70.007 Y73.910 E4.00682
G1 X69.917 Y72.628 E4.04939
G1 X70.008 Y71.341 E4.09216
G1 X70.288 Y70.212 E4.13068
G1 X70.765 Y69.248 E4.16633
G1 X71.443 Y68.464 E4.20067
G1 X72.318 Y67.869 E4.23574
G1 X73.381 Y67.454 E4.27354
G1 X74.623 Y67.211 E4.31546
G1 X76.033 Y67.132 E4.36224
G1 X79.230 Y67.132 E4.46815
G1 X79.024 Y67.397 F7800.000
G1 F1800.000
G1 X79.024 Y77.840 E4.81409
G1 X76.041 Y77.840 E4.91293
G1 X74.651 Y77.762 E4.95903
G1 X73.448 Y77.528 E4.99966
G1 X72.434 Y77.134 E5.03568
G1 X71.614 Y76.576 E5.06853
G1 X70.984 Y75.846 E5.10047
G1 X70.537 Y74.942 E5.13390
G1 X70.271 Y73.869 E5.17053
G1 X70.183 Y72.628 E5.21172
G1 X70.271 Y71.382 E5.25310
G1 X70.538 Y70.304 E5.28990
G1 X70.988 Y69.396 E5.32348
G1 X71.622 Y68.664 E5.35554
G1 X72.443 Y68.105 E5.38846
G1 X73.456 Y67.710 E5.42448
G1 X74.656 Y67.475 E5.46501
G1 X76.041 Y67.397 E5.51094
G1 X78.964 Y67.397 E5.60780
G1 E3.60780 F2400.00000
G92 E0
G1 X91.468 Y69.500 F7800.000
G1 E2.00000 F2400.00000
G1 F1800.000
G1 X91.952 Y68.012 E2.05184
G1 X93.218 Y67.092 E2.10369
G1 X94.782 Y67.092 E2.15553
G1 X96.048 Y68.012 E2.20738
G1 X96.532 Y69.500 E2.25922
G1 X96.048 Y70.988 E2.31107
G1 X94.782 Y71.908 E2.36291
G1 X93.218 Y71.908 E2.41475
G1 X91.952 Y70.988 E2.46660
G1 X91.486 Y69.557 E2.51645
G1 X91.747 Y69.500 F7800.000
G1 F1800.000
G1 X92.177 Y68.176 E2.56258
G1 X93.304 Y67.357 E2.60871
G1 X94.696 Y67.357 E2.65483
G1 X95.822 Y68.176 E2.70096
G1 X96.253 Y69.500 E2.74708
G1 X95.822 Y70.824 E2.79321
G1 X94.696 Y71.643 E2.83933
G1 X93.304 Y71.643 E2.88546
G1 X92.177 Y70.824 E2.93158
G1 X91.766 Y69.557 E2.97572
G1 X92.027 Y69.500 F7800.000
G1 F1800.000
