; generated by Slic3r 1.3.1-dev (Build 2ef957d) on 2019-11-25 at 09:22:19

; external perimeters extrusion width = 0.55mm (4.37mm^3/s)
; perimeters extrusion width = 0.70mm (11.44mm^3/s)
; infill extrusion width = 0.62mm (13.45mm^3/s)
; solid infill extrusion width = 0.70mm (3.81mm^3/s)
; top infill extrusion width = 0.70mm (2.86mm^3/s)

M107
G92 E0
M104 S200 ; set temperature
G28 ; home all axes
G1 Z5 F5000 ; lift nozzle

; Filament gcode

M109 S200 ; set temperature and wait for it to be reached
G21 ; set units to millimeters
G90 ; use absolute coordinates
M82 ; use absolute distances for extrusion
G92 E0
G1 Z0.350 F7800.000
G1 E-2.00000 F2400.00000
G92 E0
G1 X81.049 Y84.966 F7800.000
G1 E2.00000 F2400.00000
G1 F1800.000
G1 X82.801 Y83.487 E2.07096
G1 X84.954 Y82.694 E2.14192
G1 X86.133 Y82.588 E2.17858
G1 X113.867 Y82.588 E3.03668
G1 X116.126 Y82.985 E3.10765
G1 X118.114 Y84.129 E3.17861
G1 X119.593 Y85.882 E3.24957
G1 X120.386 Y88.034 E3.32053
G1 X120.492 Y89.213 E3.35718
G1 X120.492 Y110.787 E4.02469
G1 X120.095 Y113.046 E4.09565
G1 X118.951 Y115.034 E4.16662
G1 X117.199 Y116.513 E4.23758
G1 X115.046 Y117.306 E4.30854
G1 X113.867 Y117.412 E4.34519
G1 X86.133 Y117.412 E5.20330
G1 X83.874 Y117.015 E5.27426
G1 X81.886 Y115.871 E5.34523
G1 X80.407 Y114.118 E5.41619
G1 X79.614 Y111.966 E5.48715
G1 X79.508 Y110.787 E5.52380
G1 X79.508 Y89.213 E6.19131
G1 X79.905 Y86.954 E6.26227
G1 X81.011 Y85.031 E6.33091
G1 E4.33091 F2400.00000
G92 E0
G1 X112.267 Y109.187 F7800.000
G1 E2.00000 F2400.00000
G1 F1800.000
G1 X102.100 Y109.187 E2.31458
G1 X102.100 Y108.582 E2.33329
G1 X102.505 Y108.443 E2.34655
G1 X103.089 Y108.180 E2.36638
G1 X103.646 Y107.862 E2.38620
G1 X104.170 Y107.493 E2.40603
G1 X104.657 Y107.077 E2.42585
G1 X105.102 Y106.618 E2.44564
G1 X105.503 Y106.118 E2.46547
G1 X105.847 Y105.593 E2.48491
G1 X106.065 Y105.196 E2.49890
G1 X106.324 Y104.624 E2.51834
G1 X106.531 Y104.018 E2.53817
G1 X106.681 Y103.395 E2.55799
G1 X106.771 Y102.760 E2.57782
G1 X106.801 Y102.133 E2.59726
G1 X106.787 Y101.680 E2.61126
G1 X106.718 Y101.056 E2.63069
G1 X106.588 Y100.429 E2.65052
G1 X106.399 Y99.816 E2.67035
G1 X106.154 Y99.224 E2.69018
G1 X105.854 Y98.658 E2.71000
G1 X105.503 Y98.122 E2.72983
G1 X105.102 Y97.622 E2.74966
G1 X104.655 Y97.161 E2.76952
G1 X104.168 Y96.745 E2.78935
G1 X103.643 Y96.377 E2.80918
G1 X103.087 Y96.059 E2.82901
G1 X102.503 Y95.796 E2.84883
G1 X102.100 Y95.658 E2.86201
G1 X102.100 Y90.813 E3.01191
G1 X112.267 Y90.813 E3.32649
G1 X112.267 Y109.112 E3.89268
G1 X112.892 Y109.812 F7800.000
G1 F1800.000
G1 X101.475 Y109.812 E4.24594
G1 X101.475 Y108.110 E4.29858
G1 X101.724 Y108.050 E4.30652
G1 X102.275 Y107.862 E4.32452
G1 X102.805 Y107.622 E4.34252
G1 X103.310 Y107.334 E4.36053
G1 X103.786 Y106.999 E4.37853
G1 X104.229 Y106.621 E4.39653
G1 X104.633 Y106.204 E4.41450
G1 X104.996 Y105.750 E4.43250
G1 X105.312 Y105.270 E4.45027
G1 X105.506 Y104.917 E4.46274
G1 X105.742 Y104.394 E4.48051
G1 X105.931 Y103.843 E4.49851
G1 X106.067 Y103.277 E4.51652
G1 X106.149 Y102.701 E4.53452
G1 X106.176 Y102.128 E4.55229
G1 X106.163 Y101.725 E4.56477
G1 X106.100 Y101.154 E4.58253
G1 X105.982 Y100.584 E4.60053
G1 X105.811 Y100.028 E4.61854
G1 X105.588 Y99.490 E4.63654
G1 X105.316 Y98.976 E4.65454
G1 X104.996 Y98.490 E4.67255
G1 X104.633 Y98.036 E4.69055
G1 X104.227 Y97.617 E4.70859
G1 X103.784 Y97.239 E4.72660
G1 X103.308 Y96.905 E4.74460
G1 X102.803 Y96.617 E4.76260
G1 X102.272 Y96.377 E4.78061
G1 X101.722 Y96.189 E4.79861
G1 X101.475 Y96.130 E4.80647
G1 X101.475 Y90.188 E4.99031
G1 X112.892 Y90.188 E5.34356
G1 X112.892 Y109.737 E5.94842
G1 X113.517 Y110.437 F7800.000
G1 F1800.000
G1 X100.850 Y110.437 E6.34034
G1 X100.850 Y107.599 E6.42814
G1 X101.041 Y107.572 E6.43412
G1 X101.550 Y107.450 E6.45029
G1 X102.044 Y107.280 E6.46647
G1 X102.521 Y107.065 E6.48265
G1 X102.975 Y106.806 E6.49883
G1 X103.403 Y106.505 E6.51501
G1 X103.800 Y106.165 E6.53119
G1 X104.163 Y105.791 E6.54734
G1 X104.490 Y105.382 E6.56352
G1 X104.776 Y104.948 E6.57961
G1 X104.947 Y104.637 E6.59057
G1 X105.161 Y104.163 E6.60666
G1 X105.330 Y103.669 E6.62284
G1 X105.452 Y103.160 E6.63902
G1 X105.526 Y102.642 E6.65520
G1 X105.550 Y102.123 E6.67130
G1 X105.539 Y101.769 E6.68226
G1 X105.482 Y101.252 E6.69835
G1 X105.376 Y100.740 E6.71453
G1 X105.222 Y100.240 E6.73071
G1 X105.022 Y99.757 E6.74689
G1 X104.777 Y99.295 E6.76307
G1 X104.490 Y98.858 E6.77925
G1 X104.163 Y98.449 E6.79543
G1 X103.799 Y98.073 E6.81164
G1 X103.401 Y97.734 E6.82782
G1 X102.973 Y97.433 E6.84400
G1 X102.519 Y97.174 E6.86018
G1 X102.042 Y96.959 E6.87636
G1 X101.547 Y96.790 E6.89254
G1 X101.039 Y96.668 E6.90872
G1 X100.850 Y96.641 E6.91463
G1 X100.850 Y89.563 E7.13361
G1 X113.517 Y89.563 E7.52554
G1 X113.517 Y110.362 E8.16907
G1 X113.046 Y110.269 F7800.000
G1 E6.16907 F2400.00000
G92 E0
G1 X111.399 Y108.805 F7800.000
G1 E2.00000 F2400.00000
G1 F1800.000
G1 X111.885 Y108.319 E2.02162
G1 X111.885 Y107.421 E2.04985
G1 X110.501 Y108.805 E2.11139
G1 X109.603 Y108.805 E2.13963
G1 X111.885 Y106.523 E2.24110
G1 X111.885 Y105.625 E2.26933
G1 X108.705 Y108.805 E2.41073
G1 X107.807 Y108.805 E2.43896
G1 X111.885 Y104.727 E2.62028
G1 X111.885 Y103.829 E2.64851
G1 X106.909 Y108.805 E2.86976
G1 X106.011 Y108.805 E2.89800
G1 X111.885 Y102.931 E3.15917
G1 X111.885 Y102.033 E3.18740
G1 X105.113 Y108.805 E3.48851
G1 X104.261 Y108.805 E3.51529
G1 X104.252 Y108.768 E3.51649
G1 X111.885 Y101.135 E3.85587
G1 X111.885 Y100.237 E3.88411
G1 X106.356 Y105.767 E4.12997
G1 X106.663 Y105.097 E4.15312
G1 X106.921 Y104.303 E4.17937
G1 X111.885 Y99.339 E4.40009
G1 X111.885 Y98.441 E4.42833
G1 X107.132 Y103.194 E4.63965
G1 X107.179 Y102.249 E4.66939
G1 X111.885 Y97.543 E4.87863
G1 X111.885 Y96.645 E4.90686
G1 X107.116 Y101.414 E5.11890
G1 X107.093 Y101.201 E5.12563
G1 X106.979 Y100.653 E5.14323
G1 X111.885 Y95.747 E5.36136
G1 X111.885 Y94.849 E5.38959
G1 X106.778 Y99.956 E5.61665
G1 X106.524 Y99.313 E5.63840
G1 X111.885 Y93.951 E5.87678
G1 X111.885 Y93.053 E5.90502
G1 X106.221 Y98.717 E6.15685
G1 X105.876 Y98.165 E6.17733
G1 X111.885 Y92.155 E6.44453
G1 X111.885 Y91.257 E6.47277
G1 X105.490 Y97.653 E6.75713
G1 X105.328 Y97.451 E6.76525
G1 X105.065 Y97.180 E6.77714
G1 X111.050 Y91.195 E7.04324
G1 X110.152 Y91.195 E7.07148
G1 X104.602 Y96.745 E7.31823
G1 X104.308 Y96.494 E7.33039
G1 X104.101 Y96.348 E7.33835
G1 X109.254 Y91.195 E7.56747
G1 X108.356 Y91.195 E7.59570
G1 X103.560 Y95.991 E7.80895
G1 X102.976 Y95.676 E7.82979
G1 X107.458 Y91.195 E8.02905
G1 X106.560 Y91.195 E8.05728
G1 X102.482 Y95.273 E8.23861
G1 X102.482 Y94.375 E8.26684
G1 X105.662 Y91.195 E8.40824
G1 X104.764 Y91.195 E8.43647
G1 X102.482 Y93.477 E8.53794
G1 X102.482 Y92.579 E8.56618
G1 X103.866 Y91.195 E8.62772
G1 X102.968 Y91.195 E8.65595
G1 X102.482 Y91.681 E8.67756
G1 E6.67756 F2400.00000
G92 E0
G1 X103.853 Y108.529 F7800.000
G1 E2.00000 F2400.00000
G1 F1800.000
G1 X102.427 Y108.872 E2.02690
G1 X102.422 Y108.839 F7800.000
G1 F1800.000
G1 X103.866 Y108.569 E2.03212
G1 E0.03212 F2400.00000
G92 E0
G1 X97.900 Y109.187 F7800.000
G1 E2.00000 F2400.00000
G1 F1800.000
G1 X87.733 Y109.187 E2.31458
G1 X87.733 Y90.813 E2.88309
G1 X97.900 Y90.813 E3.19768
G1 X97.900 Y95.658 E3.34758
G1 X97.495 Y95.797 E3.36084
G1 X96.911 Y96.060 E3.38066
G1 X96.354 Y96.378 E3.40049
G1 X95.830 Y96.747 E3.42032
G1 X95.343 Y97.163 E3.44014
G1 X94.898 Y97.622 E3.45993
G1 X94.497 Y98.122 E3.47976
G1 X94.146 Y98.658 E3.49958
G1 X93.852 Y99.213 E3.51902
G1 X93.672 Y99.628 E3.53302
G1 X93.469 Y100.222 E3.55246
G1 X93.319 Y100.846 E3.57228
G1 X93.229 Y101.480 E3.59211
G1 X93.198 Y102.120 E3.61194
G1 X93.229 Y102.760 E3.63176
G1 X93.319 Y103.394 E3.65159
G1 X93.469 Y104.018 E3.67142
G1 X93.672 Y104.612 E3.69085
G1 X93.852 Y105.027 E3.70485
G1 X94.146 Y105.582 E3.72429
G1 X94.497 Y106.118 E3.74412
G1 X94.898 Y106.618 E3.76395
G1 X95.345 Y107.079 E3.78381
G1 X95.832 Y107.495 E3.80364
G1 X96.357 Y107.863 E3.82347
G1 X96.913 Y108.181 E3.84329
G1 X97.497 Y108.444 E3.86312
G1 X97.900 Y108.582 E3.87629
G1 X97.900 Y109.112 E3.89268
G1 X98.525 Y109.812 F7800.000
G1 F1800.000
G1 X87.108 Y109.812 E4.24594
G1 X87.108 Y90.188 E4.85312
G1 X98.525 Y90.188 E5.20637
G1 X98.525 Y96.130 E5.39021
G1 X98.276 Y96.190 E5.39814
G1 X97.725 Y96.378 E5.41615
G1 X97.195 Y96.618 E5.43415
G1 X96.690 Y96.906 E5.45215
G1 X96.214 Y97.241 E5.47016
G1 X95.771 Y97.619 E5.48816
G1 X95.367 Y98.036 E5.50613
G1 X95.004 Y98.490 E5.52413
G1 X94.684 Y98.976 E5.54213
G1 X94.415 Y99.484 E5.55990
G1 X94.255 Y99.854 E5.57237
G1 X94.069 Y100.397 E5.59014
G1 X93.933 Y100.963 E5.60814
G1 X93.851 Y101.539 E5.62615
G1 X93.824 Y102.120 E5.64415
G1 X93.851 Y102.701 E5.66215
G1 X93.933 Y103.277 E5.68016
G1 X94.069 Y103.843 E5.69816
G1 X94.255 Y104.386 E5.71593
G1 X94.415 Y104.756 E5.72841
G1 X94.684 Y105.264 E5.74617
G1 X95.004 Y105.750 E5.76417
G1 X95.367 Y106.204 E5.78218
G1 X95.773 Y106.623 E5.80022
G1 X96.216 Y107.001 E5.81822
G1 X96.692 Y107.335 E5.83623
G1 X97.197 Y107.623 E5.85423
G1 X97.728 Y107.863 E5.87223
G1 X98.278 Y108.051 E5.89024
G1 X98.525 Y108.110 E5.89809
G1 X98.525 Y109.737 E5.94842
G1 X99.150 Y110.437 F7800.000
G1 F1800.000
G1 X86.483 Y110.437 E6.34034
G1 X86.483 Y89.563 E6.98619
G1 X99.150 Y89.563 E7.37812
G1 X99.150 Y96.641 E7.59711
G1 X98.959 Y96.668 E7.60308
G1 X98.450 Y96.790 E7.61926
G1 X97.956 Y96.960 E7.63544
G1 X97.479 Y97.175 E7.65162
G1 X97.025 Y97.434 E7.66780
G1 X96.597 Y97.735 E7.68398
G1 X96.200 Y98.075 E7.70016
G1 X95.837 Y98.449 E7.71630
G1 X95.510 Y98.858 E7.73248
G1 X95.223 Y99.295 E7.74866
G1 X94.979 Y99.754 E7.76476
G1 X94.838 Y100.079 E7.77572
G1 X94.670 Y100.572 E7.79181
G1 X94.548 Y101.080 E7.80799
G1 X94.474 Y101.598 E7.82417
G1 X94.450 Y102.120 E7.84035
G1 X94.474 Y102.642 E7.85653
G1 X94.548 Y103.160 E7.87271
G1 X94.670 Y103.669 E7.88889
G1 X94.838 Y104.161 E7.90498
G1 X94.979 Y104.486 E7.91594
G1 X95.223 Y104.945 E7.93204
G1 X95.510 Y105.382 E7.94822
G1 X95.837 Y105.791 E7.96440
G1 X96.201 Y106.167 E7.98061
G1 X96.599 Y106.506 E7.99679
G1 X97.027 Y106.807 E8.01297
G1 X97.481 Y107.066 E8.02915
G1 X97.958 Y107.281 E8.04533
G1 X98.453 Y107.450 E8.06151
G1 X98.961 Y107.572 E8.07768
G1 X99.150 Y107.599 E8.08359
G1 X99.150 Y110.362 E8.16907
G1 X98.712 Y110.196 F7800.000
G1 E6.16907 F2400.00000
G92 E0
G1 X97.573 Y108.871 F7800.000
G1 E2.00000 F2400.00000
G1 F1800.000
G1 X96.147 Y108.529 E2.02679
G1 X96.134 Y108.569 F7800.000
G1 F1800.000
G1 X97.578 Y108.839 E2.02959
G1 E0.02959 F2400.00000
G92 E0
G1 X95.253 Y108.805 F7800.000
G1 E2.00000 F2400.00000
G1 F1800.000
G1 X95.739 Y108.319 E2.02163
G1 X95.850 Y107.857 E2.03657
G1 X95.541 Y107.618 E2.04885
G1 X94.354 Y108.805 E2.10168
G1 X93.456 Y108.805 E2.12995
G1 X95.066 Y107.195 E2.20158
G1 X94.628 Y106.734 E2.22158
G1 X92.557 Y108.805 E2.31373
G1 X91.658 Y108.805 E2.34200
G1 X94.229 Y106.234 E2.45638
G1 X93.873 Y105.692 E2.47679
G1 X90.760 Y108.805 E2.61530
G1 X89.861 Y108.805 E2.64357
G1 X93.559 Y105.107 E2.80808
G1 X93.291 Y104.476 E2.82965
G1 X88.963 Y108.805 E3.02224
G1 X88.115 Y108.805 E3.04892
G1 X88.115 Y108.754 E3.05052
G1 X93.074 Y103.795 E3.27116
G1 X92.947 Y103.269 E3.28820
G1 X92.917 Y103.054 E3.29503
G1 X88.115 Y107.856 E3.50868
G1 X88.115 Y106.957 E3.53695
G1 X92.833 Y102.239 E3.74687
G1 X92.816 Y101.877 E3.75828
G1 X92.842 Y101.332 E3.77545
G1 X88.115 Y106.059 E3.98575
G1 X88.115 Y105.160 E4.01402
G1 X92.997 Y100.277 E4.23126
G1 X93.111 Y99.805 E4.24655
G1 X93.332 Y99.159 E4.26801
G1 X93.420 Y98.957 E4.27496
G1 X88.115 Y104.261 E4.51098
G1 X88.115 Y103.363 E4.53925
G1 X97.518 Y93.959 E4.95764
G1 X97.518 Y93.061 E4.98591
G1 X88.115 Y102.464 E5.40430
G1 X88.115 Y101.566 E5.43257
G1 X97.518 Y92.162 E5.85097
G1 X97.518 Y91.264 E5.87924
G1 X88.115 Y100.667 E6.29763
G1 X88.115 Y99.768 E6.32590
G1 X96.688 Y91.195 E6.70736
G1 X95.790 Y91.195 E6.73563
G1 X88.115 Y98.870 E7.07711
G1 X88.115 Y97.971 E7.10538
G1 X94.891 Y91.195 E7.40688
G1 X93.993 Y91.195 E7.43515
G1 X88.115 Y97.073 E7.69667
G1 X88.115 Y96.174 E7.72494
G1 X93.094 Y91.195 E7.94648
G1 X92.195 Y91.195 E7.97475
G1 X88.115 Y95.275 E8.15631
G1 X88.115 Y94.377 E8.18458
G1 X91.297 Y91.195 E8.32616
G1 X90.398 Y91.195 E8.35443
G1 X88.115 Y93.478 E8.45602
G1 X88.115 Y92.580 E8.48430
G1 X89.500 Y91.195 E8.54591
G1 X88.601 Y91.195 E8.57418
G1 X88.115 Y91.681 E8.59581
G1 E6.59581 F2400.00000
G92 E0
G1 X96.833 Y95.543 F7800.000
G1 E2.00000 F2400.00000
G1 F1800.000
G1 X97.518 Y94.858 E2.03049
G1 X97.518 Y93.959 E2.05876
G1 Z0.650 F7800.000
G1 E0.05876 F2400.00000
G92 E0
G1 X101.971 Y109.315 F7800.000
G1 E2.00000 F2400.00000
G1 F3600.000
G1 X101.971 Y108.490 E2.02225
G1 X102.460 Y108.323 E2.03619
G1 X103.033 Y108.064 E2.05315
G1 X103.579 Y107.752 E2.07011
G1 X104.093 Y107.390 E2.08707
G1 X104.570 Y106.982 E2.10402
G1 X105.005 Y106.533 E2.12089
G1 X105.398 Y106.042 E2.13785
G1 X105.737 Y105.526 E2.15449
G1 X105.950 Y105.139 E2.16642
G1 X106.204 Y104.576 E2.18307
G1 X106.408 Y103.981 E2.20004
G1 X106.555 Y103.368 E2.21706
G1 X106.643 Y102.748 E2.23395
G1 X106.672 Y102.132 E2.25060
G1 X106.658 Y101.690 E2.26253
G1 X106.591 Y101.076 E2.27917
G1 X106.463 Y100.461 E2.29613
G1 X106.278 Y99.860 E2.31309
G1 X106.038 Y99.279 E2.33005
G1 X105.744 Y98.723 E2.34701
G1 X105.398 Y98.198 E2.36397
G1 X105.005 Y97.707 E2.38094
G1 X104.565 Y97.253 E2.39799
G1 X104.087 Y96.845 E2.41495
G1 X103.572 Y96.484 E2.43191
G1 X103.026 Y96.173 E2.44887
G1 X102.453 Y95.914 E2.46583
G1 X101.971 Y95.750 E2.47956
G1 X101.971 Y90.685 E2.61620
G1 X112.395 Y90.685 E2.89741
G1 X112.395 Y109.315 E3.40001
G1 X102.046 Y109.315 E3.67919
G1 X101.336 Y109.951 F7800.000
G1 F3600.000
G1 X101.336 Y108.001 E3.73181
G1 X101.687 Y107.916 E3.74158
G1 X102.225 Y107.731 E3.75692
G1 X102.744 Y107.497 E3.77226
G1 X103.237 Y107.215 E3.78760
G1 X103.703 Y106.888 E3.80294
G1 X104.135 Y106.518 E3.81828
G1 X104.528 Y106.112 E3.83354
G1 X104.884 Y105.668 E3.84888
G1 X105.192 Y105.198 E3.86404
G1 X105.381 Y104.855 E3.87462
G1 X105.613 Y104.342 E3.88979
G1 X105.797 Y103.804 E3.90514
G1 X105.930 Y103.249 E3.92054
G1 X106.010 Y102.688 E3.93582
G1 X106.036 Y102.127 E3.95098
G1 X106.024 Y101.734 E3.96156
G1 X105.962 Y101.176 E3.97673
G1 X105.847 Y100.619 E3.99207
G1 X105.680 Y100.075 E4.00741
G1 X105.462 Y99.550 E4.02276
G1 X105.196 Y99.047 E4.03810
G1 X104.884 Y98.572 E4.05344
G1 X104.528 Y98.128 E4.06879
G1 X104.130 Y97.717 E4.08422
G1 X103.697 Y97.348 E4.09956
G1 X103.232 Y97.021 E4.11490
G1 X102.737 Y96.740 E4.13024
G1 X102.219 Y96.506 E4.14559
G1 X101.681 Y96.322 E4.16093
G1 X101.336 Y96.240 E4.17050
G1 X101.336 Y90.049 E4.33750
G1 X113.031 Y90.049 E4.65301
G1 X113.031 Y109.951 E5.18990
G1 X101.411 Y109.951 E5.50338
G1 X100.775 Y110.512 F7800.000
G1 F1800.000
G1 X100.775 Y107.534 E5.56475
G1 X101.029 Y107.498 E5.57004
G1 X101.531 Y107.377 E5.58067
G1 X102.019 Y107.210 E5.59130
G1 X102.489 Y106.997 E5.60193
G1 X102.936 Y106.741 E5.61256
G1 X103.358 Y106.444 E5.62319
G1 X103.750 Y106.109 E5.63382
G1 X104.107 Y105.741 E5.64439
G1 X104.430 Y105.338 E5.65502
G1 X104.712 Y104.909 E5.66561
G1 X104.879 Y104.604 E5.67279
G1 X105.091 Y104.136 E5.68338
G1 X105.258 Y103.648 E5.69401
G1 X105.379 Y103.144 E5.70468
G1 X105.451 Y102.635 E5.71527
G1 X105.475 Y102.122 E5.72586
G1 X105.464 Y101.774 E5.73304
G1 X105.408 Y101.263 E5.74362
G1 X105.303 Y100.758 E5.75426
G1 X105.152 Y100.265 E5.76489
G1 X104.954 Y99.789 E5.77552
G1 X104.713 Y99.333 E5.78615
G1 X104.430 Y98.902 E5.79678
G1 X104.107 Y98.499 E5.80742
G1 X103.746 Y98.127 E5.81811
G1 X103.353 Y97.792 E5.82874
G1 X102.931 Y97.495 E5.83937
G1 X102.483 Y97.240 E5.85001
G1 X102.013 Y97.028 E5.86064
G1 X101.525 Y96.861 E5.87127
G1 X101.023 Y96.741 E5.88190
G1 X100.775 Y96.706 E5.88706
G1 X100.775 Y89.488 E6.03581
G1 X113.592 Y89.488 E6.29997
G1 X113.592 Y110.512 E6.73327
G1 X100.850 Y110.512 E6.99588
G1 X100.866 Y110.020 F7800.000
G1 X102.289 Y108.861 F7800.000
G1 F1200.000
G1 X103.469 Y108.644 E7.01280
G1 X103.365 Y108.251 F7800.000
G1 F1200.000
G1 X103.032 Y108.998 E7.02283
G1 X104.370 Y108.927 F7800.000
G1 F1200.000
G1 X103.876 Y108.432 E7.04226
G1 X103.858 Y108.339 E7.04491
G1 X104.119 Y107.755 E7.06266
