; Gcode updated with 'stl_info' on 2019-12-09 21:16:03.101951

; stl_min_x = 0.0
; stl_max_x = 110.0
; stl_min_y = 0.34260499477386475
; stl_max_y = 33.65739822387695
; stl_min_z = -0.75

; generated by Slic3r 1.3.1-dev (Build adea0d9) on 2019-12-09 at 21:16:02

; external perimeters extrusion width = 0.44mm (2.86mm^3/s)
; perimeters extrusion width = 0.56mm (4.14mm^3/s)
; infill extrusion width = 0.50mm (3.66mm^3/s)
; solid infill extrusion width = 0.56mm (3.10mm^3/s)
; top infill extrusion width = 0.56mm (3.10mm^3/s)

M107
G92 E0
;D3D:START:START
T0
M104 S215 T0

G21
G90
M107
T0
G28
G29
M109 T0 S215 T0
G0 F3000
M107
T0
G92 E0
G0 X0 Y149 Z0.1 F3600
G1 Y49 E6.5 F1200
G0 Z1
G92 E0
; Filament gcode

G21 ; set units to millimeters
G90 ; use absolute coordinates
M82 ; use absolute distances for extrusion
G92 E0
G1 Z0.300 F7800.000
G1 E-2.00000 F2400.00000
G92 E0
G1 X26.164 Y82.427 F7800.000
G1 E2.00000 F2400.00000
G1 F1800.000
G1 X27.000 Y82.295 E2.02804
G1 X27.836 Y82.427 E2.05608
G1 X28.590 Y82.812 E2.08411
G1 X29.188 Y83.410 E2.11215
G1 X29.573 Y84.164 E2.14019
G1 X29.705 Y85.000 E2.16822
G1 X29.573 Y85.836 E2.19626
G1 X29.188 Y86.590 E2.22430
G1 X28.590 Y87.188 E2.25233
G1 X27.816 Y87.583 E2.28111
G1 X26.997 Y87.704 E2.30855
G1 X26.164 Y87.573 E2.33648
G1 X25.410 Y87.188 E2.36451
G1 X24.812 Y86.590 E2.39255
G1 X24.427 Y85.836 E2.42059
G1 X24.295 Y85.000 E2.44862
G1 X24.427 Y84.164 E2.47666
G1 X24.812 Y83.410 E2.50470
G1 X25.410 Y82.812 E2.53273
G1 X26.111 Y82.455 E2.55878
G1 X26.247 Y82.683 F7800.000
G1 F1800.000
G1 X27.000 Y82.564 E2.58403
G1 X27.753 Y82.683 E2.60928
G1 X28.432 Y83.029 E2.63453
G1 X28.971 Y83.568 E2.65978
G1 X29.317 Y84.247 E2.68503
G1 X29.436 Y85.000 E2.71028
G1 X29.317 Y85.753 E2.73553
G1 X28.971 Y86.432 E2.76078
G1 X28.432 Y86.971 E2.78603
G1 X27.734 Y87.326 E2.81197
G1 X26.998 Y87.436 E2.83663
G1 X26.247 Y87.317 E2.86181
G1 X25.568 Y86.971 E2.88706
G1 X25.029 Y86.432 E2.91230
G1 X24.683 Y85.753 E2.93756
G1 X24.564 Y85.000 E2.96280
G1 X24.683 Y84.247 E2.98805
G1 X25.029 Y83.568 E3.01330
G1 X25.568 Y83.029 E3.03855
G1 X26.194 Y82.710 E3.06181
G1 X26.330 Y82.939 F7800.000
G1 F1800.000
G1 X27.000 Y82.833 E3.08428
G1 X27.670 Y82.939 E3.10674
G1 X28.274 Y83.247 E3.12920
G1 X28.753 Y83.726 E3.15166
G1 X29.061 Y84.330 E3.17412
G1 X29.167 Y85.000 E3.19659
G1 X29.061 Y85.670 E3.21905
G1 X28.753 Y86.274 E3.24151
G1 X28.274 Y86.753 E3.26397
G1 X27.652 Y87.070 E3.28708
G1 X26.999 Y87.167 E3.30895
G1 X26.330 Y87.061 E3.33139
G1 X25.726 Y86.753 E3.35385
G1 X25.247 Y86.274 E3.37631
G1 X24.939 Y85.670 E3.39878
G1 X24.833 Y85.000 E3.42124
G1 X24.939 Y84.330 E3.44370
G1 X25.247 Y83.726 E3.46616
G1 X25.726 Y83.247 E3.48862
G1 X26.277 Y82.966 E3.50910
G1 E1.50910 F2400.00000
G92 E0
G1 X27.000 Y67.705 F7800.000
G1 E2.00000 F2400.00000
G1 F1800.000
G1 X26.164 Y67.573 E2.02804
G1 X25.410 Y67.188 E2.05607
G1 X24.812 Y66.590 E2.08411
G1 X24.427 Y65.836 E2.11215
G1 X24.295 Y65.000 E2.14018
G1 X24.427 Y64.164 E2.16822
G1 X24.812 Y63.410 E2.19626
G1 X25.410 Y62.812 E2.22430
G1 X26.164 Y62.427 E2.25233
G1 X27.000 Y62.295 E2.28037
G1 X27.836 Y62.427 E2.30841
G1 X28.590 Y62.812 E2.33644
G1 X29.188 Y63.410 E2.36448
G1 X29.573 Y64.164 E2.39252
G1 X29.705 Y65.000 E2.42055
G1 X29.573 Y65.836 E2.44859
G1 X29.188 Y66.590 E2.47663
G1 X28.590 Y67.188 E2.50467
G1 X27.836 Y67.573 E2.53270
G1 X27.059 Y67.696 E2.55875
G1 X27.000 Y67.436 F7800.000
G1 F1800.000
G1 X26.247 Y67.317 E2.58400
G1 X25.568 Y66.971 E2.60925
G1 X25.029 Y66.432 E2.63450
G1 X24.683 Y65.753 E2.65975
G1 X24.564 Y65.000 E2.68500
G1 X24.683 Y64.247 E2.71025
G1 X25.029 Y63.568 E2.73550
G1 X25.568 Y63.029 E2.76075
G1 X26.247 Y62.683 E2.78600
G1 X27.000 Y62.564 E2.81125
G1 X27.753 Y62.683 E2.83650
G1 X28.432 Y63.029 E2.86175
G1 X28.971 Y63.568 E2.88699
G1 X29.317 Y64.247 E2.91224
G1 X29.436 Y65.000 E2.93749
G1 X29.317 Y65.753 E2.96274
G1 X28.971 Y66.432 E2.98799
G1 X28.432 Y66.971 E3.01324
G1 X27.753 Y67.317 E3.03849
G1 X27.059 Y67.427 E3.06175
G1 X27.000 Y67.167 F7800.000
G1 F1800.000
G1 X26.330 Y67.061 E3.08421
G1 X25.726 Y66.753 E3.10668
G1 X25.247 Y66.274 E3.12914
G1 X24.939 Y65.670 E3.15160
G1 X24.833 Y65.000 E3.17406
G1 X24.939 Y64.330 E3.19652
G1 X25.247 Y63.726 E3.21899
G1 X25.726 Y63.247 E3.24145
G1 X26.330 Y62.939 E3.26391
G1 X27.000 Y62.833 E3.28637
G1 X27.670 Y62.939 E3.30883
G1 X28.274 Y63.247 E3.33130
G1 X28.753 Y63.726 E3.35376
G1 X29.061 Y64.330 E3.37622
G1 X29.167 Y65.000 E3.39868
G1 X29.061 Y65.670 E3.42114
G1 X28.753 Y66.274 E3.44361
G1 X28.274 Y66.753 E3.46607
G1 X27.670 Y67.061 E3.48853
G1 X27.059 Y67.158 E3.50900
G1 E1.50900 F2400.00000
G92 E0
G1 X40.768 Y65.000 F7800.000
G1 E2.00000 F2400.00000
G1 F1800.000
G1 X41.194 Y63.688 E2.04570
G1 X42.310 Y62.877 E2.09140
G1 X43.690 Y62.877 E2.13710
G1 X44.806 Y63.688 E2.18281
G1 X45.232 Y65.000 E2.22851
G1 X44.806 Y66.312 E2.27421
G1 X43.690 Y67.123 E2.31991
G1 X42.310 Y67.123 E2.36561
G1 X41.194 Y66.312 E2.41131
G1 X40.786 Y65.057 E2.45503
G1 X41.047 Y65.000 F7800.000
G1 F1800.000
G1 X41.420 Y63.852 E2.49501
G1 X42.397 Y63.143 E2.53500
G1 X43.603 Y63.143 E2.57498
G1 X44.580 Y63.852 E2.61496
G1 X44.953 Y65.000 E2.65495
G1 X44.580 Y66.148 E2.69493
G1 X43.603 Y66.857 E2.73491
G1 X42.397 Y66.857 E2.77490
G1 X41.420 Y66.148 E2.81488
G1 X41.066 Y65.057 E2.85287
G1 X41.327 Y65.000 F7800.000
G1 F1800.000
G1 X41.646 Y64.016 E2.88714
G1 X42.483 Y63.408 E2.92141
G1 X43.517 Y63.408 E2.95567
G1 X44.354 Y64.016 E2.98993
G1 X44.673 Y65.000 E3.02420
G1 X44.354 Y65.984 E3.05846
G1 X43.517 Y66.592 E3.09273
G1 X42.483 Y66.592 E3.12699
G1 X41.646 Y65.984 E3.16126
G1 X41.345 Y65.057 E3.19354
G1 E1.19354 F2400.00000
G92 E0
G1 X61.194 Y81.688 F7800.000
G1 E2.00000 F2400.00000
G1 F1800.000
G1 X62.310 Y80.877 E2.04570
G1 X63.690 Y80.877 E2.09140
G1 X64.806 Y81.688 E2.13710
G1 X65.232 Y83.000 E2.18281
G1 X64.806 Y84.312 E2.22851
G1 X63.690 Y85.123 E2.27421
G1 X62.310 Y85.123 E2.31991
G1 X61.194 Y84.312 E2.36561
G1 X60.768 Y83.000 E2.41132
G1 X61.176 Y81.745 E2.45503
G1 X61.420 Y81.852 F7800.000
G1 F1800.000
G1 X62.397 Y81.143 E2.49502
G1 X63.603 Y81.143 E2.53500
G1 X64.580 Y81.852 E2.57498
G1 X64.953 Y83.000 E2.61496
G1 X64.580 Y84.148 E2.65495
G1 X63.603 Y84.857 E2.69493
G1 X62.397 Y84.857 E2.73491
G1 X61.420 Y84.148 E2.77490
G1 X61.047 Y83.000 E2.81488
G1 X61.402 Y81.909 E2.85288
G1 X61.646 Y82.016 F7800.000
G1 F1800.000
G1 X62.483 Y81.408 E2.88714
G1 X63.517 Y81.408 E2.92141
G1 X64.354 Y82.016 E2.95567
G1 X64.673 Y83.000 E2.98994
G1 X64.354 Y83.984 E3.02420
G1 X63.517 Y84.592 E3.05847
G1 X62.483 Y84.592 E3.09273
G1 X61.646 Y83.984 E3.12700
G1 X61.327 Y83.000 E3.16126
G1 X61.628 Y82.073 E3.19354
G1 E1.19354 F2400.00000
G92 E0
G1 X81.194 Y66.312 F7800.000
G1 E2.00000 F2400.00000
G1 F1800.000
G1 X80.768 Y65.000 E2.04570
G1 X81.194 Y63.688 E2.09141
G1 X82.310 Y62.877 E2.13711
G1 X83.690 Y62.877 E2.18281
G1 X84.806 Y63.688 E2.22851
G1 X85.232 Y65.000 E2.27421
G1 X84.806 Y66.312 E2.31991
G1 X83.690 Y67.123 E2.36562
G1 X82.310 Y67.123 E2.41132
G1 X81.243 Y66.347 E2.45503
G1 X81.420 Y66.148 F7800.000
G1 F1800.000
G1 X81.047 Y65.000 E2.49501
G1 X81.420 Y63.852 E2.53500
G1 X82.397 Y63.143 E2.57498
G1 X83.603 Y63.143 E2.61496
G1 X84.580 Y63.852 E2.65495
G1 X84.953 Y65.000 E2.69493
G1 X84.580 Y66.148 E2.73491
G1 X83.603 Y66.857 E2.77490
G1 X82.397 Y66.857 E2.81488
G1 X81.469 Y66.183 E2.85287
G1 X81.646 Y65.984 F7800.000
G1 F1800.000
G1 X81.327 Y65.000 E2.88714
G1 X81.646 Y64.016 E2.92141
G1 X82.483 Y63.408 E2.95567
G1 X83.517 Y63.408 E2.98993
G1 X84.354 Y64.016 E3.02420
G1 X84.673 Y65.000 E3.05846
G1 X84.354 Y65.984 E3.09273
G1 X83.517 Y66.592 E3.12699
G1 X82.483 Y66.592 E3.16126
G1 X81.695 Y66.019 E3.19353
G1 E1.19353 F2400.00000
G92 E0
G1 X101.194 Y79.688 F7800.000
G1 E2.00000 F2400.00000
G1 F1800.000
G1 X102.310 Y78.877 E2.04570
G1 X103.690 Y78.877 E2.09140
G1 X104.806 Y79.688 E2.13710
G1 X105.232 Y81.000 E2.18281
G1 X104.806 Y82.312 E2.22851
G1 X103.690 Y83.123 E2.27421
G1 X102.310 Y83.123 E2.31991
G1 X101.194 Y82.312 E2.36561
G1 X100.768 Y81.000 E2.41132
G1 X101.176 Y79.745 E2.45503
G1 X101.420 Y79.852 F7800.000
G1 F1800.000
G1 X102.397 Y79.143 E2.49502
G1 X103.603 Y79.143 E2.53500
G1 X104.580 Y79.852 E2.57498
G1 X104.953 Y81.000 E2.61497
G1 X104.580 Y82.148 E2.65495
G1 X103.603 Y82.857 E2.69493
G1 X102.397 Y82.857 E2.73492
G1 X101.420 Y82.148 E2.77490
G1 X101.047 Y81.000 E2.81488
G1 X101.402 Y79.909 E2.85288
G1 X101.646 Y80.016 F7800.000
G1 F1800.000
G1 X102.483 Y79.408 E2.88714
G1 X103.517 Y79.408 E2.92141
G1 X104.354 Y80.016 E2.95567
G1 X104.673 Y81.000 E2.98994
G1 X104.354 Y81.984 E3.02420
G1 X103.517 Y82.592 E3.05847
G1 X102.483 Y82.592 E3.09273
G1 X101.646 Y81.984 E3.12700
G1 X101.327 Y81.000 E3.16126
G1 X101.628 Y80.073 E3.19354
G1 E1.19354 F2400.00000
G92 E0
G1 X121.194 Y66.312 F7800.000
G1 E2.00000 F2400.00000
G1 F1800.000
G1 X120.768 Y65.000 E2.04569
G1 X121.194 Y63.688 E2.09138
G1 X122.310 Y62.877 E2.13709
G1 X123.690 Y62.877 E2.18282
G1 X124.806 Y63.688 E2.22853
G1 X125.232 Y65.000 E2.27422
G1 X124.806 Y66.312 E2.31991
G1 X123.690 Y67.123 E2.36562
G1 X122.310 Y67.123 E2.41136
G1 X121.242 Y66.347 E2.45508
G1 X121.420 Y66.148 F7800.000
G1 F1800.000
G1 X121.047 Y65.000 E2.49505
G1 X121.420 Y63.852 E2.53503
G1 X122.396 Y63.143 E2.57501
G1 X123.604 Y63.143 E2.61503
G1 X124.580 Y63.852 E2.65502
G1 X124.953 Y65.000 E2.69499
G1 X124.580 Y66.148 E2.73496
G1 X123.604 Y66.857 E2.77495
G1 X122.396 Y66.857 E2.81497
G1 X121.468 Y66.183 E2.85297
G1 X121.646 Y65.984 F7800.000
G1 F1800.000
G1 X121.327 Y65.000 E2.88723
G1 X121.646 Y64.016 E2.92148
G1 X122.482 Y63.408 E2.95575
G1 X123.518 Y63.408 E2.99005
G1 X124.354 Y64.016 E3.02431
G1 X124.673 Y65.000 E3.05857
G1 X124.354 Y65.984 E3.09283
G1 X123.518 Y66.592 E3.12710
G1 X122.482 Y66.592 E3.16139
G1 X121.694 Y66.019 E3.19367
G1 E1.19367 F2400.00000
G92 E0
G1 X124.937 Y59.039 F7800.000
G1 E2.00000 F2400.00000
G1 F1800.000
G1 X128.071 Y61.316 E2.12834
G1 X129.304 Y65.110 E2.26052
G1 X129.304 Y68.877 E2.38531
G1 X128.065 Y72.689 E2.51808
G1 X108.225 Y88.561 E3.35983
G1 X104.921 Y90.961 E3.49512
G1 X25.063 Y90.961 E6.14079
G1 X21.929 Y88.684 E6.26912
G1 X20.696 Y84.890 E6.40130
G1 X20.696 Y65.110 E7.05659
G1 X21.929 Y61.316 E7.18877
G1 X25.063 Y59.039 E7.31710
G1 X124.877 Y59.039 E10.62388
G1 X125.023 Y58.773 F7800.000
G1 F1800.000
G1 X128.297 Y61.152 E10.75794
G1 X129.569 Y65.068 E10.89437
G1 X129.569 Y68.919 E11.02195
G1 X128.293 Y72.846 E11.15875
G1 X108.386 Y88.772 E12.00334
G1 X105.008 Y91.227 E12.14170
G1 X24.977 Y91.227 E14.79308
G1 X21.703 Y88.848 E14.92713
G1 X20.431 Y84.932 E15.06356
G1 X20.431 Y65.068 E15.72164
G1 X21.703 Y61.152 E15.85807
G1 X24.977 Y58.773 E15.99212
G1 X124.963 Y58.773 E19.30462
G1 X125.109 Y58.508 F7800.000
G1 F1800.000
G1 X128.523 Y60.987 E19.44439
G1 X129.835 Y65.026 E19.58508
G1 X129.835 Y68.961 E19.71545
G1 X128.521 Y73.004 E19.85628
G1 X108.547 Y88.983 E20.70370
G1 X105.094 Y91.492 E20.84513
G1 X24.890 Y91.492 E23.50223
G1 X21.477 Y89.013 E23.64200
G1 X20.165 Y84.974 E23.78269
G1 X20.165 Y65.026 E24.44354
G1 X21.477 Y60.987 E24.58423
G1 X24.890 Y58.508 E24.72400
G1 X125.049 Y58.508 E28.04222
G1 E26.04222 F2400.00000
G92 E0
G1 X121.042 Y63.511 F7800.000
G1 E2.00000 F2400.00000
G1 F1800.000
G1 X104.927 Y79.626 E2.75686
G1 X105.020 Y79.909 E2.76676
G1 X120.861 Y64.068 E3.51075
G1 X120.680 Y64.626 E3.53021
G1 X105.112 Y80.193 E4.26136
G1 X105.205 Y80.478 E4.27129
G1 X120.639 Y65.043 E4.99620
G1 X120.732 Y65.327 E5.00613
G1 X105.297 Y80.762 E5.73104
G1 X105.389 Y81.046 E5.74096
G1 X120.824 Y65.611 E6.46587
G1 X120.916 Y65.896 E6.47579
G1 X105.263 Y81.549 E7.21095
G1 X105.082 Y82.106 E7.23043
G1 X121.008 Y66.180 E7.97843
G1 X121.071 Y66.373 E7.98515
G1 X121.141 Y66.424 E7.98804
G1 X96.766 Y90.799 E9.13285
G1 X97.143 Y90.799 E9.14535
G1 X121.359 Y66.582 E10.28272
G1 X121.577 Y66.741 E10.29167
G1 X97.519 Y90.799 E11.42159
G1 X97.896 Y90.799 E11.43410
G1 X121.796 Y66.899 E12.55658
G1 X122.014 Y67.058 E12.56553
G1 X98.272 Y90.799 E13.68057
G1 X98.649 Y90.799 E13.69307
G1 X122.232 Y67.216 E14.80067
G1 X122.327 Y67.285 E14.80457
G1 X122.539 Y67.285 E14.81163
G1 X99.025 Y90.799 E15.91598
G1 X99.402 Y90.799 E15.92849
G1 X122.916 Y67.285 E17.03284
G1 X123.292 Y67.285 E17.04535
G1 X99.779 Y90.799 E18.14970
G1 X100.155 Y90.799 E18.16220
G1 X123.669 Y67.285 E19.26656
G1 X123.880 Y67.285 E19.27356
G1 X124.486 Y66.845 E19.29843
G1 X100.532 Y90.799 E20.42345
G1 X100.908 Y90.799 E20.43596
G1 X128.532 Y63.175 E21.73336
G1 X128.625 Y63.459 E21.74328
G1 X101.285 Y90.799 E23.02734
G1 X101.661 Y90.799 E23.03984
G1 X128.717 Y63.743 E24.31055
G1 X128.809 Y64.027 E24.32047
G1 X102.038 Y90.799 E25.57783
G1 X102.414 Y90.799 E25.59034
G1 X128.902 Y64.312 E26.83435
G1 X128.994 Y64.596 E26.84427
G1 X102.791 Y90.799 E28.07493
G1 X103.168 Y90.799 E28.08744
G1 X129.087 Y64.880 E29.30475
G1 X129.141 Y65.049 E29.31066
G1 X129.141 Y65.202 E29.31572
G1 X103.544 Y90.799 E30.51793
G1 X103.921 Y90.799 E30.53044
G1 X129.141 Y65.578 E31.71496
G1 X129.141 Y65.955 E31.72747
G1 X104.297 Y90.799 E32.89430
G1 X104.674 Y90.799 E32.90681
G1 X129.141 Y66.331 E34.05596
G1 X129.141 Y66.708 E34.06847
G1 X105.897 Y89.952 E35.16016
G1 X107.274 Y88.952 E35.21669
G1 X129.141 Y67.084 E36.24371
G1 X129.141 Y67.461 E36.25622
G1 X108.905 Y87.697 E37.20665
G1 X110.788 Y86.191 E37.28673
G1 X129.141 Y67.837 E38.14873
G1 X129.141 Y68.214 E38.16124
G1 X112.671 Y84.685 E38.93482
G1 X114.553 Y83.179 E39.01489
G1 X129.141 Y68.591 E39.70004
G1 X129.141 Y68.732 E39.70473
G1 X129.028 Y69.080 E39.71690
G1 X116.436 Y81.672 E40.30830
G1 X118.319 Y80.166 E40.38837
G1 X128.847 Y69.638 E40.88283
G1 X128.666 Y70.196 E40.90231
G1 X120.202 Y78.660 E41.29982
G1 X122.085 Y77.154 E41.37990
G1 X128.484 Y70.754 E41.68046
G1 X128.303 Y71.312 E41.69994
G1 X123.968 Y75.647 E41.90357
G1 X125.850 Y74.141 E41.98364
G1 X128.122 Y71.870 E42.09033
G1 X127.941 Y72.427 E42.10981
G1 X127.733 Y72.635 E42.11955
G1 E40.11955 F2400.00000
G92 E0
G1 X125.014 Y66.316 F7800.000
G1 E2.00000 F2400.00000
G1 F1800.000
G1 X128.440 Y62.891 E2.16089
G1 X128.348 Y62.606 E2.17081
G1 X125.195 Y65.759 E2.31887
G1 X125.376 Y65.201 E2.33833
G1 X128.255 Y62.322 E2.47356
G1 X128.163 Y62.038 E2.48349
G1 X125.332 Y64.869 E2.61645
G1 X125.240 Y64.585 E2.62638
G1 X128.071 Y61.754 E2.75934
G1 X127.978 Y61.470 E2.76927
G1 X125.147 Y64.300 E2.90222
G1 X125.055 Y64.016 E2.91215
G1 X127.801 Y61.270 E3.04112
G1 X127.583 Y61.112 E3.05007
G1 X124.963 Y63.732 E3.17314
G1 X124.929 Y63.627 E3.17678
G1 X124.791 Y63.527 E3.18245
G1 X127.365 Y60.953 E3.30334
G1 X127.147 Y60.795 E3.31229
G1 X124.573 Y63.369 E3.43318
G1 X124.355 Y63.210 E3.44213
G1 X126.929 Y60.636 E3.56303
G1 X126.711 Y60.478 E3.57198
G1 X124.137 Y63.052 E3.69287
G1 X123.919 Y62.893 E3.70182
G1 X126.493 Y60.319 E3.82271
G1 X126.275 Y60.161 E3.83167
G1 X123.701 Y62.735 E3.95256
G1 X123.673 Y62.715 E3.95368
G1 X123.344 Y62.715 E3.96462
G1 X126.056 Y60.002 E4.09202
G1 X125.838 Y59.844 E4.10097
G1 X122.967 Y62.715 E4.23581
G1 X122.591 Y62.715 E4.24832
G1 X125.620 Y59.685 E4.39060
G1 X125.402 Y59.527 E4.39955
G1 X122.214 Y62.715 E4.54928
G1 X122.120 Y62.715 E4.55240
G1 X121.087 Y63.465 E4.59481
G1 X125.184 Y59.368 E4.78723
G1 X124.966 Y59.210 E4.79618
G1 X104.709 Y79.467 E5.74760
G1 X104.490 Y79.309 E5.75655
G1 X124.598 Y59.201 E6.70094
G1 X124.222 Y59.201 E6.71345
G1 X104.272 Y79.151 E7.65039
G1 X104.054 Y78.992 E7.65935
G1 X123.845 Y59.201 E8.58885
G1 X123.469 Y59.201 E8.60136
G1 X103.836 Y78.834 E9.52342
G1 X103.673 Y78.715 E9.53013
G1 X103.578 Y78.715 E9.53327
G1 X123.092 Y59.201 E10.44975
G1 X122.716 Y59.201 E10.46226
G1 X103.202 Y78.715 E11.37874
G1 X102.825 Y78.715 E11.39125
G1 X122.339 Y59.201 E12.30774
G1 X121.962 Y59.201 E12.32024
G1 X102.449 Y78.715 E13.23673
G1 X102.121 Y78.715 E13.24762
G1 X101.943 Y78.844 E13.25491
G1 X121.586 Y59.201 E14.17746
G1 X121.209 Y59.201 E14.18996
G1 X89.612 Y90.799 E15.67399
G1 X89.235 Y90.799 E15.68650
G1 X120.833 Y59.201 E17.17052
G1 X120.456 Y59.201 E17.18303
G1 X88.858 Y90.799 E18.66706
G1 X88.482 Y90.799 E18.67956
G1 X120.080 Y59.201 E20.16359
