; generated by Slic3r 1.3.1-dev (Build 2ef957d) on 2019-11-25 at 09:22:19

; external perimeters extrusion width = 0.55mm (4.37mm^3/s)
; perimeters extrusion width = 0.70mm (11.44mm^3/s)
; infill extrusion width = 0.62mm (13.45mm^3/s)
; solid infill extrusion width = 0.70mm (3.81mm^3/s)
; top infill extrusion width = 0.70mm (2.86mm^3/s)

M107
G92 E0
M104 S200 ; set temperature
G28 ; home all axes
G1 Z5 F5000 ; lift nozzle

; Filament gcode

M109 S200 ; set temperature and wait for it to be reached
G21 ; set units to millimeters
G90 ; use absolute coordinates
M82 ; use absolute distances for extrusion
G92 E0
G1 Z0.350 F7800.000
G1 E-2.00000 F2400.00000
G92 E0
G1 X74.445 Y76.844 F7800.000
G1 E2.00000 F2400.00000
G1 F1800.000
G1 X76.198 Y75.365 E2.07096
G1 X78.350 Y74.572 E2.14192
G1 X79.529 Y74.466 E2.17858
G1 X106.929 Y74.466 E3.02637
G1 X109.195 Y74.866 E3.09756
G1 X122.736 Y79.794 E3.54342
G1 X124.723 Y80.940 E3.61438
G1 X126.200 Y82.694 E3.68535
G1 X126.991 Y84.847 E3.75631
G1 X127.000 Y87.141 E3.82727
G1 X126.696 Y88.285 E3.86392
G1 X114.725 Y121.175 E4.94687
G1 X113.580 Y123.162 E5.01783
G1 X111.825 Y124.639 E5.08879
G1 X109.672 Y125.429 E5.15976
G1 X107.858 Y125.503 E5.21592
G1 X78.888 Y122.685 E6.11653
G1 X76.678 Y122.071 E6.18750
G1 X74.810 Y120.741 E6.25846
G1 X73.508 Y118.853 E6.32942
G1 X72.905 Y116.091 E6.41689
G1 X72.905 Y81.091 E7.49984
G1 X73.302 Y78.832 E7.57080
G1 X74.408 Y76.909 E7.63944
G1 E5.63944 F2400.00000
G92 E0
G1 X107.925 Y112.009 F7800.000
G1 E2.00000 F2400.00000
G1 F1800.000
G1 X105.649 Y112.661 E2.07328
G1 X103.423 Y111.852 E2.14656
G1 X102.099 Y109.888 E2.21984
G1 X102.181 Y107.521 E2.29312
G1 X103.640 Y105.655 E2.36640
G1 X105.916 Y105.002 E2.43968
G1 X108.142 Y105.812 E2.51296
G1 X109.466 Y107.775 E2.58624
G1 X109.383 Y110.142 E2.65952
G1 X107.971 Y111.950 E2.73049
G1 X107.558 Y111.464 F7800.000
G1 F1800.000
G1 X105.672 Y112.005 E2.79120
G1 X103.828 Y111.334 E2.85191
G1 X102.730 Y109.707 E2.91263
G1 X102.799 Y107.746 E2.97335
G1 X104.007 Y106.199 E3.03407
G1 X105.893 Y105.659 E3.09478
G1 X107.737 Y106.330 E3.15549
G1 X108.835 Y107.957 E3.21621
G1 X108.766 Y109.918 E3.27693
G1 X107.604 Y111.405 E3.33533
G1 X107.190 Y110.919 F7800.000
G1 F1800.000
G1 X105.695 Y111.348 E3.38348
G1 X104.232 Y110.816 E3.43163
G1 X103.362 Y109.526 E3.47978
G1 X103.416 Y107.971 E3.52793
G1 X104.374 Y106.744 E3.57608
G1 X105.870 Y106.315 E3.62423
G1 X107.333 Y106.847 E3.67238
G1 X108.203 Y108.138 E3.72054
G1 X108.149 Y109.693 E3.76869
G1 X107.237 Y110.860 E3.81452
G1 X107.190 Y110.919 F7800.000
G1 E1.81452 F2400.00000
G92 E0
G1 X110.903 Y94.323 F7800.000
G1 E2.00000 F2400.00000
G1 F1800.000
G1 X110.903 Y93.290 E2.03194
G1 X110.264 Y93.058 E2.05299
G1 X108.939 Y91.094 E2.12627
G1 X109.022 Y88.727 E2.19955
G1 X110.480 Y86.861 E2.27283
G1 X112.757 Y86.208 E2.34611
G1 X114.982 Y87.018 E2.41939
G1 X116.307 Y88.982 E2.49267
G1 X116.224 Y91.349 E2.56596
G1 X114.766 Y93.215 E2.63923
G1 X110.975 Y94.302 E2.76125
G1 X111.528 Y93.493 F7800.000
G1 F1800.000
G1 X111.528 Y92.853 E2.78107
G1 X110.668 Y92.540 E2.80938
G1 X109.571 Y90.913 E2.87009
G1 X109.639 Y88.952 E2.93081
G1 X110.847 Y87.406 E2.99152
G1 X112.734 Y86.865 E3.05224
G1 X114.578 Y87.536 E3.11295
G1 X115.675 Y89.163 E3.17367
G1 X115.606 Y91.124 E3.23439
G1 X114.398 Y92.670 E3.29510
G1 X111.600 Y93.473 E3.38518
G1 X112.153 Y92.664 F7800.000
G1 F1800.000
G1 X112.153 Y92.415 E3.39287
G1 X111.073 Y92.022 E3.42844
G1 X110.202 Y90.732 E3.47659
G1 X110.257 Y89.177 E3.52474
G1 X111.215 Y87.950 E3.57289
G1 X112.711 Y87.521 E3.62104
G1 X114.173 Y88.054 E3.66919
G1 X115.043 Y89.344 E3.71734
G1 X114.989 Y90.899 E3.76550
G1 X114.031 Y92.125 E3.81365
G1 X112.225 Y92.643 E3.87178
G1 X112.153 Y92.664 F7800.000
G1 E1.87178 F2400.00000
G92 E0
G1 X98.629 Y84.241 F7800.000
G1 E2.00000 F2400.00000
G1 F1800.000
G1 X81.129 Y84.241 E2.54147
G1 X81.129 Y82.691 E2.58945
G1 X106.647 Y82.691 E3.37901
G1 X118.420 Y86.976 E3.76665
G1 X107.544 Y116.858 E4.75060
G1 X101.040 Y114.491 E4.96474
G1 X81.129 Y114.491 E5.58081
G1 X81.129 Y112.941 E5.62878
G1 X98.629 Y112.941 E6.17025
G1 X98.629 Y84.316 E7.05593
G1 X98.004 Y84.866 F7800.000
G1 F1800.000
G1 X80.504 Y84.866 E7.59741
G1 X80.504 Y82.066 E7.68405
G1 X106.758 Y82.066 E8.49636
G1 X119.221 Y86.602 E8.90674
G1 X107.917 Y117.659 E9.92936
G1 X100.930 Y115.116 E10.15943
G1 X80.504 Y115.116 E10.79142
G1 X80.504 Y112.316 E10.87806
G1 X98.004 Y112.316 E11.41954
G1 X98.004 Y84.941 E12.26655
G1 X97.379 Y85.491 F7800.000
G1 F1800.000
G1 X79.879 Y85.491 E12.80802
G1 X79.879 Y81.441 E12.93333
G1 X106.868 Y81.441 E13.76839
G1 X120.022 Y86.229 E14.20151
G1 X108.291 Y118.460 E15.26280
G1 X100.820 Y115.741 E15.50879
G1 X79.879 Y115.741 E16.15671
G1 X79.879 Y111.691 E16.28203
G1 X97.379 Y111.691 E16.82350
G1 X97.379 Y85.566 E17.63184
G1 X97.477 Y85.001 F7800.000
G1 E15.63184 F2400.00000
G92 E0
G1 X98.942 Y83.466 F7800.000
G1 E2.00000 F2400.00000
G1 F1800.000
G1 X81.442 Y83.466 E2.73692
G1 E0.73692 F2400.00000
G92 E0
G1 X99.324 Y83.559 F7800.000
G1 E2.00000 F2400.00000
G1 F1800.000
G1 X99.810 Y83.073 E2.02158
G1 X100.706 Y83.073 E2.04972
G1 X99.324 Y84.455 E2.11111
G1 X99.324 Y84.797 E2.12182
G1 X99.011 Y84.797 E2.13163
G1 X99.011 Y85.664 E2.15886
G1 X101.603 Y83.073 E2.27392
G1 X102.499 Y83.073 E2.30206
G1 X99.011 Y86.561 E2.45692
G1 X99.011 Y87.458 E2.48506
G1 X103.396 Y83.073 E2.67972
G1 X104.293 Y83.073 E2.70786
G1 X99.011 Y88.354 E2.94232
G1 X99.011 Y89.251 E2.97047
G1 X105.189 Y83.073 E3.24472
G1 X106.086 Y83.073 E3.27287
G1 X99.011 Y90.147 E3.58693
G1 X99.011 Y91.044 E3.61507
G1 X106.928 Y83.127 E3.96654
G1 X107.586 Y83.366 E3.98850
G1 X99.011 Y91.940 E4.36915
G1 X99.011 Y92.837 E4.39729
G1 X108.243 Y83.605 E4.80712
G1 X108.900 Y83.844 E4.82908
G1 X99.011 Y93.733 E5.26808
G1 X99.011 Y94.630 E5.29623
G1 X109.558 Y84.084 E5.76442
G1 X110.215 Y84.323 E5.78637
G1 X99.011 Y95.527 E6.28374
G1 X99.011 Y96.423 E6.31189
G1 X110.872 Y84.562 E6.83844
G1 X111.530 Y84.801 E6.86039
G1 X99.011 Y97.320 E7.41612
G1 E5.41612 F2400.00000
G92 E0
G1 X101.806 Y107.076 F7800.000
G1 E2.00000 F2400.00000
G1 F1800.000
G1 X99.011 Y109.872 E2.12408
G1 X99.011 Y110.768 E2.15223
G1 X101.774 Y108.005 E2.27487
G1 X101.741 Y108.934 E2.30405
G1 X99.011 Y111.665 E2.42525
G1 X99.011 Y112.561 E2.45340
G1 X101.725 Y109.848 E2.57386
G1 X102.086 Y110.383 E2.59413
G1 X99.324 Y113.145 E2.71676
G1 X99.324 Y114.042 E2.74490
G1 X102.447 Y110.918 E2.88356
G1 X102.808 Y111.454 E2.90384
G1 X100.153 Y114.109 E3.02173
G1 X100.907 Y114.109 E3.04542
G1 X101.011 Y114.147 E3.04889
G1 X103.169 Y111.989 E3.14470
G1 X103.262 Y112.126 E3.14989
G1 X103.751 Y112.304 E3.16622
G1 X101.669 Y114.387 E3.25866
G1 X102.326 Y114.626 E3.28062
G1 X104.408 Y112.543 E3.37306
G1 X105.066 Y112.783 E3.39502
G1 X102.983 Y114.865 E3.48746
G1 X103.641 Y115.104 E3.50941
G1 X105.723 Y113.022 E3.60186
G1 X105.869 Y113.075 E3.60673
G1 X106.847 Y112.795 E3.63866
G1 X104.298 Y115.344 E3.75181
G1 X104.955 Y115.583 E3.77377
G1 X108.104 Y112.434 E3.91354
G1 X108.386 Y112.353 E3.92275
G1 X108.625 Y112.486 E3.93133
G1 X108.439 Y112.995 E3.94834
G1 X105.612 Y115.822 E4.07384
G1 X106.270 Y116.061 E4.09579
G1 X107.926 Y114.405 E4.16934
G1 X107.413 Y115.814 E4.21642
G1 X106.927 Y116.301 E4.23801
G1 E2.23801 F2400.00000
G92 E0
G1 X109.556 Y107.395 F7800.000
G1 E2.00000 F2400.00000
G1 F1800.000
G1 X111.005 Y105.947 E2.06429
G1 X111.518 Y104.537 E2.11138
G1 X109.195 Y106.860 E2.21448
G1 X108.834 Y106.324 E2.23475
G1 X112.031 Y103.128 E2.37666
G1 X112.544 Y101.718 E2.42375
G1 X108.473 Y105.789 E2.60447
G1 X108.303 Y105.537 E2.61400
G1 X107.955 Y105.410 E2.62563
G1 X113.057 Y100.309 E2.85213
G1 X113.570 Y98.899 E2.89921
G1 X107.298 Y105.171 E3.17766
G1 X106.640 Y104.932 E3.19962
G1 X114.083 Y97.489 E3.53003
G1 X114.596 Y96.080 E3.57712
G1 X105.983 Y104.693 E3.95948
G1 X105.696 Y104.588 E3.96906
G1 X104.988 Y104.792 E3.99219
G1 X115.109 Y94.670 E4.44152
G1 X115.465 Y93.692 E4.47419
G1 X115.289 Y93.594 E4.48053
G1 X103.731 Y105.152 E4.99362
G1 X103.029 Y105.353 E5.01653
G1 X101.321 Y107.539 E5.10362
G1 X101.320 Y107.562 E5.10434
G1 E3.10434 F2400.00000
G92 E0
G1 X99.011 Y108.975 F7800.000
G1 E2.00000 F2400.00000
G1 F1800.000
G1 X114.105 Y93.881 E2.67007
G1 X112.848 Y94.241 E2.71112
G1 X99.011 Y108.078 E3.32538
G1 X99.011 Y107.182 E3.35352
G1 X111.591 Y94.602 E3.91198
G1 X110.521 Y94.909 E3.94692
G1 X110.521 Y94.775 E3.95111
G1 X99.011 Y106.285 E4.46207
G1 X99.011 Y105.389 E4.49022
G1 X110.521 Y93.879 E5.00118
G1 X110.521 Y93.485 E5.01354
G1 X110.153 Y93.351 E5.02586
G1 X99.011 Y104.492 E5.52046
G1 X99.011 Y103.596 E5.54860
G1 X109.769 Y92.838 E6.02616
G1 X109.408 Y92.303 E6.04644
G1 X99.011 Y102.699 E6.50797
G1 X99.011 Y101.803 E6.53611
G1 X109.046 Y91.767 E6.98161
G1 X108.685 Y91.232 E7.00188
G1 X99.011 Y100.906 E7.43134
G1 X99.011 Y100.009 E7.45949
G1 X108.571 Y90.449 E7.88388
G1 X108.603 Y89.521 E7.91306
G1 X99.011 Y99.113 E8.33889
G1 X99.011 Y98.216 E8.36703
G1 X108.636 Y88.592 E8.79430
G1 E6.79430 F2400.00000
G92 E0
G1 X110.989 Y86.238 F7800.000
G1 E2.00000 F2400.00000
G1 F1800.000
G1 X112.125 Y85.102 E2.05044
G1 X112.135 Y85.116 E2.05097
G1 X111.957 Y85.274 E2.05844
G1 X111.986 Y85.307 E2.05983
G1 X111.889 Y85.393 E2.06389
G1 X111.919 Y85.426 E2.06528
G1 X111.870 Y85.469 E2.06731
G1 X111.990 Y85.604 E2.07299
G1 X111.475 Y85.752 E2.08982
G1 E0.08982 F2400.00000
G92 E0
G1 X108.698 Y111.972 F7800.000
G1 E2.00000 F2400.00000
G1 F1800.000
G1 X108.606 Y112.139 E2.00399
G1 X108.698 Y111.972 F7800.000
G1 F1800.000
G1 X108.883 Y111.639 E2.01022
G1 F1800.000
G1 X109.068 Y111.305 E2.01473
G1 F1800.000
G1 X109.253 Y110.972 E2.01749
G1 F1800.000
G1 X109.437 Y110.639 E2.01853
G1 X109.744 Y109.797 F7800.000
G1 F1800.000
G1 X109.780 Y109.610 E2.01905
G1 F1800.000
G1 X109.853 Y109.236 E2.02182
G1 F1800.000
G1 X109.925 Y108.862 E2.02632
G1 F1800.000
G1 X109.998 Y108.487 E2.03256
G1 F1800.000
G1 X110.071 Y108.113 E2.04053
G1 E0.04053 F2400.00000
G92 E0
G1 X98.942 Y113.716 F7800.000
G1 E2.00000 F2400.00000
G1 F1800.000
G1 X81.442 Y113.716 E2.73692
G1 E0.73692 F2400.00000
G92 E0
G1 X115.446 Y93.345 F7800.000
G1 E2.00000 F2400.00000
G1 F1800.000
G1 X115.539 Y93.178 E2.00398
G1 F1800.000
G1 X115.723 Y92.845 E2.01022
G1 F1800.000
G1 X115.908 Y92.511 E2.01472
G1 F1800.000
G1 X116.093 Y92.178 E2.01749
G1 F1800.000
G1 X116.278 Y91.845 E2.01853
G1 X116.584 Y91.003 F7800.000
G1 F1800.000
G1 X116.620 Y90.816 E2.01904
G1 F1800.000
G1 X116.693 Y90.442 E2.02181
G1 F1800.000
G1 X116.766 Y90.068 E2.02631
G1 F1800.000
G1 X116.839 Y89.694 E2.03255
G1 F1800.000
G1 X116.911 Y89.319 E2.04052
G1 X116.876 Y88.966 F7800.000
G1 F1800.000
G1 X117.362 Y88.480 E2.06253
G1 X116.368 Y88.559 F7800.000
G1 F1800.000
G1 X117.832 Y87.095 E2.12882
G1 X117.162 Y86.851 E2.15166
G1 X116.000 Y88.013 E2.20427
G1 X115.744 Y87.634 E2.21893
G1 X115.923 Y87.607 E2.22472
G1 X115.904 Y87.479 E2.22887
G1 X115.948 Y87.473 E2.23028
G1 X115.929 Y87.345 E2.23442
G1 X116.001 Y87.334 E2.23675
G1 X115.962 Y87.136 E2.24319
G1 X116.448 Y86.650 E2.26521
G1 X115.312 Y86.859 F7800.000
G1 F1800.000
G1 X115.293 Y86.731 E2.26660
G1 F1800.000
G1 X115.274 Y86.603 E2.26855
G1 F1800.000
G1 X115.258 Y86.515 E2.27030
G1 F1800.000
G1 X115.244 Y86.467 E2.27148
G1 X112.911 Y85.617 E2.32987
G1 X112.848 Y85.660 E2.33164
G1 F1800.000
G1 X112.751 Y85.745 E2.33416
G1 F1800.000
G1 X112.655 Y85.831 E2.33612
G1 F1800.000
G1 X112.606 Y85.874 E2.33681
G1 Z0.650 F7800.000
G1 E0.33681 F2400.00000
G92 E0
G1 X103.715 Y105.767 F7800.000
G1 E2.00000 F2400.00000
G1 F900.000
G1 X105.911 Y105.137 E2.06164
G1 X108.058 Y105.918 E2.12327
G1 X109.336 Y107.813 E2.18491
G1 X109.256 Y110.096 E2.24655
G1 X107.850 Y111.897 E2.30819
G1 X105.653 Y112.526 E2.36982
G1 X103.506 Y111.745 E2.43146
G1 X102.229 Y109.851 E2.49309
G1 X102.308 Y107.567 E2.55473
G1 X103.669 Y105.826 E2.61435
G1 X104.089 Y106.321 F7800.000
G1 F900.000
G1 X105.888 Y105.805 E2.66484
G1 X107.647 Y106.445 E2.71533
G1 X108.694 Y107.997 E2.76583
G1 X108.628 Y109.868 E2.81633
G1 X107.476 Y111.343 E2.86682
G1 X105.677 Y111.858 E2.91731
G1 X103.918 Y111.218 E2.96781
G1 X102.871 Y109.667 E3.01830
G1 X102.936 Y107.796 E3.06880
G1 X104.043 Y106.380 E3.11727
G1 X104.419 Y106.810 F7800.000
G1 F900.000
G1 X105.868 Y106.394 E3.14834
G1 X107.284 Y106.910 E3.17941
G1 X108.127 Y108.159 E3.21048
G1 X108.075 Y109.666 E3.24155
G1 X107.146 Y110.854 E3.27262
G1 X105.697 Y111.269 E3.30369
G1 X104.281 Y110.754 E3.33476
G1 X103.438 Y109.504 E3.36583
G1 X103.490 Y107.998 E3.39690
G1 X104.372 Y106.869 E3.42642
G1 X104.384 Y106.311 F7800.000
G1 X110.347 Y92.951 F7800.000
G1 F900.000
G1 X109.069 Y91.057 E3.48806
G1 X109.149 Y88.773 E3.54969
G1 X110.556 Y86.973 E3.61133
G1 X112.752 Y86.343 E3.67297
G1 X114.899 Y87.125 E3.73460
G1 X116.177 Y89.019 E3.79624
G1 X116.097 Y91.302 E3.85788
G1 X114.690 Y93.103 E3.91952
G1 X112.494 Y93.733 E3.98115
G1 X110.417 Y92.977 E4.04077
G1 X110.758 Y92.424 F7800.000
G1 F900.000
G1 X109.712 Y90.873 E4.09126
G1 X109.777 Y89.002 E4.14176
G1 X110.929 Y87.527 E4.19225
G1 X112.729 Y87.011 E4.24275
G1 X114.487 Y87.651 E4.29324
G1 X115.534 Y89.203 E4.34373
G1 X115.469 Y91.074 E4.39423
G1 X114.316 Y92.549 E4.44472
G1 X112.517 Y93.065 E4.49522
G1 X110.829 Y92.450 E4.54369
G1 X111.121 Y91.960 F7800.000
G1 F900.000
G1 X110.278 Y90.710 E4.57476
G1 X110.331 Y89.204 E4.60583
G1 X111.259 Y88.016 E4.63690
G1 X112.708 Y87.600 E4.66797
G1 X114.125 Y88.116 E4.69903
G1 X114.968 Y89.366 E4.73011
G1 X114.915 Y90.872 E4.76118
G1 X113.987 Y92.060 E4.79224
G1 X112.538 Y92.476 E4.82331
G1 X111.192 Y91.986 E4.85284
G1 X111.121 Y91.960 F7800.000
G1 X98.501 Y84.370 F7800.000
G1 F3600.000
G1 X81.001 Y84.370 E5.32493
G1 X81.001 Y82.562 E5.37369
G1 X106.670 Y82.562 E6.06616
G1 X118.585 Y86.899 E6.40820
G1 X107.620 Y117.023 E7.27300
G1 X101.018 Y114.620 E7.46256
G1 X81.001 Y114.620 E8.00254
G1 X81.001 Y112.812 E8.05131
G1 X98.501 Y112.812 E8.52339
G1 X98.501 Y84.445 E9.28865
G1 X97.865 Y85.005 F7800.000
G1 F3600.000
G1 X80.365 Y85.005 E9.76074
G1 X80.365 Y81.927 E9.84379
G1 X106.782 Y81.927 E10.55643
G1 X119.399 Y86.519 E10.91865
G1 X108.000 Y117.838 E11.81775
G1 X100.905 Y115.255 E12.02143
G1 X80.365 Y115.255 E12.57553
G1 X80.365 Y112.177 E12.65859
G1 X97.865 Y112.177 E13.13068
G1 X97.865 Y85.080 E13.86164
G1 X97.304 Y85.566 F7800.000
G1 F1800.000
G1 X79.804 Y85.566 E14.22232
G1 X79.804 Y81.366 E14.30888
G1 X106.881 Y81.366 E14.86694
G1 X120.118 Y86.184 E15.15727
G1 X108.335 Y118.556 E15.86729
G1 X100.807 Y115.816 E16.03242
G1 X79.804 Y115.816 E16.46528
G1 X79.804 Y111.616 E16.55185
G1 X97.304 Y111.616 E16.91253
G1 X97.304 Y85.641 E17.44788
G1 X97.402 Y85.076 F7800.000
G1 X112.678 Y85.583 F7800.000
G1 F1200.000
G1 X112.184 Y85.088 E17.46679
G1 X110.768 Y84.573 E17.50752
G1 X112.319 Y86.124 E17.56682
G1 X111.619 Y86.325 E17.58650
G1 X109.351 Y84.057 E17.67317
G1 X107.935 Y83.542 E17.71391
G1 X110.919 Y86.526 E17.82795
G1 X110.429 Y86.666 E17.84173
G1 X110.311 Y86.818 E17.84693
G1 X106.519 Y83.027 E17.99185
G1 X106.311 Y82.951 E17.99785
G1 X105.543 Y82.951 E18.01861
G1 X109.915 Y87.323 E18.18575
G1 X109.520 Y87.829 E18.20310
G1 X104.642 Y82.951 E18.38957
G1 X103.741 Y82.951 E18.41391
G1 X109.125 Y88.335 E18.61971
G1 X108.768 Y88.792 E18.63540
G1 X108.765 Y88.875 E18.63765
G1 X102.841 Y82.951 E18.86410
G1 X101.940 Y82.951 E18.88844
G1 X108.735 Y89.745 E19.14817
G1 X108.704 Y90.616 E19.17170
G1 X101.040 Y82.951 E19.46469
G1 X100.139 Y82.951 E19.48904
G1 X108.674 Y91.486 E19.81529
G1 X110.183 Y93.725 E19.88826
G1 X111.331 Y94.143 E19.92130
G1 X114.467 Y97.279 E20.04119
G1 X114.227 Y97.940 E20.06018
G1 X99.238 Y82.951 E20.63313
G1 X98.338 Y82.951 E20.65747
G1 X99.368 Y83.981 E20.69687
G1 X98.468 Y83.981 E20.72122
G1 X97.437 Y82.951 E20.76062
G1 X96.536 Y82.951 E20.78496
G1 X97.567 Y83.981 E20.82436
G1 X96.666 Y83.981 E20.84870
G1 X95.636 Y82.951 E20.88810
G1 X94.735 Y82.951 E20.91245
G1 X95.766 Y83.981 E20.95184
G1 X94.865 Y83.981 E20.97619
G1 X93.834 Y82.951 E21.01559
G1 X92.934 Y82.951 E21.03993
G1 X93.964 Y83.981 E21.07933
G1 X93.064 Y83.981 E21.10367
G1 X92.033 Y82.951 E21.14307
