; generated by Slic3r 1.3.1-dev (Build 2ef957d) on 2019-11-25 at 09:20:11

; external perimeters extrusion width = 0.55mm (4.37mm^3/s)
; perimeters extrusion width = 0.70mm (11.44mm^3/s)
; infill extrusion width = 0.62mm (13.45mm^3/s)
; solid infill extrusion width = 0.70mm (3.81mm^3/s)
; top infill extrusion width = 0.70mm (2.86mm^3/s)

M107
G92 E0
M104 S200 ; set temperature
G28 ; home all axes
G1 Z5 F5000 ; lift nozzle

; Filament gcode

M109 S200 ; set temperature and wait for it to be reached
G21 ; set units to millimeters
G90 ; use absolute coordinates
M82 ; use absolute distances for extrusion
G92 E0
G1 Z0.350 F7800.000
G1 E-2.00000 F2400.00000
G92 E0
G1 X45.943 Y77.983 F7800.000
G1 E2.00000 F2400.00000
G1 F1800.000
G1 X48.004 Y76.976 E2.07096
G1 X49.837 Y76.718 E2.12825
G1 X150.163 Y76.718 E5.23247
G1 X152.422 Y77.115 E5.30343
G1 X154.057 Y77.983 E5.36072
G1 X157.557 Y80.526 E5.49458
G1 X159.151 Y82.175 E5.56554
G1 X159.964 Y83.838 E5.62282
G1 X161.301 Y87.953 E5.75668
G1 X161.625 Y90.000 E5.82082
G1 X161.625 Y93.987 E5.94419
G1 X161.301 Y96.035 E6.00833
G1 X159.964 Y100.149 E6.14219
G1 X158.888 Y102.175 E6.21316
G1 X157.802 Y103.275 E6.26100
G1 X137.786 Y119.288 E7.05410
G1 X134.042 Y122.017 E7.19747
G1 X131.981 Y123.024 E7.26843
G1 X130.147 Y123.282 E7.32572
G1 X49.837 Y123.282 E9.81063
G1 X47.578 Y122.885 E9.88160
G1 X45.943 Y122.017 E9.93888
G1 X42.443 Y119.474 E10.07274
G1 X40.849 Y117.825 E10.14370
G1 X40.036 Y116.162 E10.20099
G1 X38.699 Y112.047 E10.33485
G1 X38.375 Y110.000 E10.39898
G1 X38.375 Y90.000 E11.01781
G1 X38.699 Y87.953 E11.08194
G1 X40.036 Y83.838 E11.21580
G1 X41.112 Y81.813 E11.28676
G1 X42.443 Y80.526 E11.34405
G1 X45.882 Y78.027 E11.47559
G1 E9.47559 F2400.00000
G92 E0
G1 X54.128 Y112.928 F7800.000
G1 E2.00000 F2400.00000
G1 F1800.000
G1 X53.119 Y113.443 E2.03504
G1 X52.000 Y113.620 E2.07008
G1 X50.881 Y113.443 E2.10512
G1 X49.872 Y112.928 E2.14016
G1 X49.072 Y112.128 E2.17520
G1 X48.557 Y111.118 E2.21025
G1 X48.380 Y110.000 E2.24529
G1 X48.557 Y108.882 E2.28032
G1 X49.072 Y107.872 E2.31537
G1 X49.872 Y107.072 E2.35041
G1 X50.881 Y106.557 E2.38545
G1 X52.000 Y106.380 E2.42049
G1 X53.119 Y106.557 E2.45553
G1 X54.128 Y107.072 E2.49057
G1 X54.928 Y107.872 E2.52561
G1 X55.443 Y108.882 E2.56066
G1 X55.620 Y110.000 E2.59569
G1 X55.443 Y111.118 E2.63073
G1 X54.928 Y112.128 E2.66578
G1 X54.181 Y112.875 E2.69850
G1 X53.756 Y112.417 F7800.000
G1 F1800.000
G1 X52.923 Y112.841 E2.72741
G1 X52.000 Y112.987 E2.75633
G1 X51.077 Y112.841 E2.78525
G1 X50.244 Y112.417 E2.81416
G1 X49.583 Y111.756 E2.84308
G1 X49.159 Y110.923 E2.87200
G1 X49.013 Y110.000 E2.90091
G1 X49.159 Y109.077 E2.92982
G1 X49.583 Y108.244 E2.95874
G1 X50.244 Y107.583 E2.98766
G1 X51.077 Y107.159 E3.01657
G1 X52.000 Y107.013 E3.04549
G1 X52.923 Y107.159 E3.07441
G1 X53.756 Y107.583 E3.10332
G1 X54.417 Y108.244 E3.13224
G1 X54.841 Y109.077 E3.16116
G1 X54.987 Y110.000 E3.19007
G1 X54.841 Y110.923 E3.21899
G1 X54.417 Y111.756 E3.24791
G1 X53.809 Y112.364 E3.27450
G1 X53.384 Y111.905 F7800.000
G1 F1800.000
G1 X52.728 Y112.239 E3.29729
G1 X52.000 Y112.354 E3.32008
G1 X51.272 Y112.239 E3.34288
G1 X50.616 Y111.905 E3.36567
G1 X50.095 Y111.384 E3.38846
G1 X49.761 Y110.727 E3.41125
G1 X49.646 Y110.000 E3.43404
G1 X49.761 Y109.272 E3.45683
G1 X50.095 Y108.616 E3.47962
G1 X50.616 Y108.095 E3.50242
G1 X51.272 Y107.761 E3.52521
G1 X52.000 Y107.646 E3.54800
G1 X52.728 Y107.761 E3.57079
G1 X53.384 Y108.095 E3.59358
G1 X53.905 Y108.616 E3.61637
G1 X54.239 Y109.272 E3.63917
G1 X54.354 Y110.000 E3.66196
G1 X54.239 Y110.727 E3.68475
G1 X53.905 Y111.384 E3.70754
G1 X53.437 Y111.852 E3.72801
G1 X53.384 Y111.905 F7800.000
G1 E1.72801 F2400.00000
G92 E0
G1 X52.000 Y93.620 F7800.000
G1 E2.00000 F2400.00000
G1 F1800.000
G1 X50.881 Y93.443 E2.03504
G1 X49.872 Y92.928 E2.07008
G1 X49.072 Y92.128 E2.10512
G1 X48.557 Y91.119 E2.14016
G1 X48.380 Y90.000 E2.17520
G1 X48.557 Y88.881 E2.21025
G1 X49.072 Y87.872 E2.24529
G1 X49.872 Y87.072 E2.28033
G1 X50.881 Y86.557 E2.31537
G1 X52.000 Y86.380 E2.35041
G1 X53.119 Y86.557 E2.38545
G1 X54.128 Y87.072 E2.42049
G1 X54.928 Y87.872 E2.45553
G1 X55.443 Y88.881 E2.49057
G1 X55.620 Y90.000 E2.52561
G1 X55.443 Y91.119 E2.56065
G1 X54.928 Y92.128 E2.59570
G1 X54.128 Y92.928 E2.63074
G1 X53.119 Y93.443 E2.66578
G1 X52.074 Y93.608 E2.69850
G1 X52.000 Y92.987 F7800.000
G1 F1800.000
G1 X51.077 Y92.841 E2.72741
G1 X50.244 Y92.417 E2.75633
G1 X49.583 Y91.756 E2.78525
G1 X49.159 Y90.923 E2.81416
G1 X49.013 Y90.000 E2.84308
G1 X49.159 Y89.077 E2.87200
G1 X49.583 Y88.244 E2.90091
G1 X50.244 Y87.583 E2.92983
G1 X51.077 Y87.159 E2.95874
G1 X52.000 Y87.013 E2.98766
G1 X52.923 Y87.159 E3.01658
G1 X53.756 Y87.583 E3.04549
G1 X54.417 Y88.244 E3.07441
G1 X54.841 Y89.077 E3.10333
G1 X54.987 Y90.000 E3.13224
G1 X54.841 Y90.923 E3.16116
G1 X54.417 Y91.756 E3.19007
G1 X53.756 Y92.417 E3.21899
G1 X52.923 Y92.841 E3.24791
G1 X52.074 Y92.975 E3.27450
G1 X52.000 Y92.354 F7800.000
G1 F1800.000
G1 X51.272 Y92.239 E3.29729
G1 X50.616 Y91.905 E3.32009
G1 X50.095 Y91.384 E3.34288
G1 X49.761 Y90.728 E3.36567
G1 X49.646 Y90.000 E3.38846
G1 X49.761 Y89.272 E3.41125
G1 X50.095 Y88.616 E3.43404
G1 X50.616 Y88.095 E3.45683
G1 X51.272 Y87.761 E3.47963
G1 X52.000 Y87.646 E3.50242
G1 X52.728 Y87.761 E3.52521
G1 X53.384 Y88.095 E3.54800
G1 X53.905 Y88.616 E3.57079
G1 X54.239 Y89.272 E3.59358
G1 X54.354 Y90.000 E3.61638
G1 X54.239 Y90.728 E3.63917
G1 X53.905 Y91.384 E3.66196
G1 X53.384 Y91.905 E3.68475
G1 X52.728 Y92.239 E3.70754
G1 X52.074 Y92.343 E3.72801
G1 X52.000 Y92.354 F7800.000
G1 E1.72801 F2400.00000
G92 E0
G1 X64.818 Y90.000 F7800.000
G1 E2.00000 F2400.00000
G1 F1800.000
G1 X65.426 Y88.130 E2.06085
G1 X67.017 Y86.974 E2.12170
G1 X68.983 Y86.974 E2.18255
G1 X70.574 Y88.130 E2.24340
G1 X71.182 Y90.000 E2.30425
G1 X70.574 Y91.870 E2.36510
G1 X68.983 Y93.026 E2.42595
G1 X67.017 Y93.026 E2.48680
G1 X65.426 Y91.870 E2.54765
G1 X64.841 Y90.071 E2.60618
G1 X65.475 Y90.000 F7800.000
G1 F1800.000
G1 X65.957 Y88.516 E2.65447
G1 X67.220 Y87.599 E2.70276
G1 X68.780 Y87.599 E2.75104
G1 X70.043 Y88.516 E2.79933
G1 X70.525 Y90.000 E2.84761
G1 X70.043 Y91.484 E2.89590
G1 X68.780 Y92.401 E2.94419
G1 X67.220 Y92.401 E2.99247
G1 X65.957 Y91.484 E3.04076
G1 X65.498 Y90.071 E3.08672
G1 X66.132 Y90.000 F7800.000
G1 F1800.000
G1 X66.489 Y88.902 E3.12245
G1 X67.423 Y88.223 E3.15817
G1 X68.577 Y88.223 E3.19389
G1 X69.511 Y88.902 E3.22961
G1 X69.868 Y90.000 E3.26533
G1 X69.511 Y91.098 E3.30105
G1 X68.577 Y91.777 E3.33677
G1 X67.423 Y91.777 E3.37249
G1 X66.489 Y91.098 E3.40821
G1 X66.155 Y90.071 E3.44162
G1 X66.132 Y90.000 F7800.000
G1 E1.44162 F2400.00000
G92 E0
G1 X85.426 Y106.130 F7800.000
G1 E2.00000 F2400.00000
G1 F1800.000
G1 X87.017 Y104.974 E2.06085
G1 X88.983 Y104.974 E2.12170
G1 X90.574 Y106.130 E2.18255
G1 X91.182 Y108.000 E2.24340
G1 X90.574 Y109.870 E2.30425
G1 X88.983 Y111.026 E2.36510
G1 X87.017 Y111.026 E2.42595
G1 X85.426 Y109.870 E2.48680
G1 X84.818 Y108.000 E2.54765
G1 X85.402 Y106.201 E2.60619
G1 X85.957 Y106.516 F7800.000
G1 F1800.000
G1 X87.220 Y105.599 E2.65447
G1 X88.780 Y105.599 E2.70276
G1 X90.043 Y106.516 E2.75104
G1 X90.525 Y108.000 E2.79933
G1 X90.043 Y109.484 E2.84762
G1 X88.780 Y110.401 E2.89590
G1 X87.220 Y110.401 E2.94419
G1 X85.957 Y109.484 E2.99247
G1 X85.475 Y108.000 E3.04076
G1 X85.934 Y106.587 E3.08673
G1 X86.489 Y106.902 F7800.000
G1 F1800.000
G1 X87.423 Y106.223 E3.12245
G1 X88.577 Y106.223 E3.15817
G1 X89.511 Y106.902 E3.19389
G1 X89.868 Y108.000 E3.22961
G1 X89.511 Y109.098 E3.26533
G1 X88.577 Y109.777 E3.30106
G1 X87.423 Y109.777 E3.33678
G1 X86.489 Y109.098 E3.37250
G1 X86.132 Y108.000 E3.40822
G1 X86.466 Y106.973 E3.44162
G1 X86.489 Y106.902 F7800.000
G1 E1.44162 F2400.00000
G92 E0
G1 X105.426 Y91.870 F7800.000
G1 E2.00000 F2400.00000
G1 F1800.000
G1 X104.818 Y90.000 E2.06085
G1 X105.426 Y88.130 E2.12170
G1 X107.017 Y86.974 E2.18255
G1 X108.983 Y86.974 E2.24340
G1 X110.574 Y88.130 E2.30425
G1 X111.182 Y90.000 E2.36510
G1 X110.574 Y91.870 E2.42596
G1 X108.983 Y93.026 E2.48681
G1 X107.017 Y93.026 E2.54766
G1 X105.486 Y91.914 E2.60618
G1 X105.957 Y91.484 F7800.000
G1 F1800.000
G1 X105.475 Y90.000 E2.65447
G1 X105.957 Y88.516 E2.70276
G1 X107.220 Y87.599 E2.75104
G1 X108.780 Y87.599 E2.79933
G1 X110.043 Y88.516 E2.84761
G1 X110.525 Y90.000 E2.89590
G1 X110.043 Y91.484 E2.94419
G1 X108.780 Y92.401 E2.99247
G1 X107.220 Y92.401 E3.04076
G1 X106.018 Y91.528 E3.08672
G1 X106.489 Y91.098 F7800.000
G1 F1800.000
G1 X106.132 Y90.000 E3.12245
G1 X106.489 Y88.902 E3.15817
G1 X107.423 Y88.223 E3.19389
G1 X108.577 Y88.223 E3.22961
G1 X109.511 Y88.902 E3.26533
G1 X109.868 Y90.000 E3.30105
G1 X109.511 Y91.098 E3.33677
G1 X108.577 Y91.777 E3.37250
G1 X107.423 Y91.777 E3.40822
G1 X106.549 Y91.142 E3.44162
G1 X106.489 Y91.098 F7800.000
G1 E1.44162 F2400.00000
G92 E0
G1 X125.426 Y104.130 F7800.000
G1 E2.00000 F2400.00000
G1 F1800.000
G1 X127.017 Y102.974 E2.06085
G1 X128.983 Y102.974 E2.12170
G1 X130.574 Y104.130 E2.18255
G1 X131.182 Y106.000 E2.24340
G1 X130.574 Y107.870 E2.30425
G1 X128.983 Y109.026 E2.36510
G1 X127.017 Y109.026 E2.42595
G1 X125.426 Y107.870 E2.48680
G1 X124.818 Y106.000 E2.54766
G1 X125.402 Y104.201 E2.60619
G1 X125.957 Y104.516 F7800.000
G1 F1800.000
G1 X127.220 Y103.599 E2.65447
G1 X128.780 Y103.599 E2.70276
G1 X130.043 Y104.516 E2.75104
G1 X130.525 Y106.000 E2.79933
G1 X130.043 Y107.484 E2.84762
G1 X128.780 Y108.401 E2.89590
G1 X127.220 Y108.401 E2.94419
G1 X125.957 Y107.484 E2.99247
G1 X125.475 Y106.000 E3.04076
G1 X125.934 Y104.587 E3.08673
G1 X126.489 Y104.902 F7800.000
G1 F1800.000
G1 X127.423 Y104.223 E3.12245
G1 X128.577 Y104.223 E3.15817
G1 X129.511 Y104.902 E3.19389
G1 X129.868 Y106.000 E3.22961
G1 X129.511 Y107.098 E3.26534
G1 X128.577 Y107.777 E3.30106
G1 X127.423 Y107.777 E3.33678
G1 X126.489 Y107.098 E3.37250
G1 X126.132 Y106.000 E3.40822
G1 X126.466 Y104.973 E3.44162
G1 X126.489 Y104.902 F7800.000
G1 E1.44162 F2400.00000
G92 E0
G1 X145.425 Y91.870 F7800.000
G1 E2.00000 F2400.00000
G1 F1800.000
G1 X144.818 Y90.000 E2.06083
G1 X145.425 Y88.130 E2.12167
G1 X147.016 Y86.974 E2.18253
G1 X148.984 Y86.974 E2.24341
G1 X150.575 Y88.130 E2.30427
G1 X151.182 Y90.000 E2.36511
G1 X150.575 Y91.870 E2.42594
G1 X148.984 Y93.026 E2.48680
G1 X147.016 Y93.026 E2.54768
G1 X145.485 Y91.914 E2.60623
G1 X145.956 Y91.484 F7800.000
G1 F1800.000
G1 X145.475 Y90.000 E2.65450
G1 X145.956 Y88.516 E2.70277
G1 X147.219 Y87.599 E2.75107
G1 X148.781 Y87.599 E2.79938
G1 X150.044 Y88.516 E2.84768
G1 X150.525 Y90.000 E2.89595
G1 X150.043 Y91.484 E2.94423
G1 X148.781 Y92.401 E2.99252
G1 X147.219 Y92.401 E3.04084
G1 X146.017 Y91.528 E3.08681
G1 X146.488 Y91.098 F7800.000
G1 F1800.000
G1 X146.132 Y90.000 E3.12252
G1 X146.488 Y88.902 E3.15824
G1 X147.422 Y88.223 E3.19396
G1 X148.578 Y88.223 E3.22971
G1 X149.512 Y88.902 E3.26544
G1 X149.868 Y90.000 E3.30115
G1 X149.512 Y91.098 E3.33687
G1 X148.578 Y91.777 E3.37259
G1 X147.422 Y91.777 E3.40834
G1 X146.549 Y91.142 E3.44174
G1 X146.488 Y91.098 F7800.000
G1 E1.44174 F2400.00000
G92 E0
G1 X146.488 Y84.942 F7800.000
G1 E2.00000 F2400.00000
G1 F1800.000
G1 X149.643 Y84.942 E2.09762
G1 X152.302 Y86.874 E2.19931
G1 X153.400 Y90.253 E2.30925
G1 X153.400 Y93.734 E2.41695
G1 X152.290 Y97.152 E2.52815
G1 X132.677 Y112.842 E3.30528
G1 X129.628 Y115.058 E3.42190
G1 X50.357 Y115.058 E5.87465
G1 X47.698 Y113.126 E5.97635
G1 X46.600 Y109.747 E6.08628
G1 X46.600 Y90.253 E6.68943
G1 X47.698 Y86.874 E6.79937
G1 X50.357 Y84.942 E6.90106
G1 X146.413 Y84.942 E9.87317
G1 X146.488 Y84.317 F7800.000
G1 F1800.000
G1 X149.846 Y84.317 E9.97708
G1 X152.834 Y86.488 E10.09133
G1 X154.025 Y90.154 E10.21062
G1 X154.025 Y93.833 E10.32444
G1 X152.826 Y97.523 E10.44449
G1 X133.056 Y113.339 E11.22786
G1 X129.831 Y115.683 E11.35122
G1 X50.154 Y115.683 E13.81653
G1 X47.166 Y113.512 E13.93079
G1 X45.975 Y109.846 E14.05007
G1 X45.975 Y90.154 E14.65934
G1 X47.166 Y86.488 E14.77862
G1 X50.154 Y84.317 E14.89288
G1 X146.413 Y84.317 E17.87127
G1 X146.488 Y83.693 F7800.000
G1 F1800.000
G1 X150.049 Y83.693 E17.98146
G1 X153.365 Y86.102 E18.10828
G1 X154.650 Y90.055 E18.23691
G1 X154.650 Y93.932 E18.35686
G1 X153.363 Y97.894 E18.48576
G1 X133.435 Y113.836 E19.27537
G1 X130.034 Y116.307 E19.40545
G1 X49.951 Y116.307 E21.88333
G1 X46.635 Y113.898 E22.01016
G1 X45.350 Y109.945 E22.13878
G1 X45.350 Y90.055 E22.75418
G1 X46.635 Y86.102 E22.88280
G1 X49.951 Y83.693 E23.00962
G1 X146.413 Y83.693 E25.99430
G1 X146.742 Y84.124 F7800.000
G1 E23.99430 F2400.00000
G92 E0
G1 X144.283 Y89.119 F7800.000
G1 E2.00000 F2400.00000
G1 F1800.000
G1 X144.650 Y87.987 E2.03711
G1 X146.570 Y86.592 E2.11107
G1 X146.810 Y86.592 E2.11855
G1 X148.078 Y85.324 E2.17442
G1 X148.968 Y85.324 E2.20216
G1 X147.700 Y86.592 E2.25803
G1 X148.591 Y86.592 E2.28577
G1 X149.784 Y85.398 E2.33839
G1 X150.300 Y85.772 E2.35825
G1 X149.255 Y86.818 E2.40432
G1 X149.770 Y87.192 E2.42418
G1 X150.816 Y86.147 E2.47025
G1 X151.331 Y86.522 E2.49011
G1 X150.286 Y87.567 E2.53618
G1 X150.801 Y87.941 E2.55604
G1 X151.847 Y86.896 E2.60211
G1 X152.014 Y87.017 E2.60854
G1 X152.161 Y87.472 E2.62343
G1 X151.055 Y88.577 E2.67217
G1 X151.273 Y89.249 E2.69419
G1 X152.380 Y88.143 E2.74293
G1 X152.598 Y88.815 E2.76495
G1 X151.491 Y89.922 E2.81371
G1 X151.596 Y90.243 E2.82424
G1 X151.373 Y90.930 E2.84676
G1 X152.816 Y89.487 E2.91038
G1 X153.018 Y90.109 E2.93077
G1 X153.018 Y90.175 E2.93282
G1 X150.945 Y92.248 E3.02418
G1 E1.02418 F2400.00000
G92 E0
G1 X151.509 Y97.025 F7800.000
G1 E2.00000 F2400.00000
G1 F1800.000
G1 X151.996 Y96.538 E2.02146
G1 X152.425 Y95.219 E2.06466
G1 X147.059 Y100.585 E2.30116
G1 X142.608 Y104.146 E2.47879
G1 X152.853 Y93.901 E2.93033
G1 X153.018 Y93.392 E2.94699
G1 X153.018 Y92.845 E2.96404
G1 X138.157 Y107.706 E3.61901
G1 X133.707 Y111.267 E3.79664
G1 X153.018 Y91.955 E4.64778
G1 X153.018 Y91.065 E4.67552
G1 X130.008 Y114.075 E5.68967
G1 X129.182 Y114.676 E5.72150
G1 X128.517 Y114.676 E5.74220
G1 X150.729 Y92.464 E6.72114
G1 X149.430 Y93.408 E6.77118
G1 X148.895 Y93.408 E6.78785
G1 X127.627 Y114.676 E7.72519
G1 X126.737 Y114.676 E7.75293
G1 X148.005 Y93.408 E8.69027
G1 X147.115 Y93.408 E8.71801
G1 X125.847 Y114.676 E9.65535
G1 X124.957 Y114.676 E9.68309
G1 X146.575 Y93.058 E10.63585
G1 X146.059 Y92.684 E10.65571
G1 X131.161 Y107.582 E11.31232
G1 X131.590 Y106.263 E11.35552
G1 X145.543 Y92.309 E11.97052
G1 X145.136 Y92.013 E11.98621
G1 X145.090 Y91.872 E11.99083
G1 X131.381 Y105.581 E12.59505
G1 X131.163 Y104.910 E12.61707
G1 X144.872 Y91.200 E13.22130
G1 X144.654 Y90.528 E13.24332
G1 X130.945 Y104.238 E13.84756
G1 X130.863 Y103.986 E13.85579
G1 X130.540 Y103.752 E13.86822
G1 X144.436 Y89.856 E14.48068
G1 X144.404 Y89.757 E14.48392
G1 X144.769 Y88.633 E14.52073
G1 X130.025 Y103.377 E15.17056
G1 X129.509 Y103.003 E15.19042
G1 X147.188 Y85.324 E15.96958
G1 X146.298 Y85.324 E15.99732
G1 X128.994 Y102.628 E16.75998
G1 X128.943 Y102.592 E16.76191
G1 X128.140 Y102.592 E16.78695
G1 X145.408 Y85.324 E17.54799
G1 X144.517 Y85.324 E17.57573
G1 X127.250 Y102.592 E18.33678
G1 X126.571 Y102.592 E18.35794
G1 X125.799 Y103.152 E18.38765
G1 X143.627 Y85.324 E19.17340
G1 X142.737 Y85.324 E19.20114
G1 X113.386 Y114.676 E20.49477
G1 X112.496 Y114.676 E20.52251
G1 X141.847 Y85.324 E21.81614
G1 X140.957 Y85.324 E21.84388
G1 X111.605 Y114.676 E23.13751
G1 X110.715 Y114.676 E23.16525
G1 X140.067 Y85.324 E24.45888
G1 X139.177 Y85.324 E24.48662
G1 X109.825 Y114.676 E25.78025
G1 X108.935 Y114.676 E25.80799
G1 X138.287 Y85.324 E27.10163
G1 X137.397 Y85.324 E27.12937
G1 X108.045 Y114.676 E28.42300
G1 X107.155 Y114.676 E28.45074
G1 X136.506 Y85.324 E29.74437
G1 X135.616 Y85.324 E29.77211
G1 X106.265 Y114.676 E31.06574
G1 X105.375 Y114.676 E31.09348
G1 X134.726 Y85.324 E32.38711
G1 X133.836 Y85.324 E32.41485
G1 X104.485 Y114.676 E33.70848
G1 X103.594 Y114.676 E33.73622
G1 X132.946 Y85.324 E35.02985
G1 X132.056 Y85.324 E35.05759
G1 X102.704 Y114.676 E36.35123
G1 X101.814 Y114.676 E36.37897
G1 X131.166 Y85.324 E37.67260
G1 X130.276 Y85.324 E37.70034
G1 X100.924 Y114.676 E38.99397
G1 X100.034 Y114.676 E39.02171
