; generated by Slic3r 1.3.1-dev (Build adea0d9) on 2019-12-16 at 00:48:45

; external perimeters extrusion width = 0.44mm (2.86mm^3/s)
; perimeters extrusion width = 0.56mm (4.14mm^3/s)
; infill extrusion width = 0.50mm (3.66mm^3/s)
; solid infill extrusion width = 0.56mm (3.10mm^3/s)
; top infill extrusion width = 0.56mm (3.10mm^3/s)

M107
G92 E0
;D3D:START:START
T0
M104 S215 T0

G21
G90
M107
T0
G28
G29
M109 T0 S215 T0
G0 F3000
M107
T0
G92 E0
G0 X0 Y149 Z0.1 F3600
G1 Y49 E6.5 F1200
G0 Z1
G92 E0
; Filament gcode

G21 ; set units to millimeters
G90 ; use absolute coordinates
M82 ; use absolute distances for extrusion
G92 E0
G1 Z0.300 F7800.000
G1 E-2.00000 F2400.00000
G92 E0
G1 X79.171 Y81.442 F7800.000
G1 E2.00000 F2400.00000
G1 F1800.000
G1 X80.883 Y80.951 E2.05901
G1 X82.557 Y81.561 E2.11802
G1 X83.553 Y83.037 E2.17703
G1 X83.491 Y84.817 E2.23604
G1 X82.394 Y86.221 E2.29505
G1 X80.682 Y86.712 E2.35406
G1 X79.008 Y86.103 E2.41307
G1 X78.012 Y84.626 E2.47208
G1 X78.074 Y82.846 E2.53110
G1 X79.134 Y81.490 E2.58812
G1 X79.327 Y81.674 F7800.000
G1 F1800.000
G1 X80.873 Y81.231 E2.64141
G1 X82.385 Y81.781 E2.69470
G1 X83.284 Y83.114 E2.74800
G1 X83.228 Y84.722 E2.80129
G1 X82.238 Y85.990 E2.85458
G1 X80.692 Y86.433 E2.90788
G1 X79.180 Y85.883 E2.96117
G1 X78.280 Y84.549 E3.01446
G1 X78.337 Y82.942 E3.06775
G1 X79.290 Y81.721 E3.11906
G1 X79.483 Y81.905 F7800.000
G1 F1800.000
G1 X80.864 Y81.510 E3.16663
G1 X82.213 Y82.001 E3.21420
G1 X83.016 Y83.191 E3.26178
G1 X82.966 Y84.626 E3.30935
G1 X82.082 Y85.758 E3.35693
G1 X80.701 Y86.154 E3.40450
G1 X79.352 Y85.663 E3.45207
G1 X78.549 Y84.472 E3.49965
G1 X78.599 Y83.037 E3.54722
G1 X79.446 Y81.953 E3.59281
G1 E1.59281 F2400.00000
G92 E0
G1 X85.848 Y67.309 F7800.000
G1 E2.00000 F2400.00000
G1 F1800.000
G1 X84.853 Y65.832 E2.05901
G1 X84.915 Y64.052 E2.11802
G1 X86.011 Y62.649 E2.17703
G1 X87.723 Y62.158 E2.23604
G1 X89.397 Y62.767 E2.29505
G1 X90.393 Y64.243 E2.35406
G1 X90.331 Y66.024 E2.41307
G1 X89.234 Y67.427 E2.47208
G1 X87.522 Y67.918 E2.53110
G1 X85.905 Y67.329 E2.58812
G1 X86.020 Y67.089 F7800.000
G1 F1800.000
G1 X85.121 Y65.755 E2.64141
G1 X85.177 Y64.148 E2.69470
G1 X86.167 Y62.880 E2.74799
G1 X87.714 Y62.437 E2.80129
G1 X89.225 Y62.987 E2.85458
G1 X90.125 Y64.320 E2.90787
G1 X90.069 Y65.928 E2.96116
G1 X89.078 Y67.196 E3.01446
G1 X87.532 Y67.639 E3.06775
G1 X86.077 Y67.109 E3.11905
G1 X86.192 Y66.869 F7800.000
G1 F1800.000
G1 X85.389 Y65.678 E3.16663
G1 X85.439 Y64.243 E3.21420
G1 X86.324 Y63.112 E3.26177
G1 X87.704 Y62.716 E3.30935
G1 X89.053 Y63.207 E3.35692
G1 X89.856 Y64.397 E3.40449
G1 X89.806 Y65.833 E3.45207
G1 X88.922 Y66.964 E3.49964
G1 X87.542 Y67.360 E3.54722
G1 X86.249 Y66.889 E3.59280
G1 E1.59280 F2400.00000
G92 E0
G1 X72.726 Y60.145 F7800.000
G1 E2.00000 F2400.00000
G1 F1800.000
G1 X55.226 Y60.145 E2.57977
G1 X55.226 Y56.787 E2.69100
G1 X81.807 Y56.787 E3.57162
G1 X94.578 Y61.436 E4.02188
G1 X83.084 Y93.017 E5.13528
G1 X75.881 Y90.395 E5.38922
G1 X55.226 Y90.395 E6.07352
G1 X55.226 Y87.037 E6.18475
G1 X72.726 Y87.037 E6.76452
G1 X72.726 Y60.205 E7.65346
G1 X72.460 Y60.410 F7800.000
G1 F1800.000
G1 X54.960 Y60.410 E8.23323
G1 X54.960 Y56.522 E8.36206
G1 X81.854 Y56.522 E9.25303
G1 X94.919 Y61.277 E9.71365
G1 X83.242 Y93.357 E10.84465
G1 X75.834 Y90.660 E11.10584
G1 X54.960 Y90.660 E11.79738
G1 X54.960 Y86.772 E11.92621
G1 X72.460 Y86.772 E12.50598
G1 X72.460 Y60.470 E13.37733
G1 X72.194 Y60.676 F7800.000
G1 F1800.000
G1 X54.694 Y60.676 E13.95709
G1 X54.694 Y56.256 E14.10353
G1 X81.900 Y56.256 E15.00485
G1 X95.259 Y61.118 E15.47581
G1 X83.401 Y93.697 E16.62441
G1 X75.787 Y90.926 E16.89285
G1 X54.694 Y90.926 E17.59164
G1 X54.694 Y86.506 E17.73807
G1 X72.194 Y86.506 E18.31784
G1 X72.194 Y60.736 E19.17159
G1 E17.17159 F2400.00000
G92 E0
G1 X85.448 Y62.967 F7800.000
G1 E2.00000 F2400.00000
G1 F1800.000
G1 X72.888 Y75.527 E2.59150
G1 X72.888 Y75.905 E2.60407
G1 X84.749 Y64.044 E3.16265
G1 X84.735 Y64.435 E3.17568
G1 X72.888 Y76.282 E3.73361
G1 X72.888 Y76.660 E3.74618
G1 X84.722 Y64.826 E4.30347
G1 X84.708 Y65.217 E4.31651
G1 X72.888 Y77.037 E4.87315
G1 X72.888 Y77.415 E4.88573
G1 X84.694 Y65.609 E5.44173
G1 X84.687 Y65.806 E5.44831
G1 X84.763 Y65.918 E5.45279
G1 X72.888 Y77.792 E6.01202
G1 X72.888 Y78.170 E6.02460
G1 X84.915 Y66.143 E6.59099
G1 X85.067 Y66.369 E6.60004
G1 X72.888 Y78.548 E7.17360
G1 X72.888 Y78.925 E7.18617
G1 X85.219 Y66.594 E7.76689
G1 X85.371 Y66.820 E7.77595
G1 X72.888 Y79.303 E8.36382
G1 X72.888 Y79.680 E8.37640
G1 X85.523 Y67.045 E8.97144
G1 X85.675 Y67.271 E8.98050
G1 X72.888 Y80.058 E9.58270
G1 X72.888 Y80.435 E9.59527
G1 X85.866 Y67.457 E10.20648
G1 X86.143 Y67.558 E10.21629
G1 X72.888 Y80.813 E10.84052
G1 X72.888 Y81.191 E10.85310
G1 X86.420 Y67.659 E11.49037
G1 X86.697 Y67.759 E11.50018
G1 X72.888 Y81.568 E12.15049
G1 X72.888 Y81.946 E12.16307
G1 X86.974 Y67.860 E12.82641
G1 X87.250 Y67.961 E12.83622
G1 X72.888 Y82.323 E13.51261
G1 X72.888 Y82.701 E13.52518
G1 X87.527 Y68.062 E14.21460
G1 X87.616 Y68.094 E14.21774
G1 X87.976 Y67.991 E14.23021
G1 X72.888 Y83.079 E14.94076
G1 X72.888 Y83.456 E14.95334
G1 X88.505 Y67.839 E15.68881
G1 X89.035 Y67.687 E15.70715
G1 X72.888 Y83.834 E16.46756
G1 X72.888 Y84.211 E16.48014
G1 X93.616 Y63.484 E17.45630
G1 X93.400 Y64.077 E17.47733
G1 X72.888 Y84.589 E18.44332
G1 X72.888 Y84.966 E18.45589
G1 X93.184 Y64.671 E19.41170
G1 X92.968 Y65.264 E19.43274
G1 X72.888 Y85.344 E20.37837
G1 X72.888 Y85.722 E20.39094
G1 X92.752 Y65.858 E21.32640
G1 X92.535 Y66.452 E21.34743
G1 X72.888 Y86.099 E22.27271
G1 X72.888 Y86.477 E22.28529
G1 X92.319 Y67.045 E23.20039
G1 X92.103 Y67.639 E23.22143
G1 X72.888 Y86.854 E24.12636
G1 X72.888 Y87.232 E24.13893
G1 X91.887 Y68.233 E25.03368
G1 X91.671 Y68.826 E25.05472
G1 X79.293 Y81.205 E25.63767
G1 X79.822 Y81.053 E25.65601
G1 X91.455 Y69.420 E26.20385
G1 X91.239 Y70.014 E26.22489
G1 X80.351 Y80.901 E26.73763
G1 X80.789 Y80.776 E26.75281
G1 X80.837 Y80.793 E26.75450
G1 X91.023 Y70.607 E27.23419
G1 X90.807 Y71.201 E27.25522
G1 X81.114 Y80.894 E27.71170
G1 X81.391 Y80.995 E27.72151
G1 X90.591 Y71.795 E28.15477
G1 X90.375 Y72.388 E28.17581
G1 X81.668 Y81.095 E28.58586
G1 X81.945 Y81.196 E28.59567
G1 X90.159 Y72.982 E28.98250
G1 X89.943 Y73.576 E29.00354
G1 X82.221 Y81.297 E29.36716
G1 X82.498 Y81.398 E29.37697
G1 X89.727 Y74.169 E29.71738
G1 X89.510 Y74.763 E29.73842
G1 X82.708 Y81.566 E30.05879
G1 X82.860 Y81.791 E30.06785
G1 X89.294 Y75.357 E30.37088
G1 X89.078 Y75.950 E30.39192
G1 X83.012 Y82.017 E30.67762
G1 X83.164 Y82.242 E30.68668
G1 X88.862 Y76.544 E30.95503
G1 X88.646 Y77.138 E30.97607
G1 X83.316 Y82.468 E31.22709
G1 X83.468 Y82.693 E31.23614
G1 X88.430 Y77.731 E31.46982
G1 X88.214 Y78.325 E31.49086
G1 X83.620 Y82.919 E31.70720
G1 X83.718 Y83.064 E31.71303
G1 X83.713 Y83.203 E31.71768
G1 X87.998 Y78.919 E31.91947
G1 X87.782 Y79.512 E31.94051
G1 X83.700 Y83.595 E32.13276
G1 X83.686 Y83.986 E32.14580
G1 X87.566 Y80.106 E32.32853
G1 X87.350 Y80.699 E32.34956
G1 X83.672 Y84.377 E32.52276
G1 X83.658 Y84.768 E32.53579
G1 X87.134 Y81.293 E32.69945
G1 X86.918 Y81.887 E32.72049
G1 X83.156 Y85.649 E32.89765
G1 E30.89765 F2400.00000
G92 E0
G1 X78.146 Y82.352 F7800.000
G1 E2.00000 F2400.00000
G1 F1800.000
G1 X70.265 Y90.233 E2.37115
G1 X70.643 Y90.233 E2.38372
G1 X77.904 Y82.971 E2.72568
G1 X77.890 Y83.363 E2.73872
G1 X71.020 Y90.233 E3.06225
G1 X71.398 Y90.233 E3.07482
G1 X77.876 Y83.754 E3.37992
G1 X77.863 Y84.145 E3.39296
G1 X71.775 Y90.233 E3.67964
G1 X72.153 Y90.233 E3.69221
G1 X77.849 Y84.536 E3.96047
G1 X77.847 Y84.600 E3.96258
G1 X77.974 Y84.789 E3.97017
G1 X72.531 Y90.233 E4.22654
G1 X72.908 Y90.233 E4.23911
G1 X78.126 Y85.014 E4.48486
G1 X78.278 Y85.240 E4.49392
G1 X73.286 Y90.233 E4.72905
G1 X73.663 Y90.233 E4.74163
G1 X78.431 Y85.465 E4.96614
G1 X78.583 Y85.691 E4.97520
G1 X74.041 Y90.233 E5.18909
G1 X74.418 Y90.233 E5.20166
G1 X78.735 Y85.916 E5.40494
G1 X78.887 Y86.142 E5.41400
G1 X74.796 Y90.233 E5.60665
G1 X75.174 Y90.233 E5.61923
G1 X79.121 Y86.286 E5.80511
G1 X79.397 Y86.386 E5.81492
G1 X75.551 Y90.233 E5.99605
G1 X75.824 Y90.233 E6.00515
G1 X75.901 Y90.260 E6.00786
G1 X79.674 Y86.487 E6.18557
G1 X79.951 Y86.588 E6.19538
G1 X76.178 Y90.361 E6.37308
G1 X76.455 Y90.462 E6.38289
G1 X80.228 Y86.689 E6.56059
G1 X80.505 Y86.789 E6.57040
G1 X76.731 Y90.563 E6.74811
G1 X77.008 Y90.663 E6.75792
G1 X80.787 Y86.884 E6.93589
G1 X81.317 Y86.733 E6.95423
G1 X77.285 Y90.764 E7.14409
G1 X77.562 Y90.865 E7.15390
G1 X81.846 Y86.581 E7.35565
G1 X82.375 Y86.429 E7.37399
G1 X77.839 Y90.966 E7.58764
G1 X78.116 Y91.066 E7.59745
G1 X86.702 Y82.480 E8.00180
G1 X86.485 Y83.074 E8.02284
G1 X78.392 Y91.167 E8.40398
G1 X78.669 Y91.268 E8.41379
G1 X86.269 Y83.668 E8.77172
G1 X86.053 Y84.261 E8.79275
G1 X78.946 Y91.369 E9.12747
G1 X79.223 Y91.470 E9.13728
G1 X85.837 Y84.855 E9.44878
G1 X85.621 Y85.449 E9.46982
G1 X79.500 Y91.570 E9.75811
G1 X79.776 Y91.671 E9.76792
G1 X85.405 Y86.042 E10.03299
G1 X85.189 Y86.636 E10.05403
G1 X80.053 Y91.772 E10.29589
G1 X80.330 Y91.873 E10.30570
G1 X84.973 Y87.230 E10.52435
G1 X84.757 Y87.823 E10.54539
G1 X80.607 Y91.973 E10.74083
G1 X80.884 Y92.074 E10.75064
G1 X84.541 Y88.417 E10.92287
G1 X84.325 Y89.011 E10.94391
G1 X81.161 Y92.175 E11.09292
G1 X81.437 Y92.276 E11.10273
G1 X84.109 Y89.604 E11.22853
G1 X83.893 Y90.198 E11.24957
G1 X81.714 Y92.376 E11.35216
G1 X81.991 Y92.477 E11.36197
G1 X83.677 Y90.792 E11.44134
G1 X83.460 Y91.385 E11.46238
G1 X82.268 Y92.578 E11.51854
G1 X82.545 Y92.679 E11.52835
G1 X83.244 Y91.979 E11.56131
G1 X83.028 Y92.573 E11.58234
G1 X82.822 Y92.779 E11.59208
G1 E9.59208 F2400.00000
G92 E0
G1 X69.887 Y90.233 F7800.000
G1 E2.00000 F2400.00000
G1 F1800.000
G1 X72.920 Y87.200 E2.14283
G1 X72.543 Y87.200 E2.15541
G1 X69.510 Y90.233 E2.29824
G1 X69.132 Y90.233 E2.31081
G1 X72.165 Y87.200 E2.45365
G1 X71.788 Y87.200 E2.46622
G1 X68.755 Y90.233 E2.60905
G1 X68.377 Y90.233 E2.62163
G1 X71.410 Y87.200 E2.76446
G1 X71.032 Y87.200 E2.77703
G1 X68.000 Y90.233 E2.91987
G1 X67.622 Y90.233 E2.93244
G1 X70.655 Y87.200 E3.07528
G1 X70.277 Y87.200 E3.08785
G1 X67.244 Y90.233 E3.23068
G1 X66.867 Y90.233 E3.24326
G1 X69.900 Y87.200 E3.38609
G1 X69.522 Y87.200 E3.39866
G1 X66.489 Y90.233 E3.54150
G1 X66.112 Y90.233 E3.55407
G1 X69.145 Y87.200 E3.69690
G1 X68.767 Y87.200 E3.70948
G1 X65.734 Y90.233 E3.85231
G1 X65.356 Y90.233 E3.86488
G1 X68.389 Y87.200 E4.00772
G1 X68.012 Y87.200 E4.02029
G1 X64.979 Y90.233 E4.16312
G1 X64.601 Y90.233 E4.17570
G1 X67.634 Y87.200 E4.31853
G1 X67.257 Y87.200 E4.33110
G1 X64.224 Y90.233 E4.47394
G1 X63.846 Y90.233 E4.48651
G1 X66.879 Y87.200 E4.62935
G1 X66.501 Y87.200 E4.64192
G1 X63.469 Y90.233 E4.78475
G1 X63.091 Y90.233 E4.79733
G1 X66.124 Y87.200 E4.94016
G1 X65.746 Y87.200 E4.95273
G1 X62.713 Y90.233 E5.09557
G1 X62.336 Y90.233 E5.10814
G1 X65.369 Y87.200 E5.25097
G1 X64.991 Y87.200 E5.26355
G1 X61.958 Y90.233 E5.40638
G1 X61.581 Y90.233 E5.41895
G1 X64.614 Y87.200 E5.56179
G1 X64.236 Y87.200 E5.57436
G1 X61.203 Y90.233 E5.71719
G1 X60.825 Y90.233 E5.72977
G1 X63.858 Y87.200 E5.87260
G1 X63.481 Y87.200 E5.88517
G1 X60.448 Y90.233 E6.02801
G1 X60.070 Y90.233 E6.04058
G1 X63.103 Y87.200 E6.18341
G1 X62.726 Y87.200 E6.19599
G1 X59.693 Y90.233 E6.33882
G1 X59.315 Y90.233 E6.35140
G1 X62.348 Y87.200 E6.49423
G1 X61.970 Y87.200 E6.50680
G1 X58.938 Y90.233 E6.64964
G1 X58.560 Y90.233 E6.66221
G1 X61.593 Y87.200 E6.80504
G1 X61.215 Y87.200 E6.81762
G1 X58.182 Y90.233 E6.96045
G1 X57.805 Y90.233 E6.97302
G1 X60.838 Y87.200 E7.11586
G1 X60.460 Y87.200 E7.12843
G1 X57.427 Y90.233 E7.27126
G1 X57.050 Y90.233 E7.28384
G1 X60.083 Y87.200 E7.42667
G1 X59.705 Y87.200 E7.43924
G1 X56.672 Y90.233 E7.58208
G1 X56.294 Y90.233 E7.59465
G1 X59.327 Y87.200 E7.73748
G1 X58.950 Y87.200 E7.75006
G1 X55.917 Y90.233 E7.89289
G1 X55.539 Y90.233 E7.90547
G1 X58.572 Y87.200 E8.04830
G1 X58.195 Y87.200 E8.06087
G1 X55.388 Y90.006 E8.19305
G1 X55.388 Y89.629 E8.20562
G1 X57.817 Y87.200 E8.32002
G1 X57.439 Y87.200 E8.33259
G1 X55.388 Y89.251 E8.42920
G1 X55.388 Y88.874 E8.44178
G1 X57.062 Y87.200 E8.52061
G1 X56.684 Y87.200 E8.53318
G1 X55.388 Y88.496 E8.59423
G1 X55.388 Y88.118 E8.60680
G1 X56.307 Y87.200 E8.65007
G1 X55.929 Y87.200 E8.66264
G1 X55.388 Y87.741 E8.68813
G1 X55.388 Y87.406 E8.69927
G1 X55.723 Y87.406 E8.71041
G1 E6.71041 F2400.00000
G92 E0
G1 X55.388 Y57.156 F7800.000
G1 E2.00000 F2400.00000
G1 F1800.000
G1 X55.595 Y56.950 E2.00973
G1 X55.973 Y56.950 E2.02230
G1 X55.388 Y57.534 E2.04983
G1 X55.388 Y57.912 E2.06241
G1 X56.350 Y56.950 E2.10772
G1 X56.728 Y56.950 E2.12029
G1 X55.388 Y58.289 E2.18338
G1 X55.388 Y58.667 E2.19596
G1 X57.105 Y56.950 E2.27683
G1 X57.483 Y56.950 E2.28941
G1 X55.388 Y59.045 E2.38806
G1 X55.388 Y59.422 E2.40064
G1 X57.861 Y56.950 E2.51708
G1 X58.238 Y56.950 E2.52965
G1 X55.388 Y59.800 E2.66387
G1 X55.388 Y59.983 E2.66996
G1 X55.583 Y59.983 E2.67644
G1 X58.616 Y56.950 E2.81928
G1 X58.993 Y56.950 E2.83185
G1 X55.960 Y59.983 E2.97468
G1 X56.338 Y59.983 E2.98726
G1 X59.371 Y56.950 E3.13009
G1 X59.748 Y56.950 E3.14266
G1 X56.715 Y59.983 E3.28550
G1 X57.093 Y59.983 E3.29807
G1 X60.126 Y56.950 E3.44090
G1 X60.504 Y56.950 E3.45348
G1 X57.471 Y59.983 E3.59631
G1 X57.848 Y59.983 E3.60889
G1 X60.881 Y56.950 E3.75172
G1 X61.259 Y56.950 E3.76429
G1 X58.226 Y59.983 E3.90713
G1 X58.603 Y59.983 E3.91970
G1 X61.636 Y56.950 E4.06253
G1 X62.014 Y56.950 E4.07511
G1 X58.981 Y59.983 E4.21794
G1 X59.359 Y59.983 E4.23051
G1 X62.391 Y56.950 E4.37335
G1 X62.769 Y56.950 E4.38592
G1 X59.736 Y59.983 E4.52875
G1 X60.114 Y59.983 E4.54133
G1 X63.147 Y56.950 E4.68416
G1 X63.524 Y56.950 E4.69673
G1 X60.491 Y59.983 E4.83957
G1 X60.869 Y59.983 E4.85214
G1 X63.902 Y56.950 E4.99497
G1 X64.279 Y56.950 E5.00755
G1 X61.246 Y59.983 E5.15038
G1 X61.624 Y59.983 E5.16296
G1 X64.657 Y56.950 E5.30579
G1 X65.035 Y56.950 E5.31836
G1 X62.002 Y59.983 E5.46120
G1 X62.379 Y59.983 E5.47377
G1 X65.412 Y56.950 E5.61660
G1 X65.790 Y56.950 E5.62918
G1 X62.757 Y59.983 E5.77201
G1 X63.134 Y59.983 E5.78458
G1 X66.167 Y56.950 E5.92742
G1 X66.545 Y56.950 E5.93999
G1 X63.512 Y59.983 E6.08282
G1 X63.890 Y59.983 E6.09540
G1 X66.922 Y56.950 E6.23823
G1 X67.300 Y56.950 E6.25080
G1 X64.267 Y59.983 E6.39364
G1 X64.645 Y59.983 E6.40621
G1 X67.678 Y56.950 E6.54904
G1 X68.055 Y56.950 E6.56162
G1 X65.022 Y59.983 E6.70445
G1 X65.400 Y59.983 E6.71703
G1 X68.433 Y56.950 E6.85986
G1 X68.810 Y56.950 E6.87243
G1 X65.777 Y59.983 E7.01527
G1 X66.155 Y59.983 E7.02784
G1 X69.188 Y56.950 E7.17067
G1 X69.566 Y56.950 E7.18325
G1 X66.533 Y59.983 E7.32608
G1 X66.910 Y59.983 E7.33865
G1 X69.943 Y56.950 E7.48149
G1 X70.321 Y56.950 E7.49406
G1 X67.288 Y59.983 E7.63689
G1 X67.665 Y59.983 E7.64947
G1 X70.698 Y56.950 E7.79230
G1 X71.076 Y56.950 E7.80487
G1 X68.043 Y59.983 E7.94771
G1 X68.421 Y59.983 E7.96028
G1 X71.453 Y56.950 E8.10311
G1 X71.831 Y56.950 E8.11569
G1 X68.798 Y59.983 E8.25852
G1 X69.176 Y59.983 E8.27109
G1 X72.209 Y56.950 E8.41393
G1 X72.586 Y56.950 E8.42650
G1 X69.553 Y59.983 E8.56934
G1 X69.931 Y59.983 E8.58191
G1 X72.964 Y56.950 E8.72474
G1 X73.341 Y56.950 E8.73732
G1 X70.308 Y59.983 E8.88015
G1 X70.686 Y59.983 E8.89272
G1 X73.719 Y56.950 E9.03556
G1 X74.097 Y56.950 E9.04813
G1 X71.064 Y59.983 E9.19096
G1 X71.441 Y59.983 E9.20354
G1 X74.474 Y56.950 E9.34637
G1 X74.852 Y56.950 E9.35894
G1 X71.819 Y59.983 E9.50178
G1 X72.196 Y59.983 E9.51435
G1 X75.229 Y56.950 E9.65718
G1 X75.607 Y56.950 E9.66976
G1 X72.574 Y59.983 E9.81259
G1 X72.888 Y59.983 E9.82305
G1 X72.888 Y60.046 E9.82516
G1 X75.984 Y56.950 E9.97099
G1 X76.362 Y56.950 E9.98356
G1 X72.888 Y60.424 E10.14717
G1 X72.888 Y60.801 E10.15974
G1 X76.740 Y56.950 E10.34113
G1 X77.117 Y56.950 E10.35370
G1 X72.888 Y61.179 E10.55287
G1 X72.888 Y61.556 E10.56544
G1 X77.495 Y56.950 E10.78240
G1 X77.872 Y56.950 E10.79497
G1 X72.888 Y61.934 E11.02970
G1 X72.888 Y62.312 E11.04228
G1 X78.250 Y56.950 E11.29479
G1 X78.628 Y56.950 E11.30736
G1 X72.888 Y62.689 E11.57766
G1 X72.888 Y63.067 E11.59023
G1 X79.005 Y56.950 E11.87831
G1 X79.383 Y56.950 E11.89089
G1 X72.888 Y63.444 E12.19675
G1 X72.888 Y63.822 E12.20932
