; Gcode updated with 'stl_info' on 2019-12-09 21:19:22.227728

; stl_min_x = -13.866700172424316
; stl_max_x = 13.866700172424316
; stl_min_y = -12.906700134277344
; stl_max_y = 8.666669845581055
; stl_min_z = -5.0

; generated by Slic3r 1.3.1-dev (Build adea0d9) on 2019-12-09 at 21:19:21

; external perimeters extrusion width = 0.44mm (2.86mm^3/s)
; perimeters extrusion width = 0.56mm (4.14mm^3/s)
; infill extrusion width = 0.50mm (3.66mm^3/s)
; solid infill extrusion width = 0.56mm (3.10mm^3/s)
; top infill extrusion width = 0.56mm (3.10mm^3/s)

M107
G92 E0
;D3D:START:START
T0
M104 S215 T0

G21
G90
M107
T0
G28
G29
M109 T0 S215 T0
G0 F3000
M107
T0
G92 E0
G0 X0 Y149 Z0.1 F3600
G1 Y49 E6.5 F1200
G0 Z1
G92 E0
; Filament gcode

G21 ; set units to millimeters
G90 ; use absolute coordinates
M82 ; use absolute distances for extrusion
G92 E0
G1 Z0.300 F7800.000
G1 E-2.00000 F2400.00000
G92 E0
G1 X76.196 Y64.910 F7800.000
G1 E2.00000 F2400.00000
G1 F1800.000
G1 X88.170 Y64.910 E2.39670
G1 X88.170 Y85.090 E3.06528
G1 X76.196 Y85.090 E3.46198
G1 X76.196 Y82.891 E3.53486
G1 X76.646 Y82.783 E3.55019
G1 X77.172 Y82.603 E3.56860
G1 X77.678 Y82.374 E3.58700
G1 X78.161 Y82.098 E3.60541
G1 X78.615 Y81.779 E3.62382
G1 X79.037 Y81.418 E3.64222
G1 X79.423 Y81.020 E3.66059
G1 X79.771 Y80.586 E3.67900
G1 X80.076 Y80.122 E3.69741
G1 X80.333 Y79.636 E3.71563
G1 X80.485 Y79.286 E3.72827
G1 X80.664 Y78.762 E3.74660
G1 X80.793 Y78.222 E3.76501
G1 X80.871 Y77.672 E3.78341
G1 X80.897 Y77.120 E3.80171
G1 X80.871 Y76.565 E3.82011
G1 X80.793 Y76.015 E3.83852
G1 X80.663 Y75.475 E3.85692
G1 X80.485 Y74.954 E3.87515
G1 X80.333 Y74.604 E3.88778
G1 X80.076 Y74.118 E3.90601
G1 X79.771 Y73.654 E3.92441
G1 X79.423 Y73.220 E3.94282
G1 X79.036 Y72.821 E3.96126
G1 X78.614 Y72.460 E3.97967
G1 X78.159 Y72.140 E3.99807
G1 X77.676 Y71.865 E4.01648
G1 X77.170 Y71.637 E4.03488
G1 X76.644 Y71.457 E4.05329
G1 X76.196 Y71.349 E4.06855
G1 X76.196 Y64.970 E4.27991
G1 X75.931 Y64.644 F7800.000
G1 F1800.000
G1 X88.436 Y64.644 E4.69421
G1 X88.436 Y85.356 E5.38040
G1 X75.931 Y85.356 E5.79470
G1 X75.931 Y82.669 E5.88371
G1 X76.572 Y82.527 E5.90547
G1 X77.074 Y82.355 E5.92305
G1 X77.557 Y82.137 E5.94063
G1 X78.018 Y81.874 E5.95820
G1 X78.452 Y81.569 E5.97578
G1 X78.855 Y81.224 E5.99335
G1 X79.224 Y80.844 E6.01090
G1 X79.556 Y80.430 E6.02847
G1 X79.847 Y79.986 E6.04605
G1 X80.094 Y79.521 E6.06351
G1 X80.237 Y79.190 E6.07546
G1 X80.408 Y78.688 E6.09302
G1 X80.532 Y78.172 E6.11061
G1 X80.606 Y77.647 E6.12818
G1 X80.631 Y77.120 E6.14565
G1 X80.606 Y76.590 E6.16322
G1 X80.531 Y76.065 E6.18080
G1 X80.408 Y75.549 E6.19838
G1 X80.237 Y75.050 E6.21584
G1 X80.094 Y74.719 E6.22778
G1 X79.847 Y74.254 E6.24525
G1 X79.556 Y73.810 E6.26282
G1 X79.224 Y73.396 E6.28040
G1 X78.854 Y73.014 E6.29801
G1 X78.451 Y72.670 E6.31558
G1 X78.016 Y72.365 E6.33316
G1 X77.556 Y72.102 E6.35073
G1 X77.072 Y71.884 E6.36831
G1 X76.570 Y71.712 E6.38589
G1 X75.931 Y71.571 E6.40758
G1 X75.931 Y64.704 E6.63508
G1 X75.665 Y64.378 F7800.000
G1 F1800.000
G1 X88.702 Y64.378 E7.06698
G1 X88.702 Y85.622 E7.77076
G1 X75.665 Y85.622 E8.20266
G1 X75.665 Y82.439 E8.30811
G1 X76.006 Y82.390 E8.31953
G1 X76.498 Y82.272 E8.33628
G1 X76.976 Y82.108 E8.35302
G1 X77.437 Y81.900 E8.36977
G1 X77.876 Y81.649 E8.38651
G1 X78.289 Y81.359 E8.40326
G1 X78.673 Y81.030 E8.42000
G1 X79.024 Y80.668 E8.43672
G1 X79.341 Y80.274 E8.45347
G1 X79.618 Y79.851 E8.47021
G1 X79.854 Y79.406 E8.48692
G1 X79.989 Y79.094 E8.49817
G1 X80.153 Y78.614 E8.51497
G1 X80.271 Y78.122 E8.53172
G1 X80.342 Y77.622 E8.54847
G1 X80.365 Y77.120 E8.56511
G1 X80.341 Y76.615 E8.58185
G1 X80.270 Y76.115 E8.59860
G1 X80.152 Y75.623 E8.61535
G1 X79.989 Y75.146 E8.63205
G1 X79.854 Y74.834 E8.64330
G1 X79.618 Y74.389 E8.66000
G1 X79.341 Y73.966 E8.67675
G1 X79.024 Y73.572 E8.69350
G1 X78.672 Y73.208 E8.71027
G1 X78.288 Y72.880 E8.72702
G1 X77.874 Y72.590 E8.74376
G1 X77.435 Y72.339 E8.76051
G1 X76.974 Y72.131 E8.77726
G1 X76.496 Y71.968 E8.79400
G1 X76.004 Y71.850 E8.81075
G1 X75.665 Y71.801 E8.82211
G1 X75.665 Y64.438 E9.06603
G1 X76.565 Y65.072 F7800.000
G1 F1800.000
G1 X76.359 Y65.279 E9.07581
G1 X76.359 Y65.658 E9.08849
G1 X76.944 Y65.072 E9.11620
G1 X77.324 Y65.072 E9.12888
G1 X76.359 Y66.037 E9.17453
G1 X76.359 Y66.416 E9.18721
G1 X77.703 Y65.072 E9.25078
G1 X78.082 Y65.072 E9.26346
G1 X76.359 Y66.795 E9.34497
G1 X76.359 Y67.174 E9.35765
G1 X78.461 Y65.072 E9.45709
G1 X78.840 Y65.072 E9.46977
G1 X76.359 Y67.554 E9.58714
G1 X76.359 Y67.933 E9.59982
G1 X79.220 Y65.072 E9.73512
G1 X79.599 Y65.072 E9.74780
G1 X76.359 Y68.312 E9.90104
G1 X76.359 Y68.691 E9.91372
G1 X79.978 Y65.072 E10.08489
G1 X80.357 Y65.072 E10.09757
G1 X76.359 Y69.070 E10.28667
G1 X76.359 Y69.450 E10.29935
G1 X80.736 Y65.072 E10.50638
G1 X81.115 Y65.072 E10.51906
G1 X76.359 Y69.829 E10.74403
G1 X76.359 Y70.208 E10.75671
G1 X81.495 Y65.072 E10.99961
G1 X81.874 Y65.072 E11.01229
G1 X76.359 Y70.587 E11.27312
G1 X76.359 Y70.966 E11.28580
G1 X82.253 Y65.072 E11.56456
G1 X82.632 Y65.072 E11.57724
G1 X76.441 Y71.263 E11.87004
G1 X76.737 Y71.346 E11.88032
G1 X83.011 Y65.072 E12.17706
G1 X83.390 Y65.072 E12.18974
G1 X77.019 Y71.443 E12.49106
G1 X77.291 Y71.550 E12.50084
G1 X83.770 Y65.072 E12.80721
G1 X84.149 Y65.072 E12.81989
G1 X77.553 Y71.668 E13.13185
G1 X77.805 Y71.795 E13.14129
G1 X84.528 Y65.072 E13.45925
G1 X84.907 Y65.072 E13.47193
G1 X78.046 Y71.933 E13.79640
G1 X78.281 Y72.077 E13.80561
G1 X85.286 Y65.072 E14.13692
G1 X85.666 Y65.072 E14.14960
G1 X78.504 Y72.234 E14.48832
G1 X78.722 Y72.395 E14.49739
G1 X86.045 Y65.072 E14.84370
G1 X86.424 Y65.072 E14.85638
G1 X78.926 Y72.569 E15.21096
G1 X79.130 Y72.745 E15.21995
G1 X86.803 Y65.072 E15.58285
G1 X87.182 Y65.072 E15.59553
G1 X79.316 Y72.938 E15.96754
G1 X79.503 Y73.130 E15.97650
G1 X87.561 Y65.072 E16.35762
G1 X87.941 Y65.072 E16.37030
G1 X79.673 Y73.339 E16.76129
G1 X79.842 Y73.550 E16.77031
G1 X88.008 Y65.383 E17.15653
G1 X88.008 Y65.763 E17.16921
G1 X79.997 Y73.774 E17.54810
G1 X80.147 Y74.003 E17.55726
G1 X88.008 Y66.142 E17.92904
G1 X88.008 Y66.521 E17.94172
G1 X80.285 Y74.244 E18.30697
G1 X80.416 Y74.492 E18.31636
G1 X88.008 Y66.900 E18.67540
G1 X88.008 Y67.279 E18.68808
G1 X80.538 Y74.750 E19.04138
G1 X80.649 Y75.018 E19.05109
G1 X88.008 Y67.658 E19.39915
G1 X88.008 Y68.038 E19.41183
G1 X80.745 Y75.301 E19.75531
G1 X80.835 Y75.590 E19.76544
G1 X88.008 Y68.417 E20.10465
G1 X88.008 Y68.796 E20.11733
G1 X80.909 Y75.895 E20.45308
G1 X80.971 Y76.212 E20.46389
G1 X88.008 Y69.175 E20.79670
G1 X88.008 Y69.554 E20.80938
G1 X81.018 Y76.544 E21.13996
G1 X81.044 Y76.897 E21.15180
G1 X88.008 Y69.934 E21.48114
G1 X88.008 Y70.313 E21.49382
G1 X81.058 Y77.263 E21.82253
G1 X81.039 Y77.661 E21.83585
G1 X88.008 Y70.692 E22.16544
G1 X88.008 Y71.071 E22.17812
G1 X80.992 Y78.087 E22.50995
G1 X80.909 Y78.549 E22.52563
G1 X88.008 Y71.450 E22.86136
G1 X88.008 Y71.829 E22.87404
G1 X80.773 Y79.065 E23.21621
G1 X80.551 Y79.666 E23.23764
G1 X88.008 Y72.209 E23.59031
G1 X88.008 Y72.588 E23.60299
G1 X80.136 Y80.460 E23.97529
G1 E21.97529 F2400.00000
G92 E0
G1 X76.944 Y82.893 F7800.000
G1 E2.00000 F2400.00000
G1 F1800.000
G1 X76.359 Y83.479 E2.02770
G1 X76.359 Y83.858 E2.04038
G1 X77.551 Y82.666 E2.09675
G1 X77.902 Y82.507 E2.10966
G1 X78.336 Y82.260 E2.12637
G1 X76.359 Y84.237 E2.21990
G1 X76.359 Y84.617 E2.23258
G1 X88.008 Y72.967 E2.78353
G1 X88.008 Y73.346 E2.79621
G1 X76.426 Y84.928 E3.34396
G1 X76.805 Y84.928 E3.35664
G1 X88.008 Y73.725 E3.88645
G1 X88.008 Y74.104 E3.89913
G1 X77.184 Y84.928 E4.41102
G1 X77.564 Y84.928 E4.42370
G1 X88.008 Y74.484 E4.91765
G1 X88.008 Y74.863 E4.93033
G1 X77.943 Y84.928 E5.40635
G1 X78.322 Y84.928 E5.41903
G1 X88.008 Y75.242 E5.87711
G1 X88.008 Y75.621 E5.88979
G1 X78.701 Y84.928 E6.32995
G1 X79.080 Y84.928 E6.34263
G1 X88.008 Y76.000 E6.76485
G1 X88.008 Y76.380 E6.77753
G1 X79.460 Y84.928 E7.18182
G1 X79.839 Y84.928 E7.19450
G1 X88.008 Y76.759 E7.58085
G1 X88.008 Y77.138 E7.59353
G1 X80.218 Y84.928 E7.96196
G1 X80.597 Y84.928 E7.97464
G1 X88.008 Y77.517 E8.32513
G1 X88.008 Y77.896 E8.33781
G1 X80.976 Y84.928 E8.67037
G1 X81.355 Y84.928 E8.68305
G1 X88.008 Y78.275 E8.99768
G1 X88.008 Y78.655 E9.01036
G1 X81.735 Y84.928 E9.30705
G1 X82.114 Y84.928 E9.31973
G1 X88.008 Y79.034 E9.59850
G1 X88.008 Y79.413 E9.61118
G1 X82.493 Y84.928 E9.87201
G1 X82.872 Y84.928 E9.88469
G1 X88.008 Y79.792 E10.12759
G1 X88.008 Y80.171 E10.14027
G1 X83.251 Y84.928 E10.36523
G1 X83.630 Y84.928 E10.37791
G1 X88.008 Y80.550 E10.58494
G1 X88.008 Y80.930 E10.59762
G1 X84.010 Y84.928 E10.78673
G1 X84.389 Y84.928 E10.79941
G1 X88.008 Y81.309 E10.97057
G1 X88.008 Y81.688 E10.98325
G1 X84.768 Y84.928 E11.13649
G1 X85.147 Y84.928 E11.14917
G1 X88.008 Y82.067 E11.28447
G1 X88.008 Y82.446 E11.29715
G1 X85.526 Y84.928 E11.41453
G1 X85.906 Y84.928 E11.42721
G1 X88.008 Y82.826 E11.52665
G1 X88.008 Y83.205 E11.53933
G1 X86.285 Y84.928 E11.62083
G1 X86.664 Y84.928 E11.63351
G1 X88.008 Y83.584 E11.69709
G1 X88.008 Y83.963 E11.70977
G1 X87.043 Y84.928 E11.75541
G1 X87.422 Y84.928 E11.76809
G1 X88.008 Y84.342 E11.79580
G1 X88.008 Y84.721 E11.80848
G1 X87.801 Y84.928 E11.81826
G1 E9.81826 F2400.00000
G92 E0
G1 X73.804 Y64.910 F7800.000
G1 E2.00000 F2400.00000
G1 F1800.000
G1 X73.804 Y71.349 E2.21335
G1 X73.354 Y71.457 E2.22868
G1 X72.828 Y71.637 E2.24708
G1 X72.322 Y71.866 E2.26549
G1 X71.839 Y72.142 E2.28390
G1 X71.385 Y72.461 E2.30230
G1 X70.963 Y72.822 E2.32071
G1 X70.577 Y73.220 E2.33908
G1 X70.229 Y73.654 E2.35749
G1 X69.924 Y74.118 E2.37589
G1 X69.667 Y74.604 E2.39412
G1 X69.515 Y74.954 E2.40676
G1 X69.336 Y75.478 E2.42508
G1 X69.207 Y76.018 E2.44350
G1 X69.129 Y76.568 E2.46190
G1 X69.103 Y77.120 E2.48020
G1 X69.129 Y77.675 E2.49860
G1 X69.207 Y78.225 E2.51700
G1 X69.337 Y78.765 E2.53541
G1 X69.515 Y79.286 E2.55363
G1 X69.667 Y79.636 E2.56627
G1 X69.924 Y80.122 E2.58449
G1 X70.229 Y80.586 E2.60290
G1 X70.577 Y81.020 E2.62131
G1 X70.964 Y81.419 E2.63975
G1 X71.386 Y81.780 E2.65815
G1 X71.841 Y82.100 E2.67656
G1 X72.324 Y82.375 E2.69496
G1 X72.830 Y82.603 E2.71337
G1 X73.356 Y82.783 E2.73178
G1 X73.804 Y82.891 E2.74704
G1 X73.804 Y85.090 E2.81992
G1 X61.830 Y85.090 E3.21662
G1 X61.830 Y64.910 E3.88520
G1 X73.744 Y64.910 E4.27991
G1 X74.069 Y64.644 F7800.000
G1 F1800.000
G1 X74.069 Y71.571 E4.50940
G1 X73.428 Y71.713 E4.53116
G1 X72.926 Y71.885 E4.54874
G1 X72.443 Y72.103 E4.56631
G1 X71.982 Y72.366 E4.58389
G1 X71.548 Y72.671 E4.60147
G1 X71.145 Y73.016 E4.61904
G1 X70.776 Y73.396 E4.63659
G1 X70.444 Y73.810 E4.65416
G1 X70.153 Y74.254 E4.67174
G1 X69.906 Y74.719 E4.68920
G1 X69.763 Y75.050 E4.70115
G1 X69.592 Y75.552 E4.71871
G1 X69.468 Y76.068 E4.73629
G1 X69.394 Y76.593 E4.75387
G1 X69.369 Y77.120 E4.77134
G1 X69.394 Y77.650 E4.78891
G1 X69.469 Y78.175 E4.80649
G1 X69.592 Y78.691 E4.82406
G1 X69.763 Y79.190 E4.84153
G1 X69.906 Y79.521 E4.85347
G1 X70.153 Y79.986 E4.87093
G1 X70.444 Y80.430 E4.88851
G1 X70.776 Y80.844 E4.90609
G1 X71.146 Y81.226 E4.92369
G1 X71.549 Y81.570 E4.94127
G1 X71.984 Y81.875 E4.95885
G1 X72.444 Y82.138 E4.97642
G1 X72.928 Y82.356 E4.99400
G1 X73.430 Y82.528 E5.01157
G1 X74.069 Y82.669 E5.03327
G1 X74.069 Y85.356 E5.12229
G1 X61.564 Y85.356 E5.53659
G1 X61.564 Y64.644 E6.22277
G1 X74.009 Y64.644 E6.63508
G1 X74.335 Y64.378 F7800.000
G1 F1800.000
G1 X74.335 Y71.801 E6.88100
G1 X73.994 Y71.850 E6.89242
G1 X73.502 Y71.968 E6.90916
G1 X73.024 Y72.132 E6.92591
G1 X72.563 Y72.340 E6.94266
G1 X72.124 Y72.591 E6.95940
G1 X71.711 Y72.881 E6.97615
G1 X71.327 Y73.210 E6.99289
G1 X70.976 Y73.572 E7.00961
G1 X70.659 Y73.966 E7.02636
G1 X70.382 Y74.389 E7.04310
G1 X70.146 Y74.834 E7.05980
G1 X70.011 Y75.146 E7.07106
G1 X69.847 Y75.626 E7.08786
G1 X69.729 Y76.118 E7.10461
G1 X69.658 Y76.618 E7.12136
G1 X69.635 Y77.120 E7.13800
G1 X69.659 Y77.625 E7.15474
G1 X69.730 Y78.125 E7.17149
G1 X69.848 Y78.617 E7.18823
G1 X70.011 Y79.094 E7.20494
G1 X70.146 Y79.406 E7.21619
G1 X70.382 Y79.851 E7.23289
G1 X70.659 Y80.274 E7.24964
G1 X70.976 Y80.668 E7.26638
G1 X71.328 Y81.032 E7.28316
G1 X71.712 Y81.360 E7.29991
G1 X72.126 Y81.650 E7.31665
G1 X72.565 Y81.901 E7.33340
G1 X73.026 Y82.109 E7.35014
G1 X73.504 Y82.272 E7.36689
G1 X73.996 Y82.390 E7.38363
G1 X74.335 Y82.439 E7.39500
G1 X74.335 Y85.622 E7.50044
G1 X61.298 Y85.622 E7.93234
G1 X61.298 Y64.378 E8.63612
G1 X74.275 Y64.378 E9.06604
G1 E7.06604 F2400.00000
G92 E0
G1 X73.641 Y69.554 F7800.000
G1 E2.00000 F2400.00000
G1 F1800.000
G1 X73.641 Y69.934 E2.01268
G1 X71.462 Y72.113 E2.11573
G1 X72.098 Y71.733 E2.14049
G1 X72.323 Y71.631 E2.14877
G1 X73.641 Y70.313 E2.21110
G1 X73.641 Y70.692 E2.22378
G1 X72.951 Y71.383 E2.25645
G1 E0.25645 F2400.00000
G92 E0
G1 X62.199 Y65.072 F7800.000
G1 E2.00000 F2400.00000
G1 F1800.000
G1 X61.992 Y65.279 E2.00978
G1 X61.992 Y65.658 E2.02246
G1 X62.578 Y65.072 E2.05017
G1 X62.957 Y65.072 E2.06285
G1 X61.992 Y66.037 E2.10849
G1 X61.992 Y66.416 E2.12117
G1 X63.336 Y65.072 E2.18474
G1 X63.715 Y65.072 E2.19742
G1 X61.992 Y66.795 E2.27893
G1 X61.992 Y67.174 E2.29161
G1 X64.094 Y65.072 E2.39105
G1 X64.474 Y65.072 E2.40373
G1 X61.992 Y67.554 E2.52110
G1 X61.992 Y67.933 E2.53378
G1 X64.853 Y65.072 E2.66909
G1 X65.232 Y65.072 E2.68177
G1 X61.992 Y68.312 E2.83500
G1 X61.992 Y68.691 E2.84768
G1 X65.611 Y65.072 E3.01885
G1 X65.990 Y65.072 E3.03153
G1 X61.992 Y69.070 E3.22063
G1 X61.992 Y69.450 E3.23331
G1 X66.370 Y65.072 E3.44035
G1 X66.749 Y65.072 E3.45303
G1 X61.992 Y69.829 E3.67799
G1 X61.992 Y70.208 E3.69067
G1 X67.128 Y65.072 E3.93357
G1 X67.507 Y65.072 E3.94625
G1 X61.992 Y70.587 E4.20708
G1 X61.992 Y70.966 E4.21976
G1 X67.886 Y65.072 E4.49853
G1 X68.265 Y65.072 E4.51121
G1 X61.992 Y71.345 E4.80790
G1 X61.992 Y71.725 E4.82058
G1 X68.645 Y65.072 E5.13521
G1 X69.024 Y65.072 E5.14789
G1 X61.992 Y72.104 E5.48045
G1 X61.992 Y72.483 E5.49313
G1 X69.403 Y65.072 E5.84362
G1 X69.782 Y65.072 E5.85630
G1 X61.992 Y72.862 E6.22473
G1 X61.992 Y73.241 E6.23741
G1 X70.161 Y65.072 E6.62376
G1 X70.540 Y65.072 E6.63644
G1 X61.992 Y73.620 E7.04073
G1 X61.992 Y74.000 E7.05341
G1 X70.920 Y65.072 E7.47563
G1 X71.299 Y65.072 E7.48831
G1 X61.992 Y74.379 E7.92847
G1 X61.992 Y74.758 E7.94115
G1 X71.678 Y65.072 E8.39923
G1 X72.057 Y65.072 E8.41191
G1 X61.992 Y75.137 E8.88793
G1 X61.992 Y75.516 E8.90061
G1 X72.436 Y65.072 E9.39456
G1 X72.816 Y65.072 E9.40724
G1 X61.992 Y75.896 E9.91913
G1 X61.992 Y76.275 E9.93181
G1 X73.195 Y65.072 E10.46162
G1 X73.574 Y65.072 E10.47430
G1 X61.992 Y76.654 E11.02205
G1 X61.992 Y77.033 E11.03473
G1 X73.641 Y65.383 E11.58568
G1 X73.641 Y65.763 E11.59836
G1 X61.992 Y77.412 E12.14930
G1 X61.992 Y77.791 E12.16198
G1 X73.641 Y66.142 E12.71293
G1 X73.641 Y66.521 E12.72561
G1 X61.992 Y78.171 E13.27655
G1 X61.992 Y78.550 E13.28923
G1 X73.641 Y66.900 E13.84018
G1 X73.641 Y67.279 E13.85286
G1 X61.992 Y78.929 E14.40380
G1 X61.992 Y79.308 E14.41648
G1 X73.641 Y67.658 E14.96743
G1 X73.641 Y68.038 E14.98011
G1 X61.992 Y79.687 E15.53105
G1 X61.992 Y80.066 E15.54373
G1 X73.641 Y68.417 E16.09468
G1 X73.641 Y68.796 E16.10736
G1 X61.992 Y80.446 E16.65830
G1 X61.992 Y80.825 E16.67098
G1 X73.641 Y69.175 E17.22193
G1 X73.641 Y69.554 E17.23461
G1 X61.992 Y81.204 E17.78555
G1 X61.992 Y81.583 E17.79823
G1 X69.996 Y73.579 E18.17678
G1 X69.799 Y73.880 E18.18881
G1 X69.502 Y74.452 E18.21039
G1 X61.992 Y81.962 E18.56555
G1 X61.992 Y82.342 E18.57823
G1 X69.263 Y75.070 E18.92210
G1 X69.184 Y75.301 E18.93023
G1 X69.112 Y75.600 E18.94053
G1 X61.992 Y82.721 E19.27729
G1 X61.992 Y83.100 E19.28997
G1 X69.020 Y76.072 E19.62233
G1 X68.964 Y76.507 E19.63698
G1 X61.992 Y83.479 E19.96673
G1 X61.992 Y83.858 E19.97941
G1 X68.946 Y76.904 E20.30828
G1 X68.953 Y77.277 E20.32073
G1 X61.992 Y84.237 E20.64993
G1 X61.992 Y84.617 E20.66261
G1 X68.973 Y77.635 E20.99278
G1 X69.020 Y77.967 E21.00399
G1 X62.059 Y84.928 E21.33320
G1 X62.439 Y84.928 E21.34588
G1 X69.078 Y78.289 E21.65986
G1 X69.151 Y78.595 E21.67038
G1 X62.818 Y84.928 E21.96990
G1 X63.197 Y84.928 E21.98258
G1 X69.237 Y78.888 E22.26824
G1 X69.334 Y79.170 E22.27822
G1 X63.576 Y84.928 E22.55052
G1 X63.955 Y84.928 E22.56320
G1 X69.442 Y79.442 E22.82266
