; generated by Slic3r 1.3.1-dev (Build adea0d9) on 2019-12-16 at 00:48:41

; external perimeters extrusion width = 0.44mm (2.86mm^3/s)
; perimeters extrusion width = 0.56mm (4.14mm^3/s)
; infill extrusion width = 0.50mm (3.66mm^3/s)
; solid infill extrusion width = 0.56mm (3.10mm^3/s)
; top infill extrusion width = 0.56mm (3.10mm^3/s)

M107
G92 E0
;D3D:START:START
T0
M104 S215 T0

G21
G90
M107
T0
G28
G29
M109 T0 S215 T0
G0 F3000
M107
T0
G92 E0
G0 X0 Y149 Z0.1 F3600
G1 Y49 E6.5 F1200
G0 Z1
G92 E0
; Filament gcode

G21 ; set units to millimeters
G90 ; use absolute coordinates
M82 ; use absolute distances for extrusion
G92 E0
G1 Z0.300 F7800.000
G1 E-2.00000 F2400.00000
G92 E0
G1 X76.196 Y64.910 F7800.000
G1 E2.00000 F2400.00000
G1 F1800.000
G1 X88.170 Y64.910 E2.39670
G1 X88.170 Y85.090 E3.06528
G1 X76.196 Y85.090 E3.46198
G1 X76.196 Y82.891 E3.53486
G1 X76.645 Y82.783 E3.55016
G1 X77.171 Y82.603 E3.56856
G1 X77.677 Y82.374 E3.58697
G1 X78.160 Y82.099 E3.60538
G1 X78.614 Y81.780 E3.62378
G1 X79.037 Y81.419 E3.64219
G1 X79.423 Y81.020 E3.66059
G1 X79.771 Y80.586 E3.67900
G1 X80.076 Y80.122 E3.69741
G1 X80.336 Y79.631 E3.71581
G1 X80.548 Y79.118 E3.73422
G1 X80.712 Y78.587 E3.75262
G1 X80.824 Y78.043 E3.77103
G1 X80.885 Y77.496 E3.78926
G1 X80.897 Y77.111 E3.80201
G1 X80.870 Y76.562 E3.82023
G1 X80.792 Y76.012 E3.83863
G1 X80.662 Y75.472 E3.85702
G1 X80.484 Y74.953 E3.87518
G1 X80.333 Y74.603 E3.88782
G1 X80.075 Y74.117 E3.90604
G1 X79.770 Y73.653 E3.92445
G1 X79.423 Y73.219 E3.94285
G1 X79.036 Y72.821 E3.96126
G1 X78.614 Y72.460 E3.97967
G1 X78.159 Y72.140 E3.99807
G1 X77.676 Y71.865 E4.01648
G1 X77.170 Y71.637 E4.03488
G1 X76.644 Y71.457 E4.05329
G1 X76.196 Y71.349 E4.06855
G1 X76.196 Y64.970 E4.27991
G1 X75.931 Y64.644 F7800.000
G1 F1800.000
G1 X88.436 Y64.644 E4.69421
G1 X88.436 Y85.356 E5.38040
G1 X75.931 Y85.356 E5.79470
G1 X75.931 Y82.669 E5.88371
G1 X76.571 Y82.528 E5.90544
G1 X77.073 Y82.356 E5.92302
G1 X77.556 Y82.137 E5.94059
G1 X78.017 Y81.875 E5.95817
G1 X78.451 Y81.569 E5.97575
G1 X78.855 Y81.225 E5.99332
G1 X79.224 Y80.844 E6.01090
G1 X79.556 Y80.430 E6.02847
G1 X79.847 Y79.986 E6.04605
G1 X80.095 Y79.518 E6.06363
G1 X80.298 Y79.027 E6.08120
G1 X80.454 Y78.520 E6.09878
G1 X80.562 Y78.001 E6.11635
G1 X80.620 Y77.477 E6.13382
G1 X80.631 Y77.113 E6.14587
G1 X80.606 Y76.587 E6.16334
G1 X80.531 Y76.062 E6.18091
G1 X80.407 Y75.546 E6.19846
G1 X80.236 Y75.049 E6.21587
G1 X80.093 Y74.719 E6.22781
G1 X79.846 Y74.253 E6.24528
G1 X79.555 Y73.809 E6.26285
G1 X79.223 Y73.395 E6.28043
G1 X78.854 Y73.014 E6.29801
G1 X78.451 Y72.670 E6.31558
G1 X78.016 Y72.365 E6.33316
G1 X77.556 Y72.102 E6.35073
G1 X77.072 Y71.884 E6.36831
G1 X76.570 Y71.712 E6.38589
G1 X75.931 Y71.571 E6.40758
G1 X75.931 Y64.704 E6.63508
G1 X75.665 Y64.378 F7800.000
G1 F1800.000
G1 X88.702 Y64.378 E7.06698
G1 X88.702 Y85.622 E7.77076
G1 X75.665 Y85.622 E8.20266
G1 X75.665 Y82.439 E8.30811
G1 X76.005 Y82.390 E8.31950
G1 X76.497 Y82.272 E8.33624
G1 X76.975 Y82.108 E8.35299
G1 X77.436 Y81.900 E8.36974
G1 X77.875 Y81.650 E8.38648
G1 X78.288 Y81.359 E8.40323
G1 X78.673 Y81.031 E8.41997
G1 X79.024 Y80.668 E8.43672
G1 X79.341 Y80.274 E8.45347
G1 X79.618 Y79.851 E8.47021
G1 X79.855 Y79.404 E8.48696
G1 X80.048 Y78.937 E8.50370
G1 X80.197 Y78.454 E8.52045
G1 X80.299 Y77.959 E8.53720
G1 X80.354 Y77.458 E8.55390
G1 X80.365 Y77.115 E8.56526
G1 X80.341 Y76.612 E8.58196
G1 X80.270 Y76.112 E8.59870
G1 X80.151 Y75.621 E8.61543
G1 X79.988 Y75.145 E8.63208
G1 X79.854 Y74.834 E8.64333
G1 X79.618 Y74.388 E8.66003
G1 X79.340 Y73.966 E8.67678
G1 X79.024 Y73.571 E8.69353
G1 X78.672 Y73.208 E8.71027
G1 X78.288 Y72.880 E8.72702
G1 X77.874 Y72.590 E8.74376
G1 X77.435 Y72.339 E8.76051
G1 X76.974 Y72.131 E8.77725
G1 X76.496 Y71.968 E8.79400
G1 X76.004 Y71.850 E8.81074
G1 X75.665 Y71.801 E8.82211
G1 X75.665 Y64.438 E9.06603
G1 X76.565 Y65.072 F7800.000
G1 F1800.000
G1 X76.359 Y65.279 E9.07581
G1 X76.359 Y65.658 E9.08849
G1 X76.944 Y65.072 E9.11620
G1 X77.324 Y65.072 E9.12888
G1 X76.359 Y66.037 E9.17452
G1 X76.359 Y66.416 E9.18720
G1 X77.703 Y65.072 E9.25078
G1 X78.082 Y65.072 E9.26346
G1 X76.359 Y66.795 E9.34497
G1 X76.359 Y67.174 E9.35765
G1 X78.461 Y65.072 E9.45709
G1 X78.840 Y65.072 E9.46977
G1 X76.359 Y67.554 E9.58714
G1 X76.359 Y67.933 E9.59982
G1 X79.220 Y65.072 E9.73512
G1 X79.599 Y65.072 E9.74780
G1 X76.359 Y68.312 E9.90104
G1 X76.359 Y68.691 E9.91372
G1 X79.978 Y65.072 E10.08489
G1 X80.357 Y65.072 E10.09757
G1 X76.359 Y69.070 E10.28667
G1 X76.359 Y69.450 E10.29935
G1 X80.736 Y65.072 E10.50638
G1 X81.115 Y65.072 E10.51906
G1 X76.359 Y69.829 E10.74403
G1 X76.359 Y70.208 E10.75671
G1 X81.495 Y65.072 E10.99961
G1 X81.874 Y65.072 E11.01229
G1 X76.359 Y70.587 E11.27312
G1 X76.359 Y70.966 E11.28580
G1 X82.253 Y65.072 E11.56456
G1 X82.632 Y65.072 E11.57724
G1 X76.441 Y71.263 E11.87004
G1 X76.737 Y71.346 E11.88032
G1 X83.011 Y65.072 E12.17706
G1 X83.390 Y65.072 E12.18974
G1 X77.019 Y71.443 E12.49106
G1 X77.291 Y71.550 E12.50084
G1 X83.770 Y65.072 E12.80721
G1 X84.149 Y65.072 E12.81989
G1 X77.553 Y71.668 E13.13185
G1 X77.805 Y71.795 E13.14129
G1 X84.528 Y65.072 E13.45925
G1 X84.907 Y65.072 E13.47193
G1 X78.046 Y71.933 E13.79640
G1 X78.281 Y72.077 E13.80561
G1 X85.286 Y65.072 E14.13692
G1 X85.666 Y65.072 E14.14960
G1 X78.504 Y72.234 E14.48832
G1 X78.722 Y72.395 E14.49739
G1 X86.045 Y65.072 E14.84370
G1 X86.424 Y65.072 E14.85638
G1 X78.926 Y72.569 E15.21096
G1 X79.130 Y72.745 E15.21995
G1 X86.803 Y65.072 E15.58285
G1 X87.182 Y65.072 E15.59553
G1 X79.316 Y72.938 E15.96754
G1 X79.503 Y73.130 E15.97650
G1 X87.561 Y65.072 E16.35762
G1 X87.941 Y65.072 E16.37030
G1 X79.673 Y73.339 E16.76129
G1 X79.842 Y73.550 E16.77031
G1 X88.008 Y65.383 E17.15652
G1 X88.008 Y65.763 E17.16920
G1 X79.996 Y73.774 E17.54810
G1 X80.147 Y74.003 E17.55726
G1 X88.008 Y66.142 E17.92904
G1 X88.008 Y66.521 E17.94172
G1 X80.285 Y74.244 E18.30697
G1 X80.416 Y74.492 E18.31635
G1 X88.008 Y66.900 E18.67540
G1 X88.008 Y67.279 E18.68808
G1 X80.538 Y74.750 E19.04138
G1 X80.649 Y75.018 E19.05109
G1 X88.008 Y67.658 E19.39915
G1 X88.008 Y68.038 E19.41183
G1 X80.745 Y75.301 E19.75531
G1 X80.835 Y75.590 E19.76544
G1 X88.008 Y68.417 E20.10466
G1 X88.008 Y68.796 E20.11734
G1 X80.909 Y75.895 E20.45309
G1 X80.971 Y76.213 E20.46390
G1 X88.008 Y69.175 E20.79671
G1 X88.008 Y69.554 E20.80939
G1 X81.018 Y76.544 E21.13997
G1 X81.044 Y76.898 E21.15181
G1 X88.008 Y69.934 E21.48116
G1 X88.008 Y70.313 E21.49384
G1 X81.058 Y77.263 E21.82255
G1 X81.042 Y77.658 E21.83576
G1 X88.008 Y70.692 E22.16520
G1 X88.008 Y71.071 E22.17788
G1 X80.995 Y78.084 E22.50955
G1 X80.909 Y78.550 E22.52538
G1 X88.008 Y71.450 E22.86114
G1 X88.008 Y71.829 E22.87382
G1 X80.770 Y79.067 E23.21613
G1 X80.695 Y79.311 E23.22465
G1 X80.546 Y79.670 E23.23766
G1 X88.008 Y72.209 E23.59055
G1 X88.008 Y72.588 E23.60323
G1 X80.136 Y80.460 E23.97552
G1 E21.97552 F2400.00000
G92 E0
G1 X76.944 Y82.893 F7800.000
G1 E2.00000 F2400.00000
G1 F1800.000
G1 X76.359 Y83.479 E2.02770
G1 X76.359 Y83.858 E2.04038
G1 X77.551 Y82.666 E2.09676
G1 X77.901 Y82.508 E2.10962
G1 X78.336 Y82.260 E2.12637
G1 X76.359 Y84.237 E2.21989
G1 X76.359 Y84.617 E2.23257
G1 X88.008 Y72.967 E2.78352
G1 X88.008 Y73.346 E2.79620
G1 X76.426 Y84.928 E3.34395
G1 X76.805 Y84.928 E3.35663
G1 X88.008 Y73.725 E3.88644
G1 X88.008 Y74.104 E3.89912
G1 X77.184 Y84.928 E4.41100
G1 X77.564 Y84.928 E4.42368
G1 X88.008 Y74.484 E4.91764
G1 X88.008 Y74.863 E4.93032
G1 X77.943 Y84.928 E5.40633
G1 X78.322 Y84.928 E5.41901
G1 X88.008 Y75.242 E5.87710
G1 X88.008 Y75.621 E5.88978
G1 X78.701 Y84.928 E6.32993
G1 X79.080 Y84.928 E6.34261
G1 X88.008 Y76.000 E6.76484
G1 X88.008 Y76.380 E6.77752
G1 X79.460 Y84.928 E7.18181
G1 X79.839 Y84.928 E7.19449
G1 X88.008 Y76.759 E7.58084
G1 X88.008 Y77.138 E7.59352
G1 X80.218 Y84.928 E7.96195
G1 X80.597 Y84.928 E7.97463
G1 X88.008 Y77.517 E8.32512
G1 X88.008 Y77.896 E8.33780
G1 X80.976 Y84.928 E8.67036
G1 X81.355 Y84.928 E8.68304
G1 X88.008 Y78.275 E8.99767
G1 X88.008 Y78.655 E9.01035
G1 X81.735 Y84.928 E9.30704
G1 X82.114 Y84.928 E9.31972
G1 X88.008 Y79.034 E9.59849
G1 X88.008 Y79.413 E9.61117
G1 X82.493 Y84.928 E9.87200
G1 X82.872 Y84.928 E9.88468
G1 X88.008 Y79.792 E10.12757
G1 X88.008 Y80.171 E10.14025
G1 X83.251 Y84.928 E10.36522
G1 X83.630 Y84.928 E10.37790
G1 X88.008 Y80.550 E10.58493
G1 X88.008 Y80.930 E10.59761
G1 X84.010 Y84.928 E10.78671
G1 X84.389 Y84.928 E10.79939
G1 X88.008 Y81.309 E10.97056
G1 X88.008 Y81.688 E10.98324
G1 X84.768 Y84.928 E11.13648
G1 X85.147 Y84.928 E11.14916
G1 X88.008 Y82.067 E11.28446
G1 X88.008 Y82.446 E11.29714
G1 X85.526 Y84.928 E11.41452
G1 X85.906 Y84.928 E11.42720
G1 X88.008 Y82.826 E11.52663
G1 X88.008 Y83.205 E11.53931
G1 X86.285 Y84.928 E11.62082
G1 X86.664 Y84.928 E11.63350
G1 X88.008 Y83.584 E11.69708
G1 X88.008 Y83.963 E11.70976
G1 X87.043 Y84.928 E11.75540
G1 X87.422 Y84.928 E11.76808
G1 X88.008 Y84.342 E11.79579
G1 X88.008 Y84.721 E11.80847
G1 X87.801 Y84.928 E11.81825
G1 E9.81825 F2400.00000
G92 E0
G1 X73.804 Y64.910 F7800.000
G1 E2.00000 F2400.00000
G1 F1800.000
G1 X73.804 Y71.349 E2.21335
G1 X73.354 Y71.457 E2.22868
G1 X72.828 Y71.637 E2.24708
G1 X72.322 Y71.866 E2.26549
G1 X71.839 Y72.142 E2.28390
G1 X71.385 Y72.461 E2.30230
G1 X70.962 Y72.822 E2.32071
G1 X70.576 Y73.221 E2.33911
G1 X70.229 Y73.655 E2.35752
G1 X69.924 Y74.119 E2.37593
G1 X69.666 Y74.605 E2.39415
G1 X69.515 Y74.955 E2.40679
G1 X69.336 Y75.478 E2.42508
G1 X69.207 Y76.018 E2.44350
G1 X69.129 Y76.568 E2.46190
G1 X69.103 Y77.120 E2.48019
G1 X69.129 Y77.675 E2.49860
G1 X69.207 Y78.225 E2.51700
G1 X69.337 Y78.765 E2.53541
G1 X69.515 Y79.286 E2.55363
G1 X69.667 Y79.636 E2.56627
G1 X69.924 Y80.122 E2.58449
G1 X70.229 Y80.586 E2.60290
G1 X70.577 Y81.020 E2.62131
G1 X70.963 Y81.419 E2.63971
G1 X71.386 Y81.780 E2.65812
G1 X71.840 Y82.099 E2.67652
G1 X72.323 Y82.374 E2.69493
G1 X72.829 Y82.603 E2.71334
G1 X73.355 Y82.783 E2.73174
G1 X73.804 Y82.891 E2.74704
G1 X73.804 Y85.090 E2.81992
G1 X61.830 Y85.090 E3.21662
G1 X61.830 Y64.910 E3.88520
G1 X73.744 Y64.910 E4.27991
G1 X74.069 Y64.644 F7800.000
G1 F1800.000
G1 X74.069 Y71.571 E4.50940
G1 X73.428 Y71.713 E4.53116
G1 X72.926 Y71.885 E4.54874
G1 X72.443 Y72.103 E4.56631
G1 X71.982 Y72.366 E4.58389
G1 X71.548 Y72.671 E4.60146
G1 X71.145 Y73.016 E4.61904
G1 X70.775 Y73.397 E4.63662
G1 X70.444 Y73.811 E4.65419
G1 X70.153 Y74.254 E4.67177
G1 X69.906 Y74.720 E4.68923
G1 X69.763 Y75.051 E4.70118
G1 X69.592 Y75.552 E4.71871
G1 X69.468 Y76.068 E4.73629
G1 X69.394 Y76.593 E4.75387
G1 X69.369 Y77.120 E4.77134
G1 X69.394 Y77.650 E4.78891
G1 X69.469 Y78.175 E4.80649
G1 X69.592 Y78.691 E4.82406
G1 X69.763 Y79.190 E4.84153
G1 X69.906 Y79.521 E4.85347
G1 X70.153 Y79.986 E4.87093
G1 X70.444 Y80.430 E4.88851
G1 X70.776 Y80.844 E4.90608
G1 X71.145 Y81.225 E4.92366
G1 X71.549 Y81.569 E4.94124
G1 X71.983 Y81.875 E4.95881
G1 X72.444 Y82.137 E4.97639
G1 X72.927 Y82.356 E4.99396
G1 X73.429 Y82.528 E5.01154
G1 X74.069 Y82.669 E5.03327
G1 X74.069 Y85.356 E5.12229
G1 X61.564 Y85.356 E5.53659
G1 X61.564 Y64.644 E6.22277
G1 X74.009 Y64.644 E6.63508
G1 X74.335 Y64.378 F7800.000
G1 F1800.000
G1 X74.335 Y71.801 E6.88100
G1 X73.994 Y71.850 E6.89242
G1 X73.502 Y71.968 E6.90916
G1 X73.024 Y72.132 E6.92591
G1 X72.563 Y72.340 E6.94266
G1 X72.124 Y72.591 E6.95940
G1 X71.711 Y72.881 E6.97615
G1 X71.327 Y73.210 E6.99289
G1 X70.975 Y73.573 E7.00964
G1 X70.659 Y73.967 E7.02639
G1 X70.382 Y74.390 E7.04313
G1 X70.146 Y74.835 E7.05983
G1 X70.011 Y75.147 E7.07109
G1 X69.847 Y75.626 E7.08786
G1 X69.729 Y76.118 E7.10461
G1 X69.658 Y76.618 E7.12136
G1 X69.635 Y77.120 E7.13800
G1 X69.659 Y77.625 E7.15474
G1 X69.730 Y78.125 E7.17149
G1 X69.848 Y78.617 E7.18823
G1 X70.011 Y79.094 E7.20494
G1 X70.146 Y79.406 E7.21619
G1 X70.382 Y79.851 E7.23289
G1 X70.659 Y80.274 E7.24964
G1 X70.976 Y80.668 E7.26638
G1 X71.327 Y81.031 E7.28313
G1 X71.712 Y81.359 E7.29988
G1 X72.125 Y81.650 E7.31662
G1 X72.564 Y81.900 E7.33337
G1 X73.025 Y82.108 E7.35011
G1 X73.503 Y82.272 E7.36686
G1 X73.995 Y82.390 E7.38360
G1 X74.335 Y82.439 E7.39499
G1 X74.335 Y85.622 E7.50044
G1 X61.298 Y85.622 E7.93234
G1 X61.298 Y64.378 E8.63612
G1 X74.275 Y64.378 E9.06604
G1 E7.06604 F2400.00000
G92 E0
G1 X73.641 Y69.554 F7800.000
G1 E2.00000 F2400.00000
G1 F1800.000
G1 X73.641 Y69.934 E2.01268
G1 X71.462 Y72.113 E2.11573
G1 X72.098 Y71.733 E2.14049
G1 X72.323 Y71.631 E2.14877
G1 X73.641 Y70.313 E2.21110
G1 X73.641 Y70.692 E2.22378
G1 X72.951 Y71.383 E2.25645
G1 E0.25645 F2400.00000
G92 E0
G1 X62.199 Y65.072 F7800.000
G1 E2.00000 F2400.00000
G1 F1800.000
G1 X61.992 Y65.279 E2.00978
G1 X61.992 Y65.658 E2.02246
G1 X62.578 Y65.072 E2.05017
G1 X62.957 Y65.072 E2.06285
G1 X61.992 Y66.037 E2.10849
G1 X61.992 Y66.416 E2.12117
G1 X63.336 Y65.072 E2.18474
G1 X63.715 Y65.072 E2.19742
G1 X61.992 Y66.795 E2.27893
G1 X61.992 Y67.174 E2.29161
G1 X64.094 Y65.072 E2.39105
G1 X64.474 Y65.072 E2.40373
G1 X61.992 Y67.554 E2.52110
G1 X61.992 Y67.933 E2.53378
G1 X64.853 Y65.072 E2.66909
G1 X65.232 Y65.072 E2.68177
G1 X61.992 Y68.312 E2.83500
G1 X61.992 Y68.691 E2.84768
G1 X65.611 Y65.072 E3.01885
G1 X65.990 Y65.072 E3.03153
G1 X61.992 Y69.070 E3.22063
G1 X61.992 Y69.450 E3.23331
G1 X66.370 Y65.072 E3.44035
G1 X66.749 Y65.072 E3.45303
G1 X61.992 Y69.829 E3.67799
G1 X61.992 Y70.208 E3.69067
G1 X67.128 Y65.072 E3.93357
G1 X67.507 Y65.072 E3.94625
G1 X61.992 Y70.587 E4.20708
G1 X61.992 Y70.966 E4.21976
G1 X67.886 Y65.072 E4.49853
G1 X68.265 Y65.072 E4.51121
G1 X61.992 Y71.345 E4.80790
G1 X61.992 Y71.725 E4.82058
G1 X68.645 Y65.072 E5.13521
G1 X69.024 Y65.072 E5.14789
G1 X61.992 Y72.104 E5.48045
G1 X61.992 Y72.483 E5.49313
G1 X69.403 Y65.072 E5.84362
G1 X69.782 Y65.072 E5.85630
G1 X61.992 Y72.862 E6.22473
G1 X61.992 Y73.241 E6.23741
G1 X70.161 Y65.072 E6.62376
G1 X70.540 Y65.072 E6.63644
G1 X61.992 Y73.620 E7.04073
G1 X61.992 Y74.000 E7.05341
G1 X70.920 Y65.072 E7.47563
G1 X71.299 Y65.072 E7.48831
G1 X61.992 Y74.379 E7.92847
G1 X61.992 Y74.758 E7.94115
G1 X71.678 Y65.072 E8.39923
G1 X72.057 Y65.072 E8.41191
G1 X61.992 Y75.137 E8.88793
G1 X61.992 Y75.516 E8.90061
G1 X72.436 Y65.072 E9.39456
G1 X72.816 Y65.072 E9.40724
G1 X61.992 Y75.896 E9.91913
G1 X61.992 Y76.275 E9.93181
G1 X73.195 Y65.072 E10.46162
G1 X73.574 Y65.072 E10.47430
G1 X61.992 Y76.654 E11.02205
G1 X61.992 Y77.033 E11.03473
G1 X73.641 Y65.383 E11.58568
G1 X73.641 Y65.763 E11.59836
G1 X61.992 Y77.412 E12.14930
G1 X61.992 Y77.791 E12.16198
G1 X73.641 Y66.142 E12.71293
G1 X73.641 Y66.521 E12.72561
G1 X61.992 Y78.171 E13.27655
G1 X61.992 Y78.550 E13.28923
G1 X73.641 Y66.900 E13.84018
G1 X73.641 Y67.279 E13.85286
G1 X61.992 Y78.929 E14.40380
G1 X61.992 Y79.308 E14.41648
G1 X73.641 Y67.658 E14.96743
G1 X73.641 Y68.038 E14.98011
G1 X61.992 Y79.687 E15.53105
G1 X61.992 Y80.066 E15.54373
G1 X73.641 Y68.417 E16.09468
G1 X73.641 Y68.796 E16.10736
G1 X61.992 Y80.446 E16.65830
G1 X61.992 Y80.825 E16.67098
G1 X73.641 Y69.175 E17.22193
G1 X73.641 Y69.554 E17.23461
G1 X61.992 Y81.204 E17.78555
G1 X61.992 Y81.583 E17.79823
G1 X69.996 Y73.579 E18.17678
G1 X69.798 Y73.880 E18.18885
G1 X69.502 Y74.452 E18.21039
G1 X61.992 Y81.962 E18.56555
G1 X61.992 Y82.342 E18.57823
G1 X69.263 Y75.070 E18.92210
G1 X69.184 Y75.301 E18.93023
G1 X69.112 Y75.600 E18.94053
G1 X61.992 Y82.721 E19.27729
G1 X61.992 Y83.100 E19.28997
G1 X69.020 Y76.072 E19.62233
G1 X68.964 Y76.507 E19.63698
G1 X61.992 Y83.479 E19.96673
G1 X61.992 Y83.858 E19.97941
G1 X68.946 Y76.904 E20.30828
G1 X68.953 Y77.277 E20.32073
G1 X61.992 Y84.237 E20.64992
G1 X61.992 Y84.617 E20.66260
G1 X68.973 Y77.635 E20.99278
G1 X69.020 Y77.967 E21.00399
G1 X62.059 Y84.928 E21.33319
G1 X62.439 Y84.928 E21.34588
G1 X69.078 Y78.289 E21.65986
G1 X69.151 Y78.595 E21.67038
G1 X62.818 Y84.928 E21.96990
G1 X63.197 Y84.928 E21.98258
G1 X69.237 Y78.888 E22.26824
G1 X69.334 Y79.170 E22.27822
G1 X63.576 Y84.928 E22.55052
G1 X63.955 Y84.928 E22.56320
G1 X69.442 Y79.442 E22.82266
G1 X69.560 Y79.703 E22.83224
G1 X64.334 Y84.928 E23.07936
G1 X64.714 Y84.928 E23.09204
G1 X69.691 Y79.951 E23.32743
G1 X69.826 Y80.195 E23.33677
G1 X65.093 Y84.928 E23.56060
