; generated by Slic3r 1.3.1-dev (Build 2ef957d) on 2019-11-25 at 09:21:17

; external perimeters extrusion width = 0.55mm (4.37mm^3/s)
; perimeters extrusion width = 0.70mm (11.44mm^3/s)
; infill extrusion width = 0.62mm (13.45mm^3/s)
; solid infill extrusion width = 0.70mm (3.81mm^3/s)
; top infill extrusion width = 0.70mm (2.86mm^3/s)

M107
G92 E0
M104 S200 ; set temperature
G28 ; home all axes
G1 Z5 F5000 ; lift nozzle

; Filament gcode

M109 S200 ; set temperature and wait for it to be reached
G21 ; set units to millimeters
G90 ; use absolute coordinates
M82 ; use absolute distances for extrusion
G92 E0
G1 Z0.350 F7800.000
G1 E-2.00000 F2400.00000
G92 E0
G1 X46.668 Y76.774 F7800.000
G1 E2.00000 F2400.00000
G1 F1800.000
G1 X48.820 Y75.981 E2.07096
G1 X50.000 Y75.875 E2.10761
G1 X150.000 Y75.875 E5.20174
G1 X152.259 Y76.272 E5.27271
G1 X154.247 Y77.415 E5.34367
G1 X155.726 Y79.168 E5.41463
G1 X156.519 Y81.320 E5.48559
G1 X156.625 Y82.500 E5.52225
G1 X156.625 Y117.500 E6.60519
G1 X156.228 Y119.759 E6.67615
G1 X155.085 Y121.747 E6.74712
G1 X153.332 Y123.226 E6.81808
G1 X151.180 Y124.019 E6.88904
G1 X150.000 Y124.125 E6.92569
G1 X50.000 Y124.125 E10.01982
G1 X47.741 Y123.728 E10.09079
G1 X45.753 Y122.585 E10.16175
G1 X44.274 Y120.832 E10.23271
G1 X43.481 Y118.680 E10.30367
G1 X43.375 Y117.500 E10.34032
G1 X43.375 Y82.500 E11.42327
G1 X43.772 Y80.241 E11.49423
G1 X44.915 Y78.253 E11.56519
G1 X46.611 Y76.822 E11.63384
G1 E9.63384 F2400.00000
G92 E0
G1 X136.183 Y112.547 F7800.000
G1 E2.00000 F2400.00000
G1 F1800.000
G1 X135.518 Y110.500 E2.06659
G1 X136.183 Y108.453 E2.13318
G1 X137.924 Y107.188 E2.19976
G1 X140.076 Y107.188 E2.26635
G1 X141.817 Y108.453 E2.33294
G1 X142.482 Y110.500 E2.39952
G1 X141.817 Y112.547 E2.46611
G1 X140.076 Y113.812 E2.53270
G1 X137.924 Y113.812 E2.59929
G1 X136.244 Y112.591 E2.66355
G1 X136.715 Y112.161 F7800.000
G1 F1800.000
G1 X136.175 Y110.500 E2.71757
G1 X136.715 Y108.839 E2.77160
G1 X138.127 Y107.813 E2.82562
G1 X139.873 Y107.813 E2.87964
G1 X141.285 Y108.839 E2.93366
G1 X141.825 Y110.500 E2.98769
G1 X141.285 Y112.161 E3.04171
G1 X139.873 Y113.187 E3.09573
G1 X138.127 Y113.187 E3.14976
G1 X136.775 Y112.205 E3.20146
G1 X137.246 Y111.774 F7800.000
G1 F1800.000
G1 X136.832 Y110.500 E3.24292
G1 X137.246 Y109.226 E3.28437
G1 X138.330 Y108.438 E3.32583
G1 X139.670 Y108.438 E3.36729
G1 X140.754 Y109.226 E3.40875
G1 X141.168 Y110.500 E3.45021
G1 X140.754 Y111.774 E3.49166
G1 X139.670 Y112.562 E3.53312
G1 X138.330 Y112.562 E3.57458
G1 X137.307 Y111.818 E3.61372
G1 X137.246 Y111.774 F7800.000
G1 E1.61372 F2400.00000
G92 E0
G1 X121.817 Y96.547 F7800.000
G1 E2.00000 F2400.00000
G1 F1800.000
G1 X120.076 Y97.812 E2.06659
G1 X117.924 Y97.812 E2.13317
G1 X116.183 Y96.547 E2.19976
G1 X115.518 Y94.500 E2.26635
G1 X116.183 Y92.453 E2.33294
G1 X117.924 Y91.188 E2.39952
G1 X120.076 Y91.188 E2.46611
G1 X121.817 Y92.453 E2.53270
G1 X122.482 Y94.500 E2.59928
G1 X121.840 Y96.475 E2.66355
G1 X121.285 Y96.161 F7800.000
G1 F1800.000
G1 X119.873 Y97.187 E2.71757
G1 X118.127 Y97.187 E2.77160
G1 X116.715 Y96.161 E2.82562
G1 X116.175 Y94.500 E2.87964
G1 X116.715 Y92.839 E2.93366
G1 X118.127 Y91.813 E2.98769
G1 X119.873 Y91.813 E3.04171
G1 X121.285 Y92.839 E3.09573
G1 X121.825 Y94.500 E3.14975
G1 X121.309 Y96.089 E3.20146
G1 X120.754 Y95.774 F7800.000
G1 F1800.000
G1 X119.670 Y96.562 E3.24292
G1 X118.330 Y96.562 E3.28437
G1 X117.246 Y95.774 E3.32583
G1 X116.832 Y94.500 E3.36729
G1 X117.246 Y93.226 E3.40875
G1 X118.330 Y92.438 E3.45021
G1 X119.670 Y92.438 E3.49166
G1 X120.754 Y93.226 E3.53312
G1 X121.168 Y94.500 E3.57458
G1 X120.777 Y95.703 E3.61372
G1 X120.754 Y95.774 F7800.000
G1 E1.61372 F2400.00000
G92 E0
G1 X105.459 Y90.963 F7800.000
G1 E2.00000 F2400.00000
G1 F1800.000
G1 X105.459 Y104.274 E2.41188
G1 X101.001 Y104.274 E2.54982
G1 X99.473 Y104.189 E2.59715
G1 X98.047 Y103.912 E2.64211
G1 X96.762 Y103.412 E2.68478
G1 X95.652 Y102.656 E2.72633
G1 X94.779 Y101.646 E2.76762
G1 X94.181 Y100.438 E2.80932
G1 X93.848 Y99.094 E2.85219
G1 X93.744 Y97.628 E2.89764
G1 X93.849 Y96.157 E2.94327
G1 X94.183 Y94.808 E2.98630
G1 X94.784 Y93.596 E3.02814
G1 X95.659 Y92.584 E3.06955
G1 X96.770 Y91.828 E3.11113
G1 X98.054 Y91.327 E3.15377
G1 X99.478 Y91.048 E3.19866
G1 X101.000 Y90.963 E3.24585
G1 X105.384 Y90.963 E3.38148
G1 X104.834 Y91.588 F7800.000
G1 F1800.000
G1 X104.834 Y103.649 E3.75469
G1 X101.018 Y103.649 E3.87276
G1 X99.551 Y103.568 E3.91823
G1 X98.222 Y103.309 E3.96013
G1 X97.055 Y102.855 E3.99887
G1 X96.071 Y102.186 E4.03568
G1 X95.304 Y101.298 E4.07199
G1 X94.772 Y100.222 E4.10912
G1 X94.468 Y98.996 E4.14822
G1 X94.371 Y97.628 E4.19063
G1 X94.468 Y96.255 E4.23322
G1 X94.773 Y95.024 E4.27248
G1 X95.308 Y93.944 E4.30975
G1 X96.078 Y93.054 E4.34617
G1 X97.063 Y92.384 E4.38303
G1 X98.229 Y91.929 E4.42175
G1 X99.555 Y91.669 E4.46357
G1 X101.018 Y91.588 E4.50889
G1 X104.759 Y91.588 E4.62465
G1 X104.209 Y92.213 F7800.000
G1 F1800.000
G1 X104.209 Y103.024 E4.95919
G1 X101.035 Y103.024 E5.05739
G1 X99.628 Y102.946 E5.10100
G1 X98.396 Y102.706 E5.13984
G1 X97.348 Y102.298 E5.17465
G1 X96.490 Y101.715 E5.20673
G1 X95.829 Y100.949 E5.23804
G1 X95.362 Y100.006 E5.27061
G1 X95.087 Y98.898 E5.30594
G1 X94.997 Y97.628 E5.34531
G1 X95.088 Y96.353 E5.38486
G1 X95.364 Y95.240 E5.42034
G1 X95.833 Y94.293 E5.45305
G1 X96.497 Y93.525 E5.48448
G1 X97.356 Y92.940 E5.51662
G1 X98.404 Y92.532 E5.55142
G1 X99.633 Y92.291 E5.59018
G1 X101.035 Y92.213 E5.63363
G1 X104.134 Y92.213 E5.72951
G1 X104.709 Y92.210 F7800.000
G1 E3.72951 F2400.00000
G92 E0
G1 X100.076 Y107.188 F7800.000
G1 E2.00000 F2400.00000
G1 F1800.000
G1 X101.817 Y108.453 E2.06659
G1 X102.482 Y110.500 E2.13317
G1 X101.817 Y112.547 E2.19976
G1 X100.076 Y113.812 E2.26635
G1 X97.924 Y113.812 E2.33294
G1 X96.183 Y112.547 E2.39952
G1 X95.518 Y110.500 E2.46611
G1 X96.183 Y108.453 E2.53270
G1 X97.924 Y107.188 E2.59929
G1 X100.001 Y107.188 E2.66355
G1 X99.873 Y107.813 F7800.000
G1 F1800.000
G1 X101.285 Y108.839 E2.71757
G1 X101.825 Y110.500 E2.77160
G1 X101.285 Y112.161 E2.82562
G1 X99.873 Y113.187 E2.87964
G1 X98.127 Y113.187 E2.93366
G1 X96.715 Y112.161 E2.98769
G1 X96.175 Y110.500 E3.04171
G1 X96.715 Y108.839 E3.09573
G1 X98.127 Y107.813 E3.14976
G1 X99.798 Y107.813 E3.20146
G1 X99.670 Y108.438 F7800.000
G1 F1800.000
G1 X100.754 Y109.226 E3.24292
G1 X101.168 Y110.500 E3.28437
G1 X100.754 Y111.774 E3.32583
G1 X99.670 Y112.562 E3.36729
G1 X98.330 Y112.562 E3.40875
G1 X97.246 Y111.774 E3.45021
G1 X96.832 Y110.500 E3.49166
G1 X97.246 Y109.226 E3.53312
G1 X98.330 Y108.438 E3.57458
G1 X99.595 Y108.438 E3.61372
G1 X99.670 Y108.438 F7800.000
G1 E1.61372 F2400.00000
G92 E0
G1 X93.779 Y103.431 F7800.000
G1 E2.00000 F2400.00000
G1 F1800.000
G1 X90.610 Y111.687 E2.27361
G1 X87.630 Y111.687 E2.36580
G1 X87.191 Y110.542 E2.40376
G1 X86.322 Y111.274 E2.43893
G1 X85.319 Y111.697 E2.47260
G1 X84.237 Y111.827 E2.50631
G1 X83.158 Y111.696 E2.53996
G1 X82.156 Y111.273 E2.57360
G1 X81.306 Y110.555 E2.60804
G1 X80.872 Y111.687 E2.64557
G1 X77.892 Y111.687 E2.73776
G1 X77.328 Y110.215 E2.78654
G1 X74.113 Y110.215 E2.88602
G1 X74.113 Y108.344 E2.94392
G1 X73.723 Y108.174 E2.95708
G1 X73.723 Y111.318 E3.05436
G1 X71.901 Y111.706 E3.11201
G1 X71.317 Y111.788 E3.13025
G1 X70.718 Y111.818 E3.14879
G1 X69.968 Y111.757 E3.17208
G1 X69.211 Y111.539 E3.19647
G1 X68.504 Y111.127 E3.22178
G1 X67.915 Y110.512 E3.24812
G1 X67.546 Y109.732 E3.27483
G1 X67.437 Y108.921 E3.30014
G1 X67.500 Y108.286 E3.31990
G1 X67.645 Y107.858 E3.33388
G1 X67.597 Y107.781 E3.33668
G1 X67.385 Y107.146 E3.35740
G1 X67.319 Y106.478 E3.37817
G1 X67.427 Y105.600 E3.40556
G1 X67.799 Y104.752 E3.43420
G1 X68.427 Y104.063 E3.46305
G1 X69.207 Y103.605 E3.49106
G1 X70.048 Y103.367 E3.51808
G1 X70.907 Y103.299 E3.54476
G1 X71.554 Y103.342 E3.56482
G1 X72.186 Y103.461 E3.58471
G1 X74.113 Y104.042 E3.64698
G1 X74.113 Y103.431 E3.66588
G1 X78.892 Y103.431 E3.81375
G1 X79.379 Y104.778 E3.85804
G1 X79.866 Y103.431 E3.90234
G1 X83.136 Y103.431 E4.00353
G1 X84.237 Y103.292 E4.03788
G1 X85.342 Y103.431 E4.07232
G1 X88.630 Y103.431 E4.17406
G1 X89.117 Y104.778 E4.21836
G1 X89.604 Y103.431 E4.26265
G1 X93.704 Y103.431 E4.38952
G1 X92.870 Y104.056 F7800.000
G1 F1800.000
G1 X90.180 Y111.062 E4.62172
G1 X88.060 Y111.062 E4.68732
G1 X87.336 Y109.174 E4.74989
G1 X86.687 Y110.149 E4.78612
G1 X85.992 Y110.735 E4.81427
G1 X85.157 Y111.087 E4.84228
G1 X84.238 Y111.197 E4.87095
G1 X83.320 Y111.086 E4.89955
G1 X82.487 Y110.735 E4.92753
G1 X81.793 Y110.148 E4.95563
G1 X81.159 Y109.194 E4.99108
G1 X80.442 Y111.062 E5.05301
G1 X78.322 Y111.062 E5.11861
G1 X77.712 Y109.472 E5.17132
G1 X77.405 Y109.528 E5.18097
G1 X77.405 Y109.590 E5.18288
G1 X74.738 Y109.590 E5.26542
G1 X74.738 Y104.056 E5.43664
G1 X78.453 Y104.056 E5.55161
G1 X78.916 Y105.336 E5.59373
G1 X79.841 Y105.336 E5.62234
G1 X80.304 Y104.056 E5.66446
G1 X83.262 Y104.056 E5.75600
G1 X83.320 Y104.032 E5.75793
G1 X84.237 Y103.921 E5.78653
G1 X85.157 Y104.032 E5.81518
G1 X85.216 Y104.056 E5.81715
G1 X88.191 Y104.056 E5.90922
G1 X88.654 Y105.336 E5.95134
G1 X89.579 Y105.336 E5.97996
G1 X90.042 Y104.056 E6.02208
G1 X92.795 Y104.056 E6.10725
G1 X91.961 Y104.681 F7800.000
G1 F1800.000
G1 X89.751 Y110.437 E6.29802
G1 X88.490 Y110.437 E6.33704
G1 X87.235 Y107.163 E6.44553
G1 X86.916 Y107.238 E6.45565
G1 X86.946 Y107.557 E6.46557
G1 X86.868 Y108.384 E6.49128
G1 X86.627 Y109.112 E6.51500
G1 X86.217 Y109.729 E6.53792
G1 X85.662 Y110.196 E6.56037
G1 X84.996 Y110.477 E6.58273
G1 X84.238 Y110.568 E6.60635
G1 X83.482 Y110.477 E6.62991
G1 X82.818 Y110.196 E6.65222
G1 X82.265 Y109.728 E6.67462
G1 X81.855 Y109.112 E6.69753
G1 X81.614 Y108.384 E6.72124
G1 X81.536 Y107.557 E6.74694
G1 X81.559 Y107.312 E6.75455
G1 X81.241 Y107.238 E6.76468
G1 X80.013 Y110.437 E6.87072
G1 X78.751 Y110.437 E6.90974
G1 X77.087 Y106.095 E7.05362
G1 X76.780 Y106.152 E7.06327
G1 X76.780 Y106.277 E7.06714
G1 X75.363 Y106.277 E7.11101
G1 X75.363 Y104.681 E7.16040
G1 X78.015 Y104.681 E7.24246
G1 X78.478 Y105.961 E7.28458
G1 X80.280 Y105.961 E7.34033
G1 X80.743 Y104.681 E7.38245
G1 X82.222 Y104.681 E7.42824
G1 X82.009 Y105.238 E7.44668
G1 X82.246 Y105.406 E7.45568
G1 X82.818 Y104.923 E7.47886
G1 X83.482 Y104.642 E7.50117
G1 X84.238 Y104.551 E7.52472
G1 X84.996 Y104.642 E7.54834
G1 X85.661 Y104.921 E7.57068
G1 X86.270 Y105.433 E7.59530
G1 X86.507 Y105.265 E7.60428
G1 X86.283 Y104.681 E7.62362
G1 X87.753 Y104.681 E7.66909
G1 X88.216 Y105.961 E7.71121
G1 X90.018 Y105.961 E7.76696
G1 X90.481 Y104.681 E7.80908
G1 X91.886 Y104.681 E7.85254
G1 X92.460 Y104.706 F7800.000
G1 E5.85254 F2400.00000
G92 E0
G1 X76.780 Y107.369 F7800.000
G1 E2.00000 F2400.00000
G1 F1800.000
G1 X76.780 Y108.965 E2.04938
G1 X75.363 Y108.965 E2.09326
G1 X75.363 Y107.369 E2.14264
G1 X76.705 Y107.369 E2.18419
G1 X77.261 Y107.230 F7800.000
G1 E0.18419 F2400.00000
G92 E0
G1 X73.252 Y107.287 F7800.000
G1 E2.00000 F2400.00000
G1 F1800.000
G1 X72.373 Y106.904 E2.02966
G1 X72.373 Y108.293 E2.07263
G1 X73.098 Y108.079 E2.09602
G1 X73.098 Y110.812 E2.18058
G1 X71.792 Y111.091 E2.22189
G1 X71.258 Y111.165 E2.23859
G1 X70.728 Y111.192 E2.25500
G1 X70.081 Y111.139 E2.27508
G1 X69.458 Y110.960 E2.29514
G1 X68.895 Y110.631 E2.31532
G1 X68.437 Y110.153 E2.33581
G1 X68.152 Y109.552 E2.35639
G1 X68.066 Y108.911 E2.37641
G1 X68.115 Y108.419 E2.39170
G1 X68.270 Y107.962 E2.40661
G1 X68.362 Y107.819 E2.41188
G1 X68.165 Y107.510 E2.42321
G1 X68.000 Y107.015 E2.43936
G1 X67.947 Y106.486 E2.45583
G1 X68.036 Y105.767 E2.47823
G1 X68.330 Y105.097 E2.50087
G1 X68.825 Y104.553 E2.52362
G1 X69.454 Y104.184 E2.54620
G1 X70.158 Y103.985 E2.56883
G1 X70.912 Y103.926 E2.59221
G1 X71.476 Y103.963 E2.60971
G1 X72.037 Y104.069 E2.62739
G1 X73.252 Y104.435 E2.66665
G1 X73.252 Y107.212 E2.75257
G1 X72.627 Y106.333 F7800.000
G1 F1800.000
G1 X71.754 Y105.953 E2.78204
G1 X71.577 Y105.903 E2.78774
G1 X71.150 Y105.837 E2.80111
G1 X70.944 Y105.830 E2.80746
G1 X70.599 Y105.855 E2.81819
G1 X70.343 Y105.922 E2.82635
G1 X70.169 Y106.018 E2.83252
G1 X70.059 Y106.135 E2.83748
G1 X69.992 Y106.284 E2.84254
G1 X69.966 Y106.492 E2.84904
G1 X69.989 Y106.680 E2.85489
G1 X70.050 Y106.819 E2.85959
G1 X70.153 Y106.932 E2.86432
G1 X70.308 Y107.026 E2.86991
G1 X70.522 Y107.089 E2.87683
G1 X70.820 Y107.113 E2.88606
G1 X71.748 Y107.113 E2.91479
G1 X71.748 Y108.389 E2.95427
G1 X70.791 Y108.389 E2.98389
G1 X70.523 Y108.409 E2.99218
G1 X70.337 Y108.457 E2.99814
G1 X70.216 Y108.523 E3.00241
G1 X70.145 Y108.598 E3.00559
G1 X70.102 Y108.690 E3.00873
G1 X70.085 Y108.827 E3.01301
G1 X70.103 Y108.970 E3.01748
G1 X70.149 Y109.069 E3.02083
G1 X70.225 Y109.148 E3.02425
G1 X70.353 Y109.219 E3.02875
G1 X70.545 Y109.269 E3.03489
G1 X70.806 Y109.288 E3.04299
G1 X71.155 Y109.264 E3.05382
G1 X71.552 Y109.187 E3.06633
G1 X72.473 Y108.915 E3.09605
G1 X72.473 Y110.306 E3.13910
G1 X71.684 Y110.475 E3.16408
G1 X71.198 Y110.543 E3.17924
G1 X70.738 Y110.566 E3.19351
G1 X70.194 Y110.522 E3.21039
G1 X69.706 Y110.381 E3.22611
G1 X69.285 Y110.136 E3.24117
G1 X68.958 Y109.794 E3.25581
G1 X68.758 Y109.372 E3.27025
G1 X68.695 Y108.900 E3.28499
G1 X68.730 Y108.552 E3.29581
G1 X68.837 Y108.236 E3.30615
G1 X69.018 Y107.954 E3.31649
G1 X69.186 Y107.795 E3.32366
G1 X68.934 Y107.554 E3.33445
G1 X68.733 Y107.240 E3.34599
G1 X68.615 Y106.884 E3.35759
G1 X68.576 Y106.493 E3.36974
G1 X68.645 Y105.934 E3.38716
G1 X68.861 Y105.442 E3.40379
G1 X69.223 Y105.044 E3.42044
G1 X69.701 Y104.764 E3.43760
G1 X70.269 Y104.603 E3.45584
G1 X70.916 Y104.552 E3.47592
G1 X71.397 Y104.584 E3.49085
G1 X71.889 Y104.677 E3.50633
G1 X72.627 Y104.899 E3.53019
G1 X72.627 Y106.258 E3.57224
G1 X72.560 Y106.829 F7800.000
G1 E1.57224 F2400.00000
G92 E0
G1 X77.924 Y95.812 F7800.000
G1 E2.00000 F2400.00000
G1 F1800.000
G1 X76.183 Y94.547 E2.06659
G1 X75.518 Y92.500 E2.13317
G1 X76.183 Y90.453 E2.19976
G1 X77.924 Y89.188 E2.26635
G1 X80.076 Y89.188 E2.33294
G1 X81.817 Y90.453 E2.39952
G1 X82.482 Y92.500 E2.46611
G1 X81.817 Y94.547 E2.53270
G1 X80.076 Y95.812 E2.59929
G1 X77.999 Y95.812 E2.66355
G1 X78.127 Y95.187 F7800.000
G1 F1800.000
G1 X76.715 Y94.161 E2.71757
G1 X76.175 Y92.500 E2.77160
G1 X76.715 Y90.839 E2.82562
G1 X78.127 Y89.813 E2.87964
G1 X79.873 Y89.813 E2.93366
G1 X81.285 Y90.839 E2.98769
G1 X81.825 Y92.500 E3.04171
G1 X81.285 Y94.161 E3.09573
G1 X79.873 Y95.187 E3.14976
G1 X78.202 Y95.187 E3.20146
G1 X78.330 Y94.562 F7800.000
G1 F1800.000
G1 X77.246 Y93.774 E3.24292
G1 X76.832 Y92.500 E3.28437
G1 X77.246 Y91.226 E3.32583
G1 X78.330 Y90.438 E3.36729
G1 X79.670 Y90.438 E3.40875
G1 X80.754 Y91.226 E3.45021
G1 X81.168 Y92.500 E3.49167
G1 X80.754 Y93.774 E3.53312
G1 X79.670 Y94.562 E3.57458
G1 X78.405 Y94.562 E3.61372
G1 X78.330 Y94.562 F7800.000
G1 E1.61372 F2400.00000
G92 E0
G1 X61.817 Y108.453 F7800.000
G1 E2.00000 F2400.00000
G1 F1800.000
G1 X62.482 Y110.500 E2.06659
G1 X61.817 Y112.547 E2.13318
G1 X60.076 Y113.812 E2.19976
G1 X57.924 Y113.812 E2.26635
G1 X56.183 Y112.547 E2.33294
G1 X55.518 Y110.500 E2.39952
G1 X56.183 Y108.453 E2.46611
G1 X57.924 Y107.188 E2.53270
G1 X60.076 Y107.188 E2.59929
G1 X61.756 Y108.409 E2.66355
G1 X61.285 Y108.839 F7800.000
G1 F1800.000
G1 X61.825 Y110.500 E2.71758
G1 X61.285 Y112.161 E2.77160
G1 X59.873 Y113.187 E2.82562
G1 X58.127 Y113.187 E2.87964
G1 X56.714 Y112.161 E2.93367
G1 X56.175 Y110.500 E2.98769
G1 X56.714 Y108.839 E3.04171
G1 X58.127 Y107.813 E3.09574
G1 X59.873 Y107.813 E3.14976
G1 X61.225 Y108.795 E3.20146
G1 X60.754 Y109.226 F7800.000
G1 F1800.000
G1 X61.168 Y110.500 E3.24292
G1 X60.754 Y111.774 E3.28438
G1 X59.670 Y112.562 E3.32583
G1 X58.330 Y112.562 E3.36729
G1 X57.246 Y111.774 E3.40875
G1 X56.832 Y110.500 E3.45021
G1 X57.246 Y109.226 E3.49167
G1 X58.330 Y108.438 E3.53313
G1 X59.670 Y108.438 E3.57459
G1 X60.693 Y109.182 E3.61372
G1 X60.754 Y109.226 F7800.000
G1 E1.61372 F2400.00000
G92 E0
G1 X51.600 Y115.900 F7800.000
G1 E2.00000 F2400.00000
G1 F1800.000
G1 X51.600 Y84.100 E2.98395
G1 X148.400 Y84.100 E5.97908
G1 X148.400 Y115.900 E6.96303
G1 X51.675 Y115.900 E9.95584
G1 X50.975 Y116.525 F7800.000
G1 F1800.000
G1 X50.975 Y83.475 E10.97846
