; generated by Slic3r 1.3.1-dev (Build 4f5b935) on 2019-11-26 at 14:51:53

; external perimeters extrusion width = 0.55mm (1.90mm^3/s)
; perimeters extrusion width = 0.70mm (2.71mm^3/s)
; infill extrusion width = 0.62mm (2.41mm^3/s)
; solid infill extrusion width = 0.70mm (2.04mm^3/s)
; top infill extrusion width = 0.70mm (2.04mm^3/s)

M107
G92 E0
;D3D:START:START
T0
M104 S215 T0

G21
G90
M107
T0
G28
G29
M109 T0 S215 T0
G0 F3000
M107
T0
G92 E0
G0 X0 Y149 Z0.1 F3600
G1 Y49 E6.5 F1200
G0 Z1
G92 E0
; Filament gcode

G21 ; set units to millimeters
G90 ; use absolute coordinates
M82 ; use absolute distances for extrusion
G92 E0
G1 Z0.090 F7800.000
G1 E-2.00000 F2400.00000
G92 E0
G1 X49.985 Y52.053 F7800.000
G1 E2.00000 F2400.00000
G1 F1800.000
G1 X51.716 Y50.701 E2.00655
G1 X54.529 Y50.011 E2.01519
G1 X81.929 Y50.011 E2.09688
G1 X84.009 Y50.378 E2.10318
G1 X97.550 Y55.307 E2.14614
G1 X99.444 Y56.418 E2.15269
G1 X100.820 Y58.130 E2.15924
G1 X101.497 Y60.219 E2.16579
G1 X101.184 Y63.099 E2.17443
G1 X89.213 Y95.988 E2.27878
G1 X88.101 Y97.882 E2.28533
G1 X86.389 Y99.258 E2.29188
G1 X84.300 Y99.936 E2.29843
G1 X82.911 Y99.960 E2.30257
G1 X53.941 Y97.142 E2.38936
G1 X51.829 Y96.538 E2.39591
G1 X50.070 Y95.223 E2.40246
G1 X48.893 Y93.369 E2.40900
G1 X48.450 Y91.091 E2.41592
G1 X48.450 Y56.091 E2.52028
G1 X48.847 Y53.931 E2.52683
G1 X49.946 Y52.117 E2.53316
G1 E0.53316 F2400.00000
G92 E0
G1 X82.154 Y85.866 F7800.000
G1 E2.00000 F2400.00000
G1 F1800.000
G1 X80.697 Y86.284 E2.00452
G1 X79.272 Y85.765 E2.00904
G1 X78.424 Y84.508 E2.01356
G1 X78.477 Y82.993 E2.01808
G1 X79.411 Y81.798 E2.02261
G1 X80.868 Y81.380 E2.02713
G1 X82.293 Y81.898 E2.03165
G1 X83.141 Y83.155 E2.03617
G1 X83.088 Y84.671 E2.04069
G1 X82.201 Y85.807 E2.04499
G1 X82.108 Y85.796 F7800.000
G1 F1800.000
G1 X80.700 Y86.200 E2.04935
G1 X79.324 Y85.699 E2.05372
G1 X78.505 Y84.485 E2.05809
G1 X78.556 Y83.021 E2.06245
G1 X79.457 Y81.867 E2.06682
G1 X80.865 Y81.464 E2.07119
G1 X82.241 Y81.964 E2.07555
G1 X83.060 Y83.179 E2.07992
G1 X83.009 Y84.642 E2.08429
G1 X82.154 Y85.737 E2.08843
G1 X82.061 Y85.727 F7800.000
G1 F1800.000
G1 X80.703 Y86.116 E2.09264
G1 X79.375 Y85.633 E2.09685
G1 X78.585 Y84.462 E2.10107
G1 X78.634 Y83.050 E2.10528
G1 X79.504 Y81.937 E2.10949
G1 X80.862 Y81.547 E2.11370
G1 X82.190 Y82.030 E2.11792
G1 X82.980 Y83.202 E2.12213
G1 X82.930 Y84.614 E2.12634
G1 X82.107 Y85.668 E2.13033
G1 X82.014 Y85.657 F7800.000
G1 F1800.000
G1 X80.706 Y86.032 E2.13439
G1 X79.427 Y85.567 E2.13844
G1 X78.666 Y84.439 E2.14250
G1 X78.713 Y83.079 E2.14656
G1 X79.551 Y82.006 E2.15062
G1 X80.859 Y81.631 E2.15468
G1 X82.138 Y82.096 E2.15873
G1 X82.899 Y83.225 E2.16279
G1 X82.852 Y84.585 E2.16685
G1 X82.060 Y85.598 E2.17068
G1 X82.014 Y85.657 F7800.000
G1 E0.17068 F2400.00000
G92 E0
G1 X87.537 Y67.490 F7800.000
G1 E2.00000 F2400.00000
G1 F1800.000
G1 X86.112 Y66.971 E2.00452
G1 X85.265 Y65.714 E2.00904
G1 X85.317 Y64.199 E2.01356
G1 X86.251 Y63.004 E2.01808
G1 X87.708 Y62.586 E2.02261
G1 X89.133 Y63.105 E2.02713
G1 X89.981 Y64.362 E2.03165
G1 X89.928 Y65.877 E2.03617
G1 X88.995 Y67.072 E2.04069
G1 X87.609 Y67.469 E2.04499
G1 X87.540 Y67.406 F7800.000
G1 F1800.000
G1 X86.164 Y66.905 E2.04935
G1 X85.345 Y65.691 E2.05372
G1 X85.396 Y64.227 E2.05809
G1 X86.298 Y63.073 E2.06245
G1 X87.706 Y62.670 E2.06682
G1 X89.082 Y63.171 E2.07119
G1 X89.901 Y64.385 E2.07555
G1 X89.850 Y65.848 E2.07992
G1 X88.948 Y67.002 E2.08429
G1 X87.612 Y67.385 E2.08843
G1 X87.543 Y67.322 F7800.000
G1 F1800.000
G1 X86.216 Y66.839 E2.09264
G1 X85.426 Y65.668 E2.09685
G1 X85.475 Y64.256 E2.10107
G1 X86.345 Y63.143 E2.10528
G1 X87.703 Y62.753 E2.10949
G1 X89.030 Y63.237 E2.11370
G1 X89.820 Y64.408 E2.11792
G1 X89.771 Y65.820 E2.12213
G1 X88.901 Y66.933 E2.12634
G1 X87.615 Y67.302 E2.13033
G1 X87.546 Y67.239 F7800.000
G1 F1800.000
G1 X86.267 Y66.773 E2.13439
G1 X85.506 Y65.645 E2.13844
G1 X85.554 Y64.285 E2.14250
G1 X86.391 Y63.212 E2.14656
G1 X87.700 Y62.837 E2.15062
G1 X88.979 Y63.303 E2.15468
G1 X89.740 Y64.431 E2.15873
G1 X89.692 Y65.791 E2.16279
G1 X88.854 Y66.863 E2.16685
G1 X87.618 Y67.218 E2.17068
G1 X87.546 Y67.239 F7800.000
G1 E0.17068 F2400.00000
G92 E0
G1 X72.318 Y60.553 F7800.000
G1 E2.00000 F2400.00000
G1 F1800.000
G1 X54.818 Y60.553 E2.05218
G1 X54.818 Y56.380 E2.06462
G1 X81.879 Y56.380 E2.14531
G1 X95.101 Y61.192 E2.18726
G1 X83.327 Y93.539 E2.28990
G1 X75.809 Y90.803 E2.31375
G1 X54.818 Y90.803 E2.37634
G1 X54.818 Y86.630 E2.38878
G1 X72.318 Y86.630 E2.44096
G1 X72.318 Y60.628 E2.51849
G1 X72.238 Y60.632 F7800.000
G1 F1800.000
G1 X54.738 Y60.632 E2.57067
G1 X54.738 Y56.300 E2.58359
G1 X81.893 Y56.300 E2.66455
G1 X95.203 Y61.144 E2.70679
G1 X83.375 Y93.641 E2.80990
G1 X75.795 Y90.882 E2.83395
G1 X54.738 Y90.882 E2.89673
G1 X54.738 Y86.550 E2.90965
G1 X72.238 Y86.550 E2.96183
G1 X72.238 Y60.707 E3.03888
G1 X72.159 Y60.712 F7800.000
G1 F1800.000
G1 X54.659 Y60.712 E3.09106
G1 X54.659 Y56.220 E3.10446
G1 X81.907 Y56.220 E3.18570
G1 X95.305 Y61.097 E3.22821
G1 X83.423 Y93.743 E3.33180
G1 X75.781 Y90.962 E3.35605
G1 X54.659 Y90.962 E3.41903
G1 X54.659 Y86.470 E3.43242
G1 X72.159 Y86.470 E3.48460
G1 X72.159 Y60.787 E3.56118
G1 X72.079 Y60.792 F7800.000
G1 F1800.000
G1 X54.579 Y60.792 E3.61336
G1 X54.579 Y56.141 E3.62722
G1 X81.921 Y56.141 E3.70875
G1 X95.407 Y61.049 E3.75154
G1 X83.470 Y93.845 E3.85560
G1 X75.767 Y91.042 E3.88005
G1 X54.579 Y91.042 E3.94322
G1 X54.579 Y86.391 E3.95709
G1 X72.079 Y86.391 E4.00927
G1 X72.079 Y60.867 E4.08537
G1 X72.178 Y60.302 F7800.000
G1 E2.08537 F2400.00000
G92 E0
G1 X86.111 Y63.062 F7800.000
G1 E2.00000 F2400.00000
G1 F1800.000
G1 X72.367 Y76.806 E2.05805
G1 X72.367 Y76.919 E2.05839
G1 X85.708 Y63.578 E2.11474
G1 X85.305 Y64.094 E2.11670
G1 X72.367 Y77.032 E2.17135
G1 X72.367 Y77.145 E2.17169
G1 X85.266 Y64.246 E2.22617
G1 X85.262 Y64.363 E2.22652
G1 X72.367 Y77.258 E2.28098
G1 X72.367 Y77.371 E2.28132
G1 X85.258 Y64.480 E2.33577
G1 X85.254 Y64.597 E2.33612
G1 X72.367 Y77.484 E2.39055
G1 X72.367 Y77.597 E2.39089
G1 X85.250 Y64.714 E2.44530
G1 X85.246 Y64.831 E2.44565
G1 X72.367 Y77.710 E2.50005
G1 X72.367 Y77.822 E2.50039
G1 X85.241 Y64.948 E2.55477
G1 X85.237 Y65.065 E2.55512
G1 X72.367 Y77.935 E2.60948
G1 X72.367 Y78.048 E2.60982
G1 X85.233 Y65.182 E2.66416
G1 X85.229 Y65.299 E2.66451
G1 X72.367 Y78.161 E2.71884
G1 X72.367 Y78.274 E2.71918
G1 X85.225 Y65.416 E2.77349
G1 X85.221 Y65.532 E2.77384
G1 X72.367 Y78.387 E2.82814
G1 X72.367 Y78.500 E2.82847
G1 X85.217 Y65.649 E2.88275
G1 X85.215 Y65.706 E2.88292
G1 X85.238 Y65.741 E2.88304
G1 X72.367 Y78.613 E2.93741
G1 X72.367 Y78.725 E2.93775
G1 X85.284 Y65.808 E2.99231
G1 X85.329 Y65.876 E2.99255
G1 X72.367 Y78.838 E3.04730
G1 X72.367 Y78.951 E3.04764
G1 X85.375 Y65.943 E3.10258
G1 X85.420 Y66.011 E3.10283
G1 X72.367 Y79.064 E3.15796
G1 X72.367 Y79.177 E3.15830
G1 X85.466 Y66.078 E3.21363
G1 X85.511 Y66.145 E3.21387
G1 X72.367 Y79.290 E3.26939
G1 X72.367 Y79.403 E3.26973
G1 X85.557 Y66.213 E3.32544
G1 X85.602 Y66.280 E3.32568
G1 X72.367 Y79.516 E3.38158
G1 X72.367 Y79.629 E3.38192
G1 X85.648 Y66.348 E3.43802
G1 X85.693 Y66.415 E3.43826
G1 X72.367 Y79.741 E3.49455
G1 X72.367 Y79.854 E3.49488
G1 X85.739 Y66.482 E3.55136
G1 X85.784 Y66.550 E3.55161
G1 X72.367 Y79.967 E3.60828
G1 X72.367 Y80.080 E3.60862
G1 X85.829 Y66.617 E3.66548
G1 X85.875 Y66.685 E3.66572
G1 X72.367 Y80.193 E3.72278
G1 X72.367 Y80.306 E3.72312
G1 X85.920 Y66.752 E3.78036
G1 X85.966 Y66.820 E3.78061
G1 X72.367 Y80.419 E3.83805
G1 X72.367 Y80.532 E3.83839
G1 X86.011 Y66.887 E3.89602
G1 X86.057 Y66.954 E3.89626
G1 X72.367 Y80.644 E3.95408
G1 X72.367 Y80.757 E3.95442
G1 X86.111 Y67.013 E4.01247
G1 X86.194 Y67.043 E4.01274
G1 X72.367 Y80.870 E4.07114
G1 X72.367 Y80.983 E4.07148
G1 X86.276 Y67.073 E4.13023
G1 X86.359 Y67.104 E4.13049
G1 X72.367 Y81.096 E4.18959
G1 X72.367 Y81.209 E4.18993
G1 X86.442 Y67.134 E4.24938
G1 X86.525 Y67.164 E4.24964
G1 X72.367 Y81.322 E4.30944
G1 X72.367 Y81.435 E4.30978
G1 X86.607 Y67.194 E4.36993
G1 X86.690 Y67.224 E4.37020
G1 X72.367 Y81.548 E4.43069
G1 X72.367 Y81.660 E4.43103
G1 X86.773 Y67.254 E4.49188
G1 X86.856 Y67.284 E4.49214
G1 X72.367 Y81.773 E4.55334
G1 X72.367 Y81.886 E4.55368
G1 X86.939 Y67.314 E4.61523
G1 X87.021 Y67.345 E4.61549
G1 X72.367 Y81.999 E4.67739
G1 X72.367 Y82.112 E4.67773
G1 X87.104 Y67.375 E4.73997
G1 X87.187 Y67.405 E4.74024
G1 X72.367 Y82.225 E4.80283
G1 X72.367 Y82.338 E4.80317
G1 X87.270 Y67.435 E4.86612
G1 X87.352 Y67.465 E4.86638
G1 X72.367 Y82.451 E4.92968
G1 X72.367 Y82.563 E4.93001
G1 X87.435 Y67.495 E4.99366
G1 X87.518 Y67.525 E4.99392
G1 X72.367 Y82.676 E5.05792
G1 X72.367 Y82.789 E5.05825
G1 X87.633 Y67.523 E5.12273
G1 X87.791 Y67.478 E5.12323
G1 X72.367 Y82.902 E5.18838
G1 X72.367 Y83.015 E5.18871
G1 X87.949 Y67.432 E5.25453
G1 X88.108 Y67.387 E5.25502
G1 X72.367 Y83.128 E5.32151
G1 X72.367 Y83.241 E5.32185
G1 X88.266 Y67.342 E5.38900
G1 X88.424 Y67.296 E5.38949
G1 X72.367 Y83.354 E5.45732
G1 X72.367 Y83.467 E5.45765
G1 X88.582 Y67.251 E5.52614
G1 X88.741 Y67.205 E5.52664
G1 X72.367 Y83.579 E5.59580
G1 X72.367 Y83.692 E5.59613
G1 X88.899 Y67.160 E5.66596
G1 X89.057 Y67.115 E5.66645
G1 X72.367 Y83.805 E5.73695
G1 X72.367 Y83.918 E5.73729
G1 X95.003 Y61.282 E5.83290
G1 X94.938 Y61.459 E5.83346
G1 X72.367 Y84.031 E5.92880
G1 X72.367 Y84.144 E5.92914
G1 X94.874 Y61.637 E6.02420
G1 X94.809 Y61.814 E6.02477
G1 X72.367 Y84.257 E6.11956
G1 X72.367 Y84.370 E6.11990
G1 X94.744 Y61.992 E6.21442
G1 X94.680 Y62.169 E6.21498
G1 X72.367 Y84.482 E6.30923
G1 X72.367 Y84.595 E6.30956
G1 X94.615 Y62.347 E6.40354
G1 X94.551 Y62.524 E6.40410
G1 X72.367 Y84.708 E6.49780
G1 X72.367 Y84.821 E6.49814
G1 X94.486 Y62.702 E6.59157
G1 X94.422 Y62.879 E6.59213
G1 X72.367 Y84.934 E6.68529
G1 X72.367 Y85.047 E6.68562
G1 X94.357 Y63.057 E6.77850
G1 X94.292 Y63.234 E6.77907
G1 X72.367 Y85.160 E6.87168
G1 X72.367 Y85.273 E6.87201
G1 X94.228 Y63.412 E6.96435
G1 X94.163 Y63.589 E6.96492
G1 X72.367 Y85.386 E7.05698
G1 X72.367 Y85.498 E7.05732
G1 X94.099 Y63.767 E7.14911
G1 X94.034 Y63.944 E7.14967
G1 X72.367 Y85.611 E7.24119
G1 X72.367 Y85.724 E7.24153
G1 X93.969 Y64.122 E7.33277
G1 X93.905 Y64.299 E7.33334
G1 X72.367 Y85.837 E7.42431
G1 X72.367 Y85.950 E7.42464
G1 X93.840 Y64.477 E7.51534
G1 X93.776 Y64.654 E7.51591
G1 X72.367 Y86.063 E7.60633
G1 X72.367 Y86.176 E7.60667
G1 X93.711 Y64.831 E7.69683
G1 X93.646 Y65.009 E7.69739
G1 X72.367 Y86.289 E7.78727
G1 X72.367 Y86.401 E7.78761
G1 X93.582 Y65.186 E7.87722
G1 X93.517 Y65.364 E7.87778
G1 X72.367 Y86.514 E7.96711
G1 X72.367 Y86.627 E7.96745
G1 X93.453 Y65.541 E8.05651
G1 X93.388 Y65.719 E8.05708
G1 X72.367 Y86.740 E8.14587
G1 E6.14587 F2400.00000
G92 E0
G1 X70.272 Y90.754 F7800.000
G1 E2.00000 F2400.00000
G1 F1800.000
G1 X70.385 Y90.754 E2.00034
G1 X79.228 Y81.911 E2.03769
G1 X78.824 Y82.427 E2.03964
G1 X70.498 Y90.754 E2.07481
G1 X70.611 Y90.754 E2.07515
G1 X78.429 Y82.935 E2.10818
G1 X78.425 Y83.052 E2.10853
G1 X70.724 Y90.754 E2.14106
G1 X70.836 Y90.754 E2.14139
G1 X78.421 Y83.169 E2.17343
G1 X78.417 Y83.286 E2.17378
G1 X70.949 Y90.754 E2.20532
G1 X71.062 Y90.754 E2.20566
G1 X78.413 Y83.403 E2.23670
G1 X78.409 Y83.520 E2.23705
G1 X71.175 Y90.754 E2.26761
G1 X71.288 Y90.754 E2.26795
G1 X78.405 Y83.637 E2.29800
G1 X78.401 Y83.754 E2.29835
G1 X71.401 Y90.754 E2.32792
G1 X71.514 Y90.754 E2.32826
G1 X78.396 Y83.871 E2.35733
G1 X78.392 Y83.988 E2.35768
G1 X71.627 Y90.754 E2.38626
G1 X71.739 Y90.754 E2.38659
G1 X78.388 Y84.105 E2.41468
G1 X78.384 Y84.222 E2.41503
G1 X71.852 Y90.754 E2.44262
G1 X71.965 Y90.754 E2.44295
G1 X78.380 Y84.339 E2.47005
G1 X78.376 Y84.456 E2.47040
G1 X72.078 Y90.754 E2.49700
G1 X72.191 Y90.754 E2.49734
G1 X78.403 Y84.542 E2.52357
G1 X78.448 Y84.609 E2.52382
G1 X72.304 Y90.754 E2.54977
G1 X72.417 Y90.754 E2.55011
G1 X78.494 Y84.677 E2.57577
G1 X78.539 Y84.744 E2.57602
G1 X72.530 Y90.754 E2.60140
G1 X72.643 Y90.754 E2.60174
G1 X78.585 Y84.812 E2.62684
G1 X78.630 Y84.879 E2.62708
G1 X72.755 Y90.754 E2.65189
G1 X72.868 Y90.754 E2.65223
G1 X78.676 Y84.947 E2.67676
G1 X78.721 Y85.014 E2.67700
G1 X72.981 Y90.754 E2.70125
G1 X73.094 Y90.754 E2.70158
G1 X78.767 Y85.081 E2.72554
G1 X78.812 Y85.149 E2.72579
G1 X73.207 Y90.754 E2.74946
G1 X73.320 Y90.754 E2.74980
G1 X78.858 Y85.216 E2.77319
G1 X78.903 Y85.284 E2.77343
G1 X73.433 Y90.754 E2.79654
G1 X73.546 Y90.754 E2.79687
G1 X78.948 Y85.351 E2.81969
G1 X78.994 Y85.418 E2.81994
G1 X73.658 Y90.754 E2.84247
G1 X73.771 Y90.754 E2.84281
G1 X79.039 Y85.486 E2.86506
G1 X79.085 Y85.553 E2.86530
G1 X73.884 Y90.754 E2.88727
G1 X73.997 Y90.754 E2.88761
G1 X79.130 Y85.621 E2.90929
G1 X79.176 Y85.688 E2.90953
G1 X74.110 Y90.754 E2.93093
G1 X74.223 Y90.754 E2.93127
G1 X79.221 Y85.755 E2.95238
G1 X79.279 Y85.810 E2.95262
G1 X74.336 Y90.754 E2.97350
G1 X74.449 Y90.754 E2.97384
G1 X79.362 Y85.840 E2.99459
G1 X79.445 Y85.871 E2.99485
G1 X74.562 Y90.754 E3.01548
G1 X74.674 Y90.754 E3.01582
G1 X79.528 Y85.901 E3.03632
G1 X79.610 Y85.931 E3.03658
G1 X74.787 Y90.754 E3.05695
G1 X74.900 Y90.754 E3.05729
G1 X79.693 Y85.961 E3.07753
G1 X79.776 Y85.991 E3.07779
G1 X75.013 Y90.754 E3.09791
G1 X75.126 Y90.754 E3.09825
G1 X79.859 Y86.021 E3.11824
G1 X79.941 Y86.051 E3.11850
G1 X75.239 Y90.754 E3.13837
G1 X75.352 Y90.754 E3.13870
G1 X80.024 Y86.081 E3.15844
G1 X80.107 Y86.111 E3.15870
G1 X75.465 Y90.754 E3.17831
G1 X75.577 Y90.754 E3.17865
G1 X80.190 Y86.142 E3.19813
G1 X80.273 Y86.172 E3.19839
G1 X75.690 Y90.754 E3.21775
G1 X75.800 Y90.757 E3.21807
G1 X80.355 Y86.202 E3.23731
G1 X80.438 Y86.232 E3.23758
G1 X75.883 Y90.787 E3.25682
G1 X75.966 Y90.817 E3.25708
G1 X80.521 Y86.262 E3.27632
G1 X80.604 Y86.292 E3.27658
G1 X76.049 Y90.847 E3.29582
G1 X76.131 Y90.877 E3.29608
G1 X80.686 Y86.322 E3.31532
G1 X80.725 Y86.336 E3.31545
G1 X80.809 Y86.312 E3.31571
G1 X76.214 Y90.907 E3.33512
G1 X76.297 Y90.938 E3.33538
G1 X80.968 Y86.267 E3.35511
G1 X81.126 Y86.221 E3.35560
G1 X76.380 Y90.968 E3.37565
G1 X76.462 Y90.998 E3.37591
G1 X81.284 Y86.176 E3.39628
G1 X81.442 Y86.131 E3.39677
G1 X76.545 Y91.028 E3.41746
G1 X76.628 Y91.058 E3.41772
G1 X81.601 Y86.085 E3.43872
G1 X81.759 Y86.040 E3.43922
G1 X76.711 Y91.088 E3.46054
G1 X76.793 Y91.118 E3.46080
G1 X81.917 Y85.995 E3.48244
G1 X82.075 Y85.949 E3.48294
G1 X76.876 Y91.148 E3.50490
G1 E1.50490 F2400.00000
G92 E0
G1 X83.249 Y93.468 F7800.000
G1 E2.00000 F2400.00000
G1 F1800.000
G1 X83.311 Y93.406 E2.00026
G1 X83.375 Y93.228 E2.00083
G1 X83.166 Y93.438 E2.00171
G1 X83.083 Y93.408 E2.00197
G1 X83.440 Y93.051 E2.00348
G1 X83.505 Y92.873 E2.00405
G1 X83.000 Y93.378 E2.00618
G1 X82.918 Y93.347 E2.00644
G1 X83.569 Y92.696 E2.00919
G1 X83.634 Y92.518 E2.00976
G1 X82.835 Y93.317 E2.01313
G1 X82.752 Y93.287 E2.01339
G1 X83.698 Y92.341 E2.01739
G1 X83.763 Y92.163 E2.01795
G1 X82.669 Y93.257 E2.02257
G1 X82.587 Y93.227 E2.02284
G1 X83.828 Y91.986 E2.02808
G1 X83.892 Y91.808 E2.02864
G1 X82.504 Y93.197 E2.03451
G1 X82.421 Y93.167 E2.03477
G1 X83.957 Y91.631 E2.04126
G1 X84.021 Y91.453 E2.04182
G1 X82.338 Y93.137 E2.04893
G1 X82.256 Y93.106 E2.04919
G1 X84.086 Y91.276 E2.05692
G1 X84.151 Y91.098 E2.05749
G1 X82.173 Y93.076 E2.06584
G1 X82.090 Y93.046 E2.06610
G1 X84.215 Y90.921 E2.07508
G1 X84.280 Y90.744 E2.07565
G1 X82.007 Y93.016 E2.08524
G1 X81.924 Y92.986 E2.08551
G1 X84.344 Y90.566 E2.09573
G1 X84.409 Y90.389 E2.09629
G1 X81.842 Y92.956 E2.10714
G1 X81.759 Y92.926 E2.10740
G1 X84.474 Y90.211 E2.11886
G1 X84.538 Y90.034 E2.11943
G1 X81.676 Y92.896 E2.13152
G1 X81.593 Y92.865 E2.13178
G1 X84.603 Y89.856 E2.14449
G1 X84.667 Y89.679 E2.14505
G1 X81.511 Y92.835 E2.15839
G1 X81.428 Y92.805 E2.15865
G1 X84.732 Y89.501 E2.17261
G1 X84.797 Y89.324 E2.17317
G1 X81.345 Y92.775 E2.18775
G1 X81.262 Y92.745 E2.18801
G1 X84.861 Y89.146 E2.20321
G1 X84.926 Y88.969 E2.20378
G1 X81.180 Y92.715 E2.21960
G1 X81.097 Y92.685 E2.21986
G1 X84.990 Y88.791 E2.23631
G1 X85.055 Y88.614 E2.23687
G1 X81.014 Y92.655 E2.25394
G1 X80.931 Y92.624 E2.25420
G1 X85.120 Y88.436 E2.27189
G1 X85.184 Y88.259 E2.27246
G1 X80.849 Y92.594 E2.29077
G1 X80.766 Y92.564 E2.29103
G1 X85.249 Y88.081 E2.30997
G1 X85.313 Y87.904 E2.31053
