; generated by Slic3r 1.3.1-dev (Build adea0d9) on 2019-12-16 at 00:49:25

; external perimeters extrusion width = 0.44mm (2.86mm^3/s)
; perimeters extrusion width = 0.56mm (4.14mm^3/s)
; infill extrusion width = 0.50mm (3.66mm^3/s)
; solid infill extrusion width = 0.56mm (3.10mm^3/s)
; top infill extrusion width = 0.56mm (3.10mm^3/s)

M107
G92 E0
;D3D:START:START
T0
M104 S215 T0

G21
G90
M107
T0
G28
G29
M109 T0 S215 T0
G0 F3000
M107
T0
G92 E0
G0 X0 Y149 Z0.1 F3600
G1 Y49 E6.5 F1200
G0 Z1
G92 E0
; Filament gcode

G21 ; set units to millimeters
G90 ; use absolute coordinates
M82 ; use absolute distances for extrusion
G92 E0
G1 Z0.300 F7800.000
G1 E-2.00000 F2400.00000
G92 E0
G1 X-424.304 Y74.526 F7800.000
G1 E2.00000 F2400.00000
G1 F1800.000
G1 X574.304 Y74.526 E35.08339
G1 X574.304 Y75.474 E35.11483
G1 X-424.304 Y75.474 E68.19822
G1 X-424.304 Y74.586 E68.22767
G1 X-424.569 Y74.260 F7800.000
G1 F1800.000
G1 X574.569 Y74.260 E101.32866
G1 X574.569 Y75.740 E101.37770
G1 X-424.569 Y75.740 E134.47869
G1 X-424.569 Y74.320 E134.52574
G1 X-424.835 Y73.994 F7800.000
G1 F1800.000
G1 X574.835 Y73.994 E167.64433
G1 X574.835 Y76.006 E167.71097
G1 X-424.835 Y76.006 E200.82956
G1 X-424.835 Y74.054 E200.89421
G1 X-423.931 Y74.688 F7800.000
G1 F1800.000
G1 X-424.141 Y74.898 E200.90406
G1 X-424.141 Y75.274 E200.91650
G1 X-423.556 Y74.688 E200.94395
G1 X-423.180 Y74.688 E200.95640
G1 X-423.804 Y75.312 E200.98565
G1 X-423.429 Y75.312 E200.99810
G1 X-422.804 Y74.688 E201.02735
G1 X-422.429 Y74.688 E201.03980
G1 X-423.053 Y75.312 E201.06905
G1 X-422.677 Y75.312 E201.08150
G1 X-422.053 Y74.688 E201.11075
G1 X-421.677 Y74.688 E201.12320
G1 X-422.302 Y75.312 E201.15245
G1 X-421.926 Y75.312 E201.16490
G1 X-421.302 Y74.688 E201.19415
G1 X-420.926 Y74.688 E201.20660
G1 X-421.550 Y75.312 E201.23585
G1 X-421.175 Y75.312 E201.24830
G1 X-420.550 Y74.688 E201.27755
G1 X-420.175 Y74.688 E201.29000
G1 X-420.799 Y75.312 E201.31925
G1 X-420.423 Y75.312 E201.33170
G1 X-419.799 Y74.688 E201.36095
G1 X-419.423 Y74.688 E201.37340
G1 X-420.048 Y75.312 E201.40266
G1 X-419.672 Y75.312 E201.41510
G1 X-419.048 Y74.688 E201.44436
G1 X-418.672 Y74.688 E201.45680
G1 X-419.297 Y75.312 E201.48606
G1 X-418.921 Y75.312 E201.49850
G1 X-418.296 Y74.688 E201.52776
G1 X-417.921 Y74.688 E201.54020
G1 X-418.545 Y75.312 E201.56946
G1 X-418.170 Y75.312 E201.58190
G1 X-417.545 Y74.688 E201.61116
G1 X-417.170 Y74.688 E201.62360
G1 X-417.794 Y75.312 E201.65286
G1 X-417.418 Y75.312 E201.66530
G1 X-416.794 Y74.688 E201.69456
G1 X-416.418 Y74.688 E201.70700
G1 X-417.043 Y75.312 E201.73626
G1 X-416.667 Y75.312 E201.74870
G1 X-416.043 Y74.688 E201.77796
G1 X-415.667 Y74.688 E201.79040
G1 X-416.291 Y75.312 E201.81966
G1 X-415.916 Y75.312 E201.83210
G1 X-415.291 Y74.688 E201.86136
G1 X-414.916 Y74.688 E201.87380
G1 X-415.540 Y75.312 E201.90306
G1 X-415.164 Y75.312 E201.91550
G1 X-414.540 Y74.688 E201.94476
G1 X-414.164 Y74.688 E201.95720
G1 X-414.789 Y75.312 E201.98646
G1 X-414.413 Y75.312 E201.99891
G1 X-413.789 Y74.688 E202.02816
G1 X-413.413 Y74.688 E202.04061
G1 X-414.037 Y75.312 E202.06986
G1 X-413.662 Y75.312 E202.08231
G1 X-413.037 Y74.688 E202.11156
G1 X-412.662 Y74.688 E202.12401
G1 X-413.286 Y75.312 E202.15326
G1 X-412.910 Y75.312 E202.16571
G1 X-412.286 Y74.688 E202.19496
G1 X-411.910 Y74.688 E202.20741
G1 X-412.535 Y75.312 E202.23666
G1 X-412.159 Y75.312 E202.24911
G1 X-411.535 Y74.688 E202.27836
G1 X-411.159 Y74.688 E202.29081
G1 X-411.783 Y75.312 E202.32006
G1 X-411.408 Y75.312 E202.33251
G1 X-410.783 Y74.688 E202.36176
G1 X-410.408 Y74.688 E202.37421
G1 X-411.032 Y75.312 E202.40346
G1 X-410.656 Y75.312 E202.41591
G1 X-410.032 Y74.688 E202.44516
G1 X-409.656 Y74.688 E202.45761
G1 X-410.281 Y75.312 E202.48686
G1 X-409.905 Y75.312 E202.49931
G1 X-409.281 Y74.688 E202.52856
G1 X-408.905 Y74.688 E202.54101
G1 X-409.530 Y75.312 E202.57026
G1 X-409.154 Y75.312 E202.58271
G1 X-408.529 Y74.688 E202.61196
G1 X-408.154 Y74.688 E202.62441
G1 X-408.778 Y75.312 E202.65366
G1 X-408.403 Y75.312 E202.66611
G1 X-407.778 Y74.688 E202.69536
G1 X-407.403 Y74.688 E202.70781
G1 X-408.027 Y75.312 E202.73707
G1 X-407.651 Y75.312 E202.74951
G1 X-407.027 Y74.688 E202.77877
G1 X-406.651 Y74.688 E202.79121
G1 X-407.276 Y75.312 E202.82047
G1 X-406.900 Y75.312 E202.83291
G1 X-406.276 Y74.688 E202.86217
G1 X-405.900 Y74.688 E202.87461
G1 X-406.524 Y75.312 E202.90387
G1 X-406.149 Y75.312 E202.91631
G1 X-405.524 Y74.688 E202.94557
G1 X-405.149 Y74.688 E202.95801
G1 X-405.773 Y75.312 E202.98727
G1 X-405.397 Y75.312 E202.99971
G1 X-404.773 Y74.688 E203.02897
G1 X-404.397 Y74.688 E203.04141
G1 X-405.022 Y75.312 E203.07067
G1 X-404.646 Y75.312 E203.08311
G1 X-404.022 Y74.688 E203.11237
G1 X-403.646 Y74.688 E203.12481
G1 X-404.270 Y75.312 E203.15407
G1 X-403.895 Y75.312 E203.16651
G1 X-403.270 Y74.688 E203.19577
G1 X-402.895 Y74.688 E203.20821
G1 X-403.519 Y75.312 E203.23747
G1 X-403.143 Y75.312 E203.24991
G1 X-402.519 Y74.688 E203.27917
G1 X-402.143 Y74.688 E203.29161
G1 X-402.768 Y75.312 E203.32087
G1 X-402.392 Y75.312 E203.33332
G1 X-401.768 Y74.688 E203.36257
G1 X-401.392 Y74.688 E203.37502
G1 X-402.016 Y75.312 E203.40427
G1 X-401.641 Y75.312 E203.41672
G1 X-401.016 Y74.688 E203.44597
G1 X-400.641 Y74.688 E203.45842
G1 X-401.265 Y75.312 E203.48767
G1 X-400.889 Y75.312 E203.50012
G1 X-400.265 Y74.688 E203.52937
G1 X-399.889 Y74.688 E203.54182
G1 X-400.514 Y75.312 E203.57107
G1 X-400.138 Y75.312 E203.58352
G1 X-399.514 Y74.688 E203.61277
G1 X-399.138 Y74.688 E203.62522
G1 X-399.762 Y75.312 E203.65447
G1 X-399.387 Y75.312 E203.66692
G1 X-398.762 Y74.688 E203.69617
G1 X-398.387 Y74.688 E203.70862
G1 X-399.011 Y75.312 E203.73787
G1 X-398.636 Y75.312 E203.75032
G1 X-398.011 Y74.688 E203.77957
G1 X-397.635 Y74.688 E203.79202
G1 X-398.260 Y75.312 E203.82127
G1 X-397.884 Y75.312 E203.83372
G1 X-397.260 Y74.688 E203.86297
G1 X-396.884 Y74.688 E203.87542
G1 X-397.509 Y75.312 E203.90467
G1 X-397.133 Y75.312 E203.91712
G1 X-396.509 Y74.688 E203.94637
G1 X-396.133 Y74.688 E203.95882
G1 X-396.757 Y75.312 E203.98807
G1 X-396.382 Y75.312 E204.00052
G1 X-395.757 Y74.688 E204.02977
G1 X-395.382 Y74.688 E204.04222
G1 X-396.006 Y75.312 E204.07148
G1 X-395.630 Y75.312 E204.08392
G1 X-395.006 Y74.688 E204.11318
G1 X-394.630 Y74.688 E204.12562
G1 X-395.255 Y75.312 E204.15488
G1 X-394.879 Y75.312 E204.16732
G1 X-394.255 Y74.688 E204.19658
G1 X-393.879 Y74.688 E204.20902
G1 X-394.503 Y75.312 E204.23828
G1 X-394.128 Y75.312 E204.25072
G1 X-393.503 Y74.688 E204.27998
G1 X-393.128 Y74.688 E204.29242
G1 X-393.752 Y75.312 E204.32168
G1 X-393.376 Y75.312 E204.33412
G1 X-392.752 Y74.688 E204.36338
G1 X-392.376 Y74.688 E204.37582
G1 X-393.001 Y75.312 E204.40508
G1 X-392.625 Y75.312 E204.41752
G1 X-392.001 Y74.688 E204.44678
G1 X-391.625 Y74.688 E204.45922
G1 X-392.249 Y75.312 E204.48848
G1 X-391.874 Y75.312 E204.50092
G1 X-391.249 Y74.688 E204.53018
G1 X-390.874 Y74.688 E204.54262
G1 X-391.498 Y75.312 E204.57188
G1 X-391.122 Y75.312 E204.58432
G1 X-390.498 Y74.688 E204.61358
G1 X-390.122 Y74.688 E204.62602
G1 X-390.747 Y75.312 E204.65528
G1 X-390.371 Y75.312 E204.66772
G1 X-389.747 Y74.688 E204.69698
G1 X-389.371 Y74.688 E204.70943
G1 X-389.995 Y75.312 E204.73868
G1 X-389.620 Y75.312 E204.75113
G1 X-388.995 Y74.688 E204.78038
G1 X-388.620 Y74.688 E204.79283
G1 X-389.244 Y75.312 E204.82208
G1 X-388.868 Y75.312 E204.83453
G1 X-388.244 Y74.688 E204.86378
G1 X-387.868 Y74.688 E204.87623
G1 X-388.493 Y75.312 E204.90548
G1 X-388.117 Y75.312 E204.91793
G1 X-387.493 Y74.688 E204.94718
G1 X-387.117 Y74.688 E204.95963
G1 X-387.742 Y75.312 E204.98888
G1 X-387.366 Y75.312 E205.00133
G1 X-386.741 Y74.688 E205.03058
G1 X-386.366 Y74.688 E205.04303
G1 X-386.990 Y75.312 E205.07228
G1 X-386.615 Y75.312 E205.08473
G1 X-385.990 Y74.688 E205.11398
G1 X-385.615 Y74.688 E205.12643
G1 X-386.239 Y75.312 E205.15568
G1 X-385.863 Y75.312 E205.16813
G1 X-385.239 Y74.688 E205.19738
G1 X-384.863 Y74.688 E205.20983
G1 X-385.488 Y75.312 E205.23908
G1 X-385.112 Y75.312 E205.25153
G1 X-384.488 Y74.688 E205.28078
G1 X-384.112 Y74.688 E205.29323
G1 X-384.736 Y75.312 E205.32248
G1 X-384.361 Y75.312 E205.33493
G1 X-383.736 Y74.688 E205.36418
G1 X-383.361 Y74.688 E205.37663
G1 X-383.985 Y75.312 E205.40589
G1 X-383.609 Y75.312 E205.41833
G1 X-382.985 Y74.688 E205.44759
G1 X-382.609 Y74.688 E205.46003
G1 X-383.234 Y75.312 E205.48929
G1 X-382.858 Y75.312 E205.50173
G1 X-382.234 Y74.688 E205.53099
G1 X-381.858 Y74.688 E205.54343
G1 X-382.482 Y75.312 E205.57269
G1 X-382.107 Y75.312 E205.58513
G1 X-381.482 Y74.688 E205.61439
G1 X-381.107 Y74.688 E205.62683
G1 X-381.731 Y75.312 E205.65609
G1 X-381.355 Y75.312 E205.66853
G1 X-380.731 Y74.688 E205.69779
G1 X-380.355 Y74.688 E205.71023
G1 X-380.980 Y75.312 E205.73949
G1 X-380.604 Y75.312 E205.75193
G1 X-379.980 Y74.688 E205.78119
G1 X-379.604 Y74.688 E205.79363
G1 X-380.228 Y75.312 E205.82289
G1 X-379.853 Y75.312 E205.83533
G1 X-379.228 Y74.688 E205.86459
G1 X-378.853 Y74.688 E205.87703
G1 X-379.477 Y75.312 E205.90629
G1 X-379.101 Y75.312 E205.91873
G1 X-378.477 Y74.688 E205.94799
G1 X-378.101 Y74.688 E205.96044
G1 X-378.726 Y75.312 E205.98969
G1 X-378.350 Y75.312 E206.00214
G1 X-377.726 Y74.688 E206.03139
G1 X-377.350 Y74.688 E206.04384
G1 X-377.974 Y75.312 E206.07309
G1 X-377.599 Y75.312 E206.08554
G1 X-376.974 Y74.688 E206.11479
G1 X-376.599 Y74.688 E206.12724
G1 X-377.223 Y75.312 E206.15649
G1 X-376.848 Y75.312 E206.16894
G1 X-376.223 Y74.688 E206.19819
G1 X-375.847 Y74.688 E206.21064
G1 X-376.472 Y75.312 E206.23989
G1 X-376.096 Y75.312 E206.25234
G1 X-375.472 Y74.688 E206.28159
G1 X-375.096 Y74.688 E206.29404
G1 X-375.721 Y75.312 E206.32329
G1 X-375.345 Y75.312 E206.33574
G1 X-374.721 Y74.688 E206.36499
G1 X-374.345 Y74.688 E206.37744
G1 X-374.969 Y75.312 E206.40669
G1 X-374.594 Y75.312 E206.41914
G1 X-373.969 Y74.688 E206.44839
G1 X-373.594 Y74.688 E206.46084
G1 X-374.218 Y75.312 E206.49009
G1 X-373.842 Y75.312 E206.50254
G1 X-373.218 Y74.688 E206.53179
G1 X-372.842 Y74.688 E206.54424
G1 X-373.467 Y75.312 E206.57349
G1 X-373.091 Y75.312 E206.58594
G1 X-372.467 Y74.688 E206.61519
G1 X-372.091 Y74.688 E206.62764
G1 X-372.715 Y75.312 E206.65689
G1 X-372.340 Y75.312 E206.66934
G1 X-371.715 Y74.688 E206.69859
G1 X-371.340 Y74.688 E206.71104
G1 X-371.964 Y75.312 E206.74029
G1 X-371.588 Y75.312 E206.75274
G1 X-370.964 Y74.688 E206.78199
G1 X-370.588 Y74.688 E206.79444
G1 X-371.213 Y75.312 E206.82370
G1 X-370.837 Y75.312 E206.83614
G1 X-370.213 Y74.688 E206.86540
G1 X-369.837 Y74.688 E206.87784
G1 X-370.461 Y75.312 E206.90710
G1 X-370.086 Y75.312 E206.91954
G1 X-369.461 Y74.688 E206.94880
G1 X-369.086 Y74.688 E206.96124
G1 X-369.710 Y75.312 E206.99050
G1 X-369.334 Y75.312 E207.00294
G1 X-368.710 Y74.688 E207.03220
G1 X-368.334 Y74.688 E207.04464
G1 X-368.959 Y75.312 E207.07390
G1 X-368.583 Y75.312 E207.08634
G1 X-367.959 Y74.688 E207.11560
G1 X-367.583 Y74.688 E207.12804
G1 X-368.207 Y75.312 E207.15730
G1 X-367.832 Y75.312 E207.16974
G1 X-367.207 Y74.688 E207.19900
G1 X-366.832 Y74.688 E207.21144
G1 X-367.456 Y75.312 E207.24070
G1 X-367.081 Y75.312 E207.25314
G1 X-366.456 Y74.688 E207.28240
G1 X-366.080 Y74.688 E207.29484
G1 X-366.705 Y75.312 E207.32410
G1 X-366.329 Y75.312 E207.33654
G1 X-365.705 Y74.688 E207.36580
G1 X-365.329 Y74.688 E207.37824
G1 X-365.954 Y75.312 E207.40750
G1 X-365.578 Y75.312 E207.41994
G1 X-364.954 Y74.688 E207.44920
G1 X-364.578 Y74.688 E207.46164
G1 X-365.202 Y75.312 E207.49090
G1 X-364.827 Y75.312 E207.50335
G1 X-364.202 Y74.688 E207.53260
G1 X-363.827 Y74.688 E207.54505
G1 X-364.451 Y75.312 E207.57430
G1 X-364.075 Y75.312 E207.58675
G1 X-363.451 Y74.688 E207.61600
G1 X-363.075 Y74.688 E207.62845
G1 X-363.700 Y75.312 E207.65770
G1 X-363.324 Y75.312 E207.67015
G1 X-362.700 Y74.688 E207.69940
G1 X-362.324 Y74.688 E207.71185
G1 X-362.948 Y75.312 E207.74110
G1 X-362.573 Y75.312 E207.75355
G1 X-361.948 Y74.688 E207.78280
G1 X-361.573 Y74.688 E207.79525
G1 X-362.197 Y75.312 E207.82450
G1 X-361.821 Y75.312 E207.83695
G1 X-361.197 Y74.688 E207.86620
G1 X-360.821 Y74.688 E207.87865
G1 X-361.446 Y75.312 E207.90790
G1 X-361.070 Y75.312 E207.92035
G1 X-360.446 Y74.688 E207.94960
G1 X-360.070 Y74.688 E207.96205
G1 X-360.694 Y75.312 E207.99130
G1 X-360.319 Y75.312 E208.00375
G1 X-359.694 Y74.688 E208.03300
G1 X-359.319 Y74.688 E208.04545
G1 X-359.943 Y75.312 E208.07470
G1 X-359.567 Y75.312 E208.08715
G1 X-358.943 Y74.688 E208.11640
G1 X-358.567 Y74.688 E208.12885
G1 X-359.192 Y75.312 E208.15810
G1 X-358.816 Y75.312 E208.17055
G1 X-358.192 Y74.688 E208.19980
G1 X-357.816 Y74.688 E208.21225
G1 X-358.440 Y75.312 E208.24150
G1 X-358.065 Y75.312 E208.25395
G1 X-357.440 Y74.688 E208.28320
G1 X-357.065 Y74.688 E208.29565
G1 X-357.689 Y75.312 E208.32490
G1 X-357.313 Y75.312 E208.33735
G1 X-356.689 Y74.688 E208.36660
G1 X-356.313 Y74.688 E208.37905
G1 X-356.938 Y75.312 E208.40830
G1 X-356.562 Y75.312 E208.42075
G1 X-355.938 Y74.688 E208.45001
G1 X-355.562 Y74.688 E208.46245
G1 X-356.187 Y75.312 E208.49171
G1 X-355.811 Y75.312 E208.50415
G1 X-355.186 Y74.688 E208.53341
G1 X-354.811 Y74.688 E208.54585
G1 X-355.435 Y75.312 E208.57511
G1 X-355.060 Y75.312 E208.58755
G1 X-354.435 Y74.688 E208.61681
G1 X-354.060 Y74.688 E208.62925
G1 X-354.684 Y75.312 E208.65851
G1 X-354.308 Y75.312 E208.67095
G1 X-353.684 Y74.688 E208.70021
G1 X-353.308 Y74.688 E208.71265
G1 X-353.933 Y75.312 E208.74191
G1 X-353.557 Y75.312 E208.75435
G1 X-352.933 Y74.688 E208.78361
G1 X-352.557 Y74.688 E208.79605
G1 X-353.181 Y75.312 E208.82531
G1 X-352.806 Y75.312 E208.83775
G1 X-352.181 Y74.688 E208.86701
G1 X-351.806 Y74.688 E208.87945
G1 X-352.430 Y75.312 E208.90871
G1 X-352.054 Y75.312 E208.92115
G1 X-351.430 Y74.688 E208.95041
G1 X-351.054 Y74.688 E208.96285
G1 X-351.679 Y75.312 E208.99211
G1 X-351.303 Y75.312 E209.00456
G1 X-350.679 Y74.688 E209.03381
G1 X-350.303 Y74.688 E209.04626
G1 X-350.927 Y75.312 E209.07551
G1 X-350.552 Y75.312 E209.08796
G1 X-349.927 Y74.688 E209.11721
G1 X-349.552 Y74.688 E209.12966
G1 X-350.176 Y75.312 E209.15891
G1 X-349.800 Y75.312 E209.17136
G1 X-349.176 Y74.688 E209.20061
G1 X-348.800 Y74.688 E209.21306
G1 X-349.425 Y75.312 E209.24231
G1 X-349.049 Y75.312 E209.25476
G1 X-348.425 Y74.688 E209.28401
G1 X-348.049 Y74.688 E209.29646
G1 X-348.673 Y75.312 E209.32571
G1 X-348.298 Y75.312 E209.33816
G1 X-347.673 Y74.688 E209.36741
G1 X-347.298 Y74.688 E209.37986
G1 X-347.922 Y75.312 E209.40911
G1 X-347.546 Y75.312 E209.42156
G1 X-346.922 Y74.688 E209.45081
G1 X-346.546 Y74.688 E209.46326
G1 X-347.171 Y75.312 E209.49251
G1 X-346.795 Y75.312 E209.50496
G1 X-346.171 Y74.688 E209.53421
G1 X-345.795 Y74.688 E209.54666
G1 X-346.419 Y75.312 E209.57591
G1 X-346.044 Y75.312 E209.58836
G1 X-345.419 Y74.688 E209.61761
G1 X-345.044 Y74.688 E209.63006
G1 X-345.668 Y75.312 E209.65932
G1 X-345.293 Y75.312 E209.67176
G1 X-344.668 Y74.688 E209.70102
G1 X-344.292 Y74.688 E209.71346
G1 X-344.917 Y75.312 E209.74272
G1 X-344.541 Y75.312 E209.75516
G1 X-343.917 Y74.688 E209.78442
G1 X-343.541 Y74.688 E209.79686
G1 X-344.166 Y75.312 E209.82612
G1 X-343.790 Y75.312 E209.83856
G1 X-343.166 Y74.688 E209.86782
G1 X-342.790 Y74.688 E209.88026
G1 X-343.414 Y75.312 E209.90952
G1 X-343.039 Y75.312 E209.92196
G1 X-342.414 Y74.688 E209.95122
G1 X-342.039 Y74.688 E209.96366
G1 X-342.663 Y75.312 E209.99292
G1 X-342.287 Y75.312 E210.00536
G1 X-341.663 Y74.688 E210.03462
G1 X-341.287 Y74.688 E210.04706
G1 X-341.912 Y75.312 E210.07632
G1 X-341.536 Y75.312 E210.08876
G1 X-340.912 Y74.688 E210.11802
G1 X-340.536 Y74.688 E210.13046
G1 X-341.160 Y75.312 E210.15972
G1 X-340.785 Y75.312 E210.17216
G1 X-340.160 Y74.688 E210.20142
G1 X-339.785 Y74.688 E210.21386
G1 X-340.409 Y75.312 E210.24312
G1 X-340.033 Y75.312 E210.25556
G1 X-339.409 Y74.688 E210.28482
G1 X-339.033 Y74.688 E210.29726
G1 X-339.658 Y75.312 E210.32652
G1 X-339.282 Y75.312 E210.33896
G1 X-338.658 Y74.688 E210.36822
G1 X-338.282 Y74.688 E210.38067
G1 X-338.906 Y75.312 E210.40992
G1 X-338.531 Y75.312 E210.42237
G1 X-337.906 Y74.688 E210.45162
G1 X-337.531 Y74.688 E210.46407
