; generated by Slic3r 1.3.1-dev (Build 2ef957d) on 2019-11-25 at 09:20:32

; external perimeters extrusion width = 0.55mm (4.37mm^3/s)
; perimeters extrusion width = 0.70mm (11.44mm^3/s)
; infill extrusion width = 0.62mm (13.45mm^3/s)
; solid infill extrusion width = 0.70mm (3.81mm^3/s)
; top infill extrusion width = 0.70mm (2.86mm^3/s)

M107
G92 E0
M104 S200 ; set temperature
G28 ; home all axes
G1 Z5 F5000 ; lift nozzle

; Filament gcode

M109 S200 ; set temperature and wait for it to be reached
G21 ; set units to millimeters
G90 ; use absolute coordinates
M82 ; use absolute distances for extrusion
G92 E0
G1 Z0.350 F7800.000
G1 E-2.00000 F2400.00000
G92 E0
G1 X-0.163 Y76.718 F7800.000
G1 E2.00000 F2400.00000
G1 F1800.000
G1 X200.163 Y76.718 E8.19835
G1 X202.422 Y77.115 E8.26932
G1 X204.057 Y77.983 E8.32660
G1 X207.557 Y80.526 E8.46046
G1 X209.151 Y82.175 E8.53142
G1 X209.964 Y83.838 E8.58870
G1 X211.301 Y87.953 E8.72256
G1 X211.621 Y90.224 E8.79352
G1 X211.301 Y92.047 E8.85082
G1 X209.964 Y96.162 E8.98468
G1 X208.888 Y98.187 E9.05564
G1 X207.802 Y99.288 E9.10349
G1 X182.802 Y119.288 E10.09409
G1 X179.057 Y122.017 E10.23746
G1 X176.996 Y123.024 E10.30843
G1 X175.163 Y123.282 E10.36571
G1 X-0.163 Y123.282 E15.79053
G1 X-2.422 Y122.885 E15.86149
G1 X-4.057 Y122.017 E15.91878
G1 X-7.557 Y119.474 E16.05264
G1 X-9.151 Y117.825 E16.12360
G1 X-9.964 Y116.162 E16.18088
G1 X-11.301 Y112.047 E16.31474
G1 X-11.625 Y110.000 E16.37888
G1 X-11.625 Y90.000 E16.99770
G1 X-11.301 Y87.953 E17.06184
G1 X-9.964 Y83.838 E17.19570
G1 X-8.888 Y81.813 E17.26666
G1 X-7.557 Y80.526 E17.32394
G1 X-4.057 Y77.983 E17.45780
G1 X-1.996 Y76.976 E17.52876
G1 X-0.237 Y76.728 E17.58373
G1 E15.58373 F2400.00000
G92 E0
G1 X2.000 Y113.620 F7800.000
G1 E2.00000 F2400.00000
G1 F1800.000
G1 X0.881 Y113.443 E2.03504
G1 X-0.128 Y112.928 E2.07008
G1 X-0.928 Y112.128 E2.10512
G1 X-1.443 Y111.118 E2.14017
G1 X-1.620 Y110.000 E2.17520
G1 X-1.443 Y108.882 E2.21024
G1 X-0.928 Y107.872 E2.24529
G1 X-0.128 Y107.072 E2.28033
G1 X0.881 Y106.557 E2.31537
G1 X2.000 Y106.380 E2.35041
G1 X3.119 Y106.557 E2.38545
G1 X4.128 Y107.072 E2.42049
G1 X4.928 Y107.872 E2.45553
G1 X5.443 Y108.882 E2.49057
G1 X5.620 Y110.000 E2.52561
G1 X5.443 Y111.118 E2.56065
G1 X4.928 Y112.128 E2.59570
G1 X4.128 Y112.928 E2.63074
G1 X3.119 Y113.443 E2.66578
G1 X2.074 Y113.608 E2.69850
G1 X2.000 Y112.987 F7800.000
G1 F1800.000
G1 X1.077 Y112.841 E2.72741
G1 X0.244 Y112.417 E2.75633
G1 X-0.417 Y111.756 E2.78524
G1 X-0.841 Y110.923 E2.81416
G1 X-0.987 Y110.000 E2.84308
G1 X-0.841 Y109.077 E2.87199
G1 X-0.417 Y108.244 E2.90091
G1 X0.244 Y107.583 E2.92983
G1 X1.077 Y107.159 E2.95874
G1 X2.000 Y107.013 E2.98766
G1 X2.923 Y107.159 E3.01658
G1 X3.756 Y107.583 E3.04549
G1 X4.417 Y108.244 E3.07441
G1 X4.841 Y109.077 E3.10333
G1 X4.987 Y110.000 E3.13224
G1 X4.841 Y110.923 E3.16115
G1 X4.417 Y111.756 E3.19007
G1 X3.756 Y112.417 E3.21899
G1 X2.923 Y112.841 E3.24790
G1 X2.074 Y112.975 E3.27450
G1 X2.000 Y112.354 F7800.000
G1 F1800.000
G1 X1.272 Y112.239 E3.29729
G1 X0.616 Y111.905 E3.32008
G1 X0.095 Y111.384 E3.34287
G1 X-0.239 Y110.727 E3.36567
G1 X-0.354 Y110.000 E3.38846
G1 X-0.239 Y109.272 E3.41125
G1 X0.095 Y108.616 E3.43404
G1 X0.616 Y108.095 E3.45683
G1 X1.272 Y107.761 E3.47962
G1 X2.000 Y107.646 E3.50242
G1 X2.728 Y107.761 E3.52521
G1 X3.384 Y108.095 E3.54800
G1 X3.905 Y108.616 E3.57079
G1 X4.239 Y109.272 E3.59358
G1 X4.354 Y110.000 E3.61637
G1 X4.239 Y110.727 E3.63916
G1 X3.905 Y111.384 E3.66196
G1 X3.384 Y111.905 E3.68475
G1 X2.728 Y112.239 E3.70754
G1 X2.074 Y112.343 E3.72801
G1 X2.000 Y112.354 F7800.000
G1 E1.72801 F2400.00000
G92 E0
G1 X2.000 Y93.620 F7800.000
G1 E2.00000 F2400.00000
G1 F1800.000
G1 X0.881 Y93.443 E2.03504
G1 X-0.128 Y92.928 E2.07008
G1 X-0.928 Y92.128 E2.10512
G1 X-1.443 Y91.119 E2.14016
G1 X-1.620 Y90.000 E2.17520
G1 X-1.443 Y88.881 E2.21025
G1 X-0.928 Y87.872 E2.24529
G1 X-0.128 Y87.072 E2.28033
G1 X0.881 Y86.557 E2.31537
G1 X2.000 Y86.380 E2.35041
G1 X3.119 Y86.557 E2.38545
G1 X4.128 Y87.072 E2.42049
G1 X4.928 Y87.872 E2.45553
G1 X5.443 Y88.881 E2.49057
G1 X5.620 Y90.000 E2.52561
G1 X5.443 Y91.119 E2.56065
G1 X4.928 Y92.128 E2.59570
G1 X4.128 Y92.928 E2.63074
G1 X3.119 Y93.443 E2.66578
G1 X2.074 Y93.608 E2.69850
G1 X2.000 Y92.987 F7800.000
G1 F1800.000
G1 X1.077 Y92.841 E2.72741
G1 X0.244 Y92.417 E2.75633
G1 X-0.417 Y91.756 E2.78525
G1 X-0.841 Y90.923 E2.81416
G1 X-0.987 Y90.000 E2.84308
G1 X-0.841 Y89.077 E2.87200
G1 X-0.417 Y88.244 E2.90091
G1 X0.244 Y87.583 E2.92983
G1 X1.077 Y87.159 E2.95874
G1 X2.000 Y87.013 E2.98766
G1 X2.923 Y87.159 E3.01658
G1 X3.756 Y87.583 E3.04549
G1 X4.417 Y88.244 E3.07441
G1 X4.841 Y89.077 E3.10333
G1 X4.987 Y90.000 E3.13224
G1 X4.841 Y90.923 E3.16116
G1 X4.417 Y91.756 E3.19007
G1 X3.756 Y92.417 E3.21899
G1 X2.923 Y92.841 E3.24791
G1 X2.074 Y92.975 E3.27450
G1 X2.000 Y92.354 F7800.000
G1 F1800.000
G1 X1.272 Y92.239 E3.29729
G1 X0.616 Y91.905 E3.32009
G1 X0.095 Y91.384 E3.34288
G1 X-0.239 Y90.728 E3.36567
G1 X-0.354 Y90.000 E3.38846
G1 X-0.239 Y89.272 E3.41125
G1 X0.095 Y88.616 E3.43404
G1 X0.616 Y88.095 E3.45683
G1 X1.272 Y87.761 E3.47963
G1 X2.000 Y87.646 E3.50242
G1 X2.728 Y87.761 E3.52521
G1 X3.384 Y88.095 E3.54800
G1 X3.905 Y88.616 E3.57079
G1 X4.239 Y89.272 E3.59358
G1 X4.354 Y90.000 E3.61638
G1 X4.239 Y90.728 E3.63917
G1 X3.905 Y91.384 E3.66196
G1 X3.384 Y91.905 E3.68475
G1 X2.728 Y92.239 E3.70754
G1 X2.074 Y92.343 E3.72801
G1 X2.000 Y92.354 F7800.000
G1 E1.72801 F2400.00000
G92 E0
G1 X34.818 Y100.000 F7800.000
G1 E2.00000 F2400.00000
G1 F1800.000
G1 X35.426 Y98.130 E2.06085
G1 X37.017 Y96.974 E2.12170
G1 X38.983 Y96.974 E2.18255
G1 X40.574 Y98.130 E2.24340
G1 X41.182 Y100.000 E2.30425
G1 X40.574 Y101.870 E2.36511
G1 X38.983 Y103.026 E2.42596
G1 X37.017 Y103.026 E2.48680
G1 X35.426 Y101.870 E2.54765
G1 X34.841 Y100.071 E2.60619
G1 X35.475 Y100.000 F7800.000
G1 F1800.000
G1 X35.957 Y98.516 E2.65447
G1 X37.220 Y97.599 E2.70276
G1 X38.780 Y97.599 E2.75104
G1 X40.043 Y98.516 E2.79933
G1 X40.525 Y100.000 E2.84762
G1 X40.043 Y101.484 E2.89590
G1 X38.780 Y102.401 E2.94419
G1 X37.220 Y102.401 E2.99247
G1 X35.957 Y101.484 E3.04076
G1 X35.498 Y100.071 E3.08673
G1 X36.132 Y100.000 F7800.000
G1 F1800.000
G1 X36.489 Y98.902 E3.12245
G1 X37.423 Y98.223 E3.15817
G1 X38.577 Y98.223 E3.19389
G1 X39.511 Y98.902 E3.22961
G1 X39.868 Y100.000 E3.26533
G1 X39.511 Y101.098 E3.30106
G1 X38.577 Y101.777 E3.33678
G1 X37.423 Y101.777 E3.37250
G1 X36.489 Y101.098 E3.40822
G1 X36.155 Y100.071 E3.44162
G1 X36.132 Y100.000 F7800.000
G1 E1.44162 F2400.00000
G92 E0
G1 X74.818 Y100.000 F7800.000
G1 E2.00000 F2400.00000
G1 F1800.000
G1 X75.426 Y98.130 E2.06085
G1 X77.017 Y96.974 E2.12170
G1 X78.983 Y96.974 E2.18255
G1 X80.574 Y98.130 E2.24340
G1 X81.182 Y100.000 E2.30425
G1 X80.574 Y101.870 E2.36511
G1 X78.983 Y103.026 E2.42596
G1 X77.017 Y103.026 E2.48681
G1 X75.426 Y101.870 E2.54766
G1 X74.841 Y100.071 E2.60619
G1 X75.475 Y100.000 F7800.000
G1 F1800.000
G1 X75.957 Y98.516 E2.65447
G1 X77.220 Y97.599 E2.70276
G1 X78.780 Y97.599 E2.75104
G1 X80.043 Y98.516 E2.79933
G1 X80.525 Y100.000 E2.84762
G1 X80.043 Y101.484 E2.89591
G1 X78.780 Y102.401 E2.94419
G1 X77.220 Y102.401 E2.99248
G1 X75.957 Y101.484 E3.04076
G1 X75.498 Y100.071 E3.08673
G1 X76.132 Y100.000 F7800.000
G1 F1800.000
G1 X76.489 Y98.902 E3.12245
G1 X77.423 Y98.223 E3.15817
G1 X78.577 Y98.223 E3.19389
G1 X79.511 Y98.902 E3.22961
G1 X79.868 Y100.000 E3.26534
G1 X79.511 Y101.098 E3.30106
G1 X78.577 Y101.777 E3.33678
G1 X77.423 Y101.777 E3.37250
G1 X76.489 Y101.098 E3.40822
G1 X76.155 Y100.071 E3.44162
G1 X76.132 Y100.000 F7800.000
G1 E1.44162 F2400.00000
G92 E0
G1 X114.818 Y90.000 F7800.000
G1 E2.00000 F2400.00000
G1 F1800.000
G1 X115.425 Y88.130 E2.06083
G1 X117.016 Y86.974 E2.12170
G1 X118.984 Y86.974 E2.18258
G1 X120.575 Y88.130 E2.24344
G1 X121.182 Y90.000 E2.30427
G1 X120.575 Y91.870 E2.36511
G1 X118.984 Y93.026 E2.42597
G1 X117.016 Y93.026 E2.48685
G1 X115.425 Y91.870 E2.54771
G1 X114.841 Y90.071 E2.60623
G1 X115.475 Y90.000 F7800.000
G1 F1800.000
G1 X115.956 Y88.516 E2.65450
G1 X117.219 Y87.599 E2.70280
G1 X118.781 Y87.599 E2.75111
G1 X120.044 Y88.516 E2.79940
G1 X120.525 Y90.000 E2.84768
G1 X120.043 Y91.484 E2.89595
G1 X118.781 Y92.401 E2.94425
G1 X117.219 Y92.401 E2.99256
G1 X115.956 Y91.484 E3.04086
G1 X115.498 Y90.071 E3.08681
G1 X116.132 Y90.000 F7800.000
G1 F1800.000
G1 X116.488 Y88.902 E3.12252
G1 X117.422 Y88.223 E3.15825
G1 X118.578 Y88.223 E3.19400
G1 X119.512 Y88.902 E3.22972
G1 X119.868 Y90.000 E3.26544
G1 X119.512 Y91.098 E3.30115
G1 X118.578 Y91.777 E3.33688
G1 X117.422 Y91.777 E3.37263
G1 X116.488 Y91.098 E3.40835
G1 X116.155 Y90.071 E3.44174
G1 X116.132 Y90.000 F7800.000
G1 E1.44174 F2400.00000
G92 E0
G1 X135.425 Y106.130 F7800.000
G1 E2.00000 F2400.00000
G1 F1800.000
G1 X137.016 Y104.974 E2.06086
G1 X138.984 Y104.974 E2.12174
G1 X140.575 Y106.130 E2.18261
G1 X141.182 Y108.000 E2.24344
G1 X140.575 Y109.870 E2.30427
G1 X138.984 Y111.026 E2.36514
G1 X137.016 Y111.026 E2.42602
G1 X135.425 Y109.870 E2.48688
G1 X134.818 Y108.000 E2.54772
G1 X135.402 Y106.201 E2.60623
G1 X135.956 Y106.516 F7800.000
G1 F1800.000
G1 X137.219 Y105.599 E2.65452
G1 X138.781 Y105.599 E2.70284
G1 X140.044 Y106.516 E2.75113
G1 X140.525 Y108.000 E2.79941
G1 X140.044 Y109.484 E2.84768
G1 X138.781 Y110.401 E2.89598
G1 X137.219 Y110.401 E2.94429
G1 X135.956 Y109.484 E2.99258
G1 X135.475 Y108.000 E3.04086
G1 X135.933 Y106.587 E3.08681
G1 X136.488 Y106.902 F7800.000
G1 F1800.000
G1 X137.422 Y106.223 E3.12254
G1 X138.578 Y106.223 E3.15829
G1 X139.512 Y106.902 E3.19401
G1 X139.868 Y108.000 E3.22973
G1 X139.512 Y109.098 E3.26544
G1 X138.578 Y109.777 E3.30117
G1 X137.422 Y109.777 E3.33692
G1 X136.488 Y109.098 E3.37264
G1 X136.132 Y108.000 E3.40836
G1 X136.465 Y106.973 E3.44175
G1 X136.488 Y106.902 F7800.000
G1 E1.44175 F2400.00000
G92 E0
G1 X155.425 Y91.870 F7800.000
G1 E2.00000 F2400.00000
G1 F1800.000
G1 X154.818 Y90.000 E2.06083
G1 X155.425 Y88.130 E2.12167
G1 X157.016 Y86.974 E2.18253
G1 X158.984 Y86.974 E2.24341
G1 X160.575 Y88.130 E2.30427
G1 X161.182 Y90.000 E2.36511
G1 X160.575 Y91.870 E2.42594
G1 X158.984 Y93.026 E2.48680
G1 X157.016 Y93.026 E2.54768
G1 X155.485 Y91.914 E2.60623
G1 X155.956 Y91.484 F7800.000
G1 F1800.000
G1 X155.475 Y90.000 E2.65450
G1 X155.956 Y88.516 E2.70277
G1 X157.219 Y87.599 E2.75107
G1 X158.781 Y87.599 E2.79938
G1 X160.044 Y88.516 E2.84768
G1 X160.525 Y90.000 E2.89595
G1 X160.043 Y91.484 E2.94423
G1 X158.781 Y92.401 E2.99252
G1 X157.219 Y92.401 E3.04084
G1 X156.017 Y91.528 E3.08681
G1 X156.488 Y91.098 F7800.000
G1 F1800.000
G1 X156.132 Y90.000 E3.12252
G1 X156.488 Y88.902 E3.15824
G1 X157.422 Y88.223 E3.19396
G1 X158.578 Y88.223 E3.22971
G1 X159.512 Y88.902 E3.26544
G1 X159.868 Y90.000 E3.30115
G1 X159.512 Y91.098 E3.33687
G1 X158.578 Y91.777 E3.37259
G1 X157.422 Y91.777 E3.40834
G1 X156.549 Y91.142 E3.44174
G1 X156.488 Y91.098 F7800.000
G1 E1.44174 F2400.00000
G92 E0
G1 X175.425 Y104.130 F7800.000
G1 E2.00000 F2400.00000
G1 F1800.000
G1 X177.016 Y102.974 E2.06086
G1 X178.984 Y102.974 E2.12174
G1 X180.575 Y104.130 E2.18261
G1 X181.182 Y106.000 E2.24344
G1 X180.575 Y107.870 E2.30427
G1 X178.984 Y109.026 E2.36514
G1 X177.016 Y109.026 E2.42602
G1 X175.425 Y107.870 E2.48688
G1 X174.818 Y106.000 E2.54772
G1 X175.402 Y104.201 E2.60623
G1 X175.956 Y104.516 F7800.000
G1 F1800.000
G1 X177.219 Y103.599 E2.65452
G1 X178.781 Y103.599 E2.70284
G1 X180.044 Y104.516 E2.75113
G1 X180.525 Y106.000 E2.79941
G1 X180.044 Y107.484 E2.84768
G1 X178.781 Y108.401 E2.89598
G1 X177.219 Y108.401 E2.94429
G1 X175.956 Y107.484 E2.99258
G1 X175.475 Y106.000 E3.04086
G1 X175.933 Y104.587 E3.08681
G1 X176.488 Y104.902 F7800.000
G1 F1800.000
G1 X177.422 Y104.223 E3.12254
G1 X178.578 Y104.223 E3.15829
G1 X179.512 Y104.902 E3.19401
G1 X179.868 Y106.000 E3.22973
G1 X179.512 Y107.098 E3.26544
G1 X178.578 Y107.777 E3.30117
G1 X177.422 Y107.777 E3.33692
G1 X176.488 Y107.098 E3.37264
G1 X176.132 Y106.000 E3.40836
G1 X176.465 Y104.973 E3.44175
G1 X176.488 Y104.902 F7800.000
G1 E1.44175 F2400.00000
G92 E0
G1 X195.425 Y91.870 F7800.000
G1 E2.00000 F2400.00000
G1 F1800.000
G1 X194.818 Y90.000 E2.06083
G1 X195.425 Y88.130 E2.12167
G1 X197.016 Y86.974 E2.18253
G1 X198.984 Y86.974 E2.24341
G1 X200.575 Y88.130 E2.30427
G1 X201.182 Y90.000 E2.36511
G1 X200.575 Y91.870 E2.42594
G1 X198.984 Y93.026 E2.48680
G1 X197.016 Y93.026 E2.54768
G1 X195.485 Y91.914 E2.60623
G1 X195.956 Y91.484 F7800.000
G1 F1800.000
G1 X195.475 Y90.000 E2.65450
G1 X195.956 Y88.516 E2.70277
G1 X197.219 Y87.599 E2.75107
G1 X198.781 Y87.599 E2.79938
G1 X200.044 Y88.516 E2.84768
G1 X200.525 Y90.000 E2.89595
G1 X200.043 Y91.484 E2.94423
G1 X198.781 Y92.401 E2.99252
G1 X197.219 Y92.401 E3.04084
G1 X196.017 Y91.528 E3.08681
G1 X196.488 Y91.098 F7800.000
G1 F1800.000
G1 X196.132 Y90.000 E3.12252
G1 X196.488 Y88.902 E3.15824
G1 X197.422 Y88.223 E3.19396
G1 X198.578 Y88.223 E3.22971
G1 X199.512 Y88.902 E3.26544
G1 X199.868 Y90.000 E3.30115
G1 X199.512 Y91.098 E3.33687
G1 X198.578 Y91.777 E3.37259
G1 X197.422 Y91.777 E3.40834
G1 X196.549 Y91.142 E3.44174
G1 X196.488 Y91.098 F7800.000
G1 E1.44174 F2400.00000
G92 E0
G1 X199.760 Y95.188 F7800.000
G1 E2.00000 F2400.00000
G1 F1800.000
G1 X177.693 Y112.842 E2.87441
G1 X174.643 Y115.058 E2.99104
G1 X0.357 Y115.058 E8.38369
G1 X-2.302 Y113.126 E8.48539
G1 X-3.400 Y109.747 E8.59532
G1 X-3.400 Y90.253 E9.19847
G1 X-2.302 Y86.874 E9.30841
G1 X0.357 Y84.942 E9.41010
G1 X199.643 Y84.942 E15.57628
G1 X202.302 Y86.874 E15.67798
G1 X203.318 Y90.000 E15.77967
G1 X202.290 Y93.165 E15.88263
G1 X199.819 Y95.141 E15.98053
G1 X200.151 Y95.676 F7800.000
G1 F1800.000
G1 X178.072 Y113.339 E16.85539
G1 X174.846 Y115.683 E16.97875
G1 X0.154 Y115.683 E22.38397
G1 X-2.834 Y113.512 E22.49822
G1 X-4.025 Y109.846 E22.61750
G1 X-4.025 Y90.154 E23.22678
G1 X-2.834 Y86.488 E23.34606
G1 X0.154 Y84.317 E23.46031
G1 X199.846 Y84.317 E29.63907
G1 X202.834 Y86.488 E29.75332
G1 X203.975 Y90.000 E29.86758
G1 X202.826 Y93.536 E29.98261
G1 X200.209 Y95.629 E30.08630
G1 X200.541 Y96.164 F7800.000
G1 F1800.000
G1 X178.451 Y113.836 E30.96161
G1 X175.049 Y116.307 E31.09170
G1 X-0.049 Y116.307 E36.50948
G1 X-3.365 Y113.898 E36.63630
G1 X-4.650 Y109.945 E36.76493
G1 X-4.650 Y90.055 E37.38033
G1 X-3.365 Y86.102 E37.50895
G1 X-0.049 Y83.693 E37.63577
G1 X200.049 Y83.693 E43.82709
G1 X203.365 Y86.102 E43.95391
G1 X204.632 Y90.000 E44.08073
G1 X203.363 Y93.907 E44.20783
G1 X200.600 Y96.117 E44.31731
G1 X200.059 Y96.031 F7800.000
G1 E42.31731 F2400.00000
G92 E0
G1 X201.509 Y93.037 F7800.000
G1 E2.00000 F2400.00000
G1 F1800.000
G1 X201.996 Y92.550 E2.02135
G1 X202.423 Y91.238 E2.06415
G1 X197.080 Y96.580 E2.29848
G1 X192.651 Y100.124 E2.47440
G1 X199.367 Y93.408 E2.76895
G1 X198.481 Y93.408 E2.79643
G1 X188.222 Y103.667 E3.24640
G1 X183.793 Y107.210 E3.42232
G1 X197.595 Y93.408 E4.02771
G1 X197.056 Y93.408 E4.04442
G1 X196.855 Y93.262 E4.05213
G1 X179.364 Y110.754 E4.81934
G1 X177.071 Y112.588 E4.91041
G1 X175.508 Y113.723 E4.97031
G1 X180.868 Y108.363 E5.20542
G1 X179.430 Y109.408 E5.26056
G1 X178.937 Y109.408 E5.27583
G1 X173.670 Y114.676 E5.50688
G1 X172.784 Y114.676 E5.53435
G1 X178.052 Y109.408 E5.76540
G1 X177.166 Y109.408 E5.79287
G1 X171.898 Y114.676 E6.02392
G1 X171.012 Y114.676 E6.05139
G1 X176.607 Y109.082 E6.29676
G1 X176.093 Y108.709 E6.31643
G1 X170.126 Y114.676 E6.57816
G1 X169.241 Y114.676 E6.60563
G1 X175.580 Y108.336 E6.88371
G1 X175.136 Y108.013 E6.90074
G1 X175.107 Y107.924 E6.90366
G1 X168.355 Y114.676 E7.19983
G1 X167.469 Y114.676 E7.22730
G1 X174.890 Y107.255 E7.55280
G1 X174.673 Y106.586 E7.57461
G1 X166.583 Y114.676 E7.92945
G1 X165.697 Y114.676 E7.95693
G1 X174.456 Y105.917 E8.34111
G1 X174.404 Y105.757 E8.34632
G1 X174.728 Y104.759 E8.37885
G1 X164.811 Y114.676 E8.81380
G1 X163.926 Y114.676 E8.84127
G1 X193.277 Y85.324 E10.12869
G1 X192.391 Y85.324 E10.15616
G1 X163.040 Y114.676 E11.44357
G1 X162.154 Y114.676 E11.47105
G1 X191.506 Y85.324 E12.75846
G1 X190.620 Y85.324 E12.78594
G1 X161.268 Y114.676 E14.07335
G1 X160.382 Y114.676 E14.10083
