; Gcode updated with 'stl_info' on 2019-12-09 21:32:24.190144

; stl_min_x = -8.0
; stl_max_x = 7.936920166015625
; stl_min_y = -7.984210014343262
; stl_max_y = 7.984210014343262
; stl_min_z = 0.0

; generated by Slic3r 1.3.1-dev (Build adea0d9) on 2019-12-09 at 21:32:22

; external perimeters extrusion width = 0.44mm (2.86mm^3/s)
; perimeters extrusion width = 0.56mm (4.14mm^3/s)
; infill extrusion width = 0.50mm (3.66mm^3/s)
; solid infill extrusion width = 0.56mm (3.10mm^3/s)
; top infill extrusion width = 0.56mm (3.10mm^3/s)

M107
G92 E0
;D3D:START:START
T0
M104 S215 T0

G21
G90
M107
T0
G28
G29
M109 T0 S215 T0
G0 F3000
M107
T0
G92 E0
G0 X0 Y149 Z0.1 F3600
G1 Y49 E6.5 F1200
G0 Z1
G92 E0
; Filament gcode

G21 ; set units to millimeters
G90 ; use absolute coordinates
M82 ; use absolute distances for extrusion
G92 E0
G1 Z0.300 F7800.000
G1 E-2.00000 F2400.00000
G92 E0
G1 X73.135 Y73.645 F7800.000
G1 E2.00000 F2400.00000
G1 F1800.000
G1 X73.645 Y73.135 E2.02389
G1 X74.288 Y72.808 E2.04778
G1 X75.000 Y72.695 E2.07167
G1 X75.712 Y72.808 E2.09556
G1 X76.355 Y73.135 E2.11945
G1 X76.865 Y73.645 E2.14335
G1 X77.192 Y74.288 E2.16724
G1 X77.305 Y75.000 E2.19113
G1 X77.192 Y75.712 E2.21502
G1 X76.865 Y76.355 E2.23891
G1 X76.355 Y76.865 E2.26280
G1 X75.712 Y77.192 E2.28669
G1 X75.000 Y77.305 E2.31058
G1 X74.288 Y77.192 E2.33447
G1 X73.645 Y76.865 E2.35836
G1 X73.135 Y76.355 E2.38225
G1 X72.808 Y75.712 E2.40615
G1 X72.695 Y75.000 E2.43004
G1 X72.808 Y74.288 E2.45393
G1 X73.108 Y73.699 E2.47583
G1 X73.353 Y73.803 F7800.000
G1 F1800.000
G1 X73.803 Y73.353 E2.49693
G1 X74.371 Y73.064 E2.51804
G1 X75.000 Y72.964 E2.53914
G1 X75.629 Y73.064 E2.56024
G1 X76.197 Y73.353 E2.58135
G1 X76.647 Y73.803 E2.60245
G1 X76.936 Y74.371 E2.62355
G1 X77.036 Y75.000 E2.64466
G1 X76.936 Y75.629 E2.66576
G1 X76.647 Y76.197 E2.68686
G1 X76.197 Y76.647 E2.70797
G1 X75.629 Y76.936 E2.72907
G1 X75.000 Y77.036 E2.75018
G1 X74.371 Y76.936 E2.77128
G1 X73.803 Y76.647 E2.79238
G1 X73.353 Y76.197 E2.81349
G1 X73.064 Y75.629 E2.83459
G1 X72.964 Y75.000 E2.85569
G1 X73.064 Y74.371 E2.87680
G1 X73.326 Y73.857 E2.89591
G1 X73.570 Y73.961 F7800.000
G1 F1800.000
G1 X73.961 Y73.570 E2.91423
G1 X74.454 Y73.319 E2.93254
G1 X75.000 Y73.233 E2.95086
G1 X75.546 Y73.319 E2.96917
G1 X76.039 Y73.570 E2.98749
G1 X76.430 Y73.961 E3.00581
G1 X76.681 Y74.454 E3.02412
G1 X76.767 Y75.000 E3.04244
G1 X76.681 Y75.546 E3.06075
G1 X76.430 Y76.039 E3.07907
G1 X76.039 Y76.430 E3.09739
G1 X75.546 Y76.681 E3.11570
G1 X75.000 Y76.767 E3.13402
G1 X74.454 Y76.681 E3.15233
G1 X73.961 Y76.430 E3.17065
G1 X73.570 Y76.039 E3.18897
G1 X73.319 Y75.546 E3.20728
G1 X73.233 Y75.000 E3.22560
G1 X73.319 Y74.454 E3.24391
G1 X73.543 Y74.015 E3.26024
G1 E1.26024 F2400.00000
G92 E0
G1 X69.092 Y70.708 F7800.000
G1 E2.00000 F2400.00000
G1 F1800.000
G1 X69.677 Y70.001 E2.03038
G1 X70.345 Y69.373 E2.06076
G1 X71.087 Y68.834 E2.09114
G1 X71.891 Y68.393 E2.12152
G1 X72.743 Y68.055 E2.15191
G1 X73.632 Y67.827 E2.18229
G1 X74.541 Y67.712 E2.21267
G1 X75.459 Y67.712 E2.24305
G1 X76.368 Y67.827 E2.27343
G1 X77.257 Y68.055 E2.30381
G1 X78.109 Y68.393 E2.33419
G1 X78.913 Y68.834 E2.36457
G1 X79.655 Y69.373 E2.39495
G1 X80.323 Y70.001 E2.42534
G1 X80.908 Y70.708 E2.45572
G1 X81.399 Y71.482 E2.48610
G1 X81.790 Y72.312 E2.51648
G1 X82.073 Y73.184 E2.54686
G1 X82.245 Y74.085 E2.57724
G1 X82.302 Y75.000 E2.60762
G1 X82.245 Y75.915 E2.63800
G1 X82.073 Y76.816 E2.66839
G1 X81.790 Y77.688 E2.69877
G1 X81.399 Y78.518 E2.72915
G1 X80.908 Y79.292 E2.75953
G1 X80.323 Y79.999 E2.78991
G1 X79.655 Y80.627 E2.82029
G1 X78.913 Y81.166 E2.85067
G1 X78.109 Y81.607 E2.88105
G1 X77.257 Y81.945 E2.91143
G1 X76.368 Y82.173 E2.94182
G1 X75.459 Y82.288 E2.97220
G1 X74.541 Y82.288 E3.00258
G1 X73.632 Y82.173 E3.03296
G1 X72.743 Y81.945 E3.06334
G1 X71.891 Y81.607 E3.09372
G1 X71.087 Y81.166 E3.12410
G1 X70.345 Y80.627 E3.15448
G1 X69.677 Y79.999 E3.18486
G1 X69.092 Y79.292 E3.21525
G1 X68.601 Y78.518 E3.24563
G1 X68.210 Y77.688 E3.27601
G1 X67.927 Y76.816 E3.30639
G1 X67.755 Y75.915 E3.33677
G1 X67.698 Y75.000 E3.36715
G1 X67.755 Y74.085 E3.39753
G1 X67.927 Y73.184 E3.42791
G1 X68.210 Y72.312 E3.45829
G1 X68.601 Y71.482 E3.48868
G1 X69.060 Y70.758 E3.51707
G1 X68.877 Y70.551 F7800.000
G1 F1800.000
G1 X69.483 Y69.819 E3.54856
G1 X70.176 Y69.168 E3.58005
G1 X70.945 Y68.610 E3.61153
G1 X71.777 Y68.152 E3.64302
G1 X72.661 Y67.802 E3.67451
G1 X73.582 Y67.566 E3.70600
G1 X74.525 Y67.446 E3.73749
G1 X75.475 Y67.446 E3.76898
G1 X76.418 Y67.566 E3.80046
G1 X77.339 Y67.802 E3.83195
G1 X78.223 Y68.152 E3.86344
G1 X79.055 Y68.610 E3.89493
G1 X79.824 Y69.168 E3.92642
G1 X80.517 Y69.819 E3.95791
G1 X81.123 Y70.551 E3.98940
G1 X81.632 Y71.354 E4.02088
G1 X82.037 Y72.214 E4.05237
G1 X82.331 Y73.118 E4.08386
G1 X82.509 Y74.051 E4.11535
G1 X82.569 Y75.000 E4.14684
G1 X82.509 Y75.949 E4.17833
G1 X82.331 Y76.882 E4.20981
G1 X82.037 Y77.786 E4.24130
G1 X81.632 Y78.646 E4.27279
G1 X81.123 Y79.449 E4.30428
G1 X80.517 Y80.181 E4.33577
G1 X79.824 Y80.832 E4.36726
G1 X79.055 Y81.390 E4.39874
G1 X78.223 Y81.848 E4.43023
G1 X77.339 Y82.198 E4.46172
G1 X76.418 Y82.434 E4.49321
G1 X75.475 Y82.554 E4.52470
G1 X74.525 Y82.554 E4.55619
G1 X73.582 Y82.434 E4.58767
G1 X72.661 Y82.198 E4.61916
G1 X71.777 Y81.848 E4.65065
G1 X70.945 Y81.390 E4.68214
G1 X70.176 Y80.832 E4.71363
G1 X69.483 Y80.181 E4.74512
G1 X68.877 Y79.449 E4.77661
G1 X68.368 Y78.646 E4.80809
G1 X67.963 Y77.786 E4.83958
G1 X67.669 Y76.882 E4.87107
G1 X67.491 Y75.949 E4.90256
G1 X67.431 Y75.000 E4.93405
G1 X67.491 Y74.051 E4.96554
G1 X67.669 Y73.118 E4.99702
G1 X67.963 Y72.214 E5.02851
G1 X68.368 Y71.354 E5.06000
G1 X68.845 Y70.602 E5.08950
G1 X68.662 Y70.395 F7800.000
G1 F1800.000
G1 X69.289 Y69.637 E5.12210
G1 X70.006 Y68.963 E5.15469
G1 X70.802 Y68.385 E5.18729
G1 X71.664 Y67.911 E5.21988
G1 X72.579 Y67.549 E5.25248
G1 X73.532 Y67.304 E5.28508
G1 X74.508 Y67.181 E5.31767
G1 X75.492 Y67.181 E5.35027
G1 X76.468 Y67.304 E5.38286
G1 X77.421 Y67.549 E5.41546
G1 X78.336 Y67.911 E5.44805
G1 X79.198 Y68.385 E5.48065
G1 X79.994 Y68.963 E5.51325
G1 X80.711 Y69.637 E5.54584
G1 X81.338 Y70.395 E5.57844
G1 X81.866 Y71.226 E5.61103
G1 X82.284 Y72.116 E5.64363
G1 X82.589 Y73.052 E5.67622
G1 X82.773 Y74.018 E5.70882
G1 X82.835 Y75.000 E5.74142
G1 X82.773 Y75.982 E5.77401
G1 X82.589 Y76.948 E5.80661
G1 X82.284 Y77.884 E5.83920
G1 X81.866 Y78.774 E5.87180
G1 X81.338 Y79.605 E5.90439
G1 X80.711 Y80.363 E5.93699
G1 X79.994 Y81.037 E5.96959
G1 X79.198 Y81.615 E6.00218
G1 X78.336 Y82.089 E6.03478
G1 X77.421 Y82.451 E6.06737
G1 X76.468 Y82.696 E6.09997
G1 X75.492 Y82.819 E6.13256
G1 X74.508 Y82.819 E6.16516
G1 X73.532 Y82.696 E6.19776
G1 X72.579 Y82.451 E6.23035
G1 X71.664 Y82.089 E6.26295
G1 X70.802 Y81.615 E6.29554
G1 X70.006 Y81.037 E6.32814
G1 X69.289 Y80.363 E6.36073
G1 X68.662 Y79.605 E6.39333
G1 X68.134 Y78.774 E6.42593
G1 X67.716 Y77.884 E6.45852
G1 X67.411 Y76.948 E6.49112
G1 X67.227 Y75.982 E6.52371
G1 X67.165 Y75.000 E6.55631
G1 X67.227 Y74.018 E6.58890
G1 X67.411 Y73.052 E6.62150
G1 X67.716 Y72.116 E6.65410
G1 X68.134 Y71.226 E6.68669
G1 X68.629 Y70.446 E6.71730
G1 X69.977 Y70.078 F7800.000
G1 F1800.000
G1 X69.767 Y70.288 E6.72731
G1 X69.204 Y70.967 E6.75708
G1 X68.744 Y71.693 E6.78607
G1 X71.662 Y68.775 E6.92528
G1 X72.107 Y68.530 E6.94244
G1 X72.408 Y68.411 E6.95337
G1 X68.397 Y72.422 E7.14473
G1 X68.194 Y73.008 E7.16567
G1 X73.021 Y68.181 E7.39597
G1 X73.535 Y68.049 E7.41390
G1 X68.046 Y73.538 E7.67578
G1 X67.956 Y74.011 E7.69201
G1 X74.010 Y67.957 E7.98087
G1 X74.448 Y67.901 E7.99576
G1 X67.902 Y74.448 E8.30810
G1 X67.876 Y74.856 E8.32190
G1 X74.858 Y67.874 E8.65500
G1 X75.240 Y67.874 E8.66790
G1 X67.869 Y75.245 E9.01957
G1 X67.892 Y75.605 E9.03174
G1 X75.614 Y67.883 E9.40016
G1 X75.954 Y67.926 E9.41171
G1 X67.915 Y75.965 E9.79526
G1 X67.974 Y76.288 E9.80635
G1 X76.293 Y67.969 E10.20328
G1 X76.611 Y68.034 E10.21422
G1 X68.035 Y76.610 E10.62339
G1 X68.104 Y76.923 E10.63421
G1 X76.915 Y68.112 E11.05460
G1 X77.220 Y68.190 E11.06521
G1 X68.198 Y77.212 E11.49564
G1 X68.292 Y77.500 E11.50588
G1 X77.500 Y68.293 E11.94519
G1 X77.774 Y68.401 E11.95514
G1 X68.395 Y77.780 E12.40259
G1 X68.517 Y78.040 E12.41229
G1 X72.656 Y73.901 E12.60975
G1 X72.814 Y73.590 E12.62151
G1 X73.384 Y73.021 E12.64868
G1 X73.695 Y72.863 E12.66044
G1 X78.048 Y68.510 E12.86813
G1 X78.300 Y68.640 E12.87771
G1 X74.319 Y72.621 E13.06763
G1 X74.773 Y72.549 E13.08316
G1 X78.546 Y68.776 E13.26318
G1 X78.793 Y68.912 E13.27268
G1 X75.137 Y72.568 E13.44711
G1 X75.467 Y72.620 E13.45839
G1 X79.023 Y69.064 E13.62802
G1 X79.245 Y69.225 E13.63726
G1 X75.773 Y72.697 E13.80289
G1 X76.027 Y72.826 E13.81248
G1 X79.466 Y69.386 E13.97659
G1 X79.677 Y69.558 E13.98576
G1 X76.280 Y72.955 E14.14782
G1 X76.410 Y73.021 E14.15273
G1 X76.503 Y73.114 E14.15719
G1 X79.874 Y69.743 E14.31803
G1 X80.071 Y69.929 E14.32716
G1 X76.694 Y73.306 E14.48828
G1 X76.886 Y73.497 E14.49740
G1 X80.264 Y70.118 E14.65860
G1 X80.437 Y70.328 E14.66777
G1 X77.045 Y73.720 E14.82962
G1 X77.174 Y73.973 E14.83922
G1 X80.611 Y70.537 E15.00317
G1 X80.784 Y70.746 E15.01234
G1 X77.303 Y74.227 E15.17840
G1 X77.345 Y74.308 E15.18147
G1 X77.380 Y74.533 E15.18914
G1 X80.934 Y70.979 E15.35870
G1 X81.082 Y71.213 E15.36805
G1 X77.432 Y74.863 E15.54219
G1 X77.471 Y75.103 E15.55041
G1 X77.451 Y75.227 E15.55463
G1 X81.231 Y71.447 E15.73498
G1 X81.360 Y71.700 E15.74457
G1 X77.379 Y75.681 E15.93451
G1 X77.345 Y75.899 E15.94194
G1 X77.137 Y76.305 E15.95734
G1 X81.483 Y71.960 E16.16466
G1 X81.605 Y72.220 E16.17436
G1 X72.226 Y81.599 E16.62182
G1 X72.500 Y81.707 E16.63176
G1 X81.708 Y72.500 E17.07107
G1 X81.802 Y72.788 E17.08131
G1 X72.780 Y81.810 E17.51175
G1 X73.085 Y81.888 E17.52235
G1 X81.896 Y73.077 E17.94274
G1 X81.965 Y73.390 E17.95356
G1 X73.389 Y81.966 E18.36273
G1 X73.707 Y82.031 E18.37367
G1 X82.026 Y73.712 E18.77060
G1 X82.085 Y74.035 E18.78169
G1 X74.046 Y82.074 E19.16524
G1 X74.386 Y82.117 E19.17679
G1 X82.108 Y74.395 E19.54521
G1 X82.131 Y74.755 E19.55738
G1 X74.760 Y82.126 E19.90905
G1 X75.142 Y82.126 E19.92195
G1 X82.124 Y75.144 E20.25505
G1 X82.098 Y75.552 E20.26885
G1 X75.552 Y82.099 E20.58119
G1 X75.990 Y82.043 E20.59608
G1 X82.044 Y75.989 E20.88493
G1 X81.954 Y76.462 E20.90117
G1 X76.465 Y81.951 E21.16305
G1 X76.979 Y81.819 E21.18098
G1 X81.806 Y76.992 E21.41127
G1 X81.603 Y77.578 E21.43221
G1 X77.592 Y81.589 E21.62358
G1 X77.893 Y81.470 E21.63450
G1 X78.338 Y81.225 E21.65166
G1 X81.256 Y78.307 E21.79087
G1 X80.796 Y79.033 E21.81986
G1 X80.233 Y79.713 E21.84963
G1 X80.024 Y79.922 E21.85963
G1 E19.85963 F2400.00000
G92 E0
G1 X71.952 Y81.490 F7800.000
G1 E2.00000 F2400.00000
G1 F1800.000
G1 X76.305 Y77.137 E2.20769
G1 X75.899 Y77.345 E2.22309
G1 X75.681 Y77.379 E2.23052
G1 X71.700 Y81.360 E2.42045
G1 X71.454 Y81.224 E2.42995
G1 X75.227 Y77.451 E2.60997
G1 X75.103 Y77.471 E2.61418
G1 X74.863 Y77.432 E2.62240
G1 X71.207 Y81.088 E2.79683
G1 X70.977 Y80.936 E2.80614
G1 X74.533 Y77.380 E2.97577
G1 X74.308 Y77.345 E2.98344
G1 X74.227 Y77.303 E2.98651
G1 X70.755 Y80.775 E3.15214
G1 X70.534 Y80.614 E3.16138
G1 X73.973 Y77.174 E3.32548
G1 X73.720 Y77.045 E3.33508
G1 X70.323 Y80.442 E3.49714
G1 X70.126 Y80.257 E3.50627
G1 X73.497 Y76.886 E3.66711
G1 X73.306 Y76.694 E3.67624
G1 X69.929 Y80.071 E3.83736
G1 X69.736 Y79.882 E3.84648
G1 X73.114 Y76.503 E4.00768
G1 X73.021 Y76.410 E4.01214
G1 X72.955 Y76.280 E4.01705
G1 X69.563 Y79.672 E4.17890
G1 X69.389 Y79.463 E4.18807
G1 X72.826 Y76.027 E4.35202
G1 X72.697 Y75.773 E4.36162
G1 X69.216 Y79.254 E4.52768
G1 X69.066 Y79.021 E4.53701
G1 X72.620 Y75.467 E4.70657
G1 X72.568 Y75.137 E4.71785
G1 X68.918 Y78.787 E4.89200
G1 X68.769 Y78.553 E4.90135
G1 X72.549 Y74.773 E5.08169
G1 X72.621 Y74.319 E5.09722
G1 X68.640 Y78.300 E5.28716
G1 X68.517 Y78.040 E5.29686
M106 S255
G1 Z0.500 F7800.000
G1 E3.29686 F2400.00000
G92 E0
G1 X73.151 Y73.657 F7800.000
G1 E2.00000 F2400.00000
G1 F1800.000
G1 X73.657 Y73.151 E2.03074
G1 X74.294 Y72.826 E2.06149
G1 X75.000 Y72.714 E2.09223
G1 X75.706 Y72.826 E2.12298
G1 X76.343 Y73.151 E2.15372
G1 X76.849 Y73.657 E2.18447
G1 X77.174 Y74.294 E2.21521
G1 X77.286 Y75.000 E2.24596
G1 X77.174 Y75.706 E2.27670
G1 X76.849 Y76.343 E2.30745
G1 X76.343 Y76.849 E2.33819
G1 X75.706 Y77.174 E2.36894
G1 X75.000 Y77.286 E2.39968
G1 X74.294 Y77.174 E2.43042
G1 X73.657 Y76.849 E2.46117
G1 X73.151 Y76.343 E2.49191
G1 X72.826 Y75.706 E2.52266
G1 X72.714 Y75.000 E2.55340
G1 X72.826 Y74.294 E2.58415
G1 X73.124 Y73.710 E2.61231
G1 X73.525 Y73.929 F7800.000
G1 F1800.000
G1 X73.929 Y73.525 E2.63114
G1 X74.437 Y73.266 E2.64997
G1 X75.000 Y73.177 E2.66880
G1 X75.563 Y73.266 E2.68763
G1 X76.071 Y73.525 E2.70646
G1 X76.475 Y73.929 E2.72529
G1 X76.734 Y74.437 E2.74412
G1 X76.823 Y75.000 E2.76294
G1 X76.734 Y75.563 E2.78177
G1 X76.475 Y76.071 E2.80060
G1 X76.071 Y76.475 E2.81943
G1 X75.563 Y76.734 E2.83826
G1 X75.000 Y76.823 E2.85709
G1 X74.437 Y76.734 E2.87592
G1 X73.929 Y76.475 E2.89475
G1 X73.525 Y76.071 E2.91358
G1 X73.266 Y75.563 E2.93241
G1 X73.177 Y75.000 E2.95124
G1 X73.266 Y74.437 E2.97006
G1 X73.498 Y73.982 E2.98691
G1 E0.98691 F2400.00000
G92 E0
G1 X69.077 Y70.696 F7800.000
G1 E2.00000 F2400.00000
G1 F2400.000
G1 X69.663 Y69.988 E2.03953
G1 X70.333 Y69.359 E2.07906
G1 X71.077 Y68.818 E2.11860
G1 X71.883 Y68.375 E2.15813
G1 X72.737 Y68.037 E2.19766
G1 X73.628 Y67.808 E2.23719
G1 X74.540 Y67.693 E2.27673
G1 X75.460 Y67.693 E2.31626
G1 X76.372 Y67.808 E2.35579
G1 X77.262 Y68.037 E2.39532
G1 X78.117 Y68.375 E2.43485
G1 X78.923 Y68.818 E2.47439
G1 X79.667 Y69.359 E2.51392
G1 X80.337 Y69.988 E2.55345
G1 X80.923 Y70.696 E2.59298
G1 X81.416 Y71.473 E2.63251
G1 X81.807 Y72.305 E2.67205
G1 X82.092 Y73.179 E2.71158
G1 X82.264 Y74.082 E2.75111
G1 X82.322 Y75.000 E2.79064
G1 X82.264 Y75.918 E2.83018
G1 X82.092 Y76.821 E2.86971
G1 X81.807 Y77.695 E2.90924
G1 X81.416 Y78.527 E2.94877
G1 X80.923 Y79.304 E2.98830
G1 X80.337 Y80.012 E3.02784
G1 X79.667 Y80.641 E3.06737
G1 X78.923 Y81.182 E3.10690
G1 X78.117 Y81.625 E3.14643
G1 X77.262 Y81.963 E3.18596
G1 X76.372 Y82.192 E3.22550
G1 X75.460 Y82.307 E3.26503
G1 X74.540 Y82.307 E3.30456
G1 X73.628 Y82.192 E3.34409
G1 X72.737 Y81.963 E3.38363
G1 X71.883 Y81.625 E3.42316
G1 X71.077 Y81.182 E3.46269
G1 X70.333 Y80.641 E3.50222
G1 X69.663 Y80.012 E3.54175
G1 X69.077 Y79.304 E3.58129
G1 X68.584 Y78.527 E3.62082
G1 X68.193 Y77.695 E3.66035
G1 X67.908 Y76.821 E3.69988
G1 X67.736 Y75.918 E3.73941
G1 X67.678 Y75.000 E3.77895
G1 X67.736 Y74.082 E3.81848
G1 X67.908 Y73.179 E3.85801
G1 X68.193 Y72.305 E3.89754
G1 X68.584 Y71.473 E3.93708
G1 X69.045 Y70.747 E3.97403
G1 X68.706 Y70.427 F7800.000
G1 F2160.000
G1 X69.329 Y69.675 E4.00629
G1 X70.041 Y69.006 E4.03854
G1 X70.832 Y68.431 E4.07080
G1 X71.688 Y67.961 E4.10306
G1 X72.596 Y67.601 E4.13531
G1 X73.542 Y67.358 E4.16757
G1 X74.512 Y67.236 E4.19983
G1 X75.488 Y67.236 E4.23208
G1 X76.458 Y67.358 E4.26434
G1 X77.404 Y67.601 E4.29660
G1 X78.312 Y67.961 E4.32885
G1 X79.168 Y68.431 E4.36111
G1 X79.959 Y69.006 E4.39337
G1 X80.671 Y69.675 E4.42562
G1 X81.294 Y70.427 E4.45788
G1 X81.817 Y71.252 E4.49014
G1 X82.233 Y72.136 E4.52239
G1 X82.535 Y73.065 E4.55465
G1 X82.718 Y74.025 E4.58691
G1 X82.780 Y75.000 E4.61916
G1 X82.718 Y75.975 E4.65142
G1 X82.535 Y76.935 E4.68368
G1 X82.233 Y77.864 E4.71593
G1 X81.817 Y78.748 E4.74819
G1 X81.294 Y79.573 E4.78045
G1 X80.671 Y80.325 E4.81270
G1 X79.959 Y80.994 E4.84496
G1 X79.168 Y81.569 E4.87722
G1 X78.312 Y82.039 E4.90948
G1 X77.404 Y82.399 E4.94173
G1 X76.458 Y82.642 E4.97399
G1 X75.488 Y82.764 E5.00625
G1 X74.512 Y82.764 E5.03850
G1 X73.542 Y82.642 E5.07076
G1 X72.596 Y82.399 E5.10302
G1 X71.688 Y82.039 E5.13527
G1 X70.832 Y81.569 E5.16753
G1 X70.041 Y80.994 E5.19979
G1 X69.329 Y80.325 E5.23204
G1 X68.706 Y79.573 E5.26430
G1 X68.183 Y78.748 E5.29656
G1 X67.767 Y77.864 E5.32881
G1 X67.465 Y76.935 E5.36107
G1 X67.282 Y75.975 E5.39333
G1 X67.220 Y75.000 E5.42558
G1 X67.282 Y74.025 E5.45784
G1 X67.465 Y73.065 E5.49010
G1 X67.767 Y72.136 E5.52235
G1 X68.183 Y71.252 E5.55461
G1 X68.674 Y70.478 E5.58489
G1 E3.58489 F2400.00000
G92 E0
