; Gcode updated with 'stl_info' on 2019-12-09 21:36:37.207413

; stl_min_x = 0.0
; stl_max_x = 208.66299438476562
; stl_min_y = 0.34260499477386475
; stl_max_y = 33.65739822387695
; stl_min_z = -0.75

; generated by Slic3r 1.3.1-dev (Build adea0d9) on 2019-12-09 at 21:36:36

; external perimeters extrusion width = 0.44mm (2.86mm^3/s)
; perimeters extrusion width = 0.56mm (4.14mm^3/s)
; infill extrusion width = 0.50mm (3.66mm^3/s)
; solid infill extrusion width = 0.56mm (3.10mm^3/s)
; top infill extrusion width = 0.56mm (3.10mm^3/s)

M107
G92 E0
;D3D:START:START
T0
M104 S215 T0

G21
G90
M107
T0
G28
G29
M109 T0 S215 T0
G0 F3000
M107
T0
G92 E0
G0 X0 Y149 Z0.1 F3600
G1 Y49 E6.5 F1200
G0 Z1
G92 E0
; Filament gcode

G21 ; set units to millimeters
G90 ; use absolute coordinates
M82 ; use absolute distances for extrusion
G92 E0
G1 Z0.300 F7800.000
G1 E-2.00000 F2400.00000
G92 E0
G1 X-22.164 Y82.427 F7800.000
G1 E2.00000 F2400.00000
G1 F1800.000
G1 X-21.410 Y82.812 E2.02804
G1 X-20.812 Y83.410 E2.05607
G1 X-20.427 Y84.164 E2.08411
G1 X-20.295 Y85.000 E2.11215
G1 X-20.427 Y85.836 E2.14018
G1 X-20.812 Y86.590 E2.16822
G1 X-21.410 Y87.188 E2.19626
G1 X-22.184 Y87.583 E2.22503
G1 X-23.003 Y87.704 E2.25248
G1 X-23.836 Y87.573 E2.28040
G1 X-24.590 Y87.188 E2.30844
G1 X-25.188 Y86.590 E2.33647
G1 X-25.573 Y85.836 E2.36451
G1 X-25.705 Y85.000 E2.39255
G1 X-25.573 Y84.164 E2.42058
G1 X-25.188 Y83.410 E2.44862
G1 X-24.590 Y82.812 E2.47666
G1 X-23.836 Y82.427 E2.50469
G1 X-23.000 Y82.295 E2.53273
G1 X-22.223 Y82.418 E2.55878
G1 X-22.247 Y82.683 F7800.000
G1 F1800.000
G1 X-21.568 Y83.029 E2.58403
G1 X-21.029 Y83.568 E2.60928
G1 X-20.683 Y84.247 E2.63453
G1 X-20.564 Y85.000 E2.65978
G1 X-20.683 Y85.753 E2.68503
G1 X-21.029 Y86.432 E2.71028
G1 X-21.568 Y86.971 E2.73553
G1 X-22.266 Y87.326 E2.76147
G1 X-23.002 Y87.436 E2.78613
G1 X-23.753 Y87.317 E2.81131
G1 X-24.432 Y86.971 E2.83656
G1 X-24.971 Y86.432 E2.86181
G1 X-25.317 Y85.753 E2.88706
G1 X-25.436 Y85.000 E2.91231
G1 X-25.317 Y84.247 E2.93755
G1 X-24.971 Y83.568 E2.96281
G1 X-24.432 Y83.029 E2.98805
G1 X-23.753 Y82.683 E3.01330
G1 X-23.000 Y82.564 E3.03855
G1 X-22.306 Y82.674 E3.06181
G1 X-22.330 Y82.939 F7800.000
G1 F1800.000
G1 X-21.726 Y83.247 E3.08428
G1 X-21.247 Y83.726 E3.10674
G1 X-20.939 Y84.330 E3.12920
G1 X-20.833 Y85.000 E3.15166
G1 X-20.939 Y85.670 E3.17412
G1 X-21.247 Y86.274 E3.19659
G1 X-21.726 Y86.753 E3.21905
G1 X-22.348 Y87.070 E3.24216
G1 X-23.001 Y87.167 E3.26403
G1 X-23.670 Y87.061 E3.28646
G1 X-24.274 Y86.753 E3.30893
G1 X-24.753 Y86.274 E3.33139
G1 X-25.061 Y85.670 E3.35385
G1 X-25.167 Y85.000 E3.37631
G1 X-25.061 Y84.330 E3.39877
G1 X-24.753 Y83.726 E3.42124
G1 X-24.274 Y83.247 E3.44370
G1 X-23.670 Y82.939 E3.46616
G1 X-23.000 Y82.833 E3.48862
G1 X-22.390 Y82.930 E3.50910
G1 E1.50910 F2400.00000
G92 E0
G1 X-23.000 Y67.705 F7800.000
G1 E2.00000 F2400.00000
G1 F1800.000
G1 X-23.836 Y67.573 E2.02804
G1 X-24.590 Y67.188 E2.05607
G1 X-25.188 Y66.590 E2.08411
G1 X-25.573 Y65.836 E2.11215
G1 X-25.705 Y65.000 E2.14018
G1 X-25.573 Y64.164 E2.16822
G1 X-25.188 Y63.410 E2.19626
G1 X-24.590 Y62.812 E2.22430
G1 X-23.836 Y62.427 E2.25233
G1 X-23.000 Y62.295 E2.28037
G1 X-22.164 Y62.427 E2.30841
G1 X-21.410 Y62.812 E2.33644
G1 X-20.812 Y63.410 E2.36448
G1 X-20.427 Y64.164 E2.39252
G1 X-20.295 Y65.000 E2.42055
G1 X-20.427 Y65.836 E2.44859
G1 X-20.812 Y66.590 E2.47663
G1 X-21.410 Y67.188 E2.50467
G1 X-22.164 Y67.573 E2.53270
G1 X-22.941 Y67.696 E2.55875
G1 X-23.000 Y67.436 F7800.000
G1 F1800.000
G1 X-23.753 Y67.317 E2.58400
G1 X-24.432 Y66.971 E2.60925
G1 X-24.971 Y66.432 E2.63450
G1 X-25.317 Y65.753 E2.65975
G1 X-25.436 Y65.000 E2.68500
G1 X-25.317 Y64.247 E2.71025
G1 X-24.971 Y63.568 E2.73550
G1 X-24.432 Y63.029 E2.76075
G1 X-23.753 Y62.683 E2.78600
G1 X-23.000 Y62.564 E2.81125
G1 X-22.247 Y62.683 E2.83650
G1 X-21.568 Y63.029 E2.86175
G1 X-21.029 Y63.568 E2.88699
G1 X-20.683 Y64.247 E2.91224
G1 X-20.564 Y65.000 E2.93749
G1 X-20.683 Y65.753 E2.96274
G1 X-21.029 Y66.432 E2.98799
G1 X-21.568 Y66.971 E3.01324
G1 X-22.247 Y67.317 E3.03849
G1 X-22.941 Y67.427 E3.06175
G1 X-23.000 Y67.167 F7800.000
G1 F1800.000
G1 X-23.670 Y67.061 E3.08421
G1 X-24.274 Y66.753 E3.10668
G1 X-24.753 Y66.274 E3.12914
G1 X-25.061 Y65.670 E3.15160
G1 X-25.167 Y65.000 E3.17406
G1 X-25.061 Y64.330 E3.19652
G1 X-24.753 Y63.726 E3.21899
G1 X-24.274 Y63.247 E3.24145
G1 X-23.670 Y62.939 E3.26391
G1 X-23.000 Y62.833 E3.28637
G1 X-22.330 Y62.939 E3.30883
G1 X-21.726 Y63.247 E3.33130
G1 X-21.247 Y63.726 E3.35376
G1 X-20.939 Y64.330 E3.37622
G1 X-20.833 Y65.000 E3.39868
G1 X-20.939 Y65.670 E3.42114
G1 X-21.247 Y66.274 E3.44361
G1 X-21.726 Y66.753 E3.46607
G1 X-22.330 Y67.061 E3.48853
G1 X-22.941 Y67.158 E3.50900
G1 E1.50900 F2400.00000
G92 E0
G1 X10.768 Y75.000 F7800.000
G1 E2.00000 F2400.00000
G1 F1800.000
G1 X11.194 Y73.688 E2.04570
G1 X12.310 Y72.877 E2.09140
G1 X13.690 Y72.877 E2.13710
G1 X14.806 Y73.688 E2.18281
G1 X15.232 Y75.000 E2.22851
G1 X14.806 Y76.312 E2.27421
G1 X13.690 Y77.123 E2.31991
G1 X12.310 Y77.123 E2.36561
G1 X11.194 Y76.312 E2.41132
G1 X10.786 Y75.057 E2.45503
G1 X11.047 Y75.000 F7800.000
G1 F1800.000
G1 X11.420 Y73.852 E2.49502
G1 X12.397 Y73.143 E2.53500
G1 X13.603 Y73.143 E2.57498
G1 X14.580 Y73.852 E2.61496
G1 X14.953 Y75.000 E2.65495
G1 X14.580 Y76.148 E2.69493
G1 X13.603 Y76.857 E2.73492
G1 X12.397 Y76.857 E2.77490
G1 X11.420 Y76.148 E2.81488
G1 X11.066 Y75.057 E2.85288
G1 X11.327 Y75.000 F7800.000
G1 F1800.000
G1 X11.646 Y74.016 E2.88715
G1 X12.483 Y73.408 E2.92141
G1 X13.517 Y73.408 E2.95567
G1 X14.354 Y74.016 E2.98994
G1 X14.673 Y75.000 E3.02420
G1 X14.354 Y75.984 E3.05847
G1 X13.517 Y76.592 E3.09273
G1 X12.483 Y76.592 E3.12700
G1 X11.646 Y75.984 E3.16126
G1 X11.345 Y75.057 E3.19354
G1 E1.19354 F2400.00000
G92 E0
G1 X50.768 Y75.000 F7800.000
G1 E2.00000 F2400.00000
G1 F1800.000
G1 X51.194 Y73.688 E2.04570
G1 X52.310 Y72.877 E2.09140
G1 X53.690 Y72.877 E2.13711
G1 X54.806 Y73.688 E2.18281
G1 X55.232 Y75.000 E2.22851
G1 X54.806 Y76.312 E2.27421
G1 X53.690 Y77.123 E2.31991
G1 X52.310 Y77.123 E2.36562
G1 X51.194 Y76.312 E2.41132
G1 X50.786 Y75.057 E2.45503
G1 X51.047 Y75.000 F7800.000
G1 F1800.000
G1 X51.420 Y73.852 E2.49502
G1 X52.397 Y73.143 E2.53500
G1 X53.603 Y73.143 E2.57498
G1 X54.580 Y73.852 E2.61497
G1 X54.953 Y75.000 E2.65495
G1 X54.580 Y76.148 E2.69493
G1 X53.603 Y76.857 E2.73492
G1 X52.397 Y76.857 E2.77490
G1 X51.420 Y76.148 E2.81488
G1 X51.066 Y75.057 E2.85288
G1 X51.327 Y75.000 F7800.000
G1 F1800.000
G1 X51.646 Y74.016 E2.88715
G1 X52.483 Y73.408 E2.92141
G1 X53.517 Y73.408 E2.95567
G1 X54.354 Y74.016 E2.98994
G1 X54.673 Y75.000 E3.02420
G1 X54.354 Y75.984 E3.05847
G1 X53.517 Y76.592 E3.09274
G1 X52.483 Y76.592 E3.12700
G1 X51.646 Y75.984 E3.16126
G1 X51.345 Y75.057 E3.19354
G1 E1.19354 F2400.00000
G92 E0
G1 X90.768 Y65.000 F7800.000
G1 E2.00000 F2400.00000
G1 F1800.000
G1 X91.194 Y63.688 E2.04569
G1 X92.310 Y62.877 E2.09140
G1 X93.690 Y62.877 E2.13713
G1 X94.806 Y63.688 E2.18284
G1 X95.232 Y65.000 E2.22853
G1 X94.806 Y66.312 E2.27422
G1 X93.690 Y67.123 E2.31993
G1 X92.310 Y67.123 E2.36566
G1 X91.194 Y66.312 E2.41137
G1 X90.787 Y65.057 E2.45508
G1 X91.047 Y65.000 F7800.000
G1 F1800.000
G1 X91.420 Y63.852 E2.49505
G1 X92.396 Y63.143 E2.53504
G1 X93.604 Y63.143 E2.57505
G1 X94.580 Y63.852 E2.61504
G1 X94.953 Y65.000 E2.65502
G1 X94.580 Y66.148 E2.69499
G1 X93.604 Y66.857 E2.73498
G1 X92.396 Y66.857 E2.77499
G1 X91.420 Y66.148 E2.81498
G1 X91.066 Y65.057 E2.85297
G1 X91.327 Y65.000 F7800.000
G1 F1800.000
G1 X91.646 Y64.016 E2.88723
G1 X92.482 Y63.408 E2.92149
G1 X93.518 Y63.408 E2.95579
G1 X94.354 Y64.016 E2.99005
G1 X94.673 Y65.000 E3.02431
G1 X94.354 Y65.984 E3.05857
G1 X93.518 Y66.592 E3.09284
G1 X92.482 Y66.592 E3.12714
G1 X91.646 Y65.984 E3.16140
G1 X91.345 Y65.057 E3.19367
G1 E1.19367 F2400.00000
G92 E0
G1 X111.194 Y81.688 F7800.000
G1 E2.00000 F2400.00000
G1 F1800.000
G1 X112.310 Y80.877 E2.04571
G1 X113.690 Y80.877 E2.09144
G1 X114.806 Y81.688 E2.13715
G1 X115.232 Y83.000 E2.18284
G1 X114.806 Y84.312 E2.22853
G1 X113.690 Y85.123 E2.27424
G1 X112.310 Y85.123 E2.31997
G1 X111.194 Y84.312 E2.36568
G1 X110.768 Y83.000 E2.41137
G1 X111.175 Y81.745 E2.45508
G1 X111.420 Y81.852 F7800.000
G1 F1800.000
G1 X112.396 Y81.143 E2.49506
G1 X113.604 Y81.143 E2.53508
G1 X114.580 Y81.852 E2.57507
G1 X114.953 Y83.000 E2.61504
G1 X114.580 Y84.148 E2.65502
G1 X113.604 Y84.857 E2.69501
G1 X112.396 Y84.857 E2.73502
G1 X111.420 Y84.148 E2.77501
G1 X111.047 Y83.000 E2.81498
G1 X111.401 Y81.909 E2.85297
G1 X111.646 Y82.016 F7800.000
G1 F1800.000
G1 X112.482 Y81.408 E2.88724
G1 X113.518 Y81.408 E2.92153
G1 X114.354 Y82.016 E2.95580
G1 X114.673 Y83.000 E2.99006
G1 X114.354 Y83.984 E3.02432
G1 X113.518 Y84.592 E3.05858
G1 X112.482 Y84.592 E3.09288
G1 X111.646 Y83.984 E3.12715
G1 X111.327 Y83.000 E3.16141
G1 X111.627 Y82.073 E3.19368
G1 E1.19368 F2400.00000
G92 E0
G1 X131.194 Y66.312 F7800.000
G1 E2.00000 F2400.00000
G1 F1800.000
G1 X130.768 Y65.000 E2.04569
G1 X131.194 Y63.688 E2.09138
G1 X132.310 Y62.877 E2.13709
G1 X133.690 Y62.877 E2.18282
G1 X134.806 Y63.688 E2.22853
G1 X135.232 Y65.000 E2.27422
G1 X134.806 Y66.312 E2.31991
G1 X133.690 Y67.123 E2.36562
G1 X132.310 Y67.123 E2.41136
G1 X131.242 Y66.347 E2.45508
G1 X131.420 Y66.148 F7800.000
G1 F1800.000
G1 X131.047 Y65.000 E2.49505
G1 X131.420 Y63.852 E2.53503
G1 X132.396 Y63.143 E2.57501
G1 X133.604 Y63.143 E2.61503
G1 X134.580 Y63.852 E2.65502
G1 X134.953 Y65.000 E2.69499
G1 X134.580 Y66.148 E2.73496
G1 X133.604 Y66.857 E2.77495
G1 X132.396 Y66.857 E2.81497
G1 X131.468 Y66.183 E2.85297
G1 X131.646 Y65.984 F7800.000
G1 F1800.000
G1 X131.327 Y65.000 E2.88723
G1 X131.646 Y64.016 E2.92148
G1 X132.482 Y63.408 E2.95575
G1 X133.518 Y63.408 E2.99005
G1 X134.354 Y64.016 E3.02431
G1 X134.673 Y65.000 E3.05857
G1 X134.354 Y65.984 E3.09283
G1 X133.518 Y66.592 E3.12710
G1 X132.482 Y66.592 E3.16139
G1 X131.694 Y66.019 E3.19367
G1 E1.19367 F2400.00000
G92 E0
G1 X151.194 Y79.688 F7800.000
G1 E2.00000 F2400.00000
G1 F1800.000
G1 X152.310 Y78.877 E2.04571
G1 X153.690 Y78.877 E2.09144
G1 X154.806 Y79.688 E2.13715
G1 X155.232 Y81.000 E2.18284
G1 X154.806 Y82.312 E2.22853
G1 X153.690 Y83.123 E2.27424
G1 X152.310 Y83.123 E2.31997
G1 X151.194 Y82.312 E2.36568
G1 X150.768 Y81.000 E2.41137
G1 X151.175 Y79.745 E2.45508
G1 X151.420 Y79.852 F7800.000
G1 F1800.000
G1 X152.396 Y79.143 E2.49506
G1 X153.604 Y79.143 E2.53508
G1 X154.580 Y79.852 E2.57507
G1 X154.953 Y81.000 E2.61504
G1 X154.580 Y82.148 E2.65502
G1 X153.604 Y82.857 E2.69501
G1 X152.396 Y82.857 E2.73502
G1 X151.420 Y82.148 E2.77501
G1 X151.047 Y81.000 E2.81498
G1 X151.401 Y79.909 E2.85297
G1 X151.646 Y80.016 F7800.000
G1 F1800.000
G1 X152.482 Y79.408 E2.88724
G1 X153.518 Y79.408 E2.92153
G1 X154.354 Y80.016 E2.95580
G1 X154.673 Y81.000 E2.99006
G1 X154.354 Y81.984 E3.02432
G1 X153.518 Y82.592 E3.05858
G1 X152.482 Y82.592 E3.09288
G1 X151.646 Y81.984 E3.12715
G1 X151.327 Y81.000 E3.16141
G1 X151.627 Y80.073 E3.19368
G1 E1.19368 F2400.00000
G92 E0
G1 X171.194 Y66.312 F7800.000
G1 E2.00000 F2400.00000
G1 F1800.000
G1 X170.768 Y65.000 E2.04569
G1 X171.194 Y63.688 E2.09138
G1 X172.310 Y62.877 E2.13709
G1 X173.690 Y62.877 E2.18282
G1 X174.806 Y63.688 E2.22853
G1 X175.232 Y65.000 E2.27422
G1 X174.806 Y66.312 E2.31991
G1 X173.690 Y67.123 E2.36562
G1 X172.310 Y67.123 E2.41136
G1 X171.242 Y66.347 E2.45508
G1 X171.420 Y66.148 F7800.000
G1 F1800.000
G1 X171.047 Y65.000 E2.49505
G1 X171.420 Y63.852 E2.53503
G1 X172.396 Y63.143 E2.57501
G1 X173.604 Y63.143 E2.61503
G1 X174.580 Y63.852 E2.65502
G1 X174.953 Y65.000 E2.69499
G1 X174.580 Y66.148 E2.73496
G1 X173.604 Y66.857 E2.77495
G1 X172.396 Y66.857 E2.81497
G1 X171.468 Y66.183 E2.85297
G1 X171.646 Y65.984 F7800.000
G1 F1800.000
G1 X171.327 Y65.000 E2.88723
G1 X171.646 Y64.016 E2.92148
G1 X172.482 Y63.408 E2.95575
G1 X173.518 Y63.408 E2.99005
G1 X174.354 Y64.016 E3.02431
G1 X174.673 Y65.000 E3.05857
G1 X174.354 Y65.984 E3.09283
G1 X173.518 Y66.592 E3.12710
G1 X172.482 Y66.592 E3.16139
G1 X171.694 Y66.019 E3.19367
G1 E1.19367 F2400.00000
G92 E0
G1 X178.065 Y68.701 F7800.000
G1 E2.00000 F2400.00000
G1 F1800.000
G1 X153.241 Y88.561 E3.05322
G1 X149.937 Y90.961 E3.18852
G1 X-24.937 Y90.961 E8.98200
G1 X-28.071 Y88.684 E9.11033
G1 X-29.304 Y84.890 E9.24251
G1 X-29.304 Y65.110 E9.89780
G1 X-28.071 Y61.316 E10.02997
G1 X-24.937 Y59.039 E10.15831
G1 X174.937 Y59.039 E16.78003
G1 X178.071 Y61.316 E16.90837
G1 X179.268 Y65.000 E17.03671
G1 X178.084 Y68.644 E17.16364
G1 X178.293 Y68.859 F7800.000
G1 F1800.000
G1 X153.402 Y88.772 E18.21970
G1 X150.023 Y91.227 E18.35806
G1 X-25.023 Y91.227 E24.15726
G1 X-28.297 Y88.848 E24.29132
G1 X-29.569 Y84.932 E24.42775
G1 X-29.569 Y65.068 E25.08582
G1 X-28.297 Y61.152 E25.22225
G1 X-25.023 Y58.773 E25.35631
G1 X175.023 Y58.773 E31.98375
G1 X178.297 Y61.152 E32.11780
G1 X179.547 Y65.000 E32.25186
G1 X178.312 Y68.802 E32.38429
G1 X178.521 Y69.017 F7800.000
G1 F1800.000
G1 X153.563 Y88.983 E33.44319
G1 X150.109 Y91.492 E33.58461
G1 X-25.110 Y91.492 E39.38953
G1 X-28.523 Y89.013 E39.52930
G1 X-29.835 Y84.974 E39.66999
G1 X-29.835 Y65.026 E40.33085
G1 X-28.523 Y60.987 E40.47153
G1 X-25.110 Y58.508 E40.61131
G1 X175.109 Y58.508 E47.24446
G1 X178.523 Y60.987 E47.38424
G1 X179.827 Y65.000 E47.52401
G1 X178.540 Y68.959 E47.66194
G1 X177.733 Y68.647 F7800.000
G1 F1800.000
G1 X177.941 Y68.440 E47.67166
G1 X178.122 Y67.883 E47.69107
G1 X175.854 Y70.151 E47.79738
G1 X173.974 Y71.654 E47.87716
G1 X178.302 Y67.326 E48.08007
G1 X178.483 Y66.769 E48.09947
G1 X172.095 Y73.158 E48.39896
G1 X170.216 Y74.661 E48.47875
G1 X178.664 Y66.213 E48.87483
G1 X178.845 Y65.656 E48.89424
G1 X168.336 Y76.165 E49.38691
G1 X166.457 Y77.668 E49.46669
G1 X179.026 Y65.099 E50.05595
G1 X179.092 Y64.897 E50.06300
G1 X179.033 Y64.716 E50.06930
G1 X164.578 Y79.172 E50.74699
G1 X162.698 Y80.675 E50.82678
G1 X178.941 Y64.432 E51.58826
G1 X178.849 Y64.149 E51.59814
G1 X160.819 Y82.179 E52.44341
G1 X158.940 Y83.682 E52.52320
G1 X178.757 Y63.865 E53.45225
G1 X178.665 Y63.581 E53.46214
G1 X157.060 Y85.186 E54.47497
G1 X155.181 Y86.689 E54.55476
G1 X178.572 Y63.298 E55.65138
G1 X178.480 Y63.014 E55.66127
G1 X174.936 Y66.558 E55.82742
G1 X175.116 Y66.002 E55.84681
G1 X178.388 Y62.730 E56.00019
G1 X178.296 Y62.447 E56.01007
G1 X175.297 Y65.445 E56.15067
G1 X175.408 Y65.103 E56.16259
G1 X175.372 Y64.994 E56.16640
G1 X178.204 Y62.163 E56.29913
G1 X178.111 Y61.879 E56.30901
G1 X175.280 Y64.710 E56.44174
G1 X175.188 Y64.426 E56.45163
G1 X178.019 Y61.595 E56.58435
G1 X177.948 Y61.377 E56.59197
G1 X177.898 Y61.340 E56.59401
G1 X175.096 Y64.143 E56.72538
G1 X175.004 Y63.859 E56.73527
G1 X177.681 Y61.182 E56.86075
G1 X177.463 Y61.024 E56.86967
G1 X174.889 Y63.598 E56.99034
G1 X174.671 Y63.440 E56.99926
G1 X177.245 Y60.866 E57.11993
G1 X177.028 Y60.708 E57.12885
G1 X174.454 Y63.282 E57.24952
G1 X174.236 Y63.124 E57.25844
G1 X176.810 Y60.550 E57.37912
G1 X176.592 Y60.391 E57.38804
G1 X174.018 Y62.965 E57.50871
G1 X173.800 Y62.807 E57.51763
G1 X176.374 Y60.233 E57.63830
G1 X176.157 Y60.075 E57.64722
G1 X173.517 Y62.715 E57.77098
G1 X173.141 Y62.715 E57.78344
G1 X175.939 Y59.917 E57.91461
G1 X175.721 Y59.759 E57.92353
G1 X172.765 Y62.715 E58.06211
G1 X172.389 Y62.715 E58.07457
G1 X175.504 Y59.601 E58.22057
G1 X175.286 Y59.442 E58.22949
G1 X171.730 Y62.998 E58.39620
G1 X170.864 Y63.627 E58.43167
G1 X170.751 Y63.978 E58.44388
G1 X154.971 Y79.757 E59.18364
G1 X154.929 Y79.627 E59.18816
G1 X154.811 Y79.541 E59.19300
G1 X175.068 Y59.284 E60.14268
G1 X174.954 Y59.201 E60.14737
G1 X174.775 Y59.201 E60.15328
G1 X154.593 Y79.383 E61.09944
G1 X154.376 Y79.225 E61.10836
G1 X174.400 Y59.201 E62.04711
G1 X174.024 Y59.201 E62.05957
G1 X154.158 Y79.067 E62.99091
G1 X153.940 Y78.909 E62.99983
G1 X173.648 Y59.201 E63.92374
G1 X173.272 Y59.201 E63.93620
G1 X153.722 Y78.751 E64.85271
G1 X153.673 Y78.715 E64.85472
G1 X153.382 Y78.715 E64.86436
G1 X172.896 Y59.201 E65.77919
G1 X172.520 Y59.201 E65.79165
G1 X153.006 Y78.715 E66.70647
G1 X152.631 Y78.715 E66.71893
G1 X172.144 Y59.201 E67.63376
