; generated by Slic3r 1.3.1-dev (Build 2ef957d) on 2019-11-25 at 09:22:19

; external perimeters extrusion width = 0.55mm (4.37mm^3/s)
; perimeters extrusion width = 0.70mm (11.44mm^3/s)
; infill extrusion width = 0.62mm (13.45mm^3/s)
; solid infill extrusion width = 0.70mm (3.81mm^3/s)
; top infill extrusion width = 0.70mm (2.86mm^3/s)

M107
G92 E0
M104 S200 ; set temperature
G28 ; home all axes
G1 Z5 F5000 ; lift nozzle

; Filament gcode

M109 S200 ; set temperature and wait for it to be reached
G21 ; set units to millimeters
G90 ; use absolute coordinates
M82 ; use absolute distances for extrusion
G92 E0
G1 Z0.350 F7800.000
G1 E-2.00000 F2400.00000
G92 E0
G1 X-400.000 Y92.101 F7800.000
G1 E2.00000 F2400.00000
G1 F1800.000
G1 X600.000 Y92.101 E32.94131
G1 X602.259 Y92.498 E33.01228
G1 X604.247 Y93.641 E33.08324
G1 X605.726 Y95.394 E33.15420
G1 X606.519 Y97.546 E33.22516
G1 X606.625 Y98.725 E33.26182
G1 X606.625 Y101.275 E33.34069
G1 X606.228 Y103.533 E33.41165
G1 X605.085 Y105.522 E33.48261
G1 X603.332 Y107.001 E33.55358
G1 X601.180 Y107.794 E33.62454
G1 X600.000 Y107.899 E33.66119
G1 X-400.000 Y107.899 E64.60250
G1 X-402.259 Y107.502 E64.67347
G1 X-404.247 Y106.359 E64.74443
G1 X-405.726 Y104.606 E64.81539
G1 X-406.519 Y102.454 E64.88635
G1 X-406.625 Y101.275 E64.92300
G1 X-406.625 Y98.725 E65.00188
G1 X-406.228 Y96.467 E65.07284
G1 X-405.085 Y94.478 E65.14380
G1 X-403.332 Y92.999 E65.21477
G1 X-401.180 Y92.206 E65.28573
G1 X-400.075 Y92.107 E65.32006
G1 E63.32006 F2400.00000
G92 E0
G1 X-399.025 Y100.300 F7800.000
G1 E2.00000 F2400.00000
G1 F1800.000
G1 X-399.025 Y99.700 E2.01855
G1 X599.025 Y99.700 E32.89953
G1 X599.025 Y100.300 E32.91808
G1 X-398.950 Y100.300 E63.79674
G1 X-399.650 Y100.925 F7800.000
G1 F1800.000
G1 X-399.650 Y99.075 E63.85396
G1 X599.650 Y99.075 E94.77361
G1 X599.650 Y100.925 E94.83083
G1 X-399.575 Y100.925 E125.74816
G1 X-399.400 Y100.491 F7800.000
G1 Z0.650 F7800.000
G1 X-398.529 Y100.728 F7800.000
G1 F3600.000
G1 X-398.529 Y99.272 E125.78742
G1 X598.529 Y99.272 E152.68457
G1 X598.529 Y100.728 E152.72383
G1 X-398.454 Y100.728 E179.61896
G1 X-399.164 Y101.363 F7800.000
G1 F3600.000
G1 X-399.164 Y98.637 E179.69251
G1 X599.164 Y98.637 E206.62396
G1 X599.164 Y101.363 E206.69751
G1 X-399.089 Y101.363 E233.62693
G1 X-399.725 Y101.924 F7800.000

G1 F3600.000
G1 X-399.725 Y101.525 E233.63802

G1 F1800.000
G1 X-399.725 Y98.475 E233.70086

G1 F3600.000
G1 X-399.725 Y98.076 E233.71196
G1 X599.725 Y98.076 E261.47446
G1 X599.725 Y98.475 E261.48555

G1 F1800.000
G1 X599.725 Y101.525 E261.54839

G1 F3600.000
G1 X599.725 Y101.924 E261.55948
G1 X-399.650 Y101.924 E289.31990

G1 E287.31990 F2400.00000
G92 E0
G1 X-398.211 Y100.000 F7800.000
G1 E2.00000 F2400.00000
G1 F1200.000
G1 X598.211 Y100.000 E33.94027
G1 Z0.950 F7800.000
G1 X-398.529 Y101.270 F7800.000
G1 F3600.000
G1 X-398.529 Y98.730 E34.00880
G1 X598.529 Y98.730 E60.90595
G1 X598.529 Y101.270 E60.97447
G1 X-398.454 Y101.270 E87.86960
G1 X-399.164 Y101.906 F7800.000
G1 F3600.000
G1 X-399.164 Y98.094 E87.97241
G1 X599.164 Y98.094 E114.90386
G1 X599.164 Y101.906 E115.00668
G1 X-399.089 Y101.906 E141.93610
G1 X-399.725 Y102.449 F7800.000
G1 F1800.000
G1 X-399.725 Y97.551 E142.03704

G1 F3600.000
G1 X-399.725 Y97.534 E142.03752
G1 X599.725 Y97.534 E169.80002
G1 X599.725 Y97.551 E169.80051

G1 F1800.000
G1 X599.725 Y102.449 E169.90145

G1 F3600.000
G1 X599.725 Y102.466 E169.90194
G1 X-399.667 Y102.466 E197.66284

G1 E195.66284 F2400.00000
G92 E0
G1 X-398.139 Y99.613 F7800.000
G1 E2.00000 F2400.00000
G1 F1200.000
G1 X-397.645 Y99.118 E2.01886
G1 X-396.746 Y99.118 E2.04312
G1 X-398.140 Y100.513 E2.09634
G1 X-398.140 Y100.882 E2.10629
G1 X-397.610 Y100.882 E2.12060
G1 X-395.847 Y99.118 E2.18788
G1 X-394.948 Y99.118 E2.21214
G1 X-396.711 Y100.882 E2.27942
G1 X-395.812 Y100.882 E2.30368
G1 X-394.049 Y99.118 E2.37096
G1 X-393.149 Y99.118 E2.39522
G1 X-394.913 Y100.882 E2.46250
G1 X-394.014 Y100.882 E2.48676
G1 X-392.250 Y99.118 E2.55404
G1 X-391.351 Y99.118 E2.57830
G1 X-393.115 Y100.882 E2.64558
G1 X-392.216 Y100.882 E2.66984
G1 X-390.452 Y99.118 E2.73712
G1 X-389.553 Y99.118 E2.76138
G1 X-391.317 Y100.882 E2.82866
G1 X-390.418 Y100.882 E2.85292
G1 X-388.654 Y99.118 E2.92021
G1 X-387.755 Y99.118 E2.94446
G1 X-389.518 Y100.882 E3.01175
G1 X-388.619 Y100.882 E3.03600
G1 X-386.856 Y99.118 E3.10329
G1 X-385.957 Y99.118 E3.12754
G1 X-387.720 Y100.882 E3.19483
G1 X-386.821 Y100.882 E3.21908
G1 X-385.058 Y99.118 E3.28637
G1 X-384.159 Y99.118 E3.31063
G1 X-385.922 Y100.882 E3.37791
G1 X-385.023 Y100.882 E3.40217
G1 X-383.260 Y99.118 E3.46945
G1 X-382.361 Y99.118 E3.49371
G1 X-384.124 Y100.882 E3.56099
G1 X-383.225 Y100.882 E3.58525
G1 X-381.462 Y99.118 E3.65253
G1 X-380.563 Y99.118 E3.67679
G1 X-382.326 Y100.882 E3.74407
G1 X-381.427 Y100.882 E3.76833
G1 X-379.664 Y99.118 E3.83561
G1 X-378.765 Y99.118 E3.85987
G1 X-380.528 Y100.882 E3.92715
G1 X-379.629 Y100.882 E3.95141
G1 X-377.866 Y99.118 E4.01869
G1 X-376.966 Y99.118 E4.04295
G1 X-378.730 Y100.882 E4.11023
G1 X-377.831 Y100.882 E4.13449
G1 X-376.067 Y99.118 E4.20178
G1 X-375.168 Y99.118 E4.22603
G1 X-376.932 Y100.882 E4.29332
G1 X-376.033 Y100.882 E4.31757
G1 X-374.269 Y99.118 E4.38486
G1 X-373.370 Y99.118 E4.40911
G1 X-375.134 Y100.882 E4.47640
G1 X-374.234 Y100.882 E4.50066
G1 X-372.471 Y99.118 E4.56794
G1 X-371.572 Y99.118 E4.59220
G1 X-373.335 Y100.882 E4.65948
G1 X-372.436 Y100.882 E4.68374
G1 X-370.673 Y99.118 E4.75102
G1 X-369.774 Y99.118 E4.77528
G1 X-371.537 Y100.882 E4.84256
G1 X-370.638 Y100.882 E4.86682
G1 X-368.875 Y99.118 E4.93410
G1 X-367.976 Y99.118 E4.95836
G1 X-369.739 Y100.882 E5.02564
G1 X-368.840 Y100.882 E5.04990
G1 X-367.077 Y99.118 E5.11718
G1 X-366.178 Y99.118 E5.14144
G1 X-367.941 Y100.882 E5.20872
G1 X-367.042 Y100.882 E5.23298
G1 X-365.279 Y99.118 E5.30026
G1 X-364.380 Y99.118 E5.32452
G1 X-366.143 Y100.882 E5.39181
G1 X-365.244 Y100.882 E5.41606
G1 X-363.481 Y99.118 E5.48335
G1 X-362.582 Y99.118 E5.50760
G1 X-364.345 Y100.882 E5.57489
G1 X-363.446 Y100.882 E5.59914
G1 X-361.682 Y99.118 E5.66643
G1 X-360.783 Y99.118 E5.69069
G1 X-362.547 Y100.882 E5.75797
G1 X-361.648 Y100.882 E5.78223
G1 X-359.884 Y99.118 E5.84951
G1 X-358.985 Y99.118 E5.87377
G1 X-360.749 Y100.882 E5.94105
G1 X-359.850 Y100.882 E5.96531
G1 X-358.086 Y99.118 E6.03259
G1 X-357.187 Y99.118 E6.05685
G1 X-358.951 Y100.882 E6.12413
G1 X-358.051 Y100.882 E6.14839
G1 X-356.288 Y99.118 E6.21567
G1 X-355.389 Y99.118 E6.23993
G1 X-357.152 Y100.882 E6.30721
G1 X-356.253 Y100.882 E6.33147
G1 X-354.490 Y99.118 E6.39875
G1 X-353.591 Y99.118 E6.42301
G1 X-355.354 Y100.882 E6.49029
G1 X-354.455 Y100.882 E6.51455
G1 X-352.692 Y99.118 E6.58184
G1 X-351.793 Y99.118 E6.60609
G1 X-353.556 Y100.882 E6.67338
G1 X-352.657 Y100.882 E6.69763
G1 X-350.894 Y99.118 E6.76492
G1 X-349.995 Y99.118 E6.78917
G1 X-351.758 Y100.882 E6.85646
G1 X-350.859 Y100.882 E6.88072
G1 X-349.096 Y99.118 E6.94800
G1 X-348.197 Y99.118 E6.97226
G1 X-349.960 Y100.882 E7.03954
G1 X-349.061 Y100.882 E7.06380
G1 X-347.298 Y99.118 E7.13108
G1 X-346.399 Y99.118 E7.15534
G1 X-348.162 Y100.882 E7.22262
G1 X-347.263 Y100.882 E7.24688
G1 X-345.499 Y99.118 E7.31416
G1 X-344.600 Y99.118 E7.33842
G1 X-346.364 Y100.882 E7.40570
G1 X-345.465 Y100.882 E7.42996
G1 X-343.701 Y99.118 E7.49724
G1 X-342.802 Y99.118 E7.52150
G1 X-344.566 Y100.882 E7.58878
G1 X-343.667 Y100.882 E7.61304
G1 X-341.903 Y99.118 E7.68032
G1 X-341.004 Y99.118 E7.70458
G1 X-342.768 Y100.882 E7.77187
G1 X-341.868 Y100.882 E7.79612
G1 X-340.105 Y99.118 E7.86341
G1 X-339.206 Y99.118 E7.88766
G1 X-340.969 Y100.882 E7.95495
G1 X-340.070 Y100.882 E7.97920
G1 X-338.307 Y99.118 E8.04649
G1 X-337.408 Y99.118 E8.07075
G1 X-339.171 Y100.882 E8.13803
G1 X-338.272 Y100.882 E8.16229
G1 X-336.509 Y99.118 E8.22957
G1 X-335.610 Y99.118 E8.25383
G1 X-337.373 Y100.882 E8.32111
G1 X-336.474 Y100.882 E8.34537
G1 X-334.711 Y99.118 E8.41265
G1 X-333.812 Y99.118 E8.43691
G1 X-335.575 Y100.882 E8.50419
G1 X-334.676 Y100.882 E8.52845
G1 X-332.913 Y99.118 E8.59573
G1 X-332.014 Y99.118 E8.61999
G1 X-333.777 Y100.882 E8.68727
G1 X-332.878 Y100.882 E8.71153
G1 X-331.115 Y99.118 E8.77881
G1 X-330.216 Y99.118 E8.80307
G1 X-331.979 Y100.882 E8.87036
G1 X-331.080 Y100.882 E8.89461
G1 X-329.316 Y99.118 E8.96190
G1 X-328.417 Y99.118 E8.98615
G1 X-330.181 Y100.882 E9.05344
G1 X-329.282 Y100.882 E9.07769
G1 X-327.518 Y99.118 E9.14498
G1 X-326.619 Y99.118 E9.16923
G1 X-328.383 Y100.882 E9.23652
G1 X-327.484 Y100.882 E9.26078
G1 X-325.720 Y99.118 E9.32806
G1 X-324.821 Y99.118 E9.35232
G1 X-326.584 Y100.882 E9.41960
G1 X-325.685 Y100.882 E9.44386
G1 X-323.922 Y99.118 E9.51114
G1 X-323.023 Y99.118 E9.53540
G1 X-324.786 Y100.882 E9.60268
G1 X-323.887 Y100.882 E9.62694
G1 X-322.124 Y99.118 E9.69422
G1 X-321.225 Y99.118 E9.71848
G1 X-322.988 Y100.882 E9.78576
G1 X-322.089 Y100.882 E9.81002
G1 X-320.326 Y99.118 E9.87730
G1 X-319.427 Y99.118 E9.90156
G1 X-321.190 Y100.882 E9.96884
G1 X-320.291 Y100.882 E9.99310
G1 X-318.528 Y99.118 E10.06039
G1 X-317.629 Y99.118 E10.08464
G1 X-319.392 Y100.882 E10.15193
G1 X-318.493 Y100.882 E10.17618
G1 X-316.730 Y99.118 E10.24347
G1 X-315.831 Y99.118 E10.26772
G1 X-317.594 Y100.882 E10.33501
G1 X-316.695 Y100.882 E10.35927
G1 X-314.932 Y99.118 E10.42655
G1 X-314.032 Y99.118 E10.45081
G1 X-315.796 Y100.882 E10.51809
G1 X-314.897 Y100.882 E10.54235
G1 X-313.133 Y99.118 E10.60963
G1 X-312.234 Y99.118 E10.63389
G1 X-313.998 Y100.882 E10.70117
G1 X-313.099 Y100.882 E10.72543
G1 X-311.335 Y99.118 E10.79271
G1 X-310.436 Y99.118 E10.81697
G1 X-312.200 Y100.882 E10.88425
G1 X-311.301 Y100.882 E10.90851
G1 X-309.537 Y99.118 E10.97579
G1 X-308.638 Y99.118 E11.00005
G1 X-310.401 Y100.882 E11.06733
G1 X-309.502 Y100.882 E11.09159
G1 X-307.739 Y99.118 E11.15887
G1 X-306.840 Y99.118 E11.18313
G1 X-308.603 Y100.882 E11.25042
G1 X-307.704 Y100.882 E11.27467
G1 X-305.941 Y99.118 E11.34196
G1 X-305.042 Y99.118 E11.36621
G1 X-306.805 Y100.882 E11.43350
G1 X-305.906 Y100.882 E11.45775
G1 X-304.143 Y99.118 E11.52504
G1 X-303.244 Y99.118 E11.54930
G1 X-305.007 Y100.882 E11.61658
G1 X-304.108 Y100.882 E11.64084
G1 X-302.345 Y99.118 E11.70812
G1 X-301.446 Y99.118 E11.73238
G1 X-303.209 Y100.882 E11.79966
G1 X-302.310 Y100.882 E11.82392
G1 X-300.547 Y99.118 E11.89120
G1 X-299.648 Y99.118 E11.91546
G1 X-301.411 Y100.882 E11.98274
G1 X-300.512 Y100.882 E12.00700
G1 X-298.749 Y99.118 E12.07428
G1 X-297.849 Y99.118 E12.09854
G1 X-299.613 Y100.882 E12.16582
G1 X-298.714 Y100.882 E12.19008
G1 X-296.950 Y99.118 E12.25736
G1 X-296.051 Y99.118 E12.28162
G1 X-297.815 Y100.882 E12.34891
G1 X-296.916 Y100.882 E12.37316
G1 X-295.152 Y99.118 E12.44045
G1 X-294.253 Y99.118 E12.46470
G1 X-296.017 Y100.882 E12.53199
G1 X-295.118 Y100.882 E12.55624
G1 X-293.354 Y99.118 E12.62353
G1 X-292.455 Y99.118 E12.64779
G1 X-294.218 Y100.882 E12.71507
G1 X-293.319 Y100.882 E12.73933
G1 X-291.556 Y99.118 E12.80661
G1 X-290.657 Y99.118 E12.83087
G1 X-292.420 Y100.882 E12.89815
G1 X-291.521 Y100.882 E12.92241
G1 X-289.758 Y99.118 E12.98969
G1 X-288.859 Y99.118 E13.01395
G1 X-290.622 Y100.882 E13.08123
G1 X-289.723 Y100.882 E13.10549
G1 X-287.960 Y99.118 E13.17277
G1 X-287.061 Y99.118 E13.19703
G1 X-288.824 Y100.882 E13.26431
G1 X-287.925 Y100.882 E13.28857
G1 X-286.162 Y99.118 E13.35586
G1 X-285.263 Y99.118 E13.38011
G1 X-287.026 Y100.882 E13.44740
G1 X-286.127 Y100.882 E13.47165
G1 X-284.364 Y99.118 E13.53894
G1 X-283.465 Y99.118 E13.56319
G1 X-285.228 Y100.882 E13.63048
G1 X-284.329 Y100.882 E13.65474
G1 X-282.566 Y99.118 E13.72202
G1 X-281.666 Y99.118 E13.74628
G1 X-283.430 Y100.882 E13.81356
G1 X-282.531 Y100.882 E13.83782
G1 X-280.767 Y99.118 E13.90510
G1 X-279.868 Y99.118 E13.92936
G1 X-281.632 Y100.882 E13.99664
G1 X-280.733 Y100.882 E14.02090
G1 X-278.969 Y99.118 E14.08818
G1 X-278.070 Y99.118 E14.11244
G1 X-279.834 Y100.882 E14.17972
G1 X-278.934 Y100.882 E14.20398
G1 X-277.171 Y99.118 E14.27126
G1 X-276.272 Y99.118 E14.29552
G1 X-278.035 Y100.882 E14.36280
G1 X-277.136 Y100.882 E14.38706
G1 X-275.373 Y99.118 E14.45435
G1 X-274.474 Y99.118 E14.47860
G1 X-276.237 Y100.882 E14.54589
G1 X-275.338 Y100.882 E14.57014
G1 X-273.575 Y99.118 E14.63743
G1 X-272.676 Y99.118 E14.66168
G1 X-274.439 Y100.882 E14.72897
G1 X-273.540 Y100.882 E14.75323
G1 X-271.777 Y99.118 E14.82051
G1 X-270.878 Y99.118 E14.84477
G1 X-272.641 Y100.882 E14.91205
G1 X-271.742 Y100.882 E14.93631
G1 X-269.979 Y99.118 E15.00359
G1 X-269.080 Y99.118 E15.02785
G1 X-270.843 Y100.882 E15.09513
G1 X-269.944 Y100.882 E15.11939
G1 X-268.181 Y99.118 E15.18667
G1 X-267.282 Y99.118 E15.21093
G1 X-269.045 Y100.882 E15.27821
G1 X-268.146 Y100.882 E15.30247
G1 X-266.382 Y99.118 E15.36975
G1 X-265.483 Y99.118 E15.39401
G1 X-267.247 Y100.882 E15.46130
G1 X-266.348 Y100.882 E15.48555
G1 X-264.584 Y99.118 E15.55284
G1 X-263.685 Y99.118 E15.57709
G1 X-265.449 Y100.882 E15.64438
G1 X-264.550 Y100.882 E15.66863
G1 X-262.786 Y99.118 E15.73592
G1 X-261.887 Y99.118 E15.76018
G1 X-263.651 Y100.882 E15.82746
G1 X-262.751 Y100.882 E15.85172
G1 X-260.988 Y99.118 E15.91900
G1 X-260.089 Y99.118 E15.94326
G1 X-261.852 Y100.882 E16.01054
G1 X-260.953 Y100.882 E16.03480
G1 X-259.190 Y99.118 E16.10208
G1 X-258.291 Y99.118 E16.12634
G1 X-260.054 Y100.882 E16.19362
G1 X-259.155 Y100.882 E16.21788
G1 X-257.392 Y99.118 E16.28516
G1 X-256.493 Y99.118 E16.30942
G1 X-258.256 Y100.882 E16.37670
G1 X-257.357 Y100.882 E16.40096
G1 X-255.594 Y99.118 E16.46824
G1 X-254.695 Y99.118 E16.49250
G1 X-256.458 Y100.882 E16.55979
G1 X-255.559 Y100.882 E16.58404
G1 X-253.796 Y99.118 E16.65133
G1 X-252.897 Y99.118 E16.67558
G1 X-254.660 Y100.882 E16.74287
G1 X-253.761 Y100.882 E16.76712
G1 X-251.998 Y99.118 E16.83441
G1 X-251.099 Y99.118 E16.85867
G1 X-252.862 Y100.882 E16.92595
G1 X-251.963 Y100.882 E16.95021
G1 X-250.199 Y99.118 E17.01749
G1 X-249.300 Y99.118 E17.04175
G1 X-251.064 Y100.882 E17.10903
G1 X-250.165 Y100.882 E17.13329
G1 X-248.401 Y99.118 E17.20057
G1 X-247.502 Y99.118 E17.22483
G1 X-249.266 Y100.882 E17.29211
G1 X-248.367 Y100.882 E17.31637
G1 X-246.603 Y99.118 E17.38365
G1 X-245.704 Y99.118 E17.40791
G1 X-247.468 Y100.882 E17.47519
G1 X-246.568 Y100.882 E17.49945
G1 X-244.805 Y99.118 E17.56673
G1 X-243.906 Y99.118 E17.59099
G1 X-245.669 Y100.882 E17.65828
G1 X-244.770 Y100.882 E17.68253
G1 X-243.007 Y99.118 E17.74982
G1 X-242.108 Y99.118 E17.77407
G1 X-243.871 Y100.882 E17.84136
G1 X-242.972 Y100.882 E17.86562
G1 X-241.209 Y99.118 E17.93290
G1 X-240.310 Y99.118 E17.95716
G1 X-242.073 Y100.882 E18.02444
G1 X-241.174 Y100.882 E18.04870
G1 X-239.411 Y99.118 E18.11598
G1 X-238.512 Y99.118 E18.14024
G1 X-240.275 Y100.882 E18.20752
G1 X-239.376 Y100.882 E18.23178
G1 X-237.613 Y99.118 E18.29906
G1 X-236.714 Y99.118 E18.32332
G1 X-238.477 Y100.882 E18.39060
G1 X-237.578 Y100.882 E18.41486
G1 X-235.815 Y99.118 E18.48214
G1 X-234.915 Y99.118 E18.50640
G1 X-236.679 Y100.882 E18.57368
G1 X-235.780 Y100.882 E18.59794
G1 X-234.016 Y99.118 E18.66523
G1 X-233.117 Y99.118 E18.68948
G1 X-234.881 Y100.882 E18.75677
G1 X-233.982 Y100.882 E18.78102
G1 X-232.218 Y99.118 E18.84831
G1 X-231.319 Y99.118 E18.87256
G1 X-233.083 Y100.882 E18.93985
G1 X-232.184 Y100.882 E18.96411
G1 X-230.420 Y99.118 E19.03139
G1 X-229.521 Y99.118 E19.05565
G1 X-231.284 Y100.882 E19.12293
G1 X-230.385 Y100.882 E19.14719
G1 X-228.622 Y99.118 E19.21447
G1 X-227.723 Y99.118 E19.23873
G1 X-229.486 Y100.882 E19.30601
G1 X-228.587 Y100.882 E19.33027
G1 X-226.824 Y99.118 E19.39755
G1 X-225.925 Y99.118 E19.42181
G1 X-227.688 Y100.882 E19.48909
G1 X-226.789 Y100.882 E19.51335
G1 X-225.026 Y99.118 E19.58063
G1 X-224.127 Y99.118 E19.60489
G1 X-225.890 Y100.882 E19.67217
G1 X-224.991 Y100.882 E19.69643
G1 X-223.228 Y99.118 E19.76372
G1 X-222.329 Y99.118 E19.78797
G1 X-224.092 Y100.882 E19.85526
G1 X-223.193 Y100.882 E19.87951
G1 X-221.430 Y99.118 E19.94680
G1 X-220.531 Y99.118 E19.97106
G1 X-222.294 Y100.882 E20.03834
G1 X-221.395 Y100.882 E20.06260
G1 X-219.632 Y99.118 E20.12988
G1 X-218.732 Y99.118 E20.15414
G1 X-220.496 Y100.882 E20.22142
G1 X-219.597 Y100.882 E20.24568
