; generated by Slic3r 1.3.1-dev (Build 2ef957d) on 2019-11-25 at 09:20:24

; external perimeters extrusion width = 0.55mm (4.37mm^3/s)
; perimeters extrusion width = 0.70mm (11.44mm^3/s)
; infill extrusion width = 0.62mm (13.45mm^3/s)
; solid infill extrusion width = 0.70mm (3.81mm^3/s)
; top infill extrusion width = 0.70mm (2.86mm^3/s)

M107
G92 E0
M104 S200 ; set temperature
G28 ; home all axes
G1 Z5 F5000 ; lift nozzle

; Filament gcode

M109 S200 ; set temperature and wait for it to be reached
G21 ; set units to millimeters
G90 ; use absolute coordinates
M82 ; use absolute distances for extrusion
G92 E0
G1 Z0.350 F7800.000
G1 E-2.00000 F2400.00000
G92 E0
G1 X89.915 Y70.753 F7800.000
G1 E2.00000 F2400.00000
G1 F1800.000
G1 X91.668 Y69.274 E2.07096
G1 X93.820 Y68.481 E2.14192
G1 X95.000 Y68.375 E2.17858
G1 X105.000 Y68.375 E2.48799
G1 X107.259 Y68.772 E2.55895
G1 X109.247 Y69.915 E2.62991
G1 X110.726 Y71.668 E2.70088
G1 X111.519 Y73.820 E2.77184
G1 X111.625 Y75.000 E2.80849
G1 X111.625 Y125.000 E4.35555
G1 X111.228 Y127.259 E4.42652
G1 X110.085 Y129.247 E4.49748
G1 X108.332 Y130.726 E4.56844
G1 X106.180 Y131.519 E4.63940
G1 X105.000 Y131.625 E4.67606
G1 X95.000 Y131.625 E4.98547
G1 X92.741 Y131.228 E5.05643
G1 X90.753 Y130.085 E5.12739
G1 X89.274 Y128.332 E5.19836
G1 X88.481 Y126.180 E5.26932
G1 X88.375 Y125.000 E5.30597
G1 X88.375 Y75.000 E6.85303
G1 X88.772 Y72.741 E6.92400
G1 X89.878 Y70.818 E6.99264
G1 E4.99264 F2400.00000
G92 E0
G1 X101.856 Y120.103 F7800.000
G1 E2.00000 F2400.00000
G1 F1800.000
G1 X101.736 Y120.392 E2.00969
G1 X101.485 Y120.768 E2.02367
G1 X101.153 Y121.075 E2.03766
G1 X100.886 Y121.238 E2.04735
G1 X100.597 Y121.358 E2.05703
G1 X100.160 Y121.445 E2.07081
G1 X99.840 Y121.445 E2.08071
G1 X99.403 Y121.358 E2.09448
G1 X99.108 Y121.236 E2.10438
G1 X98.732 Y120.985 E2.11837
G1 X98.425 Y120.653 E2.13235
G1 X98.258 Y120.380 E2.14225
G1 X98.104 Y119.962 E2.15602
G1 X98.054 Y119.646 E2.16593
G1 X98.071 Y119.202 E2.17970
G1 X98.144 Y118.897 E2.18938
G1 X98.264 Y118.608 E2.19907
G1 X98.511 Y118.238 E2.21284
G1 X98.738 Y118.011 E2.22274
G1 X99.108 Y117.764 E2.23652
G1 X99.403 Y117.642 E2.24642
G1 X99.840 Y117.555 E2.26019
G1 X100.160 Y117.555 E2.27009
G1 X100.597 Y117.642 E2.28386
G1 X100.892 Y117.764 E2.29376
G1 X101.268 Y118.015 E2.30775
G1 X101.575 Y118.347 E2.32173
G1 X101.742 Y118.620 E2.33164
G1 X101.896 Y119.038 E2.34541
G1 X101.946 Y119.354 E2.35531
G1 X101.929 Y119.798 E2.36908
G1 X101.873 Y120.030 E2.37644
G1 X101.856 Y120.103 F7800.000
G1 X103.098 Y120.368 F7800.000
G1 F1800.000
G1 X103.400 Y120.428 E2.38597
G1 X103.400 Y123.400 E2.47792
G1 X96.600 Y123.400 E2.68834
G1 X96.600 Y120.389 E2.78151
G1 X96.909 Y120.334 E2.79123
G1 X97.128 Y120.928 E2.81082
G1 X97.424 Y121.411 E2.82835
G1 X97.915 Y121.942 E2.85072
G1 X98.516 Y122.343 E2.87308
G1 X99.039 Y122.560 E2.89060
G1 X99.717 Y122.695 E2.91199
G1 X100.283 Y122.695 E2.92952
G1 X100.961 Y122.560 E2.95091
G1 X101.455 Y122.355 E2.96744
G1 X101.911 Y122.076 E2.98398
G1 X102.442 Y121.585 E3.00635
G1 X102.843 Y120.984 E3.02872
G1 X103.070 Y120.437 E3.04703
G1 E1.04703 F2400.00000
G92 E0
G1 X98.009 Y116.973 F7800.000
G1 E2.00000 F2400.00000
G1 F1800.000
G1 X97.541 Y117.441 E2.02048
G1 X97.157 Y118.016 E2.04186
G1 X96.902 Y118.632 E2.06249
G1 X96.600 Y118.572 E2.07201
G1 X96.600 Y116.073 E2.14932
G1 X97.437 Y116.682 E2.18135
G1 X97.942 Y116.939 E2.19887
G1 E0.19887 F2400.00000
G92 E0
G1 X102.025 Y116.993 F7800.000
G1 E2.00000 F2400.00000
G1 F1800.000
G1 X102.883 Y116.468 E2.03112
G1 X103.400 Y116.026 E2.05217
G1 X103.400 Y118.611 E2.13215
G1 X103.091 Y118.666 E2.14186
G1 X102.872 Y118.072 E2.16146
G1 X102.576 Y117.589 E2.17898
G1 X102.076 Y117.049 E2.20176
G1 X100.685 Y116.722 F7800.000
G1 F1800.000
G1 X101.322 Y116.569 E2.22204
G1 X101.942 Y116.312 E2.24281
G1 X102.514 Y115.961 E2.26358
G1 X103.010 Y115.537 E2.28376
G1 X103.251 Y115.277 E2.29474
G1 X103.471 Y114.998 E2.30572
G1 X103.752 Y114.540 E2.32236
G1 X104.025 Y114.617 E2.33114
G1 X104.025 Y124.025 E2.62225
G1 X95.975 Y124.025 E2.87134
G1 X95.975 Y114.617 E3.16245
G1 X96.248 Y114.540 E3.17123
G1 X96.529 Y114.998 E3.18787
G1 X96.761 Y115.292 E3.19945
G1 X97.222 Y115.753 E3.21962
G1 X97.765 Y116.147 E3.24039
G1 X98.346 Y116.444 E3.26057
G1 X98.697 Y116.573 E3.27214
G1 X99.315 Y116.722 E3.29182
G1 X99.337 Y116.993 E3.30025
G1 X98.812 Y117.210 E3.31782
G1 X98.339 Y117.526 E3.33540
G1 X98.026 Y117.840 E3.34912
G1 X97.710 Y118.312 E3.36669
G1 X97.548 Y118.703 E3.37981
G1 X97.449 Y119.115 E3.39292
G1 X97.427 Y119.683 E3.41050
G1 X97.496 Y120.121 E3.42421
G1 X97.693 Y120.654 E3.44179
G1 X97.925 Y121.032 E3.45550
G1 X98.323 Y121.463 E3.47368
G1 X98.812 Y121.790 E3.49185
G1 X99.221 Y121.959 E3.50557
G1 X99.778 Y122.070 E3.52315
G1 X100.222 Y122.070 E3.53686
G1 X100.779 Y121.959 E3.55444
G1 X101.170 Y121.797 E3.56755
G1 X101.532 Y121.575 E3.58066
G1 X101.963 Y121.177 E3.59884
G1 X102.290 Y120.688 E3.61702
G1 X102.452 Y120.297 E3.63014
G1 X102.551 Y119.885 E3.64325
G1 X102.573 Y119.317 E3.66083
G1 X102.504 Y118.879 E3.67454
G1 X102.307 Y118.346 E3.69212
G1 X102.076 Y117.968 E3.70583
G1 X101.677 Y117.537 E3.72401
G1 X101.188 Y117.210 E3.74219
G1 X100.663 Y116.993 E3.75976
G1 X100.679 Y116.796 E3.76587
G1 X100.578 Y116.105 F7800.000
G1 F1800.000
G1 X99.993 Y116.151 E3.78401
G1 X99.429 Y116.106 E3.80153
G1 X98.878 Y115.974 E3.81904
G1 X98.597 Y115.870 E3.82834
G1 X98.092 Y115.613 E3.84585
G1 X97.629 Y115.276 E3.86358
G1 X97.229 Y114.876 E3.88109
G1 X97.043 Y114.640 E3.89038
G1 X96.747 Y114.158 E3.90790
G1 X96.530 Y113.635 E3.92541
G1 X96.449 Y113.346 E3.93470
G1 X96.360 Y112.786 E3.95222
G1 X96.360 Y112.220 E3.96973
G1 X96.395 Y111.925 E3.97894
G1 X96.506 Y111.431 E3.99459
G1 X96.746 Y110.843 E4.01426
G1 X97.043 Y110.360 E4.03179
G1 X97.424 Y109.914 E4.04994
G1 X97.854 Y109.546 E4.06746
G1 X98.342 Y109.247 E4.08518
G1 X98.865 Y109.030 E4.10270
G1 X99.154 Y108.949 E4.11199
G1 X99.714 Y108.860 E4.12951
G1 X100.286 Y108.860 E4.14723
G1 X100.846 Y108.949 E4.16475
G1 X101.135 Y109.030 E4.17404
G1 X101.651 Y109.244 E4.19134
G1 X101.913 Y109.391 E4.20063
G1 X102.371 Y109.724 E4.21815
G1 X102.771 Y110.124 E4.23566
G1 X102.957 Y110.360 E4.24496
G1 X103.253 Y110.842 E4.26247
G1 X103.470 Y111.365 E4.27998
G1 X103.551 Y111.654 E4.28928
G1 X103.640 Y112.214 E4.30679
G1 X103.640 Y112.780 E4.32430
G1 X103.605 Y113.075 E4.33351
G1 X103.494 Y113.569 E4.34916
G1 X103.254 Y114.157 E4.36883
G1 X102.957 Y114.640 E4.38637
G1 X102.576 Y115.086 E4.40452
G1 X102.146 Y115.454 E4.42203
G1 X101.658 Y115.753 E4.43975
G1 X101.128 Y115.972 E4.45748
G1 X100.651 Y116.087 E4.47268
G1 X100.578 Y116.105 F7800.000
G1 E2.47268 F2400.00000
G92 E0
G1 X103.400 Y108.927 F7800.000
G1 E2.00000 F2400.00000
G1 F1800.000
G1 X102.588 Y108.337 E2.03105
G1 X102.198 Y108.118 E2.04491
G1 X101.545 Y107.847 E2.06677
G1 X101.114 Y107.726 E2.08063
G1 X100.385 Y107.610 E2.10346
G1 X99.615 Y107.610 E2.12728
G1 X98.886 Y107.726 E2.15011
G1 X98.455 Y107.847 E2.16397
G1 X97.773 Y108.130 E2.18681
G1 X97.117 Y108.532 E2.21062
G1 X96.600 Y108.974 E2.23167
G1 X96.600 Y91.073 E2.78553
G1 X97.412 Y91.663 E2.81658
G1 X97.802 Y91.882 E2.83044
G1 X98.455 Y92.153 E2.85230
G1 X98.886 Y92.274 E2.86615
G1 X99.615 Y92.390 E2.88899
G1 X100.385 Y92.390 E2.91280
G1 X101.114 Y92.274 E2.93564
G1 X101.545 Y92.153 E2.94950
G1 X102.227 Y91.870 E2.97233
G1 X102.883 Y91.468 E2.99615
G1 X103.400 Y91.026 E3.01720
G1 X103.400 Y108.852 E3.56873
G1 X104.025 Y110.383 F7800.000
G1 F1800.000
G1 X103.752 Y110.460 E3.57752
G1 X103.471 Y110.002 E3.59416
G1 X103.239 Y109.708 E3.60573
G1 X102.778 Y109.247 E3.62591
G1 X102.251 Y108.864 E3.64608
G1 X101.924 Y108.681 E3.65766
G1 X101.340 Y108.439 E3.67724
G1 X100.980 Y108.337 E3.68881
G1 X100.336 Y108.235 E3.70899
G1 X99.664 Y108.235 E3.72976
G1 X99.020 Y108.337 E3.74993
G1 X98.660 Y108.439 E3.76151
G1 X98.058 Y108.688 E3.78168
G1 X97.486 Y109.039 E3.80245
G1 X96.990 Y109.463 E3.82263
G1 X96.749 Y109.723 E3.83361
G1 X96.529 Y110.002 E3.84459
G1 X96.248 Y110.460 E3.86123
G1 X95.975 Y110.383 E3.87001
G1 X95.975 Y89.617 E4.51257
G1 X96.248 Y89.540 E4.52135
G1 X96.529 Y89.998 E4.53799
G1 X96.761 Y90.292 E4.54956
G1 X97.222 Y90.753 E4.56974
G1 X97.749 Y91.136 E4.58991
G1 X98.076 Y91.319 E4.60149
G1 X98.660 Y91.561 E4.62107
G1 X99.020 Y91.663 E4.63264
G1 X99.664 Y91.765 E4.65282
G1 X100.336 Y91.765 E4.67359
G1 X100.980 Y91.663 E4.69376
G1 X101.340 Y91.561 E4.70534
G1 X101.942 Y91.312 E4.72551
G1 X102.514 Y90.961 E4.74628
G1 X103.010 Y90.537 E4.76646
G1 X103.251 Y90.277 E4.77744
G1 X103.471 Y89.998 E4.78842
G1 X103.752 Y89.540 E4.80506
G1 X104.025 Y89.617 E4.81384
G1 X104.025 Y110.308 E5.45408
G1 E3.45408 F2400.00000
G92 E0
G1 X96.600 Y83.974 F7800.000
G1 E2.00000 F2400.00000
G1 F1800.000
G1 X96.600 Y81.389 E2.07998
G1 X96.909 Y81.334 E2.08969
G1 X97.128 Y81.928 E2.10929
G1 X97.424 Y82.411 E2.12681
G1 X97.975 Y83.007 E2.15192
G1 X97.117 Y83.532 E2.18303
G1 X96.657 Y83.925 E2.20176
G1 E0.20176 F2400.00000
G92 E0
G1 X101.991 Y83.027 F7800.000
G1 E2.00000 F2400.00000
G1 F1800.000
G1 X102.459 Y82.559 E2.02048
G1 X102.843 Y81.984 E2.04186
G1 X103.098 Y81.368 E2.06249
G1 X103.400 Y81.428 E2.07201
G1 X103.400 Y83.927 E2.14932
G1 X102.563 Y83.318 E2.18135
G1 X102.058 Y83.061 E2.19887
G1 E0.19887 F2400.00000
G92 E0
G1 X103.091 Y79.666 F7800.000
G1 E2.00000 F2400.00000
G1 F1800.000
G1 X102.872 Y79.072 E2.01960
G1 X102.576 Y78.589 E2.03712
G1 X102.107 Y78.082 E2.05851
G1 X101.649 Y77.749 E2.07602
G1 X100.992 Y77.446 E2.09839
G1 X100.283 Y77.305 E2.12077
G1 X99.717 Y77.305 E2.13829
G1 X99.039 Y77.440 E2.15968
G1 X98.545 Y77.645 E2.17622
G1 X98.089 Y77.924 E2.19276
G1 X97.558 Y78.415 E2.21512
G1 X97.157 Y79.016 E2.23750
G1 X96.902 Y79.632 E2.25813
G1 X96.600 Y79.572 E2.26765
G1 X96.600 Y76.600 E2.35960
G1 X103.400 Y76.600 E2.57002
G1 X103.400 Y79.611 E2.66319
G1 X103.165 Y79.653 E2.67059
G1 E0.67059 F2400.00000
G92 E0
G1 X104.025 Y75.975 F7800.000
G1 E2.00000 F2400.00000
G1 F1800.000
G1 X104.025 Y85.383 E2.29111
G1 X103.752 Y85.460 E2.29989
G1 X103.471 Y85.002 E2.31653
G1 X103.239 Y84.708 E2.32811
G1 X102.778 Y84.247 E2.34828
G1 X102.235 Y83.853 E2.36905
G1 X101.654 Y83.556 E2.38923
G1 X101.303 Y83.427 E2.40080
G1 X100.685 Y83.278 E2.42048
G1 X100.663 Y83.007 E2.42891
G1 X101.188 Y82.790 E2.44649
G1 X101.661 Y82.474 E2.46407
G1 X101.974 Y82.160 E2.47778
G1 X102.290 Y81.688 E2.49536
G1 X102.452 Y81.297 E2.50847
G1 X102.551 Y80.885 E2.52158
G1 X102.573 Y80.317 E2.53916
G1 X102.504 Y79.879 E2.55287
G1 X102.307 Y79.346 E2.57045
G1 X102.075 Y78.968 E2.58416
G1 X101.690 Y78.551 E2.60174
G1 X101.331 Y78.291 E2.61545
G1 X100.798 Y78.045 E2.63363
G1 X100.222 Y77.930 E2.65181
G1 X99.778 Y77.930 E2.66552
G1 X99.221 Y78.041 E2.68310
G1 X98.830 Y78.203 E2.69621
G1 X98.468 Y78.425 E2.70933
G1 X98.037 Y78.823 E2.72750
G1 X97.710 Y79.312 E2.74568
G1 X97.548 Y79.703 E2.75880
G1 X97.449 Y80.115 E2.77191
G1 X97.427 Y80.683 E2.78949
G1 X97.496 Y81.121 E2.80320
G1 X97.693 Y81.654 E2.82078
G1 X97.924 Y82.032 E2.83449
G1 X98.323 Y82.463 E2.85267
G1 X98.812 Y82.790 E2.87085
G1 X99.337 Y83.007 E2.88842
G1 X99.315 Y83.278 E2.89685
G1 X98.678 Y83.431 E2.91713
G1 X98.058 Y83.688 E2.93789
G1 X97.486 Y84.039 E2.95866
G1 X96.990 Y84.463 E2.97884
G1 X96.749 Y84.723 E2.98982
G1 X96.529 Y85.002 E3.00080
G1 X96.248 Y85.460 E3.01744
G1 X95.975 Y85.383 E3.02622
G1 X95.975 Y75.975 E3.31734
G1 X103.950 Y75.975 E3.56410
G1 E1.56410 F2400.00000
G92 E0
G1 X101.122 Y84.026 F7800.000
G1 E2.00000 F2400.00000
G1 F1800.000
G1 X101.403 Y84.130 E2.00929
G1 X101.908 Y84.387 E2.02681
G1 X102.371 Y84.724 E2.04453
G1 X102.771 Y85.124 E2.06205
G1 X102.957 Y85.360 E2.07134
G1 X103.253 Y85.842 E2.08885
G1 X103.470 Y86.365 E2.10637
G1 X103.551 Y86.654 E2.11566
G1 X103.640 Y87.214 E2.13318
G1 X103.640 Y87.780 E2.15069
G1 X103.605 Y88.075 E2.15990
G1 X103.494 Y88.569 E2.17554
G1 X103.254 Y89.157 E2.19522
G1 X102.957 Y89.640 E2.21275
G1 X102.776 Y89.871 E2.22183
G1 X102.576 Y90.086 E2.23092
G1 X102.146 Y90.454 E2.24843
G1 X101.658 Y90.753 E2.26616
G1 X101.135 Y90.970 E2.28367
G1 X100.846 Y91.051 E2.29296
G1 X100.286 Y91.140 E2.31048
G1 X99.714 Y91.140 E2.32820
G1 X99.154 Y91.051 E2.34572
G1 X98.865 Y90.970 E2.35501
G1 X98.349 Y90.756 E2.37231
G1 X98.087 Y90.609 E2.38161
G1 X97.629 Y90.276 E2.39912
G1 X97.229 Y89.876 E2.41663
G1 X97.043 Y89.640 E2.42593
G1 X96.747 Y89.158 E2.44344
G1 X96.530 Y88.635 E2.46095
G1 X96.449 Y88.346 E2.47025
G1 X96.360 Y87.786 E2.48776
G1 X96.360 Y87.220 E2.50527
G1 X96.395 Y86.925 E2.51448
G1 X96.506 Y86.431 E2.53013
G1 X96.746 Y85.843 E2.54980
G1 X97.043 Y85.360 E2.56734
G1 X97.224 Y85.129 E2.57642
G1 X97.424 Y84.914 E2.58550
G1 X97.854 Y84.546 E2.60302
G1 X98.342 Y84.247 E2.62074
G1 X98.872 Y84.028 E2.63847
G1 X99.422 Y83.895 E2.65598
G1 X99.714 Y83.861 E2.66506
G1 X100.007 Y83.849 E2.67414
G1 X100.571 Y83.894 E2.69166
G1 X101.049 Y84.008 E2.70685
G1 X101.122 Y84.026 F7800.000
G1 X100.597 Y82.358 F7800.000
G1 F1800.000
G1 X100.160 Y82.445 E2.72062
G1 X99.840 Y82.445 E2.73052
G1 X99.403 Y82.358 E2.74430
G1 X99.108 Y82.236 E2.75420
G1 X98.732 Y81.985 E2.76818
G1 X98.425 Y81.653 E2.78217
G1 X98.258 Y81.380 E2.79207
G1 X98.104 Y80.962 E2.80584
G1 X98.054 Y80.646 E2.81574
G1 X98.071 Y80.202 E2.82951
G1 X98.144 Y79.897 E2.83920
G1 X98.264 Y79.608 E2.84889
G1 X98.515 Y79.232 E2.86287
G1 X98.847 Y78.925 E2.87686
G1 X99.114 Y78.762 E2.88655
G1 X99.403 Y78.642 E2.89623
G1 X99.840 Y78.555 E2.91001
G1 X100.160 Y78.555 E2.91991
G1 X100.603 Y78.643 E2.93389
G1 X101.014 Y78.832 E2.94788
G1 X101.273 Y79.020 E2.95778
G1 X101.575 Y79.347 E2.97155
G1 X101.742 Y79.620 E2.98145
G1 X101.896 Y80.038 E2.99523
G1 X101.946 Y80.354 E3.00513
G1 X101.929 Y80.798 E3.01890
G1 X101.856 Y81.103 E3.02858
G1 X101.736 Y81.392 E3.03827
G1 X101.489 Y81.762 E3.05204
G1 X101.262 Y81.989 E3.06195
G1 X100.892 Y82.236 E3.07572
G1 X100.666 Y82.330 E3.08330
G1 X100.597 Y82.358 F7800.000
G1 E1.08330 F2400.00000
G92 E0
G1 X104.650 Y75.350 F7800.000
G1 E2.00000 F2400.00000
G1 F1800.000
G1 X104.650 Y124.650 E3.52541
G1 X95.350 Y124.650 E3.81316
G1 X95.350 Y75.350 E5.33857
G1 X104.575 Y75.350 E5.62400
G1 X104.619 Y75.849 F7800.000
G1 E3.62400 F2400.00000
G92 E0
G1 X102.114 Y77.190 F7800.000
G1 E2.00000 F2400.00000
G1 F1800.000
G1 X101.113 Y77.031 E2.00858
G1 X100.703 Y76.990 E2.01206
G1 F1800.000
G1 X100.294 Y76.950 E2.01380
G1 X99.706 Y76.950 F7800.000
G1 F1800.000
G1 X99.185 Y77.001 E2.01529
G1 F1800.000
G1 X98.537 Y77.085 E2.02029
G1 X98.691 Y77.111 F7800.000
G1 F1800.000
G1 X98.380 Y77.311 E2.02261
G1 F1800.000
G1 X98.208 Y77.440 E2.02308
G1 X98.691 Y77.111 F7800.000
G1 F1800.000
G1 X99.002 Y76.912 E2.02692
G1 E0.02692 F2400.00000
G92 E0
G1 X97.114 Y78.450 F7800.000
G1 E2.00000 F2400.00000
G1 F1800.000
G1 X96.975 Y78.614 E2.00053
G1 X96.942 Y78.721 E2.00080
G1 E0.00080 F2400.00000
G92 E0
G1 X96.923 Y82.288 F7800.000
G1 E2.00000 F2400.00000
G1 F1800.000
G1 X97.201 Y83.114 E2.00976
G1 E0.00976 F2400.00000
G92 E0
G1 X96.044 Y85.728 F7800.000
G1 E2.00000 F2400.00000
G1 F1800.000
G1 X95.945 Y86.230 E2.01432
G1 F1800.000
G1 X95.918 Y86.460 E2.01992
G1 F1800.000
G1 X95.877 Y86.825 E2.02784
G1 F1800.000
G1 X95.855 Y87.202 E2.03446
G1 X95.855 Y87.811 E2.04515
G1 X95.880 Y88.146 E2.05104
G1 F1800.000
G1 X95.907 Y88.479 E2.05780
G1 F1800.000
G1 X95.954 Y88.816 E2.06558
G1 F1800.000
G1 X96.031 Y89.276 E2.07757
G1 X96.287 Y90.346 F7800.000
G1 F1800.000
G1 X96.643 Y90.671 E2.07839
G1 X96.982 Y92.518 F7800.000
G1 F1800.000
G1 X97.468 Y92.032 E2.10037
G1 X97.772 Y92.202 E2.11152
G1 X98.082 Y92.331 E2.12224
G1 X96.982 Y93.431 E2.17199
G1 X96.982 Y94.344 E2.20118
G1 X98.752 Y92.574 E2.28121
G1 X98.995 Y92.643 E2.28929
G1 X99.514 Y92.725 E2.30609
G1 X96.982 Y95.257 E2.42059
G1 X96.982 Y96.170 E2.44978
G1 X100.380 Y92.771 E2.60344
G1 X100.677 Y92.771 E2.61292
G1 X101.410 Y92.655 E2.63663
G1 X96.982 Y97.083 E2.83683
G1 X96.982 Y97.996 E2.86602
G1 X102.669 Y92.309 E3.12317
G1 X102.805 Y92.575 E3.13271
G1 X103.018 Y92.466 E3.14037
G1 X103.018 Y92.873 E3.15338
G1 X96.982 Y98.910 E3.42631
G1 X96.982 Y99.823 E3.45550
G1 X103.018 Y93.786 E3.72842
