; generated by Slic3r 1.3.1-dev (Build 4f5b935) on 2019-11-26 at 14:51:19

; external perimeters extrusion width = 0.55mm (1.90mm^3/s)
; perimeters extrusion width = 0.70mm (2.71mm^3/s)
; infill extrusion width = 0.62mm (2.41mm^3/s)
; solid infill extrusion width = 0.70mm (2.04mm^3/s)
; top infill extrusion width = 0.70mm (2.04mm^3/s)

M107
G92 E0
;D3D:START:START
T0
M104 S215 T0

G21
G90
M107
T0
G28
G29
M109 T0 S215 T0
G0 F3000
M107
T0
G92 E0
G0 X0 Y149 Z0.1 F3600
G1 Y49 E6.5 F1200
G0 Z1
G92 E0
; Filament gcode

G21 ; set units to millimeters
G90 ; use absolute coordinates
M82 ; use absolute distances for extrusion
G92 E0
G1 Z0.090 F7800.000
G1 E-2.00000 F2400.00000
G92 E0
G1 X46.937 Y69.860 F7800.000
G1 E2.00000 F2400.00000
G1 F1800.000
G1 X48.194 Y69.373 E2.00402
G1 X65.194 Y64.873 E2.05646
G1 X66.750 Y64.670 E2.06113
G1 X100.250 Y64.670 E2.16102
G1 X102.410 Y65.067 E2.16757
G1 X104.288 Y66.205 E2.17412
G1 X105.640 Y67.937 E2.18066
G1 X106.330 Y70.750 E2.18930
G1 X106.330 Y79.250 E2.21464
G1 X105.933 Y81.410 E2.22119
G1 X104.795 Y83.288 E2.22774
G1 X103.063 Y84.640 E2.23429
G1 X100.250 Y85.330 E2.24293
G1 X49.750 Y85.330 E2.39350
G1 X47.590 Y84.933 E2.40005
G1 X45.712 Y83.795 E2.40660
G1 X44.360 Y82.063 E2.41315
G1 X43.670 Y79.250 E2.42178
G1 X43.670 Y75.250 E2.43371
G1 X44.067 Y73.090 E2.44026
G1 X45.205 Y71.212 E2.44681
G1 X46.878 Y69.906 E2.45313
G1 E0.45313 F2400.00000
G92 E0
G1 X95.539 Y75.539 F7800.000
G1 E2.00000 F2400.00000
G1 F1800.000
G1 X95.539 Y71.039 E2.01342
G1 X99.961 Y71.039 E2.02661
G1 X99.961 Y78.961 E2.05023
G1 X50.039 Y78.961 E2.19908
G1 X50.039 Y75.539 E2.20929
G1 X67.039 Y75.539 E2.25998
G1 X67.039 Y71.039 E2.27339
G1 X71.461 Y71.039 E2.28658
G1 X71.461 Y75.539 E2.30000
G1 X95.464 Y75.539 E2.37156
G1 X95.459 Y75.459 F7800.000
G1 F1800.000
G1 X95.459 Y70.959 E2.38498
G1 X100.041 Y70.959 E2.39864
G1 X100.041 Y79.041 E2.42274
G1 X49.959 Y79.041 E2.57207
G1 X49.959 Y75.459 E2.58275
G1 X66.959 Y75.459 E2.63344
G1 X66.959 Y70.959 E2.64686
G1 X71.541 Y70.959 E2.66052
G1 X71.541 Y75.459 E2.67394
G1 X95.384 Y75.459 E2.74503
G1 X95.379 Y75.379 F7800.000
G1 F1800.000
G1 X95.379 Y70.879 E2.75845
G1 X100.121 Y70.879 E2.77258
G1 X100.121 Y79.121 E2.79716
G1 X49.879 Y79.121 E2.94696
G1 X49.879 Y75.379 E2.95812
G1 X66.879 Y75.379 E3.00881
G1 X66.879 Y70.879 E3.02222
G1 X71.621 Y70.879 E3.03636
G1 X71.621 Y75.379 E3.04978
G1 X95.304 Y75.379 E3.12039
G1 X95.299 Y75.299 F7800.000
G1 F1800.000
G1 X95.299 Y70.799 E3.13381
G1 X100.201 Y70.799 E3.14842
G1 X100.201 Y79.201 E3.17347
G1 X49.800 Y79.201 E3.32375
G1 X49.800 Y75.299 E3.33538
G1 X66.799 Y75.299 E3.38607
G1 X66.799 Y70.799 E3.39949
G1 X71.701 Y70.799 E3.41410
G1 X71.701 Y75.299 E3.42752
G1 X95.225 Y75.299 E3.49766
G1 X95.799 Y75.331 F7800.000
G1 E1.49766 F2400.00000
G92 E0
G1 X95.717 Y71.087 F7800.000
G1 E2.00000 F2400.00000
G1 F1800.000
G1 X95.587 Y71.217 E2.00055
G1 X95.587 Y71.330 E2.00088
G1 X95.830 Y71.087 E2.00191
G1 X95.943 Y71.087 E2.00225
G1 X95.587 Y71.443 E2.00375
G1 X95.587 Y71.556 E2.00408
G1 X96.056 Y71.087 E2.00606
G1 X96.168 Y71.087 E2.00640
G1 X95.587 Y71.668 E2.00885
G1 X95.587 Y71.781 E2.00919
G1 X96.281 Y71.087 E2.01212
G1 X96.394 Y71.087 E2.01245
G1 X95.587 Y71.894 E2.01586
G1 X95.587 Y72.007 E2.01620
G1 X96.507 Y71.087 E2.02008
G1 X96.620 Y71.087 E2.02042
G1 X95.587 Y72.120 E2.02477
G1 X95.587 Y72.232 E2.02511
G1 X96.732 Y71.087 E2.02995
G1 X96.845 Y71.087 E2.03028
G1 X95.587 Y72.345 E2.03559
G1 X95.587 Y72.458 E2.03593
G1 X96.958 Y71.087 E2.04172
G1 X97.071 Y71.087 E2.04205
G1 X95.587 Y72.571 E2.04832
G1 X95.587 Y72.684 E2.04865
G1 X97.184 Y71.087 E2.05539
G1 X97.297 Y71.087 E2.05573
G1 X95.587 Y72.797 E2.06295
G1 X95.587 Y72.909 E2.06328
G1 X97.409 Y71.087 E2.07098
G1 X97.522 Y71.087 E2.07131
G1 X95.587 Y73.022 E2.07948
G1 X95.587 Y73.135 E2.07982
G1 X97.635 Y71.087 E2.08846
G1 X97.748 Y71.087 E2.08880
G1 X95.587 Y73.248 E2.09792
G1 X95.587 Y73.361 E2.09826
G1 X97.861 Y71.087 E2.10786
G1 X97.974 Y71.087 E2.10819
G1 X95.587 Y73.474 E2.11827
G1 X95.587 Y73.586 E2.11860
G1 X98.086 Y71.087 E2.12915
G1 X98.199 Y71.087 E2.12949
G1 X95.587 Y73.699 E2.14052
G1 X95.587 Y73.812 E2.14085
G1 X98.312 Y71.087 E2.15236
G1 X98.425 Y71.087 E2.15269
G1 X95.587 Y73.925 E2.16467
G1 X95.587 Y74.038 E2.16501
G1 X98.538 Y71.087 E2.17746
G1 X98.650 Y71.087 E2.17780
G1 X95.587 Y74.150 E2.19073
G1 X95.587 Y74.263 E2.19107
G1 X98.763 Y71.087 E2.20448
G1 X98.876 Y71.087 E2.20481
G1 X95.587 Y74.376 E2.21870
G1 X95.587 Y74.489 E2.21903
G1 X98.989 Y71.087 E2.23339
G1 X99.102 Y71.087 E2.23373
G1 X95.587 Y74.602 E2.24857
G1 X95.587 Y74.715 E2.24890
G1 X99.215 Y71.087 E2.26422
G1 X99.327 Y71.087 E2.26455
G1 X95.587 Y74.827 E2.28034
G1 X95.587 Y74.940 E2.28068
G1 X99.440 Y71.087 E2.29695
G1 X99.553 Y71.087 E2.29728
G1 X95.587 Y75.053 E2.31402
G1 X95.587 Y75.166 E2.31436
G1 X99.666 Y71.087 E2.33158
G1 X99.779 Y71.087 E2.33192
G1 X95.587 Y75.279 E2.34961
G1 X95.587 Y75.391 E2.34995
G1 X99.891 Y71.087 E2.36812
G1 X99.913 Y71.087 E2.36818
G1 X99.913 Y71.179 E2.36845
G1 X95.587 Y75.504 E2.38671
G1 X95.587 Y75.617 E2.38705
G1 X99.913 Y71.292 E2.40531
G1 X99.913 Y71.404 E2.40565
G1 X92.404 Y78.913 E2.43735
G1 X92.517 Y78.913 E2.43768
G1 X99.913 Y71.517 E2.46890
G1 X99.913 Y71.630 E2.46924
G1 X92.630 Y78.913 E2.49998
G1 X92.743 Y78.913 E2.50032
G1 X99.913 Y71.743 E2.53059
G1 X99.913 Y71.856 E2.53092
G1 X92.856 Y78.913 E2.56072
G1 X92.969 Y78.913 E2.56105
G1 X99.913 Y71.969 E2.59037
G1 X99.913 Y72.081 E2.59071
G1 X93.081 Y78.913 E2.61954
G1 X93.194 Y78.913 E2.61988
G1 X99.913 Y72.194 E2.64824
G1 X99.913 Y72.307 E2.64858
G1 X93.307 Y78.913 E2.67647
G1 X93.420 Y78.913 E2.67680
G1 X99.913 Y72.420 E2.70421
G1 X99.913 Y72.533 E2.70455
G1 X93.533 Y78.913 E2.73148
G1 X93.645 Y78.913 E2.73182
G1 X99.913 Y72.645 E2.75828
G1 X99.913 Y72.758 E2.75862
G1 X93.758 Y78.913 E2.78460
G1 X93.871 Y78.913 E2.78493
G1 X99.913 Y72.871 E2.81044
G1 X99.913 Y72.984 E2.81078
G1 X93.984 Y78.913 E2.83580
G1 X94.097 Y78.913 E2.83614
G1 X99.913 Y73.097 E2.86069
G1 X99.913 Y73.210 E2.86103
G1 X94.210 Y78.913 E2.88511
G1 X94.322 Y78.913 E2.88544
G1 X99.913 Y73.322 E2.90904
G1 X99.913 Y73.435 E2.90938
G1 X94.435 Y78.913 E2.93250
G1 X94.548 Y78.913 E2.93284
G1 X99.913 Y73.548 E2.95549
G1 X99.913 Y73.661 E2.95582
G1 X94.661 Y78.913 E2.97800
G1 X94.774 Y78.913 E2.97833
G1 X99.913 Y73.774 E3.00003
G1 X99.913 Y73.886 E3.00036
G1 X94.886 Y78.913 E3.02158
G1 X94.999 Y78.913 E3.02192
G1 X99.913 Y73.999 E3.04266
G1 X99.913 Y74.112 E3.04300
G1 X95.112 Y78.913 E3.06326
G1 X95.225 Y78.913 E3.06360
G1 X99.913 Y74.225 E3.08339
G1 X99.913 Y74.338 E3.08373
G1 X95.338 Y78.913 E3.10304
G1 X95.451 Y78.913 E3.10338
G1 X99.913 Y74.451 E3.12222
G1 X99.913 Y74.563 E3.12255
G1 X95.563 Y78.913 E3.14091
G1 X95.676 Y78.913 E3.14125
G1 X99.913 Y74.676 E3.15913
G1 X99.913 Y74.789 E3.15947
G1 X95.789 Y78.913 E3.17688
G1 X95.902 Y78.913 E3.17722
G1 X99.913 Y74.902 E3.19415
G1 X99.913 Y75.015 E3.19449
G1 X96.015 Y78.913 E3.21094
G1 X96.128 Y78.913 E3.21128
G1 X99.913 Y75.128 E3.22726
G1 X99.913 Y75.240 E3.22759
G1 X96.240 Y78.913 E3.24310
G1 X96.353 Y78.913 E3.24343
G1 X99.913 Y75.353 E3.25846
G1 X99.913 Y75.466 E3.25880
G1 X96.466 Y78.913 E3.27335
G1 X96.579 Y78.913 E3.27368
G1 X99.913 Y75.579 E3.28776
G1 X99.913 Y75.692 E3.28810
G1 X96.692 Y78.913 E3.30169
G1 X96.804 Y78.913 E3.30203
G1 X99.913 Y75.804 E3.31515
G1 X99.913 Y75.917 E3.31549
G1 X96.917 Y78.913 E3.32814
G1 X97.030 Y78.913 E3.32847
G1 X99.913 Y76.030 E3.34064
G1 X99.913 Y76.143 E3.34098
G1 X97.143 Y78.913 E3.35267
G1 X97.256 Y78.913 E3.35301
G1 X99.913 Y76.256 E3.36422
G1 X99.913 Y76.369 E3.36456
G1 X97.369 Y78.913 E3.37530
G1 X97.481 Y78.913 E3.37564
G1 X99.913 Y76.481 E3.38590
G1 X99.913 Y76.594 E3.38624
G1 X97.594 Y78.913 E3.39603
G1 X97.707 Y78.913 E3.39636
G1 X99.913 Y76.707 E3.40568
G1 X99.913 Y76.820 E3.40601
G1 X97.820 Y78.913 E3.41485
G1 X97.933 Y78.913 E3.41518
G1 X99.913 Y76.933 E3.42354
G1 X99.913 Y77.046 E3.42388
G1 X98.046 Y78.913 E3.43176
G1 X98.158 Y78.913 E3.43210
G1 X99.913 Y77.158 E3.43951
G1 X99.913 Y77.271 E3.43984
G1 X98.271 Y78.913 E3.44677
G1 X98.384 Y78.913 E3.44711
G1 X99.913 Y77.384 E3.45356
G1 X99.913 Y77.497 E3.45390
G1 X98.497 Y78.913 E3.45988
G1 X98.610 Y78.913 E3.46021
G1 X99.913 Y77.610 E3.46572
G1 X99.913 Y77.722 E3.46605
G1 X98.722 Y78.913 E3.47108
G1 X98.835 Y78.913 E3.47141
G1 X99.913 Y77.835 E3.47596
G1 X99.913 Y77.948 E3.47630
G1 X98.948 Y78.913 E3.48037
G1 X99.061 Y78.913 E3.48071
G1 X99.913 Y78.061 E3.48431
G1 X99.913 Y78.174 E3.48464
G1 X99.174 Y78.913 E3.48776
G1 X99.287 Y78.913 E3.48810
G1 X99.913 Y78.287 E3.49074
G1 X99.913 Y78.399 E3.49108
G1 X99.399 Y78.913 E3.49325
G1 X99.512 Y78.913 E3.49358
G1 X99.913 Y78.512 E3.49527
G1 X99.913 Y78.625 E3.49561
G1 X99.625 Y78.913 E3.49683
G1 X99.738 Y78.913 E3.49716
G1 X99.913 Y78.738 E3.49790
G1 X99.913 Y78.851 E3.49824
G1 X99.851 Y78.913 E3.49850
G1 E1.49850 F2400.00000
G92 E0
G1 X92.292 Y78.913 F7800.000
G1 E2.00000 F2400.00000
G1 F1800.000
G1 X95.617 Y75.587 E2.01404
G1 X95.504 Y75.587 E2.01438
G1 X92.179 Y78.913 E2.02841
G1 X92.066 Y78.913 E2.02875
G1 X95.391 Y75.587 E2.04279
G1 X95.279 Y75.587 E2.04313
G1 X91.953 Y78.913 E2.05717
G1 X91.840 Y78.913 E2.05750
G1 X95.166 Y75.587 E2.07154
G1 X95.053 Y75.587 E2.07188
G1 X91.727 Y78.913 E2.08592
G1 X91.615 Y78.913 E2.08625
G1 X94.940 Y75.587 E2.10029
G1 X94.827 Y75.587 E2.10063
G1 X91.502 Y78.913 E2.11467
G1 X91.389 Y78.913 E2.11501
G1 X94.715 Y75.587 E2.12904
G1 X94.602 Y75.587 E2.12938
G1 X91.276 Y78.913 E2.14342
G1 X91.163 Y78.913 E2.14376
G1 X94.489 Y75.587 E2.15780
G1 X94.376 Y75.587 E2.15813
G1 X91.051 Y78.913 E2.17217
G1 X90.938 Y78.913 E2.17251
G1 X94.263 Y75.587 E2.18655
G1 X94.150 Y75.587 E2.18688
G1 X90.825 Y78.913 E2.20092
G1 X90.712 Y78.913 E2.20126
G1 X94.038 Y75.587 E2.21530
G1 X93.925 Y75.587 E2.21563
G1 X90.599 Y78.913 E2.22967
G1 X90.486 Y78.913 E2.23001
G1 X93.812 Y75.587 E2.24405
G1 X93.699 Y75.587 E2.24439
G1 X90.374 Y78.913 E2.25842
G1 X90.261 Y78.913 E2.25876
G1 X93.586 Y75.587 E2.27280
G1 X93.474 Y75.587 E2.27314
G1 X90.148 Y78.913 E2.28718
G1 X90.035 Y78.913 E2.28751
G1 X93.361 Y75.587 E2.30155
G1 X93.248 Y75.587 E2.30189
G1 X89.922 Y78.913 E2.31593
G1 X89.810 Y78.913 E2.31626
G1 X93.135 Y75.587 E2.33030
G1 X93.022 Y75.587 E2.33064
G1 X89.697 Y78.913 E2.34468
G1 X89.584 Y78.913 E2.34502
G1 X92.909 Y75.587 E2.35905
G1 X92.797 Y75.587 E2.35939
G1 X89.471 Y78.913 E2.37343
G1 X89.358 Y78.913 E2.37377
G1 X92.684 Y75.587 E2.38781
G1 X92.571 Y75.587 E2.38814
G1 X89.245 Y78.913 E2.40218
G1 X89.133 Y78.913 E2.40252
G1 X92.458 Y75.587 E2.41656
G1 X92.345 Y75.587 E2.41689
G1 X89.020 Y78.913 E2.43093
G1 X88.907 Y78.913 E2.43127
G1 X92.232 Y75.587 E2.44531
G1 X92.120 Y75.587 E2.44564
G1 X88.794 Y78.913 E2.45968
G1 X88.681 Y78.913 E2.46002
G1 X92.007 Y75.587 E2.47406
G1 X91.894 Y75.587 E2.47440
G1 X88.568 Y78.913 E2.48843
G1 X88.456 Y78.913 E2.48877
G1 X91.781 Y75.587 E2.50281
G1 X91.668 Y75.587 E2.50315
G1 X88.343 Y78.913 E2.51719
G1 X88.230 Y78.913 E2.51752
G1 X91.556 Y75.587 E2.53156
G1 X91.443 Y75.587 E2.53190
G1 X88.117 Y78.913 E2.54594
G1 X88.004 Y78.913 E2.54627
G1 X91.330 Y75.587 E2.56031
G1 X91.217 Y75.587 E2.56065
G1 X87.892 Y78.913 E2.57469
G1 X87.779 Y78.913 E2.57503
G1 X91.104 Y75.587 E2.58906
G1 X90.991 Y75.587 E2.58940
G1 X87.666 Y78.913 E2.60344
G1 X87.553 Y78.913 E2.60378
G1 X90.879 Y75.587 E2.61782
G1 X90.766 Y75.587 E2.61815
G1 X87.440 Y78.913 E2.63219
G1 X87.327 Y78.913 E2.63253
G1 X90.653 Y75.587 E2.64657
G1 X90.540 Y75.587 E2.64690
G1 X87.215 Y78.913 E2.66094
G1 X87.102 Y78.913 E2.66128
G1 X90.427 Y75.587 E2.67532
G1 X90.315 Y75.587 E2.67565
G1 X86.989 Y78.913 E2.68969
G1 X86.876 Y78.913 E2.69003
G1 X90.202 Y75.587 E2.70407
G1 X90.089 Y75.587 E2.70441
G1 X86.763 Y78.913 E2.71845
G1 X86.651 Y78.913 E2.71878
G1 X89.976 Y75.587 E2.73282
G1 X89.863 Y75.587 E2.73316
G1 X86.538 Y78.913 E2.74720
G1 X86.425 Y78.913 E2.74753
G1 X89.750 Y75.587 E2.76157
G1 X89.638 Y75.587 E2.76191
G1 X86.312 Y78.913 E2.77595
G1 X86.199 Y78.913 E2.77628
G1 X89.525 Y75.587 E2.79032
G1 X89.412 Y75.587 E2.79066
G1 X86.086 Y78.913 E2.80470
G1 X85.974 Y78.913 E2.80504
G1 X89.299 Y75.587 E2.81907
G1 X89.186 Y75.587 E2.81941
G1 X85.861 Y78.913 E2.83345
G1 X85.748 Y78.913 E2.83379
G1 X89.073 Y75.587 E2.84783
G1 X88.961 Y75.587 E2.84816
G1 X85.635 Y78.913 E2.86220
G1 X85.522 Y78.913 E2.86254
G1 X88.848 Y75.587 E2.87658
G1 X88.735 Y75.587 E2.87691
G1 X85.409 Y78.913 E2.89095
G1 X85.297 Y78.913 E2.89129
G1 X88.622 Y75.587 E2.90533
G1 X88.509 Y75.587 E2.90567
G1 X85.184 Y78.913 E2.91970
G1 X85.071 Y78.913 E2.92004
G1 X88.397 Y75.587 E2.93408
G1 X88.284 Y75.587 E2.93442
G1 X84.958 Y78.913 E2.94846
G1 X84.845 Y78.913 E2.94879
G1 X88.171 Y75.587 E2.96283
G1 X88.058 Y75.587 E2.96317
G1 X84.733 Y78.913 E2.97721
G1 X84.620 Y78.913 E2.97754
G1 X87.945 Y75.587 E2.99158
G1 X87.832 Y75.587 E2.99192
G1 X84.507 Y78.913 E3.00596
G1 X84.394 Y78.913 E3.00629
G1 X87.720 Y75.587 E3.02033
G1 X87.607 Y75.587 E3.02067
G1 X84.281 Y78.913 E3.03471
G1 X84.168 Y78.913 E3.03505
G1 X87.494 Y75.587 E3.04908
G1 X87.381 Y75.587 E3.04942
G1 X84.056 Y78.913 E3.06346
G1 X83.943 Y78.913 E3.06380
G1 X87.268 Y75.587 E3.07784
G1 X87.156 Y75.587 E3.07817
G1 X83.830 Y78.913 E3.09221
G1 X83.717 Y78.913 E3.09255
G1 X87.043 Y75.587 E3.10659
G1 X86.930 Y75.587 E3.10692
G1 X83.604 Y78.913 E3.12096
G1 X83.491 Y78.913 E3.12130
G1 X86.817 Y75.587 E3.13534
G1 X86.704 Y75.587 E3.13568
G1 X83.379 Y78.913 E3.14971
G1 X83.266 Y78.913 E3.15005
G1 X86.591 Y75.587 E3.16409
G1 X86.479 Y75.587 E3.16443
G1 X83.153 Y78.913 E3.17847
G1 X83.040 Y78.913 E3.17880
G1 X86.366 Y75.587 E3.19284
G1 X86.253 Y75.587 E3.19318
G1 X82.927 Y78.913 E3.20722
G1 X82.815 Y78.913 E3.20755
G1 X86.140 Y75.587 E3.22159
G1 X86.027 Y75.587 E3.22193
G1 X82.702 Y78.913 E3.23597
G1 X82.589 Y78.913 E3.23630
G1 X85.914 Y75.587 E3.25034
G1 X85.802 Y75.587 E3.25068
G1 X82.476 Y78.913 E3.26472
G1 X82.363 Y78.913 E3.26506
G1 X85.689 Y75.587 E3.27909
G1 X85.576 Y75.587 E3.27943
G1 X82.250 Y78.913 E3.29347
G1 X82.138 Y78.913 E3.29381
G1 X85.463 Y75.587 E3.30785
G1 X85.350 Y75.587 E3.30818
G1 X82.025 Y78.913 E3.32222
G1 X81.912 Y78.913 E3.32256
G1 X85.238 Y75.587 E3.33660
G1 X85.125 Y75.587 E3.33693
G1 X81.799 Y78.913 E3.35097
G1 X81.686 Y78.913 E3.35131
G1 X85.012 Y75.587 E3.36535
G1 X84.899 Y75.587 E3.36569
G1 X81.574 Y78.913 E3.37972
G1 X81.461 Y78.913 E3.38006
G1 X84.786 Y75.587 E3.39410
G1 X84.673 Y75.587 E3.39444
G1 X81.348 Y78.913 E3.40848
G1 X81.235 Y78.913 E3.40881
G1 X84.561 Y75.587 E3.42285
G1 X84.448 Y75.587 E3.42319
G1 X81.122 Y78.913 E3.43723
G1 X81.009 Y78.913 E3.43756
G1 X84.335 Y75.587 E3.45160
G1 X84.222 Y75.587 E3.45194
G1 X80.897 Y78.913 E3.46598
G1 X80.784 Y78.913 E3.46631
G1 X84.109 Y75.587 E3.48035
G1 X83.996 Y75.587 E3.48069
G1 X80.671 Y78.913 E3.49473
G1 X80.558 Y78.913 E3.49507
G1 X83.884 Y75.587 E3.50911
G1 X83.771 Y75.587 E3.50944
G1 X80.445 Y78.913 E3.52348
G1 X80.332 Y78.913 E3.52382
G1 X83.658 Y75.587 E3.53786
G1 X83.545 Y75.587 E3.53819
G1 X80.220 Y78.913 E3.55223
G1 X80.107 Y78.913 E3.55257
G1 X83.432 Y75.587 E3.56661
G1 X83.320 Y75.587 E3.56694
G1 X79.994 Y78.913 E3.58098
G1 X79.881 Y78.913 E3.58132
G1 X83.207 Y75.587 E3.59536
G1 X83.094 Y75.587 E3.59570
G1 X79.768 Y78.913 E3.60973
G1 X79.656 Y78.913 E3.61007
G1 X82.981 Y75.587 E3.62411
G1 X82.868 Y75.587 E3.62445
G1 X79.543 Y78.913 E3.63849
G1 X79.430 Y78.913 E3.63882
G1 X82.755 Y75.587 E3.65286
G1 X82.643 Y75.587 E3.65320
G1 X79.317 Y78.913 E3.66724
G1 X79.204 Y78.913 E3.66757
G1 X82.530 Y75.587 E3.68161
G1 X82.417 Y75.587 E3.68195
G1 X79.091 Y78.913 E3.69599
G1 X78.979 Y78.913 E3.69633
G1 X82.304 Y75.587 E3.71036
G1 X82.191 Y75.587 E3.71070
G1 X78.866 Y78.913 E3.72474
G1 X78.753 Y78.913 E3.72508
G1 X82.079 Y75.587 E3.73912
G1 X81.966 Y75.587 E3.73945
G1 X78.640 Y78.913 E3.75349
G1 X78.527 Y78.913 E3.75383
G1 X81.853 Y75.587 E3.76787
G1 X81.740 Y75.587 E3.76820
G1 X78.415 Y78.913 E3.78224
G1 X78.302 Y78.913 E3.78258
G1 X81.627 Y75.587 E3.79662
G1 X81.514 Y75.587 E3.79695
G1 X78.189 Y78.913 E3.81099
G1 X78.076 Y78.913 E3.81133
