; Gcode updated with 'stl_info' on 2019-12-09 21:36:39.539879

; stl_min_x = -10.0
; stl_max_x = 10.0
; stl_min_y = -30.75
; stl_max_y = 30.75
; stl_min_z = -18.0

; generated by Slic3r 1.3.1-dev (Build adea0d9) on 2019-12-09 at 21:36:38

; external perimeters extrusion width = 0.44mm (2.86mm^3/s)
; perimeters extrusion width = 0.56mm (4.14mm^3/s)
; infill extrusion width = 0.50mm (3.66mm^3/s)
; solid infill extrusion width = 0.56mm (3.10mm^3/s)
; top infill extrusion width = 0.56mm (3.10mm^3/s)

M107
G92 E0
;D3D:START:START
T0
M104 S215 T0

G21
G90
M107
T0
G28
G29
M109 T0 S215 T0
G0 F3000
M107
T0
G92 E0
G0 X0 Y149 Z0.1 F3600
G1 Y49 E6.5 F1200
G0 Z1
G92 E0
; Filament gcode

G21 ; set units to millimeters
G90 ; use absolute coordinates
M82 ; use absolute distances for extrusion
G92 E0
G1 Z0.300 F7800.000
G1 E-2.00000 F2400.00000
G92 E0
G1 X65.696 Y96.446 F7800.000
G1 E2.00000 F2400.00000
G1 F1800.000
G1 X84.304 Y96.446 E2.61646
G1 X84.304 Y105.054 E2.90162
G1 X65.696 Y105.054 E3.51808
G1 X65.696 Y96.506 E3.80126
G1 X65.431 Y96.181 F7800.000
G1 F1800.000
G1 X84.569 Y96.181 E4.43531
G1 X84.569 Y105.319 E4.73808
G1 X65.431 Y105.319 E5.37213
G1 X65.431 Y96.241 E5.67291
G1 X65.165 Y95.915 F7800.000
G1 F1800.000
G1 X84.835 Y95.915 E6.32457
G1 X84.835 Y105.585 E6.64493
G1 X65.165 Y105.585 E7.29659
G1 X65.165 Y95.975 E7.61496
G1 X65.859 Y96.815 F7800.000
G1 F1800.000
G1 X66.065 Y96.609 E7.62473
G1 X66.444 Y96.609 E7.63740
G1 X65.859 Y97.194 E7.66509
G1 X65.859 Y97.573 E7.67776
G1 X66.823 Y96.609 E7.72337
G1 X67.202 Y96.609 E7.73604
G1 X65.859 Y97.952 E7.79957
G1 X65.859 Y98.331 E7.81224
G1 X67.581 Y96.609 E7.89369
G1 X67.960 Y96.609 E7.90636
G1 X65.859 Y98.710 E8.00572
G1 X65.859 Y99.089 E8.01839
G1 X68.339 Y96.609 E8.13567
G1 X68.718 Y96.609 E8.14834
G1 X65.859 Y99.468 E8.28354
G1 X65.859 Y99.847 E8.29621
G1 X69.097 Y96.609 E8.44932
G1 X69.477 Y96.609 E8.46199
G1 X65.859 Y100.227 E8.63303
G1 X65.859 Y100.606 E8.64570
G1 X69.856 Y96.609 E8.83465
G1 X70.235 Y96.609 E8.84732
G1 X65.859 Y100.985 E9.05418
G1 X65.859 Y101.364 E9.06685
G1 X70.614 Y96.609 E9.29164
G1 X70.993 Y96.609 E9.30431
G1 X65.859 Y101.743 E9.54701
G1 X65.859 Y102.122 E9.55968
G1 X71.372 Y96.609 E9.82030
G1 X71.751 Y96.609 E9.83297
G1 X65.859 Y102.501 E10.11151
G1 X65.859 Y102.880 E10.12418
G1 X72.130 Y96.609 E10.42064
G1 X72.509 Y96.609 E10.43331
G1 X65.859 Y103.259 E10.74768
G1 X65.859 Y103.638 E10.76035
G1 X72.888 Y96.609 E11.09264
G1 X73.267 Y96.609 E11.10531
G1 X65.859 Y104.017 E11.45552
G1 X65.859 Y104.396 E11.46819
G1 X73.646 Y96.609 E11.83631
G1 X74.025 Y96.609 E11.84898
G1 X65.859 Y104.775 E12.23503
G1 X65.859 Y104.891 E12.23893
G1 X66.121 Y104.891 E12.24770
G1 X74.404 Y96.609 E12.63926
G1 X74.783 Y96.609 E12.65193
G1 X66.500 Y104.891 E13.04349
G1 X66.879 Y104.891 E13.05616
G1 X75.162 Y96.609 E13.44772
G1 X75.541 Y96.609 E13.46039
G1 X67.258 Y104.891 E13.85195
G1 X67.637 Y104.891 E13.86462
G1 X75.920 Y96.609 E14.25619
G1 X76.299 Y96.609 E14.26885
G1 X68.016 Y104.891 E14.66042
G1 X68.395 Y104.891 E14.67309
G1 X76.678 Y96.609 E15.06465
G1 X77.057 Y96.609 E15.07732
G1 X68.774 Y104.891 E15.46888
G1 X69.153 Y104.891 E15.48155
G1 X77.436 Y96.609 E15.87311
G1 X77.815 Y96.609 E15.88578
G1 X69.532 Y104.891 E16.27734
G1 X69.911 Y104.891 E16.29001
G1 X78.194 Y96.609 E16.68157
G1 X78.573 Y96.609 E16.69424
G1 X70.290 Y104.891 E17.08581
G1 X70.669 Y104.891 E17.09848
G1 X78.952 Y96.609 E17.49004
G1 X79.331 Y96.609 E17.50271
G1 X71.048 Y104.891 E17.89427
G1 X71.427 Y104.891 E17.90694
G1 X79.710 Y96.609 E18.29850
G1 X80.089 Y96.609 E18.31117
G1 X71.806 Y104.891 E18.70273
G1 X72.185 Y104.891 E18.71540
G1 X80.468 Y96.609 E19.10696
G1 X80.847 Y96.609 E19.11963
G1 X72.564 Y104.891 E19.51120
G1 X72.943 Y104.891 E19.52387
G1 X81.226 Y96.609 E19.91543
G1 X81.605 Y96.609 E19.92810
G1 X73.322 Y104.891 E20.31966
G1 X73.701 Y104.891 E20.33233
G1 X81.984 Y96.609 E20.72389
G1 X82.363 Y96.609 E20.73656
G1 X74.080 Y104.891 E21.12812
G1 X74.459 Y104.891 E21.14079
G1 X82.742 Y96.609 E21.53235
G1 X83.121 Y96.609 E21.54502
G1 X74.838 Y104.891 E21.93659
G1 X75.217 Y104.891 E21.94925
G1 X83.500 Y96.609 E22.34082
G1 X83.879 Y96.609 E22.35349
G1 X75.596 Y104.891 E22.74505
G1 X75.975 Y104.891 E22.75772
G1 X84.141 Y96.725 E23.14376
G1 X84.141 Y97.104 E23.15643
G1 X76.354 Y104.891 E23.52455
G1 X76.733 Y104.891 E23.53722
G1 X84.141 Y97.483 E23.88743
G1 X84.141 Y97.862 E23.90010
G1 X77.112 Y104.891 E24.23239
G1 X77.491 Y104.891 E24.24506
G1 X84.141 Y98.241 E24.55943
G1 X84.141 Y98.620 E24.57210
G1 X77.870 Y104.891 E24.86855
G1 X78.249 Y104.891 E24.88122
G1 X84.141 Y98.999 E25.15976
G1 X84.141 Y99.378 E25.17243
G1 X78.628 Y104.891 E25.43304
G1 X79.007 Y104.891 E25.44571
G1 X84.141 Y99.757 E25.68841
G1 X84.141 Y100.136 E25.70108
G1 X79.386 Y104.891 E25.92587
G1 X79.766 Y104.891 E25.93854
G1 X84.141 Y100.516 E26.14540
G1 X84.141 Y100.895 E26.15807
G1 X80.145 Y104.891 E26.34702
G1 X80.524 Y104.891 E26.35969
G1 X84.141 Y101.274 E26.53072
G1 X84.141 Y101.653 E26.54339
G1 X80.903 Y104.891 E26.69651
G1 X81.282 Y104.891 E26.70917
G1 X84.141 Y102.032 E26.84437
G1 X84.141 Y102.411 E26.85704
G1 X81.661 Y104.891 E26.97432
G1 X82.040 Y104.891 E26.98699
G1 X84.141 Y102.790 E27.08635
G1 X84.141 Y103.169 E27.09902
G1 X82.419 Y104.891 E27.18046
G1 X82.798 Y104.891 E27.19313
G1 X84.141 Y103.548 E27.25666
G1 X84.141 Y103.927 E27.26933
G1 X83.177 Y104.891 E27.31494
G1 X83.556 Y104.891 E27.32761
G1 X84.141 Y104.306 E27.35530
G1 X84.141 Y104.685 E27.36797
G1 X83.935 Y104.891 E27.37774
G1 E25.37774 F2400.00000
G92 E0
G1 X65.696 Y53.554 F7800.000
G1 E2.00000 F2400.00000
G1 F1800.000
G1 X65.696 Y44.946 E2.28516
G1 X84.304 Y44.946 E2.90162
G1 X84.304 Y53.554 E3.18678
G1 X65.756 Y53.554 E3.80126
G1 X65.431 Y53.819 F7800.000
G1 F1800.000
G1 X65.431 Y44.681 E4.10402
G1 X84.569 Y44.681 E4.73808
G1 X84.569 Y53.819 E5.04084
G1 X65.491 Y53.819 E5.67291
G1 X65.165 Y54.085 F7800.000
G1 F1800.000
G1 X65.165 Y44.415 E5.99327
G1 X84.835 Y44.415 E6.64493
G1 X84.835 Y54.085 E6.96529
G1 X65.225 Y54.085 E7.61496
G1 E5.61496 F2400.00000
G92 E0
G1 X65.859 Y45.315 F7800.000
G1 E2.00000 F2400.00000
G1 F1800.000
G1 X66.065 Y45.109 E2.00977
G1 X66.444 Y45.109 E2.02244
G1 X65.859 Y45.694 E2.05013
G1 X65.859 Y46.073 E2.06280
G1 X66.823 Y45.109 E2.10841
G1 X67.202 Y45.109 E2.12108
G1 X65.859 Y46.452 E2.18461
G1 X65.859 Y46.831 E2.19728
G1 X67.581 Y45.109 E2.27872
G1 X67.960 Y45.109 E2.29139
G1 X65.859 Y47.210 E2.39076
G1 X65.859 Y47.589 E2.40343
G1 X68.339 Y45.109 E2.52071
G1 X68.718 Y45.109 E2.53338
G1 X65.859 Y47.968 E2.66858
G1 X65.859 Y48.347 E2.68124
G1 X69.097 Y45.109 E2.83436
G1 X69.477 Y45.109 E2.84703
G1 X65.859 Y48.727 E3.01806
G1 X65.859 Y49.106 E3.03073
G1 X69.856 Y45.109 E3.21968
G1 X70.235 Y45.109 E3.23235
G1 X65.859 Y49.485 E3.43922
G1 X65.859 Y49.864 E3.45189
G1 X70.614 Y45.109 E3.67668
G1 X70.993 Y45.109 E3.68935
G1 X65.859 Y50.243 E3.93205
G1 X65.859 Y50.622 E3.94472
G1 X71.372 Y45.109 E4.20534
G1 X71.751 Y45.109 E4.21801
G1 X65.859 Y51.001 E4.49655
G1 X65.859 Y51.380 E4.50922
G1 X72.130 Y45.109 E4.80568
G1 X72.509 Y45.109 E4.81834
G1 X65.859 Y51.759 E5.13272
G1 X65.859 Y52.138 E5.14539
G1 X72.888 Y45.109 E5.47768
G1 X73.267 Y45.109 E5.49035
G1 X65.859 Y52.517 E5.84056
G1 X65.859 Y52.896 E5.85323
G1 X73.646 Y45.109 E6.22135
G1 X74.025 Y45.109 E6.23402
G1 X65.859 Y53.275 E6.62007
G1 X65.859 Y53.391 E6.62397
G1 X66.121 Y53.391 E6.63274
G1 X74.404 Y45.109 E7.02430
G1 X74.783 Y45.109 E7.03697
G1 X66.500 Y53.391 E7.42853
G1 X66.879 Y53.391 E7.44120
G1 X75.162 Y45.109 E7.83276
G1 X75.541 Y45.109 E7.84543
G1 X67.258 Y53.391 E8.23699
G1 X67.637 Y53.391 E8.24966
G1 X75.920 Y45.109 E8.64122
G1 X76.299 Y45.109 E8.65389
G1 X68.016 Y53.391 E9.04545
G1 X68.395 Y53.391 E9.05812
G1 X76.678 Y45.109 E9.44969
G1 X77.057 Y45.109 E9.46236
G1 X68.774 Y53.391 E9.85392
G1 X69.153 Y53.391 E9.86659
G1 X77.436 Y45.109 E10.25815
G1 X77.815 Y45.109 E10.27082
G1 X69.532 Y53.391 E10.66238
G1 X69.911 Y53.391 E10.67505
G1 X78.194 Y45.109 E11.06661
G1 X78.573 Y45.109 E11.07928
G1 X70.290 Y53.391 E11.47084
G1 X70.669 Y53.391 E11.48351
G1 X78.952 Y45.109 E11.87508
G1 X79.331 Y45.109 E11.88775
G1 X71.048 Y53.391 E12.27931
G1 X71.427 Y53.391 E12.29198
G1 X79.710 Y45.109 E12.68354
G1 X80.089 Y45.109 E12.69621
G1 X71.806 Y53.391 E13.08777
G1 X72.185 Y53.391 E13.10044
G1 X80.468 Y45.109 E13.49200
G1 X80.847 Y45.109 E13.50467
G1 X72.564 Y53.391 E13.89623
G1 X72.943 Y53.391 E13.90890
G1 X81.226 Y45.109 E14.30047
G1 X81.605 Y45.109 E14.31314
G1 X73.322 Y53.391 E14.70470
G1 X73.701 Y53.391 E14.71737
G1 X81.984 Y45.109 E15.10893
G1 X82.363 Y45.109 E15.12160
G1 X74.080 Y53.391 E15.51316
G1 X74.459 Y53.391 E15.52583
G1 X82.742 Y45.109 E15.91739
G1 X83.121 Y45.109 E15.93006
G1 X74.838 Y53.391 E16.32162
G1 X75.217 Y53.391 E16.33429
G1 X83.500 Y45.109 E16.72586
G1 X83.879 Y45.109 E16.73852
G1 X75.596 Y53.391 E17.13009
G1 X75.975 Y53.391 E17.14276
G1 X84.141 Y45.225 E17.52880
G1 X84.141 Y45.604 E17.54147
G1 X76.354 Y53.391 E17.90959
G1 X76.733 Y53.391 E17.92226
G1 X84.141 Y45.983 E18.27247
G1 X84.141 Y46.362 E18.28514
G1 X77.112 Y53.391 E18.61742
G1 X77.491 Y53.391 E18.63009
G1 X84.141 Y46.741 E18.94447
G1 X84.141 Y47.120 E18.95713
G1 X77.870 Y53.391 E19.25359
G1 X78.249 Y53.391 E19.26626
G1 X84.141 Y47.499 E19.54479
G1 X84.141 Y47.878 E19.55746
G1 X78.628 Y53.391 E19.81808
G1 X79.007 Y53.391 E19.83075
G1 X84.141 Y48.257 E20.07345
G1 X84.141 Y48.636 E20.08612
G1 X79.386 Y53.391 E20.31091
G1 X79.766 Y53.391 E20.32358
G1 X84.141 Y49.016 E20.53044
G1 X84.141 Y49.395 E20.54311
G1 X80.145 Y53.391 E20.73206
G1 X80.524 Y53.391 E20.74473
G1 X84.141 Y49.774 E20.91576
G1 X84.141 Y50.153 E20.92843
G1 X80.903 Y53.391 E21.08154
G1 X81.282 Y53.391 E21.09421
G1 X84.141 Y50.532 E21.22941
G1 X84.141 Y50.911 E21.24208
G1 X81.661 Y53.391 E21.35936
G1 X82.040 Y53.391 E21.37203
G1 X84.141 Y51.290 E21.47139
G1 X84.141 Y51.669 E21.48406
G1 X82.419 Y53.391 E21.56550
G1 X82.798 Y53.391 E21.57817
G1 X84.141 Y52.048 E21.64170
G1 X84.141 Y52.427 E21.65437
G1 X83.177 Y53.391 E21.69997
G1 X83.556 Y53.391 E21.71264
G1 X84.141 Y52.806 E21.74034
G1 X84.141 Y53.185 E21.75300
G1 X83.935 Y53.391 E21.76278
M106 S255
G1 Z0.500 F7800.000
G1 E19.76278 F2400.00000
G92 E0
G1 X65.677 Y96.427 F7800.000
G1 E2.00000 F2400.00000
G1 F2400.000
G1 X84.323 Y96.427 E2.80168
G1 X84.323 Y105.073 E3.17342
G1 X65.677 Y105.073 E3.97510
G1 X65.677 Y96.487 E4.34425
G1 X65.220 Y95.970 F7800.000
G1 F2160.000
G1 X84.780 Y95.970 E4.99007
G1 X84.780 Y105.530 E5.30572
G1 X65.220 Y105.530 E5.95153
G1 X65.220 Y96.030 E6.26520
G1 E4.26520 F2400.00000
G92 E0
G1 X65.993 Y104.355 F7800.000
G1 E2.00000 F2400.00000
G1 F1800.000
G1 X66.395 Y104.757 E2.02482
G1 X67.137 Y104.757 E2.05718
G1 X65.993 Y103.613 E2.12776
G1 X65.993 Y102.871 E2.16012
G1 X67.879 Y104.757 E2.27646
G1 X68.621 Y104.757 E2.30882
G1 X65.993 Y102.129 E2.47093
G1 X65.993 Y101.387 E2.50329
G1 X69.363 Y104.757 E2.71116
G1 X70.105 Y104.757 E2.74352
G1 X65.993 Y100.645 E2.99715
G1 X65.993 Y99.903 E3.02950
G1 X70.847 Y104.757 E3.32890
G1 X71.588 Y104.757 E3.36125
G1 X65.993 Y99.162 E3.70641
G1 X65.993 Y98.420 E3.73877
G1 X72.330 Y104.757 E4.12968
G1 X73.072 Y104.757 E4.16204
G1 X65.993 Y97.678 E4.59872
G1 X65.993 Y96.936 E4.63108
G1 X73.814 Y104.757 E5.11352
G1 X74.556 Y104.757 E5.14588
G1 X66.542 Y96.743 E5.64022
G1 X67.284 Y96.743 E5.67258
G1 X75.298 Y104.757 E6.16692
G1 X76.040 Y104.757 E6.19928
G1 X68.026 Y96.743 E6.69362
G1 X68.767 Y96.743 E6.72598
G1 X76.781 Y104.757 E7.22033
G1 X77.523 Y104.757 E7.25269
G1 X69.509 Y96.743 E7.74703
G1 X70.251 Y96.743 E7.77939
G1 X78.265 Y104.757 E8.27373
G1 X79.007 Y104.757 E8.30609
G1 X70.993 Y96.743 E8.80043
G1 X71.735 Y96.743 E8.83279
G1 X79.749 Y104.757 E9.32714
G1 X80.491 Y104.757 E9.35949
G1 X72.477 Y96.743 E9.85384
G1 X73.219 Y96.743 E9.88620
G1 X81.233 Y104.757 E10.38054
G1 X81.974 Y104.757 E10.41290
G1 X73.960 Y96.743 E10.90724
G1 X74.702 Y96.743 E10.93960
G1 X82.716 Y104.757 E11.43395
G1 X83.458 Y104.757 E11.46630
G1 X75.444 Y96.743 E11.96065
G1 X76.186 Y96.743 E11.99301
G1 X84.007 Y104.564 E12.47544
G1 X84.007 Y103.822 E12.50780
G1 X76.928 Y96.743 E12.94448
G1 X77.670 Y96.743 E12.97684
G1 X84.007 Y103.080 E13.36775
G1 X84.007 Y102.338 E13.40011
G1 X78.412 Y96.743 E13.74526
G1 X79.153 Y96.743 E13.77762
G1 X84.007 Y101.597 E14.07701
G1 X84.007 Y100.855 E14.10937
G1 X79.895 Y96.743 E14.36299
G1 X80.637 Y96.743 E14.39535
G1 X84.007 Y100.113 E14.60322
G1 X84.007 Y99.371 E14.63558
G1 X81.379 Y96.743 E14.79768
G1 X82.121 Y96.743 E14.83004
G1 X84.007 Y98.629 E14.94638
G1 X84.007 Y97.887 E14.97874
G1 X82.863 Y96.743 E15.04932
G1 X83.605 Y96.743 E15.08168
G1 X84.007 Y97.145 E15.10650
G1 E13.10650 F2400.00000
G92 E0
G1 X65.677 Y53.573 F7800.000
G1 E2.00000 F2400.00000
G1 F2400.000
G1 X65.677 Y44.927 E2.37173
G1 X84.323 Y44.927 E3.17342
G1 X84.323 Y53.573 E3.54515
G1 X65.737 Y53.573 E4.34425
G1 X65.220 Y54.030 F7800.000
G1 F2160.000
G1 X65.220 Y44.470 E4.65990
G1 X84.780 Y44.470 E5.30572
G1 X84.780 Y54.030 E5.62136
G1 X65.280 Y54.030 E6.26520
G1 X65.993 Y52.855 F7800.000
G1 F1800.000
G1 X66.395 Y53.257 E6.29002
G1 X67.137 Y53.257 E6.32238
G1 X65.993 Y52.113 E6.39296
G1 X65.993 Y51.371 E6.42532
G1 X67.879 Y53.257 E6.54166
G1 X68.621 Y53.257 E6.57402
G1 X65.993 Y50.629 E6.73613
G1 X65.993 Y49.887 E6.76849
G1 X69.363 Y53.257 E6.97636
G1 X70.105 Y53.257 E7.00871
G1 X65.993 Y49.145 E7.26234
G1 X65.993 Y48.403 E7.29470
G1 X70.847 Y53.257 E7.59410
G1 X71.588 Y53.257 E7.62645
G1 X65.993 Y47.662 E7.97161
G1 X65.993 Y46.920 E8.00397
G1 X72.330 Y53.257 E8.39488
G1 X73.072 Y53.257 E8.42724
G1 X65.993 Y46.178 E8.86392
G1 X65.993 Y45.436 E8.89628
G1 X73.814 Y53.257 E9.37872
G1 X74.556 Y53.257 E9.41108
G1 X66.542 Y45.243 E9.90542
G1 X67.284 Y45.243 E9.93778
G1 X75.298 Y53.257 E10.43212
G1 X76.040 Y53.257 E10.46448
G1 X68.026 Y45.243 E10.95882
G1 X68.767 Y45.243 E10.99118
G1 X76.781 Y53.257 E11.48553
G1 X77.523 Y53.257 E11.51789
G1 X69.509 Y45.243 E12.01223
G1 X70.251 Y45.243 E12.04459
G1 X78.265 Y53.257 E12.53893
G1 X79.007 Y53.257 E12.57129
G1 X70.993 Y45.243 E13.06563
G1 X71.735 Y45.243 E13.09799
G1 X79.749 Y53.257 E13.59234
G1 X80.491 Y53.257 E13.62470
G1 X72.477 Y45.243 E14.11904
G1 X73.219 Y45.243 E14.15140
G1 X81.233 Y53.257 E14.64574
G1 X81.974 Y53.257 E14.67810
G1 X73.960 Y45.243 E15.17244
G1 X74.702 Y45.243 E15.20480
G1 X82.716 Y53.257 E15.69915
G1 X83.458 Y53.257 E15.73150
G1 X75.444 Y45.243 E16.22585
G1 X76.186 Y45.243 E16.25821
G1 X84.007 Y53.064 E16.74064
G1 X84.007 Y52.322 E16.77300
G1 X76.928 Y45.243 E17.20968
G1 X77.670 Y45.243 E17.24204
G1 X84.007 Y51.580 E17.63295
G1 X84.007 Y50.838 E17.66531
G1 X78.412 Y45.243 E18.01046
G1 X79.153 Y45.243 E18.04282
G1 X84.007 Y50.097 E18.34221
G1 X84.007 Y49.355 E18.37457
G1 X79.895 Y45.243 E18.62820
G1 X80.637 Y45.243 E18.66055
G1 X84.007 Y48.613 E18.86842
G1 X84.007 Y47.871 E18.90078
G1 X81.379 Y45.243 E19.06288
G1 X82.121 Y45.243 E19.09524
G1 X84.007 Y47.129 E19.21158
G1 X84.007 Y46.387 E19.24394
G1 X82.863 Y45.243 E19.31452
G1 X83.605 Y45.243 E19.34688
G1 X84.007 Y45.645 E19.37170
G1 Z0.700 F7800.000
G1 E17.37170 F2400.00000
G92 E0
G1 X65.677 Y96.427 F7800.000
G1 E2.00000 F2400.00000
G1 F2400.000
G1 X84.323 Y96.427 E2.80168
G1 X84.323 Y105.073 E3.17342
G1 X65.677 Y105.073 E3.97510
G1 X65.677 Y96.487 E4.34425
G1 X65.220 Y95.970 F7800.000
G1 F2160.000
G1 X84.780 Y95.970 E4.99007
G1 X84.780 Y105.530 E5.30572
G1 X65.220 Y105.530 E5.95153
G1 X65.220 Y96.030 E6.26520
G1 X66.395 Y96.743 F7800.000
G1 F1800.000
G1 X65.993 Y97.145 E6.29002
G1 X65.993 Y97.887 E6.32238
G1 X67.137 Y96.743 E6.39296
G1 X67.879 Y96.743 E6.42532
G1 X65.993 Y98.629 E6.54166
G1 X65.993 Y99.371 E6.57402
G1 X68.621 Y96.743 E6.73613
G1 X69.363 Y96.743 E6.76849
G1 X65.993 Y100.113 E6.97635
G1 X65.993 Y100.855 E7.00871
G1 X70.105 Y96.743 E7.26234
G1 X70.847 Y96.743 E7.29470
G1 X65.993 Y101.597 E7.59409
G1 X65.993 Y102.338 E7.62645
G1 X71.588 Y96.743 E7.97161
G1 X72.330 Y96.743 E8.00397
G1 X65.993 Y103.080 E8.39488
G1 X65.993 Y103.822 E8.42724
G1 X73.072 Y96.743 E8.86392
G1 X73.814 Y96.743 E8.89628
