; generated by Slic3r 1.3.1-dev (Build 2ef957d) on 2019-11-25 at 09:21:28

; external perimeters extrusion width = 0.55mm (4.37mm^3/s)
; perimeters extrusion width = 0.70mm (11.44mm^3/s)
; infill extrusion width = 0.62mm (13.45mm^3/s)
; solid infill extrusion width = 0.70mm (3.81mm^3/s)
; top infill extrusion width = 0.70mm (2.86mm^3/s)

M107
G92 E0
M104 S200 ; set temperature
G28 ; home all axes
G1 Z5 F5000 ; lift nozzle

; Filament gcode

M109 S200 ; set temperature and wait for it to be reached
G21 ; set units to millimeters
G90 ; use absolute coordinates
M82 ; use absolute distances for extrusion
G92 E0
G1 Z0.350 F7800.000
G1 E-2.00000 F2400.00000
G92 E0
G1 X69.829 Y68.682 F7800.000
G1 E2.00000 F2400.00000
G1 F1800.000
G1 X70.492 Y68.071 E2.02789
G1 X71.217 Y67.530 E2.05588
G1 X72.180 Y66.975 E2.09027
G1 X73.006 Y66.619 E2.11813
G1 X73.869 Y66.350 E2.14608
G1 X74.756 Y66.172 E2.17406
G1 X75.652 Y66.089 E2.20191
G1 X124.000 Y66.080 E3.69787
G1 X124.557 Y66.100 E3.71511
G1 X125.451 Y66.205 E3.74296
G1 X126.333 Y66.404 E3.77095
G1 X127.189 Y66.694 E3.79890
G1 X128.007 Y67.070 E3.82676
G1 X128.783 Y67.530 E3.85468
G1 X129.508 Y68.071 E3.88267
G1 X130.171 Y68.682 E3.91057
G1 X130.767 Y69.361 E3.93852
G1 X131.288 Y70.096 E3.96638
G1 X131.730 Y70.883 E3.99432
G1 X132.012 Y71.518 E4.01581
G1 X132.355 Y72.574 E4.05017
G1 X132.533 Y73.461 E4.07817
G1 X132.616 Y74.357 E4.10599
G1 X132.625 Y125.295 E5.68209
G1 X132.605 Y125.852 E5.69934
G1 X132.500 Y126.745 E5.72717
G1 X132.301 Y127.628 E5.75517
G1 X132.012 Y128.482 E5.78306
G1 X131.635 Y129.303 E5.81102
G1 X131.174 Y130.079 E5.83895
G1 X130.635 Y130.802 E5.86682
G1 X130.023 Y131.466 E5.89477
G1 X129.346 Y132.061 E5.92267
G1 X128.783 Y132.470 E5.94419
G1 X128.007 Y132.930 E5.97211
G1 X127.189 Y133.306 E5.99996
G1 X126.131 Y133.650 E6.03438
G1 X125.244 Y133.828 E6.06237
G1 X124.348 Y133.911 E6.09022
G1 X76.000 Y133.920 E7.58617
G1 X75.443 Y133.900 E7.60342
G1 X74.549 Y133.795 E7.63127
G1 X73.667 Y133.596 E7.65925
G1 X72.811 Y133.306 E7.68721
G1 X71.993 Y132.930 E7.71506
G1 X71.217 Y132.470 E7.74298
G1 X70.492 Y131.929 E7.77097
G1 X69.829 Y131.318 E7.79887
G1 X69.233 Y130.639 E7.82683
G1 X68.712 Y129.904 E7.85469
G1 X68.270 Y129.117 E7.88263
G1 X67.988 Y128.482 E7.90411
G1 X67.699 Y127.628 E7.93201
G1 X67.500 Y126.745 E7.96000
G1 X67.395 Y125.852 E7.98784
G1 X67.375 Y125.295 E8.00509
G1 X67.384 Y74.357 E9.58118
G1 X67.467 Y73.461 E9.60901
G1 X67.645 Y72.574 E9.63701
G1 X67.988 Y71.518 E9.67137
G1 X68.270 Y70.883 E9.69285
G1 X68.712 Y70.096 E9.72079
G1 X69.233 Y69.361 E9.74865
G1 X69.779 Y68.738 E9.77429
G1 E7.77429 F2400.00000
G92 E0
G1 X105.425 Y125.694 F7800.000
G1 E2.00000 F2400.00000
G1 F1800.000
G1 X105.425 Y123.895 E2.05568
G1 X116.042 Y123.895 E2.38419
G1 X116.690 Y123.861 E2.40427
G1 X117.373 Y123.753 E2.42566
G1 X118.040 Y123.574 E2.44704
G1 X118.685 Y123.326 E2.46842
G1 X119.301 Y123.012 E2.48980
G1 X119.880 Y122.636 E2.51118
G1 X120.418 Y122.201 E2.53256
G1 X120.906 Y121.712 E2.55395
G1 X121.341 Y121.176 E2.57533
G1 X121.717 Y120.596 E2.59671
G1 X122.031 Y119.980 E2.61809
G1 X122.279 Y119.335 E2.63947
G1 X122.458 Y118.668 E2.66085
G1 X122.566 Y117.985 E2.68223
G1 X122.600 Y117.337 E2.70232
G1 X122.600 Y82.663 E3.77517
G1 X122.566 Y82.015 E3.79525
G1 X122.458 Y81.332 E3.81663
G1 X122.279 Y80.665 E3.83801
G1 X122.031 Y80.020 E3.85940
G1 X121.717 Y79.404 E3.88078
G1 X121.341 Y78.824 E3.90216
G1 X120.906 Y78.288 E3.92354
G1 X120.418 Y77.799 E3.94492
G1 X119.880 Y77.364 E3.96631
G1 X119.301 Y76.988 E3.98768
G1 X118.685 Y76.674 E4.00907
G1 X118.040 Y76.426 E4.03045
G1 X117.373 Y76.247 E4.05183
G1 X116.690 Y76.139 E4.07321
G1 X116.042 Y76.105 E4.09330
G1 X105.425 Y76.105 E4.42181
G1 X105.425 Y74.306 E4.47749
G1 X124.041 Y74.316 E5.05348
G1 X124.121 Y74.333 E5.05603
G1 X124.215 Y74.375 E5.05920
G1 X124.351 Y74.526 E5.06551
G1 X124.383 Y74.624 E5.06869
G1 X124.400 Y74.789 E5.07383
G1 X124.400 Y125.211 E6.63396
G1 X124.378 Y125.418 E6.64039
G1 X124.306 Y125.543 E6.64486
G1 X124.215 Y125.625 E6.64867
G1 X124.041 Y125.684 E6.65436
G1 X105.500 Y125.694 E7.22804
G1 X104.800 Y126.320 F7800.000
G1 F1800.000
G1 X104.800 Y123.270 E7.32240
G1 X116.026 Y123.270 E7.66973
G1 X116.625 Y123.238 E7.68830
G1 X117.243 Y123.141 E7.70766
G1 X117.847 Y122.979 E7.72701
G1 X118.431 Y122.755 E7.74636
G1 X118.988 Y122.471 E7.76572
G1 X119.513 Y122.130 E7.78507
G1 X119.999 Y121.736 E7.80443
G1 X120.441 Y121.294 E7.82379
G1 X120.835 Y120.808 E7.84314
G1 X121.176 Y120.283 E7.86249
G1 X121.460 Y119.726 E7.88185
G1 X121.684 Y119.142 E7.90121
G1 X121.846 Y118.537 E7.92056
G1 X121.943 Y117.920 E7.93991
G1 X121.975 Y117.321 E7.95848
G1 X121.975 Y82.679 E9.03032
G1 X121.943 Y82.080 E9.04888
G1 X121.846 Y81.463 E9.06823
G1 X121.684 Y80.858 E9.08759
G1 X121.460 Y80.274 E9.10695
G1 X121.176 Y79.717 E9.12630
G1 X120.835 Y79.192 E9.14566
G1 X120.441 Y78.706 E9.16501
G1 X119.999 Y78.264 E9.18437
G1 X119.513 Y77.870 E9.20372
G1 X118.988 Y77.529 E9.22307
G1 X118.431 Y77.245 E9.24243
G1 X117.847 Y77.021 E9.26179
G1 X117.243 Y76.859 E9.28114
G1 X116.625 Y76.762 E9.30050
G1 X116.026 Y76.730 E9.31906
G1 X104.800 Y76.730 E9.66640
G1 X104.800 Y73.680 E9.76076
G1 X124.106 Y73.691 E10.35813
G1 X124.315 Y73.735 E10.36473
G1 X124.580 Y73.863 E10.37384
G1 X124.758 Y74.023 E10.38123
G1 X124.898 Y74.216 E10.38862
G1 X124.997 Y74.493 E10.39772
G1 X125.025 Y74.756 E10.40591
G1 X125.025 Y125.244 E11.96807
G1 X124.974 Y125.611 E11.97955
G1 X124.812 Y125.917 E11.99024
G1 X124.580 Y126.137 E12.00013
G1 X124.315 Y126.265 E12.00924
G1 X124.106 Y126.309 E12.01584
G1 X104.875 Y126.320 E12.61089
G1 X104.175 Y126.945 F7800.000
G1 F1800.000
G1 X104.175 Y122.645 E12.74393
G1 X116.009 Y122.645 E13.11010
G1 X116.559 Y122.616 E13.12714
G1 X117.112 Y122.529 E13.14447
G1 X117.653 Y122.384 E13.16180
G1 X118.176 Y122.183 E13.17913
G1 X118.675 Y121.929 E13.19646
G1 X119.145 Y121.624 E13.21379
G1 X119.580 Y121.271 E13.23111
G1 X119.976 Y120.875 E13.24844
G1 X120.329 Y120.440 E13.26577
G1 X120.634 Y119.970 E13.28310
G1 X120.888 Y119.471 E13.30043
G1 X121.089 Y118.948 E13.31776
G1 X121.234 Y118.407 E13.33509
G1 X121.321 Y117.854 E13.35241
G1 X121.350 Y117.304 E13.36946
G1 X121.350 Y82.696 E14.44028
G1 X121.321 Y82.146 E14.45733
G1 X121.234 Y81.593 E14.47466
G1 X121.089 Y81.052 E14.49198
G1 X120.888 Y80.529 E14.50931
G1 X120.634 Y80.030 E14.52664
G1 X120.329 Y79.560 E14.54397
G1 X119.976 Y79.125 E14.56130
G1 X119.580 Y78.729 E14.57863
G1 X119.145 Y78.376 E14.59596
G1 X118.675 Y78.071 E14.61328
G1 X118.176 Y77.817 E14.63061
G1 X117.653 Y77.616 E14.64794
G1 X117.112 Y77.471 E14.66527
G1 X116.559 Y77.384 E14.68260
G1 X116.009 Y77.355 E14.69964
G1 X104.175 Y77.355 E15.06581
G1 X104.175 Y73.055 E15.19885
G1 X124.172 Y73.066 E15.81759
G1 X124.509 Y73.138 E15.82825
G1 X124.832 Y73.282 E15.83920
G1 X124.962 Y73.366 E15.84397
G1 X125.225 Y73.602 E15.85492
G1 X125.433 Y73.888 E15.86586
G1 X125.503 Y74.026 E15.87064
G1 X125.612 Y74.362 E15.88158
G1 X125.650 Y74.723 E15.89281
G1 X125.650 Y125.277 E17.45700
G1 X125.611 Y125.647 E17.46852
G1 X125.569 Y125.805 E17.47357
G1 X125.510 Y125.957 E17.47863
G1 X125.329 Y126.272 E17.48986
G1 X125.232 Y126.392 E17.49464
G1 X124.962 Y126.634 E17.50587
G1 X124.832 Y126.718 E17.51064
G1 X124.509 Y126.862 E17.52159
G1 X124.172 Y126.934 E17.53225
G1 X104.250 Y126.945 E18.14867
G1 X104.424 Y126.511 F7800.000
G1 E16.14867 F2400.00000
G92 E0
G1 X106.702 Y124.277 F7800.000
G1 E2.00000 F2400.00000
G1 F1800.000
G1 X105.807 Y125.172 E2.03958
G1 X105.807 Y125.312 E2.04396
G1 X106.560 Y125.312 E2.06750
G1 X107.595 Y124.277 E2.11326
G1 X108.487 Y124.277 E2.14117
G1 X107.453 Y125.311 E2.18691
G1 X108.346 Y125.311 E2.21483
G1 X109.380 Y124.277 E2.26055
G1 X110.273 Y124.277 E2.28846
G1 X109.239 Y125.310 E2.33416
G1 X110.133 Y125.310 E2.36208
G1 X111.166 Y124.277 E2.40776
G1 X112.059 Y124.277 E2.43567
G1 X111.026 Y125.309 E2.48132
G1 X111.919 Y125.309 E2.50925
G1 X112.952 Y124.277 E2.55488
G1 X113.844 Y124.277 E2.58279
G1 X112.813 Y125.308 E2.62840
G1 X113.706 Y125.308 E2.65633
G1 X114.737 Y124.277 E2.70192
G1 X115.630 Y124.277 E2.72983
G1 X114.599 Y125.307 E2.77540
G1 X115.492 Y125.307 E2.80332
G1 X116.535 Y124.264 E2.84941
G1 X116.999 Y124.240 E2.86392
G1 X117.538 Y124.155 E2.88098
G1 X116.386 Y125.306 E2.93190
G1 X117.279 Y125.306 E2.95982
G1 X118.773 Y123.812 E3.02587
G1 X119.183 Y123.655 E3.03958
G1 X119.857 Y123.311 E3.06324
G1 X120.491 Y122.899 E3.08688
G1 X120.950 Y122.528 E3.10533
G1 X118.172 Y125.306 E3.22812
G1 X119.066 Y125.305 E3.25605
G1 X124.018 Y120.352 E3.47499
G1 X124.018 Y121.245 E3.50290
G1 X119.959 Y125.305 E3.68236
G1 X120.852 Y125.304 E3.71028
G1 X124.018 Y122.138 E3.85025
G1 X124.018 Y123.031 E3.87816
G1 X121.746 Y125.304 E3.97863
G1 X122.639 Y125.303 E4.00656
G1 X124.018 Y123.924 E4.06754
G1 X124.018 Y124.816 E4.09545
G1 X123.532 Y125.303 E4.11694
G1 E2.11694 F2400.00000
G92 E0
G1 X121.233 Y122.245 F7800.000
G1 E2.00000 F2400.00000
G1 F1800.000
G1 X124.018 Y119.460 E2.12315
G1 X124.018 Y118.567 E2.15106
G1 X122.517 Y120.068 E2.21743
G1 X122.631 Y119.771 E2.22736
G1 X122.827 Y119.041 E2.25101
G1 X122.860 Y118.833 E2.25760
G1 X124.018 Y117.674 E2.30882
G1 X124.018 Y116.781 E2.33673
G1 X122.969 Y117.830 E2.38311
G1 X122.982 Y116.925 E2.41140
G1 X124.018 Y115.888 E2.45723
G1 X124.018 Y114.995 E2.48514
G1 X122.982 Y116.032 E2.53098
G1 X122.982 Y115.139 E2.55888
G1 X124.018 Y114.103 E2.60472
G1 X124.018 Y113.210 E2.63263
G1 X122.982 Y114.247 E2.67846
G1 X122.982 Y113.354 E2.70637
G1 X124.018 Y112.317 E2.75220
G1 X124.018 Y111.424 E2.78011
G1 X122.982 Y112.461 E2.82594
G1 X122.982 Y111.568 E2.85385
G1 X124.018 Y110.531 E2.89968
G1 X124.018 Y109.639 E2.92759
G1 X122.982 Y110.675 E2.97343
G1 X122.982 Y109.782 E3.00134
G1 X124.018 Y108.746 E3.04717
G1 X124.018 Y107.853 E3.07508
G1 X122.982 Y108.890 E3.12091
G1 X122.982 Y107.997 E3.14882
G1 X124.018 Y106.960 E3.19465
G1 X124.018 Y106.067 E3.22256
G1 X122.982 Y107.104 E3.26839
G1 X122.982 Y106.211 E3.29630
G1 X124.018 Y105.174 E3.34214
G1 X124.018 Y104.282 E3.37004
G1 X122.982 Y105.318 E3.41588
G1 X122.982 Y104.426 E3.44379
G1 X124.018 Y103.389 E3.48962
G1 X124.018 Y102.496 E3.51753
G1 X122.982 Y103.533 E3.56336
G1 X122.982 Y102.640 E3.59127
G1 X124.018 Y101.603 E3.63710
G1 X124.018 Y100.710 E3.66501
G1 X122.982 Y101.747 E3.71085
G1 X122.982 Y100.854 E3.73875
G1 X124.018 Y99.818 E3.78459
G1 X124.018 Y98.925 E3.81250
G1 X122.982 Y99.961 E3.85833
G1 X122.982 Y99.069 E3.88624
G1 X124.018 Y98.032 E3.93207
G1 X124.018 Y97.139 E3.95998
G1 X122.982 Y98.176 E4.00581
G1 X122.982 Y97.283 E4.03372
G1 X124.018 Y96.246 E4.07955
G1 X124.018 Y95.353 E4.10746
G1 X122.982 Y96.390 E4.15330
G1 X122.982 Y95.497 E4.18121
G1 X124.018 Y94.461 E4.22704
G1 X124.018 Y93.568 E4.25495
G1 X122.982 Y94.605 E4.30078
G1 X122.982 Y93.712 E4.32869
G1 X124.018 Y92.675 E4.37452
G1 X124.018 Y91.782 E4.40243
G1 X122.982 Y92.819 E4.44826
G1 X122.982 Y91.926 E4.47617
G1 X124.018 Y90.889 E4.52201
G1 X124.018 Y89.997 E4.54991
G1 X122.982 Y91.033 E4.59575
G1 X122.982 Y90.141 E4.62366
G1 X124.018 Y89.104 E4.66949
G1 X124.018 Y88.211 E4.69740
G1 X122.982 Y89.248 E4.74323
G1 X122.982 Y88.355 E4.77114
G1 X124.018 Y87.318 E4.81697
G1 X124.018 Y86.425 E4.84488
G1 X122.982 Y87.462 E4.89071
G1 X122.982 Y86.569 E4.91862
G1 X124.018 Y85.532 E4.96446
G1 X124.018 Y84.640 E4.99237
G1 X122.982 Y85.676 E5.03820
G1 X122.982 Y84.784 E5.06611
G1 X124.018 Y83.747 E5.11194
G1 X124.018 Y82.854 E5.13985
G1 X122.982 Y83.891 E5.18568
G1 X122.982 Y82.998 E5.21359
G1 X124.018 Y81.961 E5.25942
G1 X124.018 Y81.068 E5.28733
G1 X122.938 Y82.149 E5.33509
G1 X122.810 Y81.384 E5.35933
G1 X124.018 Y80.176 E5.41274
G1 X124.018 Y79.283 E5.44065
G1 X122.619 Y80.683 E5.50253
G1 X122.371 Y80.037 E5.52413
G1 X124.018 Y78.390 E5.59696
G1 X124.018 Y77.497 E5.62487
G1 X122.072 Y79.443 E5.71092
G1 X121.730 Y78.893 E5.73118
G1 X124.018 Y76.604 E5.83236
G1 X124.018 Y75.711 E5.86026
G1 X121.347 Y78.382 E5.97834
G1 X121.128 Y78.112 E5.98923
G1 X120.927 Y77.910 E5.99814
G1 X124.018 Y74.819 E6.13481
G1 X124.018 Y74.697 E6.13860
G1 X123.247 Y74.697 E6.16271
G1 X120.468 Y77.476 E6.28555
G1 X119.972 Y77.079 E6.30541
G1 X122.355 Y74.696 E6.41075
G1 X121.463 Y74.696 E6.43864
G1 X119.431 Y76.728 E6.52846
G1 X118.845 Y76.421 E6.54913
G1 X120.570 Y74.696 E6.62540
G1 X119.678 Y74.695 E6.65330
G1 X118.213 Y76.160 E6.71804
G1 X117.990 Y76.074 E6.72551
G1 X117.530 Y75.951 E6.74042
G1 X118.786 Y74.695 E6.79595
G1 X117.893 Y74.694 E6.82384
G1 X116.784 Y75.803 E6.87287
G1 X116.512 Y75.760 E6.88147
G1 X115.963 Y75.731 E6.89866
G1 X117.001 Y74.694 E6.94453
G1 X116.109 Y74.693 E6.97242
G1 X115.078 Y75.723 E7.01797
G1 X114.186 Y75.723 E7.04587
G1 X115.216 Y74.693 E7.09144
G1 X114.324 Y74.692 E7.11934
G1 X113.293 Y75.723 E7.16492
G1 X112.400 Y75.723 E7.19283
G1 X113.432 Y74.692 E7.23844
G1 X112.539 Y74.691 E7.26634
G1 X111.507 Y75.723 E7.31197
G1 X110.614 Y75.723 E7.33988
G1 X111.647 Y74.691 E7.38553
G1 X110.755 Y74.690 E7.41342
G1 X109.721 Y75.723 E7.45910
G1 X108.829 Y75.723 E7.48700
G1 X109.862 Y74.690 E7.53270
G1 X108.970 Y74.689 E7.56059
G1 X107.936 Y75.723 E7.60631
G1 X107.043 Y75.723 E7.63422
G1 X108.078 Y74.689 E7.67996
G1 X107.185 Y74.688 E7.70785
G1 X106.150 Y75.723 E7.75361
G1 X105.807 Y75.723 E7.76435
G1 X105.807 Y75.174 E7.78152
G1 X106.293 Y74.688 E7.80301
G1 E5.80301 F2400.00000
G92 E0
G1 X94.575 Y125.695 F7800.000
G1 E2.00000 F2400.00000
G1 F1800.000
G1 X76.084 Y125.695 E2.57215
G1 X75.841 Y125.653 E2.57978
G1 X75.734 Y125.591 E2.58361
G1 X75.649 Y125.474 E2.58808
G1 X75.617 Y125.376 E2.59125
G1 X75.600 Y125.211 E2.59639
G1 X75.600 Y74.789 E4.15652
G1 X75.617 Y74.624 E4.16166
G1 X75.649 Y74.526 E4.16483
G1 X75.785 Y74.375 E4.17115
G1 X75.879 Y74.333 E4.17432
G1 X75.959 Y74.316 E4.17686
G1 X94.575 Y74.306 E4.75286
G1 X94.575 Y76.105 E4.80854
G1 X83.958 Y76.105 E5.13705
G1 X83.310 Y76.139 E5.15713
G1 X82.627 Y76.247 E5.17852
G1 X81.960 Y76.426 E5.19990
G1 X81.315 Y76.674 E5.22128
G1 X80.699 Y76.988 E5.24266
G1 X80.120 Y77.364 E5.26404
G1 X79.582 Y77.799 E5.28542
G1 X79.094 Y78.288 E5.30681
G1 X78.659 Y78.824 E5.32819
G1 X78.283 Y79.404 E5.34957
G1 X77.969 Y80.020 E5.37095
G1 X77.721 Y80.665 E5.39233
G1 X77.542 Y81.332 E5.41372
G1 X77.434 Y82.015 E5.43509
G1 X77.400 Y82.663 E5.45518
G1 X77.400 Y117.337 E6.52803
G1 X77.434 Y117.985 E6.54812
G1 X77.542 Y118.668 E6.56949
G1 X77.721 Y119.335 E6.59087
G1 X77.969 Y119.980 E6.61226
G1 X78.283 Y120.596 E6.63364
G1 X78.659 Y121.176 E6.65502
G1 X79.094 Y121.712 E6.67640
G1 X79.582 Y122.201 E6.69779
G1 X80.120 Y122.636 E6.71917
G1 X80.699 Y123.012 E6.74055
G1 X81.315 Y123.326 E6.76193
G1 X81.960 Y123.574 E6.78331
G1 X82.627 Y123.753 E6.80469
G1 X83.310 Y123.861 E6.82608
G1 X83.958 Y123.895 E6.84616
G1 X94.575 Y123.895 E7.17467
G1 X94.575 Y125.620 E7.22805
G1 X95.200 Y126.320 F7800.000
G1 F1800.000
G1 X76.051 Y126.320 E7.82055
G1 X75.788 Y126.292 E7.82873
G1 X75.585 Y126.227 E7.83533
G1 X75.378 Y126.107 E7.84273
G1 X75.257 Y125.998 E7.84776
G1 X75.076 Y125.734 E7.85767
G1 X75.003 Y125.507 E7.86506
G1 X74.975 Y125.244 E7.87324
G1 X74.975 Y74.756 E9.43540
G1 X75.003 Y74.493 E9.44359
G1 X75.102 Y74.216 E9.45269
G1 X75.242 Y74.023 E9.46008
G1 X75.420 Y73.863 E9.46747
G1 X75.685 Y73.735 E9.47658
G1 X75.894 Y73.691 E9.48318
G1 X95.200 Y73.680 E10.08055
G1 X95.200 Y76.730 E10.17491
G1 X83.974 Y76.730 E10.52225
G1 X83.375 Y76.762 E10.54081
G1 X82.757 Y76.859 E10.56017
G1 X82.153 Y77.021 E10.57952
G1 X81.569 Y77.245 E10.59888
G1 X81.012 Y77.529 E10.61824
G1 X80.487 Y77.870 E10.63759
G1 X80.001 Y78.264 E10.65694
G1 X79.559 Y78.706 E10.67630
G1 X79.165 Y79.192 E10.69565
G1 X78.824 Y79.717 E10.71501
G1 X78.540 Y80.274 E10.73437
G1 X78.316 Y80.858 E10.75372
G1 X78.154 Y81.463 E10.77308
G1 X78.057 Y82.080 E10.79243
G1 X78.025 Y82.679 E10.81099
G1 X78.025 Y117.321 E11.88283
G1 X78.057 Y117.920 E11.90140
G1 X78.154 Y118.537 E11.92075
G1 X78.316 Y119.142 E11.94010
G1 X78.540 Y119.726 E11.95946
G1 X78.824 Y120.283 E11.97882
G1 X79.165 Y120.808 E11.99817
G1 X79.559 Y121.294 E12.01753
G1 X80.001 Y121.736 E12.03688
