; Gcode updated with 'stl_info' on 2019-12-09 21:16:49.060077

; stl_min_x = -115.0
; stl_max_x = 115.0
; stl_min_y = -5.199999809265137
; stl_max_y = 65.4000015258789
; stl_min_z = -18.975000381469727

; generated by Slic3r 1.3.1-dev (Build adea0d9) on 2019-12-09 at 21:16:48

; external perimeters extrusion width = 0.44mm (2.86mm^3/s)
; perimeters extrusion width = 0.56mm (4.14mm^3/s)
; infill extrusion width = 0.50mm (3.66mm^3/s)
; solid infill extrusion width = 0.56mm (3.10mm^3/s)
; top infill extrusion width = 0.56mm (3.10mm^3/s)

M107
G92 E0
;D3D:START:START
T0
M104 S215 T0

G21
G90
M107
T0
G28
G29
M109 T0 S215 T0
G0 F3000
M107
T0
G92 E0
G0 X0 Y149 Z0.1 F3600
G1 Y49 E6.5 F1200
G0 Z1
G92 E0
; Filament gcode

G21 ; set units to millimeters
G90 ; use absolute coordinates
M82 ; use absolute distances for extrusion
G92 E0
G1 Z0.300 F7800.000
G1 E-2.00000 F2400.00000
G92 E0
G1 X62.971 Y91.115 F7800.000
G1 E2.00000 F2400.00000
G1 F1800.000
G1 X71.002 Y91.159 E2.26608
G1 X71.024 Y95.264 E2.40210
G1 X62.993 Y95.221 E2.66818
G1 X62.971 Y91.175 E2.80222
G1 X63.238 Y91.383 F7800.000
G1 F1800.000
G1 X70.738 Y91.423 E3.05070
G1 X70.757 Y94.997 E3.16912
G1 X63.257 Y94.957 E3.41760
G1 X63.238 Y91.443 E3.53404
G1 X63.505 Y91.650 F7800.000
G1 F1800.000
G1 X70.474 Y91.687 E3.76492
G1 X70.490 Y94.730 E3.86574
G1 X63.521 Y94.693 E4.09662
G1 X63.505 Y91.710 E4.19546
G1 E2.19546 F2400.00000
G92 E0
G1 X75.404 Y93.454 F7800.000
G1 E2.00000 F2400.00000
G1 F1800.000
G1 X75.404 Y86.346 E2.23549
G1 X79.496 Y86.346 E2.37108
G1 X79.496 Y93.454 E2.60657
G1 X75.464 Y93.454 E2.74016
G1 X75.669 Y93.189 F7800.000
G1 F1800.000
G1 X75.669 Y86.611 E2.95806
G1 X79.231 Y86.611 E3.07604
G1 X79.231 Y93.189 E3.29393
G1 X75.729 Y93.189 E3.40993
G1 X75.935 Y92.923 F7800.000
G1 F1800.000
G1 X75.935 Y86.877 E3.61022
G1 X78.965 Y86.877 E3.71060
G1 X78.965 Y92.923 E3.91090
G1 X75.995 Y92.923 E4.00929
G1 E2.00929 F2400.00000
G92 E0
G1 X54.596 Y93.454 F7800.000
G1 E2.00000 F2400.00000
G1 F1800.000
G1 X50.504 Y93.454 E2.13558
G1 X50.504 Y86.346 E2.37108
G1 X54.596 Y86.346 E2.50666
G1 X54.596 Y93.394 E2.74016
G1 X54.331 Y93.189 F7800.000
G1 F1800.000
G1 X50.769 Y93.189 E2.85815
G1 X50.769 Y86.611 E3.07604
G1 X54.331 Y86.611 E3.19402
G1 X54.331 Y93.129 E3.40993
G1 X54.065 Y92.923 F7800.000
G1 F1800.000
G1 X51.035 Y92.923 E3.51031
G1 X51.035 Y86.877 E3.71060
G1 X54.065 Y86.877 E3.81099
G1 X54.065 Y92.863 E4.00929
G1 E2.00929 F2400.00000
G92 E0
G1 X44.206 Y109.604 F7800.000
G1 E2.00000 F2400.00000
G1 F1800.000
G1 X44.206 Y75.228 E3.13887
G1 X85.794 Y75.228 E4.51665
G1 X85.794 Y109.604 E5.65551
G1 X44.266 Y109.604 E7.03130
G1 X43.941 Y109.869 F7800.000
G1 F1800.000
G1 X43.941 Y74.962 E8.18777
G1 X86.059 Y74.962 E9.58315
G1 X86.059 Y109.869 E10.73961
G1 X44.001 Y109.869 E12.13301
G1 X43.675 Y110.135 F7800.000
G1 F1800.000
G1 X43.675 Y74.696 E13.30707
G1 X86.325 Y74.696 E14.72005
G1 X86.325 Y110.135 E15.89412
G1 X43.735 Y110.135 E17.30511
G1 X44.399 Y109.441 F7800.000
G1 F1800.000
G1 X44.775 Y109.441 E17.31760
G1 X62.811 Y91.406 E18.16430
G1 X62.813 Y91.780 E18.17673
G1 X45.151 Y109.441 E19.00585
G1 X45.528 Y109.441 E19.01834
G1 X62.815 Y92.154 E19.82988
G1 X62.817 Y92.529 E19.84231
G1 X45.904 Y109.441 E20.63628
G1 X46.281 Y109.441 E20.64877
G1 X62.819 Y92.903 E21.42517
G1 X62.821 Y93.278 E21.43760
G1 X46.657 Y109.441 E22.19641
G1 X47.033 Y109.441 E22.20891
G1 X62.823 Y93.652 E22.95015
G1 X62.825 Y94.026 E22.96258
G1 X47.410 Y109.441 E23.68625
G1 X47.786 Y109.441 E23.69874
G1 X62.827 Y94.401 E24.40484
G1 X62.829 Y94.775 E24.41727
G1 X48.162 Y109.441 E25.10578
G1 X48.539 Y109.441 E25.11828
G1 X62.831 Y95.149 E25.78922
G1 X62.832 Y95.382 E25.79696
G1 X62.974 Y95.383 E25.80165
G1 X48.915 Y109.441 E26.46162
G1 X49.292 Y109.441 E26.47411
G1 X63.348 Y95.385 E27.13399
G1 X63.722 Y95.387 E27.14642
G1 X49.668 Y109.441 E27.80620
G1 X50.044 Y109.441 E27.81870
G1 X64.097 Y95.389 E28.47838
G1 X64.471 Y95.391 E28.49081
G1 X50.421 Y109.441 E29.15041
G1 X50.797 Y109.441 E29.16290
G1 X64.846 Y95.393 E29.82240
G1 X65.220 Y95.395 E29.83483
G1 X51.174 Y109.441 E30.49424
G1 X51.550 Y109.441 E30.50673
G1 X65.594 Y95.397 E31.16604
G1 X65.969 Y95.399 E31.17847
G1 X51.926 Y109.441 E31.83769
G1 X52.303 Y109.441 E31.85018
G1 X66.343 Y95.401 E32.50931
G1 X66.717 Y95.403 E32.52173
G1 X52.679 Y109.441 E33.18077
G1 X53.055 Y109.441 E33.19326
G1 X67.092 Y95.405 E33.85220
G1 X67.466 Y95.407 E33.86462
G1 X53.432 Y109.441 E34.52347
G1 X53.808 Y109.441 E34.53596
G1 X67.841 Y95.409 E35.19471
G1 X68.215 Y95.411 E35.20714
G1 X54.185 Y109.441 E35.86579
G1 X54.561 Y109.441 E35.87829
G1 X68.589 Y95.413 E36.53685
G1 X68.964 Y95.415 E36.54927
G1 X54.937 Y109.441 E37.20774
G1 X55.314 Y109.441 E37.22023
G1 X69.338 Y95.417 E37.87861
G1 X69.713 Y95.419 E37.89103
G1 X55.690 Y109.441 E38.54931
G1 X56.067 Y109.441 E38.56181
G1 X70.087 Y95.421 E39.21999
G1 X70.461 Y95.423 E39.23242
G1 X56.443 Y109.441 E39.89051
G1 X56.819 Y109.441 E39.90300
G1 X70.836 Y95.425 E40.56100
G1 X71.210 Y95.427 E40.57343
G1 X57.196 Y109.441 E41.23133
G1 X57.572 Y109.441 E41.24383
G1 X75.241 Y91.772 E42.07331
G1 X75.241 Y92.149 E42.08581
G1 X57.949 Y109.441 E42.89763
G1 X58.325 Y109.441 E42.91012
G1 X75.241 Y92.525 E43.70427
G1 X75.241 Y92.901 E43.71676
G1 X58.701 Y109.441 E44.49324
G1 X59.078 Y109.441 E44.50574
G1 X75.241 Y93.278 E45.26455
G1 X75.241 Y93.616 E45.27579
G1 X75.279 Y93.616 E45.27704
G1 X59.454 Y109.441 E46.01995
G1 X59.830 Y109.441 E46.03244
G1 X75.656 Y93.616 E46.77535
G1 X76.032 Y93.616 E46.78784
G1 X60.207 Y109.441 E47.53075
G1 X60.583 Y109.441 E47.54325
G1 X76.408 Y93.616 E48.28615
G1 X76.785 Y93.616 E48.29865
G1 X60.960 Y109.441 E49.04156
G1 X61.336 Y109.441 E49.05405
G1 X77.161 Y93.616 E49.79696
G1 X77.537 Y93.616 E49.80945
G1 X61.712 Y109.441 E50.55236
G1 X62.089 Y109.441 E50.56485
G1 X77.914 Y93.616 E51.30776
G1 X78.290 Y93.616 E51.32026
G1 X62.465 Y109.441 E52.06316
G1 X62.842 Y109.441 E52.07566
G1 X78.667 Y93.616 E52.81857
G1 X79.043 Y93.616 E52.83106
G1 X63.218 Y109.441 E53.57397
G1 X63.594 Y109.441 E53.58646
G1 X79.419 Y93.616 E54.32937
G1 X79.796 Y93.616 E54.34186
G1 X63.971 Y109.441 E55.08477
G1 E53.08477 F2400.00000
G92 E0
G1 X71.187 Y95.450 F7800.000
G1 E2.00000 F2400.00000
G1 F1800.000
G1 X75.241 Y91.396 E2.19033
G1 X75.241 Y91.019 E2.20283
G1 X71.185 Y95.076 E2.39326
G1 X71.183 Y94.701 E2.40568
G1 X75.241 Y90.643 E2.59621
G1 X75.241 Y90.267 E2.60870
G1 X71.181 Y94.327 E2.79932
G1 X71.179 Y93.953 E2.81175
G1 X75.241 Y89.890 E3.00246
G1 X75.241 Y89.514 E3.01495
G1 X71.177 Y93.578 E3.20576
G1 X71.175 Y93.204 E3.21819
G1 X75.241 Y89.137 E3.40909
G1 X75.241 Y88.761 E3.42158
G1 X71.173 Y92.830 E3.61258
G1 X71.171 Y92.455 E3.62500
G1 X75.241 Y88.385 E3.81609
G1 X75.241 Y88.008 E3.82859
G1 X71.169 Y92.081 E4.01977
G1 X71.167 Y91.706 E4.03220
G1 X75.241 Y87.632 E4.22348
G1 X75.241 Y87.256 E4.23597
G1 X71.165 Y91.332 E4.42734
G1 X71.163 Y90.998 E4.43844
G1 X71.123 Y90.997 E4.43977
G1 X75.241 Y86.879 E4.63311
G1 X75.241 Y86.503 E4.64560
G1 X70.749 Y90.995 E4.85651
G1 X70.374 Y90.993 E4.86894
G1 E2.86894 F2400.00000
G92 E0
G1 X85.425 Y109.441 F7800.000
G1 E2.00000 F2400.00000
G1 F1800.000
G1 X85.632 Y109.235 E2.00971
G1 X85.632 Y108.858 E2.02220
G1 X85.048 Y109.441 E2.04957
G1 X84.672 Y109.441 E2.06207
G1 X85.632 Y108.482 E2.10711
G1 X85.632 Y108.106 E2.11961
G1 X84.296 Y109.441 E2.18232
G1 X83.919 Y109.441 E2.19482
G1 X85.632 Y107.729 E2.27520
G1 X85.632 Y107.353 E2.28769
G1 X83.543 Y109.441 E2.38575
G1 X83.166 Y109.441 E2.39824
G1 X85.632 Y106.976 E2.51396
G1 X85.632 Y106.600 E2.52646
G1 X82.790 Y109.441 E2.65985
G1 X82.414 Y109.441 E2.67235
G1 X85.632 Y106.224 E2.82341
G1 X85.632 Y105.847 E2.83590
G1 X82.037 Y109.441 E3.00463
G1 X81.661 Y109.441 E3.01713
G1 X85.632 Y105.471 E3.20353
G1 X85.632 Y105.094 E3.21602
G1 X81.285 Y109.441 E3.42009
G1 X80.908 Y109.441 E3.43259
G1 X85.632 Y104.718 E3.65433
G1 X85.632 Y104.342 E3.66682
G1 X80.532 Y109.441 E3.90623
G1 X80.155 Y109.441 E3.91873
G1 X85.632 Y103.965 E4.17580
G1 X85.632 Y103.589 E4.18830
G1 X79.779 Y109.441 E4.46305
G1 X79.403 Y109.441 E4.47554
G1 X85.632 Y103.213 E4.76796
G1 X85.632 Y102.836 E4.78045
G1 X79.026 Y109.441 E5.09054
G1 X78.650 Y109.441 E5.10304
G1 X85.632 Y102.460 E5.43079
G1 X85.632 Y102.083 E5.44329
G1 X78.273 Y109.441 E5.78871
G1 X77.897 Y109.441 E5.80121
G1 X85.632 Y101.707 E6.16430
G1 X85.632 Y101.331 E6.17680
G1 X77.521 Y109.441 E6.55756
G1 X77.144 Y109.441 E6.57006
G1 X85.632 Y100.954 E6.96849
G1 X85.632 Y100.578 E6.98099
G1 X76.768 Y109.441 E7.39709
G1 X76.392 Y109.441 E7.40959
G1 X85.632 Y100.201 E7.84336
G1 X85.632 Y99.825 E7.85586
G1 X76.015 Y109.441 E8.30730
G1 X75.639 Y109.441 E8.31980
G1 X85.632 Y99.449 E8.78891
G1 X85.632 Y99.072 E8.80140
G1 X75.262 Y109.441 E9.28819
G1 X74.886 Y109.441 E9.30068
G1 X85.632 Y98.696 E9.80513
G1 X85.632 Y98.319 E9.81763
G1 X74.510 Y109.441 E10.33975
G1 X74.133 Y109.441 E10.35224
G1 X85.632 Y97.943 E10.89204
G1 X85.632 Y97.567 E10.90453
G1 X73.757 Y109.441 E11.46199
G1 X73.380 Y109.441 E11.47449
G1 X85.632 Y97.190 E12.04962
G1 X85.632 Y96.814 E12.06211
G1 X73.004 Y109.441 E12.65491
G1 X72.628 Y109.441 E12.66741
G1 X85.632 Y96.438 E13.27787
G1 X85.632 Y96.061 E13.29037
G1 X72.251 Y109.441 E13.91851
G1 X71.875 Y109.441 E13.93100
G1 X85.632 Y95.685 E14.57681
G1 X85.632 Y95.308 E14.58931
G1 X71.498 Y109.441 E15.25278
G1 X71.122 Y109.441 E15.26528
G1 X85.632 Y94.932 E15.94643
G1 X85.632 Y94.556 E15.95892
G1 X70.746 Y109.441 E16.65774
G1 X70.369 Y109.441 E16.67023
G1 X85.632 Y94.179 E17.38672
G1 X85.632 Y93.803 E17.39921
G1 X69.993 Y109.441 E18.13337
G1 X69.617 Y109.441 E18.14587
G1 X85.632 Y93.426 E18.89769
G1 X85.632 Y93.050 E18.91019
G1 X69.240 Y109.441 E19.67968
G1 X68.864 Y109.441 E19.69218
G1 X85.632 Y92.674 E20.47934
G1 X85.632 Y92.297 E20.49183
G1 X68.487 Y109.441 E21.29667
G1 X68.111 Y109.441 E21.30916
G1 X85.632 Y91.921 E22.13167
G1 X85.632 Y91.545 E22.14416
G1 X67.735 Y109.441 E22.98434
G1 X67.358 Y109.441 E22.99683
G1 X85.632 Y91.168 E23.85467
G1 X85.632 Y90.792 E23.86717
G1 X66.982 Y109.441 E24.74268
G1 X66.605 Y109.441 E24.75518
G1 X85.632 Y90.415 E25.64836
G1 X85.632 Y90.039 E25.66085
G1 X66.229 Y109.441 E26.57170
G1 X65.853 Y109.441 E26.58420
G1 X85.632 Y89.663 E27.51272
G1 X85.632 Y89.286 E27.52521
G1 X65.476 Y109.441 E28.47141
G1 X65.100 Y109.441 E28.48390
G1 X85.632 Y88.910 E29.44776
G1 X85.632 Y88.533 E29.46025
G1 X64.724 Y109.441 E30.44178
G1 X64.347 Y109.441 E30.45428
G1 X85.632 Y88.157 E31.45348
G1 X85.632 Y87.781 E31.46597
G1 X79.659 Y93.754 E31.74638
G1 X79.659 Y93.377 E31.75887
G1 X85.632 Y87.404 E32.03928
G1 X85.632 Y87.028 E32.05177
G1 X79.659 Y93.001 E32.33217
G1 X79.659 Y92.625 E32.34467
G1 X85.632 Y86.651 E32.62507
G1 X85.632 Y86.275 E32.63757
G1 X79.659 Y92.248 E32.91797
G1 X79.659 Y91.872 E32.93046
G1 X85.632 Y85.899 E33.21087
G1 X85.632 Y85.522 E33.22336
G1 X79.659 Y91.495 E33.50377
G1 X79.659 Y91.119 E33.51626
G1 X85.632 Y85.146 E33.79666
G1 X85.632 Y84.770 E33.80916
G1 X79.659 Y90.743 E34.08956
G1 X79.659 Y90.366 E34.10206
G1 X85.632 Y84.393 E34.38246
G1 X85.632 Y84.017 E34.39495
G1 X79.659 Y89.990 E34.67536
G1 X79.659 Y89.613 E34.68785
G1 X85.632 Y83.640 E34.96826
G1 X85.632 Y83.264 E34.98075
G1 X79.659 Y89.237 E35.26116
G1 X79.659 Y88.861 E35.27365
G1 X85.632 Y82.888 E35.55405
G1 X85.632 Y82.511 E35.56655
G1 X79.659 Y88.484 E35.84695
G1 X79.659 Y88.108 E35.85945
G1 X85.632 Y82.135 E36.13985
G1 X85.632 Y81.758 E36.15234
G1 X79.659 Y87.731 E36.43275
G1 X79.659 Y87.355 E36.44524
G1 X85.632 Y81.382 E36.72565
G1 X85.632 Y81.006 E36.73814
G1 X79.659 Y86.979 E37.01854
G1 X79.659 Y86.602 E37.03104
G1 X85.632 Y80.629 E37.31144
G1 X85.632 Y80.253 E37.32394
G1 X79.659 Y86.226 E37.60434
G1 X79.659 Y86.184 E37.60575
G1 X79.325 Y86.184 E37.61683
G1 X85.632 Y79.877 E37.91292
G1 X85.632 Y79.500 E37.92541
G1 X78.948 Y86.184 E38.23917
G1 X78.572 Y86.184 E38.25166
G1 X85.632 Y79.124 E38.58309
G1 X85.632 Y78.747 E38.59558
G1 X78.195 Y86.184 E38.94467
G1 X77.819 Y86.184 E38.95717
G1 X85.632 Y78.371 E39.32393
G1 X85.632 Y77.995 E39.33643
G1 X77.443 Y86.184 E39.72086
G1 X77.066 Y86.184 E39.73335
G1 X85.632 Y77.618 E40.13546
G1 X85.632 Y77.242 E40.14795
G1 X76.690 Y86.184 E40.56772
G1 X76.313 Y86.184 E40.58022
G1 X85.632 Y76.865 E41.01766
G1 X85.632 Y76.489 E41.03015
G1 X75.937 Y86.184 E41.48526
G1 X75.561 Y86.184 E41.49776
G1 X85.632 Y76.113 E41.97054
G1 X85.632 Y75.736 E41.98303
G1 X75.184 Y86.184 E42.47348
G1 X75.035 Y86.184 E42.47844
G1 X75.035 Y86.333 E42.48340
G1 X70.374 Y90.993 E42.70219
G1 X70.000 Y90.991 E42.71461
G1 X85.601 Y75.390 E43.44703
G1 X85.225 Y75.390 E43.45952
G1 X69.626 Y90.989 E44.19184
G1 X69.251 Y90.987 E44.20427
G1 X84.849 Y75.390 E44.93649
G1 X84.472 Y75.390 E44.94899
G1 X68.877 Y90.985 E45.68112
G1 X68.502 Y90.983 E45.69354
G1 X84.096 Y75.390 E46.42558
G1 X83.720 Y75.390 E46.43808
G1 X68.128 Y90.981 E47.17002
G1 X67.754 Y90.979 E47.18245
G1 X83.343 Y75.390 E47.91429
G1 X82.967 Y75.390 E47.92679
G1 X67.379 Y90.977 E48.65854
G1 X67.005 Y90.975 E48.67097
G1 X82.590 Y75.390 E49.40263
G1 X82.214 Y75.390 E49.41512
G1 X66.631 Y90.973 E50.14669
G1 X66.256 Y90.971 E50.15911
G1 X81.838 Y75.390 E50.89058
G1 X81.461 Y75.390 E50.90308
G1 X65.882 Y90.969 E51.63446
G1 X65.507 Y90.967 E51.64688
G1 X81.085 Y75.390 E52.37817
G1 X80.708 Y75.390 E52.39066
G1 X65.133 Y90.965 E53.12185
G1 X64.759 Y90.963 E53.13428
G1 X80.332 Y75.390 E53.86537
G1 X79.956 Y75.390 E53.87786
G1 X64.384 Y90.961 E54.60886
G1 X64.010 Y90.959 E54.62129
G1 X79.579 Y75.390 E55.35220
G1 X79.203 Y75.390 E55.36469
G1 X63.636 Y90.957 E56.09550
G1 X63.261 Y90.955 E56.10793
G1 X78.827 Y75.390 E56.83865
G1 X78.450 Y75.390 E56.85114
G1 X62.887 Y90.953 E57.58176
G1 X62.601 Y90.952 E57.59126
G1 X62.602 Y91.238 E57.60076
G1 X44.399 Y109.441 E58.45533
G1 X44.368 Y109.441 E58.45633
G1 X44.368 Y109.095 E58.46782
G1 X78.074 Y75.390 E60.05012
G1 X77.697 Y75.390 E60.06261
G1 X44.368 Y108.719 E61.62724
G1 X44.368 Y108.342 E61.63974
G1 X77.321 Y75.390 E63.18669
G1 X76.945 Y75.390 E63.19919
G1 X44.368 Y107.966 E64.72848
G1 X44.368 Y107.590 E64.74097
G1 X76.568 Y75.390 E66.25259
G1 X76.192 Y75.390 E66.26509
G1 X44.368 Y107.213 E67.75904
G1 X44.368 Y106.837 E67.77153
G1 X75.815 Y75.390 E69.24781
G1 X75.439 Y75.390 E69.26031
G1 X44.368 Y106.461 E70.71892
G1 X44.368 Y106.084 E70.73141
G1 X75.063 Y75.390 E72.17235
G1 X74.686 Y75.390 E72.18485
G1 X44.368 Y105.708 E73.60812
G1 X44.368 Y105.331 E73.62061
G1 X74.310 Y75.390 E75.02622
G1 X73.933 Y75.390 E75.03871
G1 X44.368 Y104.955 E76.42664
G1 X44.368 Y104.579 E76.43914
G1 X73.557 Y75.390 E77.80940
G1 X73.181 Y75.390 E77.82190
G1 X54.759 Y93.812 E78.68673
G1 X54.759 Y93.436 E78.69922
G1 X72.804 Y75.390 E79.54638
G1 X72.428 Y75.390 E79.55888
G1 X54.759 Y93.059 E80.38837
G1 X54.759 Y92.683 E80.40086
G1 X72.052 Y75.390 E81.21269
G1 X71.675 Y75.390 E81.22518
G1 X54.759 Y92.307 E82.01933
G1 X54.759 Y91.930 E82.03183
G1 X71.299 Y75.390 E82.80831
G1 X70.922 Y75.390 E82.82080
G1 X54.759 Y91.554 E83.57962
G1 X54.759 Y91.177 E83.59211
G1 X70.546 Y75.390 E84.33326
G1 X70.170 Y75.390 E84.34575
G1 X54.759 Y90.801 E85.06922
G1 X54.759 Y90.425 E85.08172
G1 X69.793 Y75.390 E85.78752
G1 X69.417 Y75.390 E85.80002
G1 X54.759 Y90.048 E86.48815
G1 X54.759 Y89.672 E86.50065
G1 X69.040 Y75.390 E87.17111
G1 X68.664 Y75.390 E87.18361
G1 X54.759 Y89.295 E87.83641
G1 X54.759 Y88.919 E87.84890
G1 X68.288 Y75.390 E88.48403
G1 X67.911 Y75.390 E88.49652
G1 X54.759 Y88.543 E89.11398
G1 X54.759 Y88.166 E89.12647
G1 X67.535 Y75.390 E89.72626
G1 X67.159 Y75.390 E89.73876
G1 X54.759 Y87.790 E90.32087
G1 X54.759 Y87.414 E90.33337
G1 X66.782 Y75.390 E90.89782
G1 X66.406 Y75.390 E90.91031
G1 X54.759 Y87.037 E91.45709
G1 X54.759 Y86.661 E91.46959
G1 X66.029 Y75.390 E91.99870
G1 X65.653 Y75.390 E92.01119
G1 X54.759 Y86.284 E92.52263
G1 X54.759 Y86.184 E92.52598
G1 X54.483 Y86.184 E92.53513
G1 X65.277 Y75.390 E93.04183
G1 X64.900 Y75.390 E93.05433
G1 X54.107 Y86.184 E93.56104
G1 X53.730 Y86.184 E93.57353
G1 X64.524 Y75.390 E94.08024
G1 X64.147 Y75.390 E94.09274
G1 X53.354 Y86.184 E94.59944
G1 X52.977 Y86.184 E94.61194
