; generated by Slic3r 1.3.1-dev (Build adea0d9) on 2019-12-16 at 00:49:10

; external perimeters extrusion width = 0.44mm (2.86mm^3/s)
; perimeters extrusion width = 0.56mm (4.14mm^3/s)
; infill extrusion width = 0.50mm (3.66mm^3/s)
; solid infill extrusion width = 0.56mm (3.10mm^3/s)
; top infill extrusion width = 0.56mm (3.10mm^3/s)

M107
G92 E0
;D3D:START:START
T0
M104 S215 T0

G21
G90
M107
T0
G28
G29
M109 T0 S215 T0
G0 F3000
M107
T0
G92 E0
G0 X0 Y149 Z0.1 F3600
G1 Y49 E6.5 F1200
G0 Z1
G92 E0
; Filament gcode

G21 ; set units to millimeters
G90 ; use absolute coordinates
M82 ; use absolute distances for extrusion
G92 E0
G1 Z0.300 F7800.000
G1 E-2.00000 F2400.00000
G92 E0
G1 X72.122 Y72.298 F7800.000
G1 E2.00000 F2400.00000
G1 F1800.000
G1 X72.484 Y71.958 E2.01642
G1 X72.885 Y71.667 E2.03285
G1 X73.319 Y71.428 E2.04927
G1 X73.780 Y71.246 E2.06570
G1 X74.260 Y71.122 E2.08212
G1 X74.770 Y71.058 E2.09912
G1 X75.250 Y71.060 E2.11503
G1 X75.740 Y71.122 E2.13140
G1 X76.220 Y71.246 E2.14782
G1 X76.681 Y71.428 E2.16424
G1 X77.115 Y71.667 E2.18067
G1 X77.516 Y71.958 E2.19709
G1 X77.878 Y72.298 E2.21351
G1 X78.194 Y72.680 E2.22994
G1 X78.459 Y73.098 E2.24636
G1 X78.670 Y73.547 E2.26279
G1 X78.824 Y74.018 E2.27921
G1 X78.916 Y74.505 E2.29563
G1 X78.948 Y75.000 E2.31206
G1 X78.916 Y75.495 E2.32848
G1 X78.824 Y75.982 E2.34490
G1 X78.670 Y76.453 E2.36133
G1 X78.459 Y76.902 E2.37775
G1 X78.194 Y77.320 E2.39418
G1 X77.878 Y77.702 E2.41060
G1 X77.516 Y78.042 E2.42702
G1 X77.115 Y78.333 E2.44345
G1 X76.681 Y78.572 E2.45987
G1 X76.220 Y78.754 E2.47630
G1 X75.740 Y78.878 E2.49272
G1 X75.248 Y78.940 E2.50914
G1 X74.752 Y78.940 E2.52557
G1 X74.260 Y78.878 E2.54199
G1 X73.780 Y78.754 E2.55841
G1 X73.319 Y78.572 E2.57484
G1 X72.885 Y78.333 E2.59126
G1 X72.484 Y78.042 E2.60769
G1 X72.122 Y77.702 E2.62411
G1 X71.806 Y77.320 E2.64053
G1 X71.541 Y76.902 E2.65696
G1 X71.330 Y76.453 E2.67338
G1 X71.176 Y75.982 E2.68980
G1 X71.084 Y75.495 E2.70623
G1 X71.052 Y75.000 E2.72265
G1 X71.084 Y74.505 E2.73908
G1 X71.176 Y74.018 E2.75550
G1 X71.330 Y73.547 E2.77192
G1 X71.541 Y73.098 E2.78835
G1 X71.806 Y72.680 E2.80477
G1 X72.084 Y72.344 E2.81921
G1 X72.316 Y72.480 F7800.000
G1 F1800.000
G1 X72.653 Y72.163 E2.83452
G1 X73.027 Y71.892 E2.84984
G1 X73.433 Y71.669 E2.86516
G1 X73.862 Y71.499 E2.88047
G1 X74.310 Y71.384 E2.89579
G1 X74.786 Y71.324 E2.91167
G1 X75.232 Y71.326 E2.92646
G1 X75.690 Y71.384 E2.94174
G1 X76.138 Y71.499 E2.95706
G1 X76.567 Y71.669 E2.97238
G1 X76.973 Y71.892 E2.98769
G1 X77.347 Y72.163 E3.00301
G1 X77.684 Y72.480 E3.01833
G1 X77.978 Y72.836 E3.03364
G1 X78.226 Y73.226 E3.04896
G1 X78.423 Y73.645 E3.06428
G1 X78.566 Y74.084 E3.07959
G1 X78.652 Y74.539 E3.09491
G1 X78.681 Y75.000 E3.11023
G1 X78.652 Y75.461 E3.12554
G1 X78.566 Y75.916 E3.14086
G1 X78.423 Y76.355 E3.15618
G1 X78.226 Y76.774 E3.17149
G1 X77.978 Y77.164 E3.18681
G1 X77.684 Y77.520 E3.20212
G1 X77.347 Y77.837 E3.21744
G1 X76.973 Y78.108 E3.23276
G1 X76.567 Y78.331 E3.24807
G1 X76.138 Y78.501 E3.26339
G1 X75.690 Y78.616 E3.27871
G1 X75.231 Y78.674 E3.29402
G1 X74.769 Y78.674 E3.30934
G1 X74.310 Y78.616 E3.32466
G1 X73.862 Y78.501 E3.33997
G1 X73.433 Y78.331 E3.35529
G1 X73.027 Y78.108 E3.37061
G1 X72.653 Y77.837 E3.38592
G1 X72.316 Y77.520 E3.40124
G1 X72.022 Y77.164 E3.41656
G1 X71.774 Y76.774 E3.43187
G1 X71.577 Y76.355 E3.44719
G1 X71.434 Y75.916 E3.46251
G1 X71.348 Y75.461 E3.47782
G1 X71.319 Y75.000 E3.49314
G1 X71.348 Y74.539 E3.50846
G1 X71.434 Y74.084 E3.52377
G1 X71.577 Y73.645 E3.53909
G1 X71.774 Y73.226 E3.55441
G1 X72.022 Y72.836 E3.56972
G1 X72.278 Y72.526 E3.58305
G1 X72.510 Y72.662 F7800.000
G1 F1800.000
G1 X72.823 Y72.368 E3.59726
G1 X73.170 Y72.116 E3.61147
G1 X73.546 Y71.910 E3.62568
G1 X73.945 Y71.752 E3.63989
G1 X74.360 Y71.645 E3.65410
G1 X74.802 Y71.589 E3.66884
G1 X75.215 Y71.591 E3.68253
G1 X75.640 Y71.645 E3.69673
G1 X76.055 Y71.752 E3.71094
G1 X76.454 Y71.910 E3.72515
G1 X76.830 Y72.116 E3.73936
G1 X77.177 Y72.368 E3.75357
G1 X77.490 Y72.662 E3.76778
G1 X77.763 Y72.993 E3.78198
G1 X77.993 Y73.355 E3.79619
G1 X78.175 Y73.743 E3.81040
G1 X78.308 Y74.151 E3.82461
G1 X78.388 Y74.572 E3.83882
G1 X78.415 Y75.000 E3.85303
G1 X78.388 Y75.428 E3.86724
G1 X78.308 Y75.849 E3.88145
G1 X78.175 Y76.257 E3.89566
G1 X77.993 Y76.645 E3.90987
G1 X77.763 Y77.007 E3.92408
G1 X77.490 Y77.338 E3.93829
G1 X77.177 Y77.632 E3.95250
G1 X76.830 Y77.884 E3.96670
G1 X76.454 Y78.090 E3.98091
G1 X76.055 Y78.248 E3.99512
G1 X75.640 Y78.355 E4.00933
G1 X75.214 Y78.409 E4.02354
G1 X74.786 Y78.409 E4.03775
G1 X74.360 Y78.355 E4.05196
G1 X73.945 Y78.248 E4.06617
G1 X73.546 Y78.090 E4.08038
G1 X73.170 Y77.884 E4.09459
G1 X72.823 Y77.632 E4.10880
G1 X72.510 Y77.338 E4.12301
G1 X72.237 Y77.007 E4.13722
G1 X72.007 Y76.645 E4.15143
G1 X71.825 Y76.257 E4.16563
G1 X71.692 Y75.849 E4.17984
G1 X71.612 Y75.428 E4.19405
G1 X71.585 Y75.000 E4.20826
G1 X71.612 Y74.572 E4.22247
G1 X71.692 Y74.151 E4.23668
G1 X71.825 Y73.743 E4.25089
G1 X72.007 Y73.355 E4.26510
G1 X72.237 Y72.993 E4.27931
G1 X72.472 Y72.708 E4.29153
G1 E2.29153 F2400.00000
G92 E0
G1 X69.987 Y70.292 F7800.000
G1 E2.00000 F2400.00000
G1 F1800.000
G1 X70.616 Y69.701 E2.02861
G1 X71.315 Y69.193 E2.05723
G1 X72.072 Y68.777 E2.08584
G1 X72.875 Y68.459 E2.11445
G1 X73.711 Y68.244 E2.14306
G1 X74.568 Y68.136 E2.17168
G1 X75.432 Y68.136 E2.20029
G1 X76.289 Y68.244 E2.22890
G1 X77.125 Y68.459 E2.25752
G1 X77.928 Y68.777 E2.28613
G1 X78.685 Y69.193 E2.31474
G1 X79.384 Y69.701 E2.34336
G1 X80.013 Y70.292 E2.37197
G1 X80.564 Y70.958 E2.40058
G1 X81.027 Y71.687 E2.42919
G1 X81.394 Y72.468 E2.45781
G1 X81.661 Y73.290 E2.48642
G1 X81.823 Y74.138 E2.51503
G1 X81.877 Y75.000 E2.54365
G1 X81.823 Y75.862 E2.57226
G1 X81.661 Y76.710 E2.60087
G1 X81.394 Y77.532 E2.62948
G1 X81.027 Y78.313 E2.65810
G1 X80.564 Y79.042 E2.68671
G1 X80.013 Y79.708 E2.71532
G1 X79.384 Y80.299 E2.74394
G1 X78.685 Y80.807 E2.77255
G1 X77.928 Y81.223 E2.80116
G1 X77.125 Y81.541 E2.82978
G1 X76.289 Y81.756 E2.85839
G1 X75.432 Y81.864 E2.88700
G1 X74.568 Y81.864 E2.91561
G1 X73.711 Y81.756 E2.94423
G1 X72.875 Y81.541 E2.97284
G1 X72.072 Y81.223 E3.00145
G1 X71.315 Y80.807 E3.03007
G1 X70.616 Y80.299 E3.05868
G1 X69.987 Y79.708 E3.08729
G1 X69.436 Y79.042 E3.11590
G1 X68.973 Y78.313 E3.14452
G1 X68.606 Y77.532 E3.17313
G1 X68.339 Y76.710 E3.20174
G1 X68.177 Y75.862 E3.23036
G1 X68.123 Y75.000 E3.25897
G1 X68.177 Y74.138 E3.28758
G1 X68.339 Y73.290 E3.31620
G1 X68.606 Y72.468 E3.34481
G1 X68.973 Y71.687 E3.37342
G1 X69.436 Y70.958 E3.40203
G1 X69.948 Y70.338 E3.42866
G1 X69.793 Y70.110 F7800.000
G1 F1800.000
G1 X70.447 Y69.496 E3.45838
G1 X71.172 Y68.969 E3.48810
G1 X71.958 Y68.536 E3.51782
G1 X72.793 Y68.206 E3.54754
G1 X73.661 Y67.983 E3.57726
G1 X74.551 Y67.871 E3.60698
G1 X75.449 Y67.871 E3.63670
G1 X76.339 Y67.983 E3.66642
G1 X77.207 Y68.206 E3.69614
G1 X78.042 Y68.536 E3.72586
G1 X78.828 Y68.969 E3.75558
G1 X79.553 Y69.496 E3.78530
G1 X80.207 Y70.110 E3.81502
G1 X80.779 Y70.801 E3.84474
G1 X81.260 Y71.559 E3.87446
G1 X81.642 Y72.370 E3.90418
G1 X81.919 Y73.223 E3.93390
G1 X82.087 Y74.105 E3.96362
G1 X82.144 Y75.000 E3.99334
G1 X82.087 Y75.895 E4.02306
G1 X81.919 Y76.777 E4.05278
G1 X81.642 Y77.630 E4.08250
G1 X81.260 Y78.441 E4.11222
G1 X80.779 Y79.199 E4.14194
G1 X80.207 Y79.890 E4.17167
G1 X79.553 Y80.504 E4.20139
G1 X78.828 Y81.031 E4.23111
G1 X78.042 Y81.464 E4.26083
G1 X77.207 Y81.794 E4.29055
G1 X76.339 Y82.017 E4.32027
G1 X75.449 Y82.129 E4.34999
G1 X74.551 Y82.129 E4.37971
G1 X73.661 Y82.017 E4.40943
G1 X72.793 Y81.794 E4.43915
G1 X71.958 Y81.464 E4.46887
G1 X71.172 Y81.031 E4.49859
G1 X70.447 Y80.504 E4.52831
G1 X69.793 Y79.890 E4.55803
G1 X69.221 Y79.199 E4.58775
G1 X68.740 Y78.441 E4.61747
G1 X68.358 Y77.630 E4.64719
G1 X68.081 Y76.777 E4.67691
G1 X67.913 Y75.895 E4.70663
G1 X67.856 Y75.000 E4.73635
G1 X67.913 Y74.105 E4.76607
G1 X68.081 Y73.223 E4.79579
G1 X68.358 Y72.370 E4.82551
G1 X68.740 Y71.559 E4.85523
G1 X69.221 Y70.801 E4.88495
G1 X69.754 Y70.156 E4.91268
G1 X69.599 Y69.928 F7800.000
G1 F1800.000
G1 X70.277 Y69.291 E4.94351
G1 X71.030 Y68.744 E4.97434
G1 X71.845 Y68.296 E5.00517
G1 X72.710 Y67.953 E5.03599
G1 X73.612 Y67.722 E5.06682
G1 X74.535 Y67.605 E5.09765
G1 X75.465 Y67.605 E5.12848
G1 X76.388 Y67.722 E5.15930
G1 X77.290 Y67.953 E5.19013
G1 X78.155 Y68.296 E5.22096
G1 X78.970 Y68.744 E5.25179
G1 X79.723 Y69.291 E5.28261
G1 X80.401 Y69.928 E5.31344
G1 X80.995 Y70.645 E5.34427
G1 X81.493 Y71.430 E5.37510
G1 X81.889 Y72.272 E5.40592
G1 X82.177 Y73.157 E5.43675
G1 X82.351 Y74.071 E5.46758
G1 X82.410 Y75.000 E5.49841
G1 X82.351 Y75.929 E5.52923
G1 X82.177 Y76.843 E5.56006
G1 X81.889 Y77.728 E5.59089
G1 X81.493 Y78.570 E5.62172
G1 X80.995 Y79.355 E5.65254
G1 X80.401 Y80.072 E5.68337
G1 X79.723 Y80.709 E5.71420
G1 X78.970 Y81.256 E5.74503
G1 X78.155 Y81.704 E5.77585
G1 X77.290 Y82.047 E5.80668
G1 X76.388 Y82.278 E5.83751
G1 X75.465 Y82.395 E5.86834
G1 X74.535 Y82.395 E5.89916
G1 X73.612 Y82.278 E5.92999
G1 X72.710 Y82.047 E5.96082
G1 X71.845 Y81.704 E5.99165
G1 X71.030 Y81.256 E6.02247
G1 X70.277 Y80.709 E6.05330
G1 X69.599 Y80.072 E6.08413
G1 X69.005 Y79.355 E6.11496
G1 X68.507 Y78.570 E6.14578
G1 X68.111 Y77.728 E6.17661
G1 X67.823 Y76.843 E6.20744
G1 X67.649 Y75.929 E6.23827
G1 X67.590 Y75.000 E6.26909
G1 X67.649 Y74.071 E6.29992
G1 X67.823 Y73.157 E6.33075
G1 X68.111 Y72.272 E6.36158
G1 X68.507 Y71.430 E6.39240
G1 X69.005 Y70.645 E6.42323
G1 X69.560 Y69.974 E6.45207
G1 X70.080 Y70.575 F7800.000
G1 F1800.000
G1 X70.889 Y69.803 E6.48971
G1 X71.561 Y69.315 E6.51764
G1 X71.918 Y69.118 E6.53137
G1 X69.090 Y71.947 E6.66593
G1 X68.751 Y72.667 E6.69272
G1 X72.644 Y68.774 E6.87793
G1 X73.060 Y68.609 E6.89299
G1 X73.235 Y68.564 E6.89906
G1 X68.567 Y73.233 E7.12116
G1 X68.493 Y73.459 E7.12917
G1 X68.439 Y73.741 E7.13884
G1 X73.748 Y68.432 E7.39142
G1 X74.202 Y68.360 E7.40688
G1 X68.349 Y74.213 E7.68532
G1 X68.315 Y74.628 E7.69935
G1 X74.639 Y68.305 E8.00018
G1 X75.027 Y68.298 E8.01322
G1 X68.290 Y75.035 E8.33372
G1 X68.304 Y75.402 E8.34607
G1 X75.408 Y68.298 E8.68402
G1 X75.759 Y68.329 E8.69588
G1 X72.286 Y71.802 E8.86110
G1 X72.639 Y71.546 E8.87578
G1 X73.103 Y71.291 E8.89358
G1 X73.229 Y71.241 E8.89814
G1 X76.098 Y68.372 E9.03463
G1 X76.427 Y68.424 E9.04583
G1 X73.810 Y71.040 E9.17029
G1 X74.107 Y70.964 E9.18060
G1 X74.291 Y70.941 E9.18685
G1 X76.730 Y68.502 E9.30287
G1 X77.034 Y68.580 E9.31341
G1 X74.718 Y70.896 E9.42358
G1 X75.097 Y70.898 E9.43635
G1 X77.318 Y68.677 E9.54200
G1 X77.591 Y68.785 E9.55189
G1 X75.443 Y70.933 E9.65409
G1 X75.772 Y70.986 E9.66529
G1 X77.864 Y68.893 E9.76485
G1 X78.116 Y69.023 E9.77437
G1 X76.075 Y71.064 E9.87146
G1 X76.361 Y71.160 E9.88159
G1 X78.362 Y69.159 E9.97680
G1 X78.608 Y69.294 E9.98625
G1 X76.634 Y71.268 E10.08017
G1 X76.886 Y71.398 E10.08969
G1 X78.833 Y69.451 E10.18233
G1 X79.054 Y69.611 E10.19151
G1 X77.132 Y71.533 E10.28295
G1 X77.355 Y71.691 E10.29215
G1 X79.275 Y69.772 E10.38348
G1 X79.476 Y69.952 E10.39257
G1 X77.576 Y71.852 E10.48296
G1 X77.773 Y72.036 E10.49204
G1 X79.673 Y70.136 E10.58240
G1 X79.870 Y70.321 E10.59148
G1 X77.970 Y72.221 E10.68185
G1 X78.143 Y72.429 E10.69096
G1 X80.049 Y70.523 E10.78164
G1 X80.221 Y70.732 E10.79076
G1 X78.314 Y72.640 E10.88150
G1 X78.462 Y72.873 E10.89080
G1 X80.394 Y70.941 E10.98272
G1 X80.452 Y71.011 E10.98577
G1 X80.550 Y71.166 E10.99195
G1 X78.606 Y73.110 E11.08444
G1 X78.729 Y73.369 E11.09408
G1 X80.699 Y71.399 E11.18780
G1 X80.847 Y71.633 E11.19710
G1 X78.842 Y73.637 E11.29246
G1 X78.936 Y73.925 E11.30264
G1 X80.977 Y71.883 E11.39978
G1 X81.100 Y72.143 E11.40942
G1 X79.011 Y74.231 E11.50876
G1 X79.073 Y74.551 E11.51973
G1 X81.222 Y72.402 E11.62196
G1 X81.322 Y72.683 E11.63201
G1 X79.098 Y74.907 E11.73780
G1 X79.099 Y75.288 E11.75060
G1 X81.415 Y72.971 E11.86081
G1 X81.508 Y73.260 E11.87101
G1 X79.063 Y75.705 E11.98733
G1 X78.968 Y76.181 E12.00366
G1 X81.569 Y73.580 E12.12740
G1 X81.630 Y73.900 E12.13837
G1 X78.760 Y76.771 E12.27494
G1 X78.589 Y77.133 E12.28841
G1 X78.306 Y77.580 E12.30621
G1 X78.179 Y77.733 E12.31287
G1 X81.673 Y74.239 E12.47909
G1 X81.696 Y74.598 E12.49118
G1 X74.592 Y81.702 E12.82913
G1 X74.973 Y81.702 E12.84197
G1 X81.710 Y74.965 E13.16246
G1 X81.685 Y75.372 E13.17618
G1 X75.361 Y81.695 E13.47702
G1 X75.798 Y81.640 E13.49182
G1 X81.651 Y75.787 E13.77026
G1 X81.561 Y76.259 E13.78641
G1 X76.252 Y81.568 E14.03898
G1 X76.765 Y81.436 E14.05680
G1 X81.433 Y76.767 E14.27890
G1 X81.249 Y77.333 E14.29891
G1 X77.356 Y81.226 E14.48412
G1 X77.712 Y81.085 E14.49699
G1 X78.082 Y80.882 E14.51119
G1 X80.910 Y78.053 E14.64575
G1 X80.452 Y78.783 E14.67472
G1 X79.923 Y79.422 E14.70261
G1 X79.714 Y79.631 E14.71258
G1 E12.71258 F2400.00000
G92 E0
G1 X74.241 Y81.671 F7800.000
G1 E2.00000 F2400.00000
G1 F1800.000
G1 X77.714 Y78.198 E2.16523
G1 X77.361 Y78.454 E2.17990
G1 X76.897 Y78.709 E2.19770
G1 X76.771 Y78.759 E2.20226
G1 X73.902 Y81.628 E2.33875
G1 X73.573 Y81.576 E2.34996
G1 X76.190 Y78.960 E2.47442
G1 X75.893 Y79.036 E2.48473
G1 X75.709 Y79.059 E2.49097
G1 X73.270 Y81.498 E2.60699
G1 X72.966 Y81.420 E2.61754
G1 X75.284 Y79.102 E2.72780
G1 X74.903 Y79.102 E2.74063
G1 X72.682 Y81.323 E2.84629
G1 X72.409 Y81.215 E2.85617
G1 X74.557 Y79.067 E2.95838
G1 X74.228 Y79.014 E2.96958
G1 X72.136 Y81.107 E3.06914
G1 X71.884 Y80.977 E3.07866
G1 X73.925 Y78.936 E3.17574
G1 X73.639 Y78.840 E3.18588
G1 X71.638 Y80.841 E3.28109
G1 X71.392 Y80.706 E3.29053
G1 X73.366 Y78.732 E3.38445
G1 X73.114 Y78.602 E3.39398
G1 X71.167 Y80.549 E3.48661
G1 X70.946 Y80.389 E3.49580
G1 X72.868 Y78.467 E3.58723
G1 X72.645 Y78.309 E3.59644
G1 X70.725 Y80.228 E3.68776
G1 X70.524 Y80.048 E3.69685
G1 X72.424 Y78.148 E3.78725
G1 X72.226 Y77.964 E3.79632
G1 X70.327 Y79.864 E3.88669
G1 X70.130 Y79.679 E3.89576
G1 X72.030 Y77.779 E3.98614
G1 X71.857 Y77.571 E3.99525
G1 X69.951 Y79.477 E4.08593
G1 X69.779 Y79.268 E4.09504
G1 X71.686 Y77.360 E4.18579
G1 X71.538 Y77.127 E4.19509
G1 X69.606 Y79.059 E4.28700
G1 X69.450 Y78.834 E4.29622
G1 X71.394 Y76.890 E4.38870
G1 X71.271 Y76.631 E4.39835
G1 X69.301 Y78.601 E4.49207
G1 X69.153 Y78.367 E4.50137
G1 X71.158 Y76.363 E4.59673
G1 X71.064 Y76.075 E4.60691
G1 X69.022 Y78.117 E4.70405
G1 X68.900 Y77.857 E4.71369
G1 X70.989 Y75.769 E4.81303
G1 X70.927 Y75.449 E4.82400
G1 X68.778 Y77.598 E4.92623
G1 X68.678 Y77.317 E4.93627
G1 X70.902 Y75.093 E5.04207
G1 X70.901 Y74.712 E5.05487
G1 X68.585 Y77.029 E5.16508
G1 X68.493 Y76.747 E5.17504
G1 X70.937 Y74.295 E5.29149
G1 X71.032 Y73.819 E5.30782
G1 X68.431 Y76.420 E5.43156
G1 X68.370 Y76.100 E5.44253
G1 X71.240 Y73.229 E5.57910
G1 X71.411 Y72.867 E5.59257
G1 X71.694 Y72.420 E5.61037
G1 X71.821 Y72.267 E5.61703
G1 X68.327 Y75.761 E5.78325
G1 X68.304 Y75.402 E5.79534
M106 S255
G1 Z0.500 F7800.000
G1 E3.79534 F2400.00000
G92 E0
G1 X72.136 Y72.311 F7800.000
G1 E2.00000 F2400.00000
G1 F1800.000
G1 X72.496 Y71.973 E2.02121
G1 X72.895 Y71.683 E2.04242
G1 X73.327 Y71.445 E2.06363
G1 X73.786 Y71.264 E2.08485
G1 X74.264 Y71.141 E2.10606
G1 X74.753 Y71.079 E2.12727
G1 X75.247 Y71.079 E2.14848
G1 X75.736 Y71.141 E2.16969
G1 X76.214 Y71.264 E2.19090
G1 X76.673 Y71.445 E2.21211
G1 X77.105 Y71.683 E2.23332
G1 X77.504 Y71.973 E2.25453
G1 X77.864 Y72.311 E2.27574
G1 X78.178 Y72.691 E2.29696
G1 X78.443 Y73.107 E2.31817
G1 X78.653 Y73.554 E2.33938
G1 X78.805 Y74.023 E2.36059
G1 X78.897 Y74.508 E2.38180
G1 X78.928 Y75.000 E2.40301
G1 X78.897 Y75.492 E2.42422
G1 X78.805 Y75.977 E2.44543
G1 X78.653 Y76.446 E2.46664
G1 X78.442 Y76.893 E2.48786
G1 X78.178 Y77.309 E2.50907
G1 X77.864 Y77.689 E2.53028
G1 X77.504 Y78.027 E2.55149
G1 X77.105 Y78.317 E2.57270
G1 X76.673 Y78.555 E2.59391
G1 X76.214 Y78.736 E2.61512
G1 X75.736 Y78.859 E2.63633
G1 X75.247 Y78.921 E2.65754
G1 X74.753 Y78.921 E2.67876
G1 X74.264 Y78.859 E2.69997
G1 X73.786 Y78.736 E2.72118
G1 X73.327 Y78.555 E2.74239
G1 X72.895 Y78.317 E2.76360
G1 X72.496 Y78.027 E2.78481
G1 X72.136 Y77.689 E2.80602
G1 X71.822 Y77.309 E2.82723
G1 X71.557 Y76.893 E2.84844
G1 X71.347 Y76.446 E2.86966
G1 X71.195 Y75.977 E2.89087
G1 X71.103 Y75.492 E2.91208
G1 X71.072 Y75.000 E2.93329
