; generated by Slic3r 1.3.1-dev (Build adea0d9) on 2020-02-18 at 23:53:24

; external perimeters extrusion width = 0.44mm (2.86mm^3/s)
; perimeters extrusion width = 0.56mm (4.14mm^3/s)
; infill extrusion width = 0.50mm (3.66mm^3/s)
; solid infill extrusion width = 0.56mm (3.10mm^3/s)
; top infill extrusion width = 0.56mm (3.10mm^3/s)

M107
G92 E0
;D3D:START:START
T0
M104 S215 T0

G21
G90
M107
T0
G28
G29
M109 T0 S215 T0
G0 F3000
M107
T0
G92 E0
G0 X0 Y149 Z0.1 F3600
G1 Y49 E6.5 F1200
G0 Z1
G92 E0
; Filament gcode

G21 ; set units to millimeters
G90 ; use absolute coordinates
M82 ; use absolute distances for extrusion
G92 E0
G1 Z0.300 F7800.000
G1 E-2.00000 F2400.00000
G92 E0
G1 X71.835 Y70.681 F7800.000
G1 E2.00000 F2400.00000
G1 F1800.000
G1 X72.125 Y70.470 E2.01188
G1 X72.716 Y70.145 E2.03420
G1 X73.342 Y69.897 E2.05652
G1 X73.995 Y69.730 E2.07885
G1 X74.663 Y69.645 E2.10117
G1 X75.337 Y69.645 E2.12349
G1 X76.005 Y69.730 E2.14581
G1 X76.658 Y69.897 E2.16814
G1 X77.284 Y70.145 E2.19046
G1 X77.875 Y70.470 E2.21278
G1 X78.165 Y70.681 E2.22466
G1 X78.165 Y79.319 E2.51085
G1 X77.875 Y79.530 E2.52273
G1 X77.284 Y79.855 E2.54506
G1 X76.658 Y80.103 E2.56738
G1 X76.005 Y80.270 E2.58970
G1 X75.337 Y80.355 E2.61202
G1 X74.663 Y80.355 E2.63434
G1 X73.995 Y80.270 E2.65667
G1 X73.342 Y80.103 E2.67899
G1 X72.716 Y79.855 E2.70131
G1 X72.125 Y79.530 E2.72363
G1 X71.835 Y79.319 E2.73551
G1 X71.835 Y70.741 E3.01972
G1 E1.01972 F2400.00000
G92 E0
G1 X78.696 Y70.925 F7800.000
G1 E2.00000 F2400.00000
G1 F1800.000
G1 X79.089 Y71.318 E2.01842
G1 X79.452 Y71.766 E2.03750
G1 X79.766 Y72.249 E2.05658
G1 X80.027 Y72.762 E2.07567
G1 X80.233 Y73.300 E2.09475
G1 X80.383 Y73.856 E2.11383
G1 X80.473 Y74.425 E2.13291
G1 X80.503 Y75.000 E2.15200
G1 X80.473 Y75.575 E2.17108
G1 X80.383 Y76.144 E2.19017
G1 X80.233 Y76.700 E2.20924
G1 X80.027 Y77.238 E2.22832
G1 X79.766 Y77.751 E2.24741
G1 X79.452 Y78.234 E2.26649
G1 X79.089 Y78.682 E2.28557
G1 X78.696 Y79.075 E2.30399
G1 X78.696 Y70.985 E2.57202
G1 X78.431 Y70.365 F7800.000
G1 F1800.000
G1 X78.860 Y70.713 E2.59033
G1 X79.287 Y71.140 E2.61034
G1 X79.667 Y71.609 E2.63034
G1 X79.996 Y72.116 E2.65035
G1 X80.270 Y72.654 E2.67035
G1 X80.486 Y73.217 E2.69036
G1 X80.643 Y73.801 E2.71036
G1 X80.737 Y74.397 E2.73036
G1 X80.769 Y75.000 E2.75037
G1 X80.737 Y75.603 E2.77037
G1 X80.643 Y76.200 E2.79039
G1 X80.486 Y76.783 E2.81038
G1 X80.270 Y77.346 E2.83039
G1 X79.996 Y77.884 E2.85039
G1 X79.667 Y78.391 E2.87040
G1 X79.287 Y78.860 E2.89040
G1 X78.860 Y79.287 E2.91041
G1 X78.431 Y79.635 E2.92871
G1 X78.431 Y70.425 E3.23382
G1 E1.23382 F2400.00000
G92 E0
G1 X71.304 Y70.925 F7800.000
G1 E2.00000 F2400.00000
G1 F1800.000
G1 X71.304 Y79.075 E2.27002
G1 X70.911 Y78.682 E2.28844
G1 X70.548 Y78.234 E2.30752
G1 X70.234 Y77.751 E2.32661
G1 X69.973 Y77.238 E2.34569
G1 X69.767 Y76.700 E2.36477
G1 X69.617 Y76.144 E2.38385
G1 X69.527 Y75.575 E2.40294
G1 X69.497 Y75.000 E2.42202
G1 X69.527 Y74.425 E2.44110
G1 X69.617 Y73.856 E2.46018
G1 X69.767 Y73.300 E2.47926
G1 X69.973 Y72.762 E2.49835
G1 X70.234 Y72.249 E2.51743
G1 X70.548 Y71.766 E2.53651
G1 X70.911 Y71.318 E2.55559
G1 X71.261 Y70.967 E2.57203
G1 X71.569 Y70.365 F7800.000
G1 F1800.000
G1 X71.569 Y79.635 E2.87912
G1 X71.140 Y79.287 E2.89743
G1 X70.713 Y78.860 E2.91744
G1 X70.333 Y78.391 E2.93744
G1 X70.004 Y77.884 E2.95744
G1 X69.730 Y77.346 E2.97745
G1 X69.514 Y76.783 E2.99745
G1 X69.357 Y76.199 E3.01746
G1 X69.263 Y75.603 E3.03746
G1 X69.231 Y75.000 E3.05747
G1 X69.263 Y74.397 E3.07747
G1 X69.357 Y73.801 E3.09748
G1 X69.514 Y73.217 E3.11748
G1 X69.730 Y72.654 E3.13749
G1 X70.004 Y72.116 E3.15749
G1 X70.333 Y71.609 E3.17750
G1 X70.713 Y71.140 E3.19750
G1 X71.140 Y70.713 E3.21750
G1 X71.523 Y70.403 E3.23382
G1 X71.453 Y70.118 F7800.000
G1 F1800.000
G1 X71.983 Y69.774 E3.25475
G1 X72.545 Y69.487 E3.27568
G1 X73.135 Y69.261 E3.29661
G1 X73.745 Y69.097 E3.31753
G1 X74.369 Y68.998 E3.33846
G1 X75.000 Y68.965 E3.35939
G1 X75.631 Y68.998 E3.38031
G1 X76.255 Y69.097 E3.40124
G1 X76.865 Y69.261 E3.42217
G1 X77.455 Y69.487 E3.44309
G1 X78.017 Y69.774 E3.46402
G1 X78.547 Y70.118 E3.48495
G1 X79.038 Y70.515 E3.50588
G1 X79.485 Y70.962 E3.52680
G1 X79.882 Y71.453 E3.54773
G1 X80.226 Y71.983 E3.56866
G1 X80.513 Y72.545 E3.58958
G1 X80.739 Y73.135 E3.61051
G1 X80.903 Y73.745 E3.63144
G1 X81.002 Y74.369 E3.65236
G1 X81.035 Y75.000 E3.67329
G1 X81.002 Y75.631 E3.69422
G1 X80.903 Y76.255 E3.71515
G1 X80.739 Y76.865 E3.73607
G1 X80.513 Y77.455 E3.75700
G1 X80.226 Y78.017 E3.77793
G1 X79.882 Y78.547 E3.79885
G1 X79.485 Y79.038 E3.81978
G1 X79.038 Y79.485 E3.84071
G1 X78.547 Y79.882 E3.86163
G1 X78.017 Y80.226 E3.88256
G1 X77.455 Y80.513 E3.90349
G1 X76.865 Y80.739 E3.92441
G1 X76.255 Y80.903 E3.94534
G1 X75.631 Y81.002 E3.96627
G1 X75.000 Y81.035 E3.98720
G1 X74.369 Y81.002 E4.00812
G1 X73.745 Y80.903 E4.02905
G1 X73.135 Y80.739 E4.04998
G1 X72.545 Y80.513 E4.07090
G1 X71.983 Y80.226 E4.09183
G1 X71.453 Y79.882 E4.11276
G1 X70.962 Y79.485 E4.13368
G1 X70.515 Y79.038 E4.15461
G1 X70.118 Y78.547 E4.17554
G1 X69.774 Y78.017 E4.19647
G1 X69.487 Y77.455 E4.21739
G1 X69.261 Y76.865 E4.23832
G1 X69.097 Y76.255 E4.25925
G1 X68.998 Y75.631 E4.28017
G1 X68.965 Y75.000 E4.30110
G1 X68.998 Y74.369 E4.32203
G1 X69.097 Y73.745 E4.34295
G1 X69.261 Y73.135 E4.36388
G1 X69.487 Y72.545 E4.38481
G1 X69.774 Y71.983 E4.40574
G1 X70.118 Y71.453 E4.42666
G1 X70.515 Y70.962 E4.44759
G1 X70.962 Y70.515 E4.46852
G1 X71.406 Y70.156 E4.48746
G1 X71.702 Y70.359 F7800.000
G1 F1800.000
G1 X72.152 Y70.068 E4.50978
G1 X72.563 Y69.850 E4.52912
G1 X73.239 Y69.579 E4.55943
G1 X73.945 Y69.402 E4.58974
G1 X74.405 Y69.336 E4.60909
G1 X75.000 Y69.305 E4.63390
G1 X75.595 Y69.336 E4.65872
G1 X76.055 Y69.402 E4.67806
G1 X76.761 Y69.579 E4.70837
G1 X77.437 Y69.850 E4.73868
G1 X77.848 Y70.068 E4.75803
G1 X78.298 Y70.359 E4.78035
G1 X79.065 Y71.479 F7800.000
G1 F1800.000
G1 X78.859 Y71.686 E4.79014
G1 X78.859 Y72.066 E4.80285
G1 X79.235 Y71.689 E4.82069
G1 X79.397 Y71.907 E4.82978
G1 X78.859 Y72.445 E4.85529
G1 X78.859 Y72.825 E4.86800
G1 X79.547 Y72.137 E4.90059
G1 X79.688 Y72.375 E4.90988
G1 X78.859 Y73.205 E4.94916
G1 X78.859 Y73.584 E4.96187
G1 X79.816 Y72.627 E5.00723
G1 X79.934 Y72.889 E5.01684
G1 X78.859 Y73.964 E5.06778
G1 X78.859 Y74.344 E5.08050
G1 X80.039 Y73.163 E5.13643
G1 X80.130 Y73.452 E5.14657
G1 X78.859 Y74.724 E5.20680
G1 X78.859 Y75.103 E5.21952
G1 X80.211 Y73.751 E5.28355
G1 X80.268 Y74.074 E5.29451
G1 X78.859 Y75.483 E5.36126
G1 X78.859 Y75.863 E5.37397
G1 X80.314 Y74.407 E5.44292
G1 X80.333 Y74.768 E5.45502
G1 X78.859 Y76.242 E5.52487
G1 X78.859 Y76.622 E5.53759
G1 X80.327 Y75.154 E5.60712
G1 X80.292 Y75.569 E5.62105
G1 X78.859 Y77.002 E5.68893
G1 X78.859 Y77.382 E5.70164
G1 X80.215 Y76.025 E5.76589
G1 X80.071 Y76.549 E5.78410
G1 X78.859 Y77.761 E5.84151
G1 X78.859 Y78.141 E5.85422
G1 X79.799 Y77.201 E5.89875
G1 X79.639 Y77.515 E5.91056
G1 X79.340 Y77.975 E5.92891
G1 X79.066 Y78.314 E5.94351
G1 X78.859 Y78.521 E5.95332
G1 X78.298 Y79.641 F7800.000
G1 F1800.000
G1 X77.848 Y79.932 E5.97564
G1 X77.437 Y80.150 E5.99499
G1 X76.761 Y80.421 E6.02530
G1 X76.055 Y80.598 E6.05561
G1 X75.595 Y80.664 E6.07495
G1 X75.000 Y80.695 E6.09977
G1 X74.405 Y80.664 E6.12458
G1 X73.945 Y80.598 E6.14393
G1 X73.239 Y80.421 E6.17424
G1 X72.563 Y80.150 E6.20455
G1 X72.152 Y79.932 E6.22389
G1 X71.702 Y79.641 E6.24622
G1 X70.935 Y78.521 F7800.000
G1 F1800.000
G1 X71.141 Y78.314 E6.25600
G1 X71.141 Y77.934 E6.26872
G1 X70.765 Y78.311 E6.28655
G1 X70.603 Y78.093 E6.29564
G1 X71.141 Y77.555 E6.32115
G1 X71.141 Y77.175 E6.33387
G1 X70.453 Y77.863 E6.36646
G1 X70.312 Y77.625 E6.37574
G1 X71.141 Y76.795 E6.41502
G1 X71.141 Y76.416 E6.42774
G1 X70.184 Y77.373 E6.47309
G1 X70.066 Y77.111 E6.48271
G1 X71.141 Y76.036 E6.53365
G1 X71.141 Y75.656 E6.54636
G1 X69.961 Y76.837 E6.60229
G1 X69.870 Y76.548 E6.61244
G1 X71.141 Y75.276 E6.67267
G1 X71.141 Y74.897 E6.68538
G1 X69.789 Y76.249 E6.74941
G1 X69.732 Y75.926 E6.76038
G1 X71.141 Y74.517 E6.82712
G1 X71.141 Y74.137 E6.83984
G1 X69.686 Y75.593 E6.90879
G1 X69.667 Y75.232 E6.92089
G1 X71.141 Y73.758 E6.99074
G1 X71.141 Y73.378 E7.00346
G1 X69.673 Y74.846 E7.07299
G1 X69.708 Y74.431 E7.08692
G1 X71.141 Y72.998 E7.15480
G1 X71.141 Y72.618 E7.16752
G1 X69.785 Y73.975 E7.23176
G1 X69.929 Y73.451 E7.24997
G1 X71.141 Y72.239 E7.30738
G1 X71.141 Y71.859 E7.32010
G1 X70.201 Y72.799 E7.36462
G1 X70.361 Y72.485 E7.37643
G1 X70.660 Y72.025 E7.39479
G1 X70.934 Y71.687 E7.40938
G1 X71.141 Y71.479 E7.41920
M106 S255
G1 Z0.500 F7800.000
G1 X71.780 Y70.653 F7800.000
G1 F1800.000
G1 X72.096 Y70.423 E7.43208
G1 X72.692 Y70.095 E7.45455
G1 X73.325 Y69.845 E7.47703
G1 X73.984 Y69.676 E7.49950
G1 X74.660 Y69.590 E7.52198
G1 X75.340 Y69.590 E7.54445
G1 X76.016 Y69.676 E7.56693
G1 X76.675 Y69.845 E7.58940
G1 X77.308 Y70.095 E7.61188
G1 X77.904 Y70.423 E7.63435
G1 X78.220 Y70.653 E7.64723
G1 X78.220 Y79.347 E7.93431
G1 X77.904 Y79.577 E7.94718
G1 X77.308 Y79.905 E7.96966
G1 X76.675 Y80.155 E7.99213
G1 X76.016 Y80.324 E8.01461
G1 X75.340 Y80.410 E8.03708
G1 X74.660 Y80.410 E8.05956
G1 X73.984 Y80.324 E8.08203
G1 X73.325 Y80.155 E8.10451
G1 X72.692 Y79.905 E8.12698
G1 X72.096 Y79.577 E8.14946
G1 X71.780 Y79.347 E8.16234
G1 X71.780 Y70.713 E8.44743
G1 E6.44743 F2400.00000
G92 E0
G1 X78.677 Y70.878 F7800.000
G1 E2.00000 F2400.00000
G1 F1800.000
G1 X79.104 Y71.305 E2.02594
G1 X79.467 Y71.754 E2.05079
G1 X79.782 Y72.239 E2.07564
G1 X80.045 Y72.754 E2.10049
G1 X80.252 Y73.294 E2.12534
G1 X80.401 Y73.852 E2.15019
G1 X80.492 Y74.423 E2.17504
G1 X80.522 Y75.000 E2.19990
G1 X80.492 Y75.577 E2.22475
G1 X80.401 Y76.149 E2.24962
G1 X80.252 Y76.706 E2.27445
G1 X80.045 Y77.246 E2.29930
G1 X79.782 Y77.761 E2.32415
G1 X79.467 Y78.246 E2.34900
G1 X79.104 Y78.695 E2.37385
G1 X78.677 Y79.121 E2.39979
G1 X78.677 Y70.938 E2.75162
G1 E0.75162 F2400.00000
G92 E0
G1 X71.323 Y70.878 F7800.000
G1 E2.00000 F2400.00000
G1 F1800.000
G1 X71.323 Y79.121 E2.35441
G1 X70.896 Y78.695 E2.38035
G1 X70.533 Y78.246 E2.40520
G1 X70.218 Y77.761 E2.43005
G1 X69.955 Y77.246 E2.45490
G1 X69.748 Y76.706 E2.47975
G1 X69.599 Y76.148 E2.50460
G1 X69.508 Y75.577 E2.52945
G1 X69.478 Y75.000 E2.55431
G1 X69.508 Y74.423 E2.57916
G1 X69.599 Y73.852 E2.60401
G1 X69.748 Y73.294 E2.62886
G1 X69.955 Y72.754 E2.65371
G1 X70.218 Y72.239 E2.67856
G1 X70.533 Y71.754 E2.70341
G1 X70.896 Y71.305 E2.72826
G1 X71.280 Y70.921 E2.75162
G1 X70.999 Y70.556 F7800.000
G1 F1800.000
G1 X71.485 Y70.162 E2.77229
G1 X72.010 Y69.821 E2.79295
G1 X72.568 Y69.537 E2.81362
G1 X73.152 Y69.313 E2.83429
G1 X73.757 Y69.151 E2.85495
G1 X74.375 Y69.053 E2.87562
G1 X75.000 Y69.020 E2.89628
G1 X75.625 Y69.053 E2.91695
G1 X76.243 Y69.151 E2.93761
G1 X76.848 Y69.313 E2.95828
G1 X77.432 Y69.537 E2.97895
G1 X77.990 Y69.821 E2.99961
G1 X78.515 Y70.162 E3.02028
G1 X79.001 Y70.556 E3.04094
G1 X79.444 Y70.999 E3.06161
G1 X79.838 Y71.485 E3.08227
G1 X80.179 Y72.010 E3.10294
G1 X80.463 Y72.568 E3.12361
G1 X80.687 Y73.152 E3.14427
G1 X80.849 Y73.757 E3.16494
G1 X80.947 Y74.375 E3.18560
G1 X80.980 Y75.000 E3.20627
G1 X80.947 Y75.625 E3.22693
G1 X80.849 Y76.244 E3.24762
G1 X80.687 Y76.848 E3.26827
G1 X80.463 Y77.432 E3.28893
G1 X80.179 Y77.990 E3.30960
G1 X79.838 Y78.515 E3.33026
G1 X79.444 Y79.001 E3.35093
G1 X79.001 Y79.444 E3.37159
G1 X78.515 Y79.838 E3.39226
G1 X77.990 Y80.179 E3.41293
G1 X77.432 Y80.463 E3.43359
G1 X76.848 Y80.687 E3.45426
G1 X76.243 Y80.849 E3.47492
G1 X75.625 Y80.947 E3.49559
G1 X75.000 Y80.980 E3.51625
G1 X74.375 Y80.947 E3.53692
G1 X73.757 Y80.849 E3.55759
G1 X73.152 Y80.687 E3.57825
G1 X72.568 Y80.463 E3.59892
G1 X72.010 Y80.179 E3.61958
G1 X71.485 Y79.838 E3.64025
G1 X70.999 Y79.444 E3.66091
G1 X70.556 Y79.001 E3.68158
G1 X70.162 Y78.515 E3.70225
G1 X69.821 Y77.990 E3.72291
G1 X69.537 Y77.432 E3.74358
G1 X69.313 Y76.848 E3.76424
G1 X69.151 Y76.243 E3.78491
G1 X69.053 Y75.625 E3.80558
G1 X69.020 Y75.000 E3.82624
G1 X69.053 Y74.375 E3.84691
G1 X69.151 Y73.757 E3.86757
G1 X69.313 Y73.152 E3.88824
G1 X69.537 Y72.568 E3.90890
G1 X69.821 Y72.010 E3.92957
G1 X70.162 Y71.485 E3.95024
G1 X70.556 Y70.999 E3.97090
G1 X70.956 Y70.599 E3.98959
G1 X71.551 Y70.471 F7800.000
G1 F1200.000
G1 X71.950 Y70.189 E3.99241
G1 X72.571 Y69.846 E3.99652
G1 X73.239 Y69.579 E4.00067
G1 X73.935 Y69.403 E4.00483
G1 X74.405 Y69.336 E4.00757
G1 X75.000 Y69.305 E4.01102
G1 X75.595 Y69.336 E4.01447
G1 X76.065 Y69.403 E4.01721
G1 X76.761 Y69.579 E4.02137
G1 X77.429 Y69.846 E4.02553
G1 X78.050 Y70.189 E4.02963
G1 X78.449 Y70.471 E4.03246
G1 E2.03246 F2400.00000
G92 E0
G1 X79.395 Y72.484 F7800.000
G1 E2.00000 F2400.00000
G1 F1800.000
G1 X78.993 Y72.082 E2.02598
G1 X78.993 Y72.858 E2.06141
G1 X80.023 Y73.888 E2.12789
G1 X80.096 Y74.161 E2.14077
G1 X80.186 Y74.827 E2.17146
G1 X78.993 Y73.634 E2.24845
G1 X78.993 Y74.411 E2.28388
G1 X80.184 Y75.602 E2.36078
G1 X80.086 Y76.280 E2.39203
G1 X78.993 Y75.187 E2.46257
G1 X78.993 Y75.963 E2.49800
G1 X79.910 Y76.880 E2.55716
G1 X79.773 Y77.237 E2.57459
G1 X79.677 Y77.424 E2.58419
G1 X78.993 Y76.740 E2.62835
G1 X78.993 Y77.516 E2.66379
G1 X79.395 Y77.918 E2.68975
G1 X78.449 Y79.529 F7800.000
G1 F1200.000
G1 X78.050 Y79.811 E2.69257
G1 X77.429 Y80.154 E2.69668
G1 X76.761 Y80.421 E2.70083
G1 X76.065 Y80.597 E2.70499
G1 X75.595 Y80.664 E2.70773
G1 X75.000 Y80.695 E2.71118
G1 X74.405 Y80.664 E2.71463
G1 X73.935 Y80.597 E2.71737
G1 X73.239 Y80.421 E2.72153
G1 X72.571 Y80.154 E2.72569
G1 X71.950 Y79.811 E2.72979
G1 X71.551 Y79.529 E2.73261
G1 X71.007 Y77.918 F7800.000
G1 F1800.000
G1 X70.604 Y77.516 E2.75858
G1 X70.465 Y77.301 E2.77026
G1 X70.227 Y76.834 E2.79416
G1 X70.040 Y76.345 E2.81807
G1 X69.977 Y76.112 E2.82910
G1 X71.007 Y77.142 E2.89558
G1 X71.007 Y76.366 E2.93101
G1 X69.814 Y75.173 E3.00800
G1 X69.795 Y74.799 E3.02509
G1 X69.816 Y74.398 E3.04341
G1 X71.007 Y75.589 E3.12031
G1 X71.007 Y74.813 E3.15574
G1 X69.914 Y73.720 E3.22627
G1 X70.090 Y73.120 E3.25482
G1 X71.007 Y74.037 E3.31398
G1 X71.007 Y73.260 E3.34941
G1 X70.323 Y72.576 E3.39358
G1 X70.465 Y72.297 E3.40789
G1 X70.605 Y72.082 E3.41959
G1 X71.007 Y72.484 E3.44555
G1 Z0.700 F7800.000
G1 X71.780 Y70.653 F7800.000
G1 F1800.000
G1 X72.096 Y70.423 E3.45843
G1 X72.692 Y70.095 E3.48091
G1 X73.325 Y69.845 E3.50338
G1 X74.002 Y69.671 E3.52645
G1 X74.660 Y69.590 E3.54835
G1 X75.340 Y69.590 E3.57081
G1 X76.016 Y69.676 E3.59329
G1 X76.675 Y69.845 E3.61576
G1 X77.308 Y70.095 E3.63824
G1 X77.904 Y70.423 E3.66071
G1 X78.220 Y70.653 E3.67359
G1 X78.220 Y79.347 E3.96067
G1 X77.904 Y79.577 E3.97355
G1 X77.308 Y79.905 E3.99602
G1 X76.675 Y80.155 E4.01850
G1 X76.016 Y80.324 E4.04097
G1 X75.340 Y80.410 E4.06345
G1 X74.660 Y80.410 E4.08592
G1 X73.984 Y80.324 E4.10840
G1 X73.325 Y80.155 E4.13087
G1 X72.692 Y79.905 E4.15335
G1 X72.096 Y79.577 E4.17582
G1 X71.780 Y79.347 E4.18870
G1 X71.780 Y70.713 E4.47379
G1 E2.47379 F2400.00000
G92 E0
G1 X78.677 Y70.878 F7800.000
G1 E2.00000 F2400.00000
G1 F1800.000
G1 X79.104 Y71.305 E2.02594
G1 X79.467 Y71.754 E2.05079
G1 X79.782 Y72.239 E2.07564
G1 X80.045 Y72.754 E2.10049
G1 X80.252 Y73.294 E2.12534
G1 X80.401 Y73.852 E2.15019
G1 X80.492 Y74.423 E2.17504
G1 X80.522 Y75.000 E2.19990
G1 X80.492 Y75.577 E2.22474
G1 X80.401 Y76.149 E2.24964
G1 X80.252 Y76.706 E2.27445
G1 X80.045 Y77.246 E2.29930
G1 X79.782 Y77.761 E2.32415
G1 X79.467 Y78.246 E2.34900
G1 X79.104 Y78.695 E2.37385
G1 X78.677 Y79.121 E2.39979
G1 X78.677 Y70.938 E2.75162
G1 E0.75162 F2400.00000
G92 E0
G1 X71.323 Y70.878 F7800.000
G1 E2.00000 F2400.00000
G1 F1800.000
G1 X71.323 Y79.121 E2.35441
G1 X70.896 Y78.695 E2.38035
G1 X70.533 Y78.246 E2.40520
G1 X70.218 Y77.761 E2.43005
G1 X69.955 Y77.246 E2.45490
G1 X69.748 Y76.706 E2.47975
G1 X69.599 Y76.148 E2.50460
G1 X69.508 Y75.577 E2.52945
G1 X69.478 Y75.000 E2.55431
G1 X69.508 Y74.423 E2.57916
G1 X69.599 Y73.852 E2.60401
G1 X69.748 Y73.294 E2.62886
G1 X69.955 Y72.754 E2.65371
G1 X70.218 Y72.239 E2.67856
G1 X70.533 Y71.754 E2.70341
G1 X70.896 Y71.305 E2.72826
G1 X71.280 Y70.921 E2.75162
G1 X70.999 Y70.556 F7800.000
G1 F1800.000
G1 X71.485 Y70.162 E2.77229
G1 X72.010 Y69.821 E2.79295
