; generated by Slic3r 1.3.1-dev (Build 2ef957d) on 2019-11-25 at 09:22:17

; external perimeters extrusion width = 0.55mm (4.37mm^3/s)
; perimeters extrusion width = 0.70mm (11.44mm^3/s)
; infill extrusion width = 0.62mm (13.45mm^3/s)
; solid infill extrusion width = 0.70mm (3.81mm^3/s)
; top infill extrusion width = 0.70mm (2.86mm^3/s)

M107
G92 E0
M104 S200 ; set temperature
G28 ; home all axes
G1 Z5 F5000 ; lift nozzle

; Filament gcode

M109 S200 ; set temperature and wait for it to be reached
G21 ; set units to millimeters
G90 ; use absolute coordinates
M82 ; use absolute distances for extrusion
G92 E0
G1 Z0.350 F7800.000
G1 E-2.00000 F2400.00000
G92 E0
G1 X-158.326 Y92.046 F7800.000
G1 E2.00000 F2400.00000
G1 F1800.000
G1 X400.000 Y92.046 E19.27534
G1 X402.259 Y92.443 E19.34630
G1 X404.247 Y93.586 E19.41726
G1 X405.726 Y95.339 E19.48822
G1 X406.519 Y97.491 E19.55919
G1 X406.625 Y98.671 E19.59584
G1 X406.625 Y101.329 E19.67808
G1 X406.228 Y103.588 E19.74904
G1 X405.085 Y105.576 E19.82000
G1 X403.332 Y107.055 E19.89097
G1 X401.180 Y107.848 E19.96193
G1 X400.000 Y107.954 E19.99858
G1 X-200.000 Y107.954 E38.56337
G1 X-202.259 Y107.557 E38.63433
G1 X-204.247 Y106.414 E38.70529
G1 X-205.726 Y104.661 E38.77626
G1 X-206.519 Y102.509 E38.84722
G1 X-206.625 Y101.329 E38.88387
G1 X-206.625 Y98.671 E38.96611
G1 X-206.228 Y96.412 E39.03707
G1 X-205.085 Y94.424 E39.10803
G1 X-203.332 Y92.945 E39.17900
G1 X-201.180 Y92.152 E39.24996
G1 X-200.000 Y92.046 E39.28661
G1 X-158.401 Y92.046 E40.57374
G1 E38.57374 F2400.00000
G92 E0
G1 X-156.919 Y100.354 F7800.000
G1 E2.00000 F2400.00000
G1 F1800.000
G1 X-156.863 Y100.000 E2.01109
G1 X-156.919 Y99.646 E2.02219
G1 X-112.531 Y99.646 E3.39561
G1 X-112.587 Y100.000 E3.40670
G1 X-112.531 Y100.354 E3.41780
G1 X-156.844 Y100.354 E4.78890
G1 X-157.651 Y100.979 F7800.000
G1 F1800.000
G1 X-157.496 Y100.000 E4.81957
G1 X-157.651 Y99.021 E4.85024
G1 X-111.668 Y99.021 E6.27301
G1 X-111.859 Y99.396 E6.28604
G1 X-111.954 Y100.000 E6.30496
G1 X-111.859 Y100.604 E6.32387
G1 X-111.668 Y100.979 E6.33690
G1 X-157.576 Y100.979 E7.75735
G1 X-157.358 Y100.574 F7800.000
G1 E5.75735 F2400.00000
G92 E0
G1 X-107.469 Y100.354 F7800.000
G1 E2.00000 F2400.00000
G1 F1800.000
G1 X-107.413 Y100.000 E2.01109
G1 X-107.469 Y99.646 E2.02218
G1 X-72.531 Y99.646 E3.10321
G1 X-72.587 Y100.000 E3.11431
G1 X-72.531 Y100.354 E3.12540
G1 X-107.394 Y100.354 E4.20411
G1 X-108.332 Y100.979 F7800.000
G1 F1800.000
G1 X-108.141 Y100.604 E4.21713
G1 X-108.046 Y100.000 E4.23605
G1 X-108.141 Y99.396 E4.25497
G1 X-108.332 Y99.021 E4.26799
G1 X-71.668 Y99.021 E5.40245
G1 X-71.859 Y99.396 E5.41548
G1 X-71.954 Y100.000 E5.43439
G1 X-71.859 Y100.604 E5.45331
G1 X-71.668 Y100.979 E5.46634
G1 X-108.257 Y100.979 E6.59847
G1 X-108.021 Y100.696 F7800.000
G1 E4.59847 F2400.00000
G92 E0
G1 X-67.469 Y100.354 F7800.000
G1 E2.00000 F2400.00000
G1 F1800.000
G1 X-67.413 Y100.000 E2.01109
G1 X-67.469 Y99.646 E2.02218
G1 X-32.531 Y99.646 E3.10321
G1 X-32.587 Y100.000 E3.11431
G1 X-32.531 Y100.354 E3.12540
G1 X-67.394 Y100.354 E4.20411
G1 X-68.332 Y100.979 F7800.000
G1 F1800.000
G1 X-68.141 Y100.604 E4.21713
G1 X-68.046 Y100.000 E4.23605
G1 X-68.141 Y99.396 E4.25497
G1 X-68.332 Y99.021 E4.26799
G1 X-31.668 Y99.021 E5.40245
G1 X-31.859 Y99.396 E5.41548
G1 X-31.954 Y100.000 E5.43439
G1 X-31.859 Y100.604 E5.45331
G1 X-31.668 Y100.979 E5.46634
G1 X-68.257 Y100.979 E6.59847
G1 X-68.021 Y100.696 F7800.000
G1 E4.59847 F2400.00000
G92 E0
G1 X-27.469 Y100.354 F7800.000
G1 E2.00000 F2400.00000
G1 F1800.000
G1 X-27.413 Y100.000 E2.01109
G1 X-27.469 Y99.646 E2.02218
G1 X7.469 Y99.646 E3.10321
G1 X7.413 Y100.000 E3.11430
G1 X7.469 Y100.354 E3.12539
G1 X-27.394 Y100.354 E4.20410
G1 X-28.332 Y100.979 F7800.000
G1 F1800.000
G1 X-28.141 Y100.604 E4.21712
G1 X-28.046 Y100.000 E4.23604
G1 X-28.141 Y99.396 E4.25496
G1 X-28.332 Y99.021 E4.26799
G1 X8.332 Y99.021 E5.40242
G1 X8.141 Y99.396 E5.41545
G1 X8.046 Y100.000 E5.43436
G1 X8.141 Y100.604 E5.45328
G1 X8.333 Y100.979 E5.46631
G1 X-28.257 Y100.979 E6.59845
G1 X-28.021 Y100.696 F7800.000
G1 E4.59845 F2400.00000
G92 E0
G1 X12.531 Y100.354 F7800.000
G1 E2.00000 F2400.00000
G1 F1800.000
G1 X12.587 Y100.000 E2.01109
G1 X12.531 Y99.646 E2.02218
G1 X47.469 Y99.646 E3.10320
G1 X47.413 Y100.000 E3.11430
G1 X47.469 Y100.354 E3.12539
G1 X12.606 Y100.354 E4.20409
G1 X11.667 Y100.979 F7800.000
G1 F1800.000
G1 X11.859 Y100.604 E4.21712
G1 X11.954 Y100.000 E4.23604
G1 X11.859 Y99.396 E4.25496
G1 X11.667 Y99.021 E4.26799
G1 X48.332 Y99.021 E5.40243
G1 X48.141 Y99.396 E5.41546
G1 X48.046 Y100.000 E5.43437
G1 X48.141 Y100.604 E5.45329
G1 X48.333 Y100.979 E5.46632
G1 X11.742 Y100.979 E6.59846
G1 X11.980 Y100.696 F7800.000
G1 E4.59846 F2400.00000
G92 E0
G1 X52.531 Y100.354 F7800.000
G1 E2.00000 F2400.00000
G1 F1800.000
G1 X52.587 Y100.000 E2.01109
G1 X52.531 Y99.646 E2.02218
G1 X87.469 Y99.646 E3.10320
G1 X87.413 Y100.000 E3.11430
G1 X87.469 Y100.354 E3.12539
G1 X52.606 Y100.354 E4.20409
G1 X51.667 Y100.979 F7800.000
G1 F1800.000
G1 X51.859 Y100.604 E4.21712
G1 X51.954 Y100.000 E4.23604
G1 X51.859 Y99.396 E4.25496
G1 X51.667 Y99.021 E4.26799
G1 X88.332 Y99.021 E5.40243
G1 X88.141 Y99.396 E5.41546
G1 X88.046 Y100.000 E5.43437
G1 X88.141 Y100.604 E5.45329
G1 X88.333 Y100.979 E5.46632
G1 X51.742 Y100.979 E6.59846
G1 X51.980 Y100.696 F7800.000
G1 E4.59846 F2400.00000
G92 E0
G1 X92.531 Y100.354 F7800.000
G1 E2.00000 F2400.00000
G1 F1800.000
G1 X92.587 Y100.000 E2.01109
G1 X92.531 Y99.646 E2.02218
G1 X127.469 Y99.646 E3.10320
G1 X127.413 Y100.000 E3.11430
G1 X127.469 Y100.354 E3.12539
G1 X92.606 Y100.354 E4.20409
G1 X91.667 Y100.979 F7800.000
G1 F1800.000
G1 X91.859 Y100.604 E4.21712
G1 X91.954 Y100.000 E4.23604
G1 X91.859 Y99.396 E4.25496
G1 X91.667 Y99.021 E4.26799
G1 X128.332 Y99.021 E5.40243
G1 X128.141 Y99.396 E5.41546
G1 X128.046 Y100.000 E5.43437
G1 X128.141 Y100.604 E5.45329
G1 X128.333 Y100.979 E5.46631
G1 X91.742 Y100.979 E6.59846
G1 X91.980 Y100.696 F7800.000
G1 E4.59846 F2400.00000
G92 E0
G1 X132.531 Y100.354 F7800.000
G1 E2.00000 F2400.00000
G1 F1800.000
G1 X132.587 Y100.000 E2.01109
G1 X132.531 Y99.646 E2.02218
G1 X167.469 Y99.646 E3.10320
G1 X167.413 Y100.000 E3.11430
G1 X167.469 Y100.354 E3.12539
G1 X132.606 Y100.354 E4.20409
G1 X131.667 Y100.979 F7800.000
G1 F1800.000
G1 X131.859 Y100.604 E4.21712
G1 X131.954 Y100.000 E4.23604
G1 X131.859 Y99.396 E4.25496
G1 X131.667 Y99.021 E4.26799
G1 X168.332 Y99.021 E5.40243
G1 X168.141 Y99.396 E5.41546
G1 X168.046 Y100.000 E5.43437
G1 X168.141 Y100.604 E5.45329
G1 X168.333 Y100.979 E5.46632
G1 X131.742 Y100.979 E6.59846
G1 X131.980 Y100.696 F7800.000
G1 E4.59846 F2400.00000
G92 E0
G1 X172.531 Y100.354 F7800.000
G1 E2.00000 F2400.00000
G1 F1800.000
G1 X172.587 Y100.000 E2.01109
G1 X172.531 Y99.646 E2.02218
G1 X207.469 Y99.646 E3.10320
G1 X207.413 Y100.000 E3.11430
G1 X207.469 Y100.354 E3.12539
G1 X172.606 Y100.354 E4.20409
G1 X171.667 Y100.979 F7800.000
G1 F1800.000
G1 X171.859 Y100.604 E4.21712
G1 X171.954 Y100.000 E4.23604
G1 X171.859 Y99.396 E4.25496
G1 X171.667 Y99.021 E4.26799
G1 X208.332 Y99.021 E5.40243
G1 X208.141 Y99.396 E5.41546
G1 X208.046 Y100.000 E5.43437
G1 X208.141 Y100.604 E5.45329
G1 X208.333 Y100.979 E5.46632
G1 X171.742 Y100.979 E6.59846
G1 X171.980 Y100.696 F7800.000
G1 E4.59846 F2400.00000
G92 E0
G1 X212.531 Y100.354 F7800.000
G1 E2.00000 F2400.00000
G1 F1800.000
G1 X212.587 Y100.000 E2.01109
G1 X212.531 Y99.646 E2.02218
G1 X247.469 Y99.646 E3.10320
G1 X247.413 Y100.000 E3.11430
G1 X247.469 Y100.354 E3.12539
G1 X212.606 Y100.354 E4.20409
G1 X211.667 Y100.979 F7800.000
G1 F1800.000
G1 X211.859 Y100.604 E4.21712
G1 X211.954 Y100.000 E4.23604
G1 X211.859 Y99.396 E4.25496
G1 X211.667 Y99.021 E4.26799
G1 X248.332 Y99.021 E5.40243
G1 X248.141 Y99.396 E5.41546
G1 X248.046 Y100.000 E5.43437
G1 X248.141 Y100.604 E5.45329
G1 X248.333 Y100.979 E5.46632
G1 X211.742 Y100.979 E6.59846
G1 X211.980 Y100.696 F7800.000
G1 E4.59846 F2400.00000
G92 E0
G1 X252.531 Y100.354 F7800.000
G1 E2.00000 F2400.00000
G1 F1800.000
G1 X252.587 Y100.000 E2.01109
G1 X252.531 Y99.646 E2.02218
G1 X287.469 Y99.646 E3.10320
G1 X287.413 Y100.000 E3.11430
G1 X287.469 Y100.354 E3.12539
G1 X252.606 Y100.354 E4.20409
G1 X251.667 Y100.979 F7800.000
G1 F1800.000
G1 X251.859 Y100.604 E4.21712
G1 X251.954 Y100.000 E4.23604
G1 X251.859 Y99.396 E4.25496
G1 X251.667 Y99.021 E4.26799
G1 X288.332 Y99.021 E5.40243
G1 X288.141 Y99.396 E5.41546
G1 X288.046 Y100.000 E5.43437
G1 X288.141 Y100.604 E5.45329
G1 X288.333 Y100.979 E5.46632
G1 X251.742 Y100.979 E6.59846
G1 X251.980 Y100.696 F7800.000
G1 E4.59846 F2400.00000
G92 E0
G1 X292.531 Y100.354 F7800.000
G1 E2.00000 F2400.00000
G1 F1800.000
G1 X292.587 Y100.000 E2.01109
G1 X292.531 Y99.646 E2.02218
G1 X327.469 Y99.646 E3.10321
G1 X327.413 Y100.000 E3.11430
G1 X327.469 Y100.354 E3.12539
G1 X292.606 Y100.354 E4.20409
G1 X291.667 Y100.979 F7800.000
G1 F1800.000
G1 X291.859 Y100.604 E4.21712
G1 X291.954 Y100.000 E4.23604
G1 X291.859 Y99.396 E4.25496
G1 X291.667 Y99.021 E4.26799
G1 X328.332 Y99.021 E5.40243
G1 X328.141 Y99.396 E5.41546
G1 X328.046 Y100.000 E5.43437
G1 X328.141 Y100.604 E5.45328
G1 X328.333 Y100.979 E5.46631
G1 X291.742 Y100.979 E6.59846
G1 X291.980 Y100.696 F7800.000
G1 E4.59846 F2400.00000
G92 E0
G1 X332.531 Y100.354 F7800.000
G1 E2.00000 F2400.00000
G1 F1800.000
G1 X332.587 Y100.000 E2.01109
G1 X332.531 Y99.646 E2.02218
G1 X367.469 Y99.646 E3.10321
G1 X367.413 Y100.000 E3.11430
G1 X367.469 Y100.354 E3.12539
G1 X332.606 Y100.354 E4.20409
G1 X331.667 Y100.979 F7800.000
G1 F1800.000
G1 X331.859 Y100.604 E4.21712
G1 X331.954 Y100.000 E4.23604
G1 X331.859 Y99.396 E4.25496
G1 X331.667 Y99.021 E4.26799
G1 X368.332 Y99.021 E5.40243
G1 X368.141 Y99.396 E5.41545
G1 X368.046 Y100.000 E5.43436
G1 X368.141 Y100.604 E5.45328
G1 X368.333 Y100.979 E5.46631
G1 X331.742 Y100.979 E6.59846
G1 X331.980 Y100.696 F7800.000
G1 E4.59846 F2400.00000
G92 E0
G1 X372.531 Y100.354 F7800.000
G1 E2.00000 F2400.00000
G1 F1800.000
G1 X372.587 Y100.000 E2.01109
G1 X372.531 Y99.646 E2.02218
G1 X399.025 Y99.646 E2.84194
G1 X399.025 Y100.354 E2.86386
G1 X372.606 Y100.354 E3.68130
G1 X371.667 Y100.979 F7800.000
G1 F1800.000
G1 X371.859 Y100.604 E3.69432
G1 X371.954 Y100.000 E3.71324
G1 X371.859 Y99.396 E3.73216
G1 X371.667 Y99.021 E3.74519
G1 X399.650 Y99.021 E4.61101
G1 X399.650 Y100.979 E4.67159
G1 X371.742 Y100.979 E5.53509
G1 X371.974 Y100.690 F7800.000
G1 E3.53509 F2400.00000
G92 E0
G1 X-163.081 Y100.354 F7800.000
G1 E2.00000 F2400.00000
G1 F1800.000
G1 X-199.025 Y100.354 E3.11216
G1 X-199.025 Y99.646 E3.13407
G1 X-163.081 Y99.646 E4.24623
G1 X-163.137 Y100.000 E4.25732
G1 X-163.093 Y100.280 E4.26610
G1 X-162.349 Y100.979 F7800.000
G1 F1800.000
G1 X-199.650 Y100.979 E5.42023
G1 X-199.650 Y99.021 E5.48081
G1 X-162.349 Y99.021 E6.63494
G1 X-162.504 Y100.000 E6.66561
G1 X-162.361 Y100.905 E6.69396
G1 X-162.782 Y100.729 F7800.000
G1 Z0.650 F7800.000
G1 E4.69396 F2400.00000
G92 E0
G1 X-27.026 Y100.730 F7800.000
G1 E2.00000 F2400.00000
G1 F3600.000
G1 X-26.910 Y100.000 E2.01993
G1 X-27.026 Y99.270 E2.03985
G1 X7.026 Y99.270 E2.95844
G1 X6.911 Y100.000 E2.97837
G1 X7.026 Y100.730 E2.99829
G1 X-26.951 Y100.730 E3.91486
G1 X-27.984 Y101.365 F7800.000
G1 F3600.000
G1 X-27.674 Y100.756 E3.93331
G1 X-27.554 Y100.000 E3.95395
G1 X-27.674 Y99.244 E3.97460
G1 X-27.984 Y98.635 E3.99305
G1 X7.984 Y98.635 E4.96335
G1 X7.673 Y99.245 E4.98182
G1 X7.554 Y100.000 E5.00245
G1 X7.673 Y100.756 E5.02310
G1 X7.984 Y101.365 E5.04155
G1 X-27.909 Y101.365 E6.00983
G1 X-29.201 Y101.926 F7800.000

G1 F3600.000
G1 X-29.255 Y101.702 E6.01621
G1 X-29.012 Y101.579 E6.02376

G1 F1800.000
G1 X-28.896 Y101.520 E6.02645
G1 X-28.480 Y101.104 E6.03857
G1 X-28.214 Y100.580 E6.05068
G1 X-28.122 Y100.000 E6.06279
G1 X-28.214 Y99.420 E6.07490
G1 X-28.480 Y98.896 E6.08702
G1 X-28.896 Y98.480 E6.09913
G1 X-29.012 Y98.421 E6.10182

G1 F3600.000
G1 X-29.255 Y98.298 E6.10937
G1 X-29.201 Y98.074 E6.11575
G1 X9.201 Y98.074 E7.18248
G1 X9.255 Y98.298 E7.18886
G1 X9.013 Y98.421 E7.19642

G1 F1800.000
G1 X8.896 Y98.480 E7.19911
G1 X8.481 Y98.896 E7.21123
G1 X8.213 Y99.420 E7.22335
G1 X8.122 Y100.000 E7.23545
G1 X8.213 Y100.580 E7.24757
G1 X8.480 Y101.104 E7.25967
G1 X8.897 Y101.520 E7.27181
G1 X9.013 Y101.579 E7.27449

G1 F3600.000
G1 X9.255 Y101.702 E7.28204
G1 X9.201 Y101.926 E7.28842
G1 X-29.126 Y101.926 E8.35307

G1 X-29.221 Y101.841 F7800.000
G1 F1800.000
G1 X-29.953 Y101.899 E8.37056
G1 X-30.779 Y101.841 E8.39030
G1 E6.39030 F2400.00000
G92 E0
G1 X-30.779 Y98.159 F7800.000
G1 E2.00000 F2400.00000
G1 F1800.000
G1 X-29.953 Y98.101 E2.01974
G1 X-29.221 Y98.159 E2.03724
G1 E0.03724 F2400.00000
G92 E0
G1 X9.222 Y98.159 F7800.000
G1 E2.00000 F2400.00000
G1 F1800.000
G1 X10.047 Y98.101 E2.01973
G1 X10.778 Y98.159 E2.03721
G1 E0.03721 F2400.00000
G92 E0
G1 X12.974 Y100.730 F7800.000
G1 E2.00000 F2400.00000
G1 F3600.000
G1 X13.089 Y100.000 E2.01992
G1 X12.974 Y99.270 E2.03985
G1 X47.026 Y99.270 E2.95843
G1 X46.911 Y100.000 E2.97836
G1 X47.026 Y100.730 E2.99828
G1 X13.049 Y100.730 E3.91484
G1 X12.016 Y101.365 F7800.000
G1 F3600.000
G1 X12.327 Y100.755 E3.93331
G1 X12.446 Y100.000 E3.95394
G1 X12.327 Y99.244 E3.97459
G1 X12.016 Y98.635 E3.99304
G1 X47.984 Y98.635 E4.96335
G1 X47.673 Y99.245 E4.98182
G1 X47.554 Y100.000 E5.00245
G1 X47.673 Y100.756 E5.02310
G1 X47.984 Y101.365 E5.04155
G1 X12.091 Y101.365 E6.00984
G1 X10.799 Y101.926 F7800.000

G1 F3600.000
G1 X10.745 Y101.702 E6.01622
G1 X10.987 Y101.579 E6.02377

G1 F1800.000
G1 X11.104 Y101.520 E6.02646
G1 X11.519 Y101.104 E6.03858
G1 X11.787 Y100.580 E6.05070
G1 X11.878 Y100.000 E6.06281
G1 X11.787 Y99.420 E6.07492
G1 X11.520 Y98.896 E6.08703
G1 X11.103 Y98.480 E6.09916
G1 X10.987 Y98.421 E6.10184

G1 F3600.000
G1 X10.745 Y98.298 E6.10940
G1 X10.799 Y98.074 E6.11578
G1 X49.201 Y98.074 E7.18252
G1 X49.255 Y98.298 E7.18890
G1 X49.013 Y98.421 E7.19645

G1 F1800.000
G1 X48.896 Y98.480 E7.19914
G1 X48.481 Y98.896 E7.21126
G1 X48.213 Y99.420 E7.22338
G1 X48.122 Y100.000 E7.23549
G1 X48.213 Y100.580 E7.24760
G1 X48.480 Y101.104 E7.25971
G1 X48.897 Y101.520 E7.27184
G1 X49.013 Y101.579 E7.27452

G1 F3600.000
G1 X49.255 Y101.702 E7.28207
G1 X49.201 Y101.926 E7.28845
G1 X10.874 Y101.926 E8.35311

G1 X10.778 Y101.841 F7800.000
G1 F1800.000
G1 X10.047 Y101.899 E8.37059
G1 X9.222 Y101.841 E8.39033
G1 E6.39033 F2400.00000
G92 E0
G1 X49.222 Y101.841 F7800.000
G1 E2.00000 F2400.00000
G1 F1800.000
G1 X49.953 Y101.899 E2.01748
G1 X50.778 Y101.841 E2.03721
G1 E0.03721 F2400.00000
G92 E0
G1 X52.974 Y100.730 F7800.000
G1 E2.00000 F2400.00000
G1 F3600.000
G1 X53.089 Y100.000 E2.01992
G1 X52.974 Y99.270 E2.03985
G1 X87.026 Y99.270 E2.95843
G1 X86.911 Y100.000 E2.97836
G1 X87.026 Y100.730 E2.99828
G1 X53.049 Y100.730 E3.91484
G1 X52.016 Y101.365 F7800.000
G1 F3600.000
G1 X52.327 Y100.755 E3.93331
G1 X52.446 Y100.000 E3.95394
G1 X52.327 Y99.244 E3.97459
G1 X52.016 Y98.635 E3.99304
G1 X87.984 Y98.635 E4.96335
G1 X87.673 Y99.245 E4.98182
G1 X87.554 Y100.000 E5.00245
G1 X87.673 Y100.756 E5.02309
G1 X87.984 Y101.365 E5.04155
G1 X52.091 Y101.365 E6.00984
G1 X50.799 Y101.926 F7800.000

G1 F3600.000
G1 X50.745 Y101.702 E6.01622
G1 X50.987 Y101.579 E6.02377

G1 F1800.000
G1 X51.104 Y101.520 E6.02646
G1 X51.519 Y101.104 E6.03858
G1 X51.787 Y100.580 E6.05070
G1 X51.878 Y100.000 E6.06281
G1 X51.787 Y99.420 E6.07492
G1 X51.520 Y98.896 E6.08703
G1 X51.103 Y98.480 E6.09916
G1 X50.987 Y98.421 E6.10184

G1 F3600.000
G1 X50.745 Y98.298 E6.10939
G1 X50.799 Y98.074 E6.11578
G1 X89.201 Y98.074 E7.18252
G1 X89.255 Y98.298 E7.18890
G1 X89.013 Y98.421 E7.19645

G1 F1800.000
G1 X88.896 Y98.480 E7.19914
G1 X88.481 Y98.896 E7.21126
G1 X88.213 Y99.420 E7.22338
G1 X88.122 Y100.000 E7.23549
G1 X88.213 Y100.580 E7.24760
G1 X88.480 Y101.104 E7.25971
G1 X88.897 Y101.520 E7.27184
G1 X89.013 Y101.579 E7.27452

G1 F3600.000
G1 X89.255 Y101.702 E7.28207
G1 X89.201 Y101.926 E7.28845
G1 X50.874 Y101.926 E8.35311

G1 E6.35311 F2400.00000
G92 E0
G1 X50.778 Y98.159 F7800.000
G1 E2.00000 F2400.00000
G1 F1800.000
G1 X50.047 Y98.101 E2.01748
