; generated by Slic3r 1.3.1-dev (Build 2ef957d) on 2019-11-25 at 09:21:53

; external perimeters extrusion width = 0.55mm (4.37mm^3/s)
; perimeters extrusion width = 0.70mm (11.44mm^3/s)
; infill extrusion width = 0.62mm (13.45mm^3/s)
; solid infill extrusion width = 0.70mm (3.81mm^3/s)
; top infill extrusion width = 0.70mm (2.86mm^3/s)

M107
G92 E0
M104 S200 ; set temperature
G28 ; home all axes
G1 Z5 F5000 ; lift nozzle

; Filament gcode

M109 S200 ; set temperature and wait for it to be reached
G21 ; set units to millimeters
G90 ; use absolute coordinates
M82 ; use absolute distances for extrusion
G92 E0
G1 Z0.350 F7800.000
G1 E-2.00000 F2400.00000
G92 E0
G1 X66.102 Y64.207 F7800.000
G1 E2.00000 F2400.00000
G1 F1800.000
G1 X66.406 Y63.922 E2.01288
G1 X68.737 Y61.884 E2.10870
G1 X71.193 Y59.996 E2.20453
G1 X73.410 Y58.489 E2.28748
G1 X73.761 Y58.266 E2.30035
G1 X76.433 Y56.701 E2.39617
G1 X78.822 Y55.484 E2.47912
G1 X81.659 Y54.242 E2.57495
G1 X84.569 Y53.180 E2.67077
G1 X87.539 Y52.304 E2.76659
G1 X87.942 Y52.200 E2.77947
G1 X90.967 Y51.538 E2.87529
G1 X93.615 Y51.118 E2.95824
G1 X96.697 Y50.814 E3.05407
G1 X99.792 Y50.703 E3.14989
G1 X100.208 Y50.703 E3.16277
G1 X103.303 Y50.814 E3.25858
G1 X106.385 Y51.118 E3.35441
G1 X109.033 Y51.538 E3.43737
G1 X112.058 Y52.200 E3.53318
G1 X112.461 Y52.304 E3.54606
G1 X115.431 Y53.180 E3.64188
G1 X118.341 Y54.242 E3.73770
G1 X120.801 Y55.306 E3.82065
G1 X121.178 Y55.484 E3.83354
G1 X123.931 Y56.901 E3.92936
G1 X126.239 Y58.266 E4.01231
G1 X128.807 Y59.996 E4.10813
G1 X129.144 Y60.241 E4.12101
G1 X131.583 Y62.149 E4.21683
G1 X133.594 Y63.922 E4.29978
G1 X135.793 Y66.102 E4.39560
G1 X136.078 Y66.406 E4.40849
G1 X138.116 Y68.737 E4.50430
G1 X139.759 Y70.856 E4.58725
G1 X141.511 Y73.410 E4.68308
G1 X141.734 Y73.761 E4.69596
G1 X143.299 Y76.433 E4.79177
G1 X144.516 Y78.822 E4.87472
G1 X145.758 Y81.659 E4.97055
G1 X146.820 Y84.569 E5.06638
G1 X147.696 Y87.539 E5.16220
G1 X147.800 Y87.942 E5.17508
G1 X148.462 Y90.967 E5.27089
G1 X148.882 Y93.615 E5.35385
G1 X149.186 Y96.697 E5.44968
G1 X149.297 Y99.792 E5.54549
G1 X149.297 Y100.208 E5.55837
G1 X149.186 Y103.303 E5.65419
G1 X148.882 Y106.385 E5.75002
G1 X148.462 Y109.033 E5.83297
G1 X147.800 Y112.058 E5.92879
G1 X147.696 Y112.461 E5.94167
G1 X146.820 Y115.431 E6.03749
G1 X145.911 Y117.954 E6.12044
G1 X144.694 Y120.801 E6.21626
G1 X144.516 Y121.178 E6.22914
G1 X143.099 Y123.931 E6.32496
G1 X141.511 Y126.590 E6.42078
G1 X140.004 Y128.807 E6.50373
G1 X139.759 Y129.144 E6.51662
G1 X137.851 Y131.583 E6.61243
G1 X136.078 Y133.594 E6.69538
G1 X133.898 Y135.793 E6.79121
G1 X133.594 Y136.078 E6.80409
G1 X131.263 Y138.116 E6.89991
G1 X128.807 Y140.004 E6.99574
G1 X126.590 Y141.511 E7.07869
G1 X126.239 Y141.734 E7.09156
G1 X123.567 Y143.299 E7.18738
G1 X121.178 Y144.516 E7.27033
G1 X118.341 Y145.758 E7.36616
G1 X115.431 Y146.820 E7.46198
G1 X112.461 Y147.696 E7.55780
G1 X112.058 Y147.800 E7.57068
G1 X109.033 Y148.462 E7.66650
G1 X106.385 Y148.882 E7.74945
G1 X103.303 Y149.186 E7.84528
G1 X100.208 Y149.297 E7.94110
G1 X99.792 Y149.297 E7.95398
G1 X96.697 Y149.186 E8.04979
G1 X93.615 Y148.882 E8.14562
G1 X90.967 Y148.462 E8.22858
G1 X87.942 Y147.800 E8.32439
G1 X87.539 Y147.696 E8.33727
G1 X84.569 Y146.820 E8.43309
G1 X82.046 Y145.911 E8.51604
G1 X79.199 Y144.694 E8.61186
G1 X78.822 Y144.516 E8.62475
G1 X76.069 Y143.099 E8.72057
G1 X73.761 Y141.734 E8.80352
G1 X71.193 Y140.004 E8.89934
G1 X70.856 Y139.759 E8.91222
G1 X68.417 Y137.851 E9.00803
G1 X66.406 Y136.078 E9.09099
G1 X64.207 Y133.898 E9.18681
G1 X63.922 Y133.594 E9.19970
G1 X61.884 Y131.263 E9.29551
G1 X59.996 Y128.807 E9.39134
G1 X58.489 Y126.590 E9.47429
G1 X56.901 Y123.931 E9.57011
G1 X56.701 Y123.567 E9.58298
G1 X55.484 Y121.178 E9.66593
G1 X54.242 Y118.341 E9.76176
G1 X53.180 Y115.431 E9.85759
G1 X52.304 Y112.461 E9.95341
G1 X52.200 Y112.058 E9.96629
G1 X51.538 Y109.033 E10.06210
G1 X51.118 Y106.385 E10.14506
G1 X50.814 Y103.303 E10.24088
G1 X50.703 Y100.208 E10.33670
G1 X50.703 Y99.792 E10.34958
G1 X50.814 Y96.697 E10.44540
G1 X51.066 Y94.028 E10.52835
G1 X51.118 Y93.615 E10.54123
G1 X51.616 Y90.558 E10.63705
G1 X52.200 Y87.942 E10.72000
G1 X53.052 Y84.964 E10.81583
G1 X53.180 Y84.569 E10.82870
G1 X54.242 Y81.659 E10.92452
G1 X55.484 Y78.822 E11.02035
G1 X56.701 Y76.433 E11.10331
G1 X58.266 Y73.761 E11.19912
G1 X58.489 Y73.410 E11.21200
G1 X59.996 Y71.193 E11.29495
G1 X61.884 Y68.737 E11.39078
G1 X63.922 Y66.406 E11.48659
G1 X66.049 Y64.260 E11.58010
G1 E9.58010 F2400.00000
G92 E0
G1 X130.643 Y127.322 F7800.000
G1 E2.00000 F2400.00000
G1 F1800.000
G1 X129.942 Y128.117 E2.03282
G1 X128.117 Y129.942 E2.11266
G1 X126.182 Y131.648 E2.19250
G1 X124.143 Y133.230 E2.27234
G1 X122.009 Y134.680 E2.35218
G1 X119.788 Y135.994 E2.43202
G1 X117.489 Y137.165 E2.51186
G1 X115.121 Y138.190 E2.59170
G1 X112.693 Y139.064 E2.67154
G1 X110.215 Y139.784 E2.75138
G1 X107.697 Y140.347 E2.83122
G1 X105.148 Y140.751 E2.91106
G1 X102.579 Y140.993 E2.99090
G1 X100.000 Y141.074 E3.07074
G1 X97.421 Y140.993 E3.15058
G1 X94.852 Y140.751 E3.23042
G1 X92.303 Y140.347 E3.31026
G1 X89.785 Y139.784 E3.39009
G1 X87.307 Y139.064 E3.46993
G1 X84.879 Y138.190 E3.54978
G1 X82.511 Y137.165 E3.62961
G1 X80.212 Y135.994 E3.70945
G1 X77.991 Y134.680 E3.78929
G1 X75.857 Y133.230 E3.86913
G1 X73.818 Y131.648 E3.94897
G1 X71.883 Y129.942 E4.02881
G1 X70.058 Y128.117 E4.10865
G1 X68.352 Y126.182 E4.18849
G1 X66.770 Y124.143 E4.26833
G1 X65.320 Y122.009 E4.34817
G1 X64.006 Y119.788 E4.42801
G1 X62.835 Y117.489 E4.50785
G1 X61.810 Y115.121 E4.58769
G1 X60.936 Y112.693 E4.66753
G1 X60.216 Y110.215 E4.74737
G1 X59.653 Y107.697 E4.82721
G1 X59.249 Y105.148 E4.90705
G1 X59.007 Y102.579 E4.98689
G1 X58.926 Y100.000 E5.06673
G1 X59.007 Y97.421 E5.14657
G1 X59.249 Y94.852 E5.22641
G1 X59.653 Y92.303 E5.30625
G1 X60.216 Y89.785 E5.38609
G1 X60.936 Y87.307 E5.46593
G1 X61.810 Y84.879 E5.54577
G1 X62.835 Y82.511 E5.62560
G1 X64.006 Y80.212 E5.70544
G1 X65.320 Y77.991 E5.78529
G1 X66.770 Y75.857 E5.86513
G1 X68.352 Y73.818 E5.94496
G1 X70.058 Y71.883 E6.02481
G1 X71.883 Y70.058 E6.10464
G1 X73.818 Y68.352 E6.18448
G1 X75.857 Y66.770 E6.26432
G1 X77.991 Y65.320 E6.34416
G1 X80.212 Y64.006 E6.42400
G1 X82.511 Y62.835 E6.50384
G1 X84.879 Y61.810 E6.58368
G1 X87.307 Y60.936 E6.66352
G1 X89.785 Y60.216 E6.74336
G1 X92.303 Y59.653 E6.82320
G1 X94.852 Y59.249 E6.90304
G1 X97.421 Y59.007 E6.98288
G1 X100.000 Y58.926 E7.06272
G1 X102.579 Y59.007 E7.14256
G1 X105.148 Y59.249 E7.22240
G1 X107.697 Y59.653 E7.30224
G1 X110.215 Y60.216 E7.38208
G1 X112.693 Y60.936 E7.46192
G1 X115.121 Y61.810 E7.54176
G1 X117.489 Y62.835 E7.62160
G1 X119.788 Y64.006 E7.70144
G1 X122.009 Y65.320 E7.78128
G1 X124.143 Y66.770 E7.86112
G1 X126.182 Y68.352 E7.94096
G1 X128.117 Y70.058 E8.02080
G1 X129.942 Y71.883 E8.10063
G1 X131.648 Y73.818 E8.18048
G1 X133.230 Y75.857 E8.26031
G1 X134.680 Y77.991 E8.34015
G1 X135.994 Y80.212 E8.42000
G1 X137.165 Y82.511 E8.49984
G1 X138.190 Y84.879 E8.57967
G1 X139.064 Y87.307 E8.65951
G1 X139.784 Y89.785 E8.73935
G1 X140.347 Y92.303 E8.81919
G1 X140.751 Y94.852 E8.89903
G1 X140.993 Y97.421 E8.97887
G1 X141.074 Y100.000 E9.05871
G1 X140.993 Y102.579 E9.13855
G1 X140.751 Y105.148 E9.21839
G1 X140.347 Y107.697 E9.29823
G1 X139.784 Y110.215 E9.37807
G1 X139.064 Y112.693 E9.45791
G1 X138.190 Y115.121 E9.53775
G1 X137.165 Y117.489 E9.61759
G1 X135.994 Y119.788 E9.69743
G1 X134.680 Y122.009 E9.77727
G1 X133.230 Y124.143 E9.85711
G1 X131.648 Y126.182 E9.93695
G1 X130.693 Y127.265 E9.98165
G1 X131.112 Y127.735 F7800.000
G1 F1800.000
G1 X130.398 Y128.545 E10.01508
G1 X128.545 Y130.398 E10.09613
G1 X126.580 Y132.130 E10.17719
G1 X124.510 Y133.736 E10.25824
G1 X122.344 Y135.208 E10.33930
G1 X120.089 Y136.542 E10.42035
G1 X117.755 Y137.731 E10.50141
G1 X115.351 Y138.771 E10.58246
G1 X112.886 Y139.659 E10.66352
G1 X110.370 Y140.390 E10.74457
G1 X107.814 Y140.961 E10.82562
G1 X105.226 Y141.371 E10.90668
G1 X102.618 Y141.617 E10.98773
G1 X100.000 Y141.700 E11.06879
G1 X97.382 Y141.617 E11.14984
G1 X94.774 Y141.371 E11.23090
G1 X92.186 Y140.961 E11.31195
G1 X89.630 Y140.390 E11.39301
G1 X87.114 Y139.659 E11.47406
G1 X84.649 Y138.771 E11.55512
G1 X82.245 Y137.731 E11.63617
G1 X79.911 Y136.542 E11.71723
G1 X77.656 Y135.208 E11.79828
G1 X75.490 Y133.736 E11.87934
G1 X73.420 Y132.130 E11.96039
G1 X71.455 Y130.398 E12.04145
G1 X69.602 Y128.545 E12.12250
G1 X67.870 Y126.580 E12.20356
G1 X66.264 Y124.510 E12.28461
G1 X64.792 Y122.344 E12.36567
G1 X63.458 Y120.089 E12.44672
G1 X62.269 Y117.755 E12.52778
G1 X61.229 Y115.351 E12.60883
G1 X60.341 Y112.886 E12.68989
G1 X59.610 Y110.370 E12.77094
G1 X59.039 Y107.814 E12.85200
G1 X58.629 Y105.226 E12.93305
G1 X58.383 Y102.618 E13.01411
G1 X58.300 Y100.000 E13.09516
G1 X58.383 Y97.382 E13.17622
G1 X58.629 Y94.774 E13.25727
G1 X59.039 Y92.186 E13.33833
G1 X59.610 Y89.630 E13.41938
G1 X60.341 Y87.114 E13.50044
G1 X61.229 Y84.649 E13.58149
G1 X62.269 Y82.245 E13.66255
G1 X63.458 Y79.911 E13.74360
G1 X64.792 Y77.656 E13.82466
G1 X66.264 Y75.490 E13.90571
G1 X67.870 Y73.420 E13.98677
G1 X69.602 Y71.455 E14.06782
G1 X71.455 Y69.602 E14.14888
G1 X73.420 Y67.870 E14.22993
G1 X75.490 Y66.264 E14.31098
G1 X77.656 Y64.792 E14.39204
G1 X79.911 Y63.458 E14.47310
G1 X82.245 Y62.269 E14.55415
G1 X84.649 Y61.229 E14.63521
G1 X87.114 Y60.341 E14.71626
G1 X89.630 Y59.610 E14.79732
G1 X92.186 Y59.039 E14.87837
G1 X94.774 Y58.629 E14.95943
G1 X97.382 Y58.383 E15.04048
G1 X100.000 Y58.300 E15.12154
G1 X102.618 Y58.383 E15.20259
G1 X105.226 Y58.629 E15.28364
G1 X107.814 Y59.039 E15.36470
G1 X110.370 Y59.610 E15.44575
G1 X112.886 Y60.341 E15.52681
G1 X115.351 Y61.229 E15.60787
G1 X117.755 Y62.269 E15.68892
G1 X120.089 Y63.458 E15.76997
G1 X122.344 Y64.792 E15.85103
G1 X124.510 Y66.264 E15.93209
G1 X126.580 Y67.870 E16.01314
G1 X128.545 Y69.602 E16.09419
G1 X130.398 Y71.455 E16.17525
G1 X132.130 Y73.420 E16.25630
G1 X133.736 Y75.490 E16.33736
G1 X135.208 Y77.656 E16.41841
G1 X136.542 Y79.911 E16.49947
G1 X137.731 Y82.245 E16.58053
G1 X138.771 Y84.649 E16.66158
G1 X139.659 Y87.114 E16.74263
G1 X140.390 Y89.630 E16.82369
G1 X140.961 Y92.186 E16.90474
G1 X141.371 Y94.774 E16.98580
G1 X141.617 Y97.382 E17.06685
G1 X141.700 Y100.000 E17.14791
G1 X141.617 Y102.618 E17.22896
G1 X141.371 Y105.226 E17.31002
G1 X140.961 Y107.814 E17.39107
G1 X140.390 Y110.370 E17.47213
G1 X139.659 Y112.886 E17.55318
G1 X138.771 Y115.351 E17.63424
G1 X137.731 Y117.755 E17.71529
G1 X136.542 Y120.089 E17.79635
G1 X135.208 Y122.344 E17.87740
G1 X133.736 Y124.510 E17.95846
G1 X132.130 Y126.580 E18.03951
G1 X131.162 Y127.679 E18.08482
G1 X131.581 Y128.148 F7800.000
G1 F1800.000
G1 X130.853 Y128.973 E18.11886
G1 X128.973 Y130.853 E18.20112
G1 X126.979 Y132.612 E18.28340
G1 X124.878 Y134.241 E18.36566
G1 X122.679 Y135.736 E18.44794
G1 X120.390 Y137.089 E18.53021
G1 X118.021 Y138.297 E18.61248
G1 X115.581 Y139.353 E18.69475
G1 X113.079 Y140.253 E18.77702
G1 X110.526 Y140.995 E18.85929
G1 X107.931 Y141.575 E18.94156
G1 X105.305 Y141.991 E19.02383
G1 X102.658 Y142.241 E19.10610
G1 X100.000 Y142.325 E19.18837
G1 X97.342 Y142.241 E19.27064
G1 X94.695 Y141.991 E19.35291
G1 X92.069 Y141.575 E19.43518
G1 X89.474 Y140.995 E19.51745
G1 X86.921 Y140.253 E19.59972
G1 X84.419 Y139.353 E19.68199
G1 X81.979 Y138.297 E19.76426
G1 X79.610 Y137.089 E19.84653
G1 X77.321 Y135.736 E19.92880
G1 X75.122 Y134.241 E20.01107
G1 X73.021 Y132.612 E20.09334
G1 X71.027 Y130.853 E20.17561
G1 X69.147 Y128.973 E20.25788
G1 X67.388 Y126.979 E20.34015
G1 X65.759 Y124.878 E20.42242
G1 X64.264 Y122.679 E20.50469
G1 X62.910 Y120.390 E20.58696
G1 X61.703 Y118.021 E20.66923
G1 X60.647 Y115.581 E20.75150
G1 X59.747 Y113.079 E20.83377
G1 X59.005 Y110.526 E20.91604
G1 X58.425 Y107.931 E20.99831
G1 X58.009 Y105.305 E21.08058
G1 X57.759 Y102.658 E21.16285
G1 X57.675 Y100.000 E21.24512
G1 X57.759 Y97.342 E21.32739
G1 X58.009 Y94.695 E21.40966
G1 X58.425 Y92.069 E21.49193
G1 X59.005 Y89.474 E21.57420
G1 X59.747 Y86.921 E21.65647
G1 X60.647 Y84.419 E21.73874
G1 X61.703 Y81.979 E21.82101
G1 X62.910 Y79.610 E21.90328
G1 X64.264 Y77.321 E21.98555
G1 X65.759 Y75.122 E22.06782
G1 X67.388 Y73.021 E22.15009
G1 X69.147 Y71.027 E22.23236
G1 X71.027 Y69.147 E22.31463
G1 X73.021 Y67.388 E22.39690
G1 X75.122 Y65.759 E22.47917
G1 X77.321 Y64.264 E22.56144
G1 X79.610 Y62.910 E22.64371
G1 X81.979 Y61.703 E22.72599
G1 X84.419 Y60.647 E22.80825
G1 X86.921 Y59.747 E22.89052
G1 X89.474 Y59.005 E22.97280
G1 X92.069 Y58.425 E23.05506
G1 X94.695 Y58.009 E23.13733
G1 X97.342 Y57.759 E23.21960
G1 X100.000 Y57.675 E23.30187
G1 X102.658 Y57.759 E23.38415
G1 X105.305 Y58.009 E23.46642
G1 X107.931 Y58.425 E23.54869
G1 X110.526 Y59.005 E23.63095
G1 X113.079 Y59.747 E23.71323
G1 X115.581 Y60.647 E23.79550
G1 X118.021 Y61.703 E23.87776
G1 X120.390 Y62.910 E23.96004
G1 X122.679 Y64.264 E24.04231
G1 X124.878 Y65.759 E24.12458
G1 X126.979 Y67.388 E24.20685
G1 X128.973 Y69.147 E24.28912
G1 X130.853 Y71.027 E24.37139
G1 X132.612 Y73.021 E24.45366
G1 X134.241 Y75.122 E24.53593
G1 X135.736 Y77.321 E24.61820
G1 X137.089 Y79.610 E24.70047
G1 X138.297 Y81.979 E24.78274
G1 X139.353 Y84.419 E24.86501
G1 X140.253 Y86.921 E24.94728
G1 X140.995 Y89.474 E25.02955
G1 X141.575 Y92.069 E25.11182
G1 X141.991 Y94.695 E25.19409
G1 X142.241 Y97.342 E25.27636
G1 X142.325 Y100.000 E25.35863
G1 X142.241 Y102.658 E25.44090
G1 X141.991 Y105.305 E25.52317
G1 X141.575 Y107.931 E25.60544
G1 X140.995 Y110.526 E25.68771
G1 X140.253 Y113.079 E25.76998
G1 X139.353 Y115.581 E25.85225
G1 X138.297 Y118.021 E25.93452
G1 X137.089 Y120.390 E26.01679
G1 X135.736 Y122.679 E26.09906
G1 X134.241 Y124.878 E26.18133
G1 X132.612 Y126.979 E26.26360
G1 X131.631 Y128.092 E26.30951
G1 X131.090 Y128.056 F7800.000
G1 E24.30951 F2400.00000
G92 E0
G1 X127.445 Y129.730 F7800.000
G1 E2.00000 F2400.00000
G1 F1800.000
G1 X129.730 Y127.445 E2.10030
G1 X131.410 Y125.540 E2.17911
G1 X132.967 Y123.532 E2.25798
G1 X133.413 Y122.876 E2.28263
G1 X122.876 Y133.413 E2.74515
G1 X121.431 Y134.395 E2.79937
G1 X120.394 Y135.008 E2.83674
G1 X135.008 Y120.394 E3.47818
G1 X135.689 Y119.243 E3.51968
G1 X136.121 Y118.395 E3.54924
G1 X118.395 Y136.121 E4.32729
G1 X116.979 Y136.843 E4.37660
G1 X116.641 Y136.989 E4.38806
G1 X136.989 Y116.641 E5.28121
G1 X137.665 Y115.078 E5.33405
G1 X115.078 Y137.665 E6.32547
G1 X114.647 Y137.852 E6.34003
G1 X113.644 Y138.213 E6.37313
G1 X138.213 Y113.644 E7.45153
G1 X138.712 Y112.259 E7.49722
G1 X112.259 Y138.712 E8.65829
G1 X111.009 Y139.075 E8.69868
G1 X139.075 Y111.009 E9.93055
G1 X139.433 Y109.765 E9.97075
G1 X109.765 Y139.433 E11.27296
G1 X108.623 Y139.688 E11.30927
G1 X139.688 Y108.623 E12.67279
G1 X139.943 Y107.481 E12.70910
G1 X107.481 Y139.943 E14.13393
G1 X106.417 Y140.121 E14.16742
G1 X140.121 Y106.417 E15.64679
G1 X140.288 Y105.364 E15.67989
G1 X105.364 Y140.288 E17.21281
G1 X104.827 Y140.373 E17.22968
G1 X104.347 Y140.419 E17.24465
G1 X140.419 Y104.347 E18.82792
G1 X140.511 Y103.368 E18.85844
G1 X103.368 Y140.511 E20.48875
G1 X102.389 Y140.604 E20.51927
G1 X140.604 Y102.389 E22.19660
G1 X140.638 Y101.468 E22.22522
G1 X101.468 Y140.638 E23.94451
G1 X100.552 Y140.667 E23.97293
G1 X140.667 Y100.552 E25.73366
G1 X140.689 Y99.644 E25.76185
G1 X99.644 Y140.689 E27.56337
G1 X98.785 Y140.662 E27.59005
G1 X140.662 Y98.785 E29.42811
G1 X140.635 Y97.926 E29.45480
G1 X97.926 Y140.635 E31.32939
G1 X97.075 Y140.599 E31.35582
G1 X140.599 Y97.075 E33.26619
G1 X140.522 Y96.265 E33.29143
G1 X96.265 Y140.522 E35.23399
G1 X95.455 Y140.446 E35.25924
G1 X140.446 Y95.455 E37.23398
G1 X140.367 Y94.647 E37.25916
G1 X94.647 Y140.367 E39.26589
G1 X93.882 Y140.246 E39.28994
G1 X140.246 Y93.882 E41.32494
G1 X140.125 Y93.117 E41.34898
G1 X93.117 Y140.125 E43.41225
G1 X92.352 Y140.003 E43.43629
G1 X140.003 Y92.352 E45.52782
G1 X139.851 Y91.618 E45.55108
G1 X91.618 Y139.851 E47.66812
G1 X90.893 Y139.689 E47.69116
G1 X139.689 Y90.894 E49.83289
G1 X139.527 Y90.169 E49.85593
G1 X90.169 Y139.527 E52.02235
G1 X89.458 Y139.352 E52.04509
G1 X139.352 Y89.458 E54.23505
G1 X139.152 Y88.771 E54.25725
