; generated by Slic3r 1.3.1-dev (Build 2ef957d) on 2019-11-25 at 09:20:10

; external perimeters extrusion width = 0.55mm (4.37mm^3/s)
; perimeters extrusion width = 0.70mm (11.44mm^3/s)
; infill extrusion width = 0.62mm (13.45mm^3/s)
; solid infill extrusion width = 0.70mm (3.81mm^3/s)
; top infill extrusion width = 0.70mm (2.86mm^3/s)

M107
G92 E0
M104 S200 ; set temperature
G28 ; home all axes
G1 Z5 F5000 ; lift nozzle

; Filament gcode

M109 S200 ; set temperature and wait for it to be reached
G21 ; set units to millimeters
G90 ; use absolute coordinates
M82 ; use absolute distances for extrusion
G92 E0
G1 Z0.350 F7800.000
G1 E-2.00000 F2400.00000
G92 E0
G1 X88.665 Y80.638 F7800.000
G1 E2.00000 F2400.00000
G1 F1800.000
G1 X90.418 Y79.159 E2.07096
G1 X92.570 Y78.366 E2.14192
G1 X93.750 Y78.260 E2.17858
G1 X106.250 Y78.260 E2.56534
G1 X108.509 Y78.657 E2.63630
G1 X110.497 Y79.800 E2.70727
G1 X111.976 Y81.553 E2.77823
G1 X112.769 Y83.705 E2.84919
G1 X112.875 Y84.885 E2.88584
G1 X112.875 Y110.285 E3.67175
G1 X112.478 Y112.544 E3.74271
G1 X111.335 Y114.532 E3.81368
G1 X109.582 Y116.011 E3.88464
G1 X107.430 Y116.804 E3.95560
G1 X106.250 Y116.910 E3.99225
G1 X93.750 Y116.910 E4.37902
G1 X91.491 Y116.513 E4.44998
G1 X89.503 Y115.370 E4.52094
G1 X88.024 Y113.617 E4.59191
G1 X87.231 Y111.465 E4.66287
G1 X87.125 Y110.285 E4.69952
G1 X87.125 Y84.885 E5.48543
G1 X87.522 Y82.626 E5.55639
G1 X88.628 Y80.703 E5.62503
G1 E3.62503 F2400.00000
G92 E0
G1 X104.650 Y108.685 F7800.000
G1 E2.00000 F2400.00000
G1 F1800.000
G1 X95.350 Y108.685 E2.28777
G1 X95.350 Y86.485 E2.97468
G1 X104.650 Y86.485 E3.26245
G1 X104.650 Y108.610 E3.94704
G1 X105.275 Y109.310 F7800.000
G1 F1800.000
G1 X94.725 Y109.310 E4.27348
G1 X94.725 Y85.860 E4.99906
G1 X105.275 Y85.860 E5.32549
G1 X105.275 Y109.235 E6.04875
G1 X105.900 Y109.935 F7800.000
G1 F1800.000
G1 X94.100 Y109.935 E6.41386
G1 X94.100 Y85.235 E7.17811
G1 X105.900 Y85.235 E7.54322
G1 X105.900 Y109.860 E8.30515
G1 X105.435 Y109.752 F7800.000
G1 E6.30515 F2400.00000
G92 E0
G1 X103.782 Y108.303 F7800.000
G1 E2.00000 F2400.00000
G1 F1800.000
G1 X104.268 Y107.817 E2.02182
G1 X104.268 Y106.911 E2.05058
G1 X102.876 Y108.303 E2.11306
G1 X101.970 Y108.303 E2.14182
G1 X104.268 Y106.005 E2.24497
G1 X104.268 Y105.098 E2.27373
G1 X101.063 Y108.303 E2.41756
G1 X100.157 Y108.303 E2.44631
G1 X104.268 Y104.192 E2.63081
G1 X104.268 Y103.286 E2.65957
G1 X99.251 Y108.303 E2.88473
G1 X98.344 Y108.303 E2.91349
G1 X104.268 Y102.379 E3.17932
G1 X104.268 Y101.473 E3.20808
G1 X97.438 Y108.303 E3.51458
G1 X96.532 Y108.303 E3.54334
G1 X104.268 Y100.567 E3.89051
G1 X104.268 Y99.661 E3.91926
G1 X95.732 Y108.197 E4.30235
G1 X95.732 Y107.291 E4.33110
G1 X104.268 Y98.754 E4.71419
G1 X104.268 Y97.848 E4.74295
G1 X95.732 Y106.385 E5.12603
G1 X95.732 Y105.479 E5.15479
G1 X104.268 Y96.942 E5.53787
G1 X104.268 Y96.035 E5.56663
G1 X95.732 Y104.572 E5.94971
G1 X95.732 Y103.666 E5.97847
G1 X104.268 Y95.129 E6.36155
G1 X104.268 Y94.223 E6.39031
G1 X95.732 Y102.760 E6.77339
G1 X95.732 Y101.853 E6.80215
G1 X104.268 Y93.317 E7.18523
G1 X104.268 Y92.410 E7.21399
G1 X95.732 Y100.947 E7.59707
G1 X95.732 Y100.041 E7.62583
G1 X104.268 Y91.504 E8.00891
G1 X104.268 Y90.598 E8.03767
G1 X95.732 Y99.135 E8.42075
G1 X95.732 Y98.228 E8.44951
G1 X104.268 Y89.692 E8.83259
G1 X104.268 Y88.785 E8.86135
G1 X95.732 Y97.322 E9.24444
G1 X95.732 Y96.416 E9.27319
G1 X104.268 Y87.879 E9.65628
G1 X104.268 Y86.973 E9.68503
G1 X95.732 Y95.509 E10.06812
G1 X95.732 Y94.603 E10.09687
G1 X103.468 Y86.867 E10.44405
G1 X102.562 Y86.867 E10.47280
G1 X95.732 Y93.697 E10.77931
G1 X95.732 Y92.791 E10.80806
G1 X101.656 Y86.867 E11.07390
G1 X100.749 Y86.867 E11.10266
G1 X95.732 Y91.884 E11.32782
G1 X95.732 Y90.978 E11.35658
G1 X99.843 Y86.867 E11.54107
G1 X98.937 Y86.867 E11.56983
G1 X95.732 Y90.072 E11.71366
G1 X95.732 Y89.165 E11.74241
G1 X98.030 Y86.867 E11.84557
G1 X97.124 Y86.867 E11.87433
G1 X95.732 Y88.259 E11.93682
G1 X95.732 Y87.353 E11.96557
G1 X96.218 Y86.867 E11.98739
G1 Z0.650 F7800.000
G1 X104.779 Y108.814 F7800.000
G1 F3600.000
G1 X95.221 Y108.814 E12.24522
G1 X95.221 Y86.356 E12.85105
G1 X104.779 Y86.356 E13.10888
G1 X104.779 Y108.739 E13.71268
G1 X105.414 Y109.449 F7800.000
G1 F3600.000
G1 X94.586 Y109.449 E14.00480
G1 X94.586 Y85.721 E14.64492
G1 X105.414 Y85.721 E14.93704
G1 X105.414 Y109.374 E15.57514
G1 X105.975 Y110.010 F7800.000
G1 F1800.000
G1 X94.025 Y110.010 E15.82143
G1 X94.025 Y85.160 E16.33360
G1 X105.975 Y85.160 E16.57989
G1 X105.975 Y109.935 E17.09051
G1 X105.510 Y109.827 F7800.000
G1 X95.610 Y107.931 F7800.000
G1 F1200.000
G1 X96.104 Y108.425 E17.10985
G1 X97.025 Y108.425 E17.13530
G1 X95.610 Y107.010 E17.19064
G1 X95.610 Y106.089 E17.21609
G1 X97.946 Y108.425 E17.30743
G1 X98.867 Y108.425 E17.33288
G1 X95.610 Y105.168 E17.46022
G1 X95.610 Y104.247 E17.48568
G1 X99.788 Y108.425 E17.64901
G1 X100.709 Y108.425 E17.67447
G1 X95.610 Y103.326 E17.87381
G1 X95.610 Y102.405 E17.89927
G1 X101.630 Y108.425 E18.13461
G1 X102.551 Y108.425 E18.16006
G1 X95.610 Y101.484 E18.43140
G1 X95.610 Y100.563 E18.45686
G1 X103.472 Y108.425 E18.76420
G1 X104.390 Y108.425 E18.78958
G1 X95.610 Y99.642 E19.13287
G1 X95.610 Y98.721 E19.15832
G1 X104.390 Y107.501 E19.50155
G1 X104.390 Y106.580 E19.52701
G1 X95.610 Y97.800 E19.87024
G1 X95.610 Y96.879 E19.89569
G1 X104.390 Y105.659 E20.23892
G1 X104.390 Y104.738 E20.26438
G1 X95.610 Y95.958 E20.60761
G1 X95.610 Y95.037 E20.63307
G1 X104.390 Y103.817 E20.97629
G1 X104.390 Y102.896 E21.00175
G1 X95.610 Y94.116 E21.34498
G1 X95.610 Y93.195 E21.37044
G1 X104.390 Y101.975 E21.71367
G1 X104.390 Y101.054 E21.73912
G1 X95.610 Y92.274 E22.08235
G1 X95.610 Y91.353 E22.10781
G1 X104.390 Y100.133 E22.45104
G1 X104.390 Y99.212 E22.47649
G1 X95.610 Y90.432 E22.81972
G1 X95.610 Y89.511 E22.84518
G1 X104.390 Y98.291 E23.18841
G1 X104.390 Y97.370 E23.21386
G1 X95.610 Y88.590 E23.55709
G1 X95.610 Y87.669 E23.58255
G1 X104.390 Y96.449 E23.92578
G1 X104.390 Y95.528 E23.95124
G1 X95.610 Y86.745 E24.29452
G1 X96.528 Y86.745 E24.31990
G1 X104.390 Y94.607 E24.62724
G1 X104.390 Y93.686 E24.65270
G1 X97.449 Y86.745 E24.92404
G1 X98.370 Y86.745 E24.94949
G1 X104.390 Y92.765 E25.18483
G1 X104.390 Y91.844 E25.21029
G1 X99.291 Y86.745 E25.40963
G1 X100.212 Y86.745 E25.43508
G1 X104.390 Y90.923 E25.59842
G1 X104.390 Y90.002 E25.62388
G1 X101.133 Y86.745 E25.75121
G1 X102.054 Y86.745 E25.77667
G1 X104.390 Y89.081 E25.86800
G1 X104.390 Y88.160 E25.89346
G1 X102.975 Y86.745 E25.94879
G1 X103.896 Y86.745 E25.97425
G1 X104.390 Y87.239 E25.99358
G1 Z0.950 F7800.000
G1 X104.779 Y108.814 F7800.000
G1 F3600.000
G1 X95.221 Y108.814 E26.25141
G1 X95.221 Y86.356 E26.85723
G1 X104.779 Y86.356 E27.11506
G1 X104.779 Y108.739 E27.71886
G1 X105.414 Y109.449 F7800.000
G1 F3600.000
G1 X94.586 Y109.449 E28.01099
G1 X94.586 Y85.721 E28.65111
G1 X105.414 Y85.721 E28.94323
G1 X105.414 Y109.374 E29.58132
G1 X105.975 Y110.010 F7800.000
G1 F1800.000
G1 X94.025 Y110.010 E29.82762
G1 X94.025 Y85.160 E30.33978
G1 X105.975 Y85.160 E30.58608
G1 X105.975 Y109.935 E31.09670
G1 X105.510 Y109.827 F7800.000
G1 X103.896 Y108.425 F7800.000
G1 F1200.000
G1 X104.390 Y107.931 E31.11603
G1 X104.390 Y107.010 E31.14149
G1 X102.975 Y108.425 E31.19682
G1 X102.054 Y108.425 E31.22228
G1 X104.390 Y106.089 E31.31361
G1 X104.390 Y105.168 E31.33907
G1 X101.133 Y108.425 E31.46640
G1 X100.212 Y108.425 E31.49186
G1 X104.390 Y104.247 E31.65519
G1 X104.390 Y103.326 E31.68065
G1 X99.291 Y108.425 E31.87999
G1 X98.370 Y108.425 E31.90544
G1 X104.390 Y102.405 E32.14078
G1 X104.390 Y101.484 E32.16624
G1 X97.449 Y108.425 E32.43758
G1 X96.528 Y108.425 E32.46304
G1 X104.390 Y100.563 E32.77038
G1 X104.390 Y99.642 E32.79584
G1 X95.610 Y108.422 E33.13906
G1 X95.610 Y107.501 E33.16452
G1 X104.390 Y98.721 E33.50775
G1 X104.390 Y97.800 E33.53321
G1 X95.610 Y106.580 E33.87644
G1 X95.610 Y105.659 E33.90189
G1 X104.390 Y96.879 E34.24512
G1 X104.390 Y95.958 E34.27058
G1 X95.610 Y104.738 E34.61381
G1 X95.610 Y103.817 E34.63926
G1 X104.390 Y95.037 E34.98249
G1 X104.390 Y94.116 E35.00795
G1 X95.610 Y102.896 E35.35118
G1 X95.610 Y101.975 E35.37663
G1 X104.390 Y93.195 E35.71986
G1 X104.390 Y92.274 E35.74532
G1 X95.610 Y101.054 E36.08855
G1 X95.610 Y100.133 E36.11401
G1 X104.390 Y91.353 E36.45723
G1 X104.390 Y90.432 E36.48269
G1 X95.610 Y99.212 E36.82592
G1 X95.610 Y98.291 E36.85138
G1 X104.390 Y89.511 E37.19461
G1 X104.390 Y88.590 E37.22006
G1 X95.610 Y97.370 E37.56329
G1 X95.610 Y96.449 E37.58875
G1 X104.390 Y87.669 E37.93198
G1 X104.390 Y86.748 E37.95743
G1 X95.610 Y95.528 E38.30066
G1 X95.610 Y94.607 E38.32612
G1 X103.472 Y86.745 E38.63346
G1 X102.551 Y86.745 E38.65892
G1 X95.610 Y93.686 E38.93026
G1 X95.610 Y92.765 E38.95572
G1 X101.630 Y86.745 E39.19106
G1 X100.709 Y86.745 E39.21651
G1 X95.610 Y91.844 E39.41585
G1 X95.610 Y90.923 E39.44131
G1 X99.788 Y86.745 E39.60465
G1 X98.867 Y86.745 E39.63010
G1 X95.610 Y90.002 E39.75744
G1 X95.610 Y89.081 E39.78290
G1 X97.946 Y86.745 E39.87423
G1 X97.025 Y86.745 E39.89969
G1 X95.610 Y88.160 E39.95502
G1 X95.610 Y87.239 E39.98048
G1 X96.104 Y86.745 E39.99981
M106 S252.45
G1 Z1.250 F7800.000
G1 X104.779 Y108.814 F7800.000
G1 F3600.000
G1 X95.221 Y108.814 E40.25764
G1 X95.221 Y86.356 E40.86346
G1 X104.779 Y86.356 E41.12129
G1 X104.779 Y108.739 E41.72510
G1 X105.414 Y109.449 F7800.000
G1 F3600.000
G1 X94.586 Y109.449 E42.01722
G1 X94.586 Y85.721 E42.65734
G1 X105.414 Y85.721 E42.94946
G1 X105.414 Y109.374 E43.58756
G1 X105.975 Y110.010 F7800.000
G1 F1800.000
G1 X94.025 Y110.010 E43.83385
G1 X94.025 Y85.160 E44.34602
G1 X105.975 Y85.160 E44.59231
G1 X105.975 Y109.935 E45.10293
G1 X105.510 Y109.827 F7800.000
G1 X104.498 Y103.148 F7800.000
G1 F4800.000
G1 X95.502 Y105.558 E45.32455
G1 X95.587 Y107.479 F7800.000
G1 F4800.000
G1 X96.556 Y108.448 E45.35715
G1 X104.413 Y108.448 E45.54411
G1 X104.413 Y104.413 E45.64012
G1 X95.587 Y95.587 E45.93712
G1 X95.587 Y86.722 E46.14805
G1 X98.614 Y86.722 E46.22009
G1 X104.413 Y92.521 E46.41522
G1 X104.498 Y94.442 F7800.000
G1 F4800.000
G1 X95.502 Y96.852 E46.63683
G1 X95.502 Y88.146 F7800.000
G1 F4800.000
G1 X100.268 Y86.869 E46.75425
G1 X103.581 Y86.637 F7800.000
G1 F4800.000
G1 X97.713 Y108.533 E47.29363
G1 Z1.550 F7800.000
G1 X104.779 Y108.814 F7800.000
G1 F3600.000
G1 X95.221 Y108.814 E47.55146
G1 X95.221 Y86.356 E48.15728
G1 X104.779 Y86.356 E48.41511
G1 X104.779 Y108.739 E49.01892
G1 X105.414 Y109.449 F7800.000
G1 F3600.000
G1 X94.586 Y109.449 E49.31104
G1 X94.586 Y85.721 E49.95116
G1 X105.414 Y85.721 E50.24328
G1 X105.414 Y109.374 E50.88138
G1 X105.975 Y110.010 F7800.000
G1 F1800.000
G1 X94.025 Y110.010 E51.12767
G1 X94.025 Y85.160 E51.63984
G1 X105.975 Y85.160 E51.88613
G1 X105.975 Y109.935 E52.39675
G1 X105.510 Y109.827 F7800.000
G1 X104.498 Y103.148 F7800.000
G1 F4800.000
G1 X95.502 Y105.558 E52.61837
G1 X95.587 Y107.479 F7800.000
G1 F4800.000
G1 X96.556 Y108.448 E52.65097
G1 X104.413 Y108.448 E52.83793
G1 X104.413 Y104.413 E52.93394
G1 X95.587 Y95.587 E53.23094
G1 X95.587 Y86.722 E53.44187
G1 X98.614 Y86.722 E53.51391
G1 X104.413 Y92.521 E53.70904
G1 X104.498 Y94.442 F7800.000
G1 F4800.000
G1 X95.502 Y96.852 E53.93065
G1 X95.502 Y88.146 F7800.000
G1 F4800.000
G1 X100.268 Y86.869 E54.04807
G1 X103.581 Y86.637 F7800.000
G1 F4800.000
G1 X97.713 Y108.533 E54.58745
G1 Z1.850 F7800.000
G1 X104.779 Y108.814 F7800.000
G1 F3600.000
G1 X95.221 Y108.814 E54.84528
G1 X95.221 Y86.356 E55.45111
G1 X104.779 Y86.356 E55.70893
G1 X104.779 Y108.739 E56.31274
G1 X105.414 Y109.449 F7800.000
G1 F3600.000
G1 X94.586 Y109.449 E56.60486
G1 X94.586 Y85.721 E57.24498
G1 X105.414 Y85.721 E57.53710
G1 X105.414 Y109.374 E58.17520
G1 X105.975 Y110.010 F7800.000
G1 F1800.000
G1 X94.025 Y110.010 E58.42149
G1 X94.025 Y85.160 E58.93366
G1 X105.975 Y85.160 E59.17995
G1 X105.975 Y109.935 E59.69057
G1 X105.510 Y109.827 F7800.000
G1 X104.498 Y103.148 F7800.000
G1 F4800.000
G1 X95.502 Y105.558 E59.91219
G1 X95.587 Y107.479 F7800.000
G1 F4800.000
G1 X96.556 Y108.448 E59.94480
G1 X104.413 Y108.448 E60.13175
G1 X104.413 Y104.413 E60.22776
G1 X95.587 Y95.587 E60.52476
G1 X95.587 Y86.722 E60.73569
G1 X98.614 Y86.722 E60.80773
G1 X104.413 Y92.521 E61.00286
G1 X104.498 Y94.442 F7800.000
G1 F4800.000
G1 X95.502 Y96.852 E61.22447
G1 X95.502 Y88.146 F7800.000
G1 F4800.000
G1 X100.268 Y86.869 E61.34189
G1 X103.581 Y86.637 F7800.000
G1 F4800.000
G1 X97.713 Y108.533 E61.88127
G1 Z2.150 F7800.000
G1 X104.779 Y108.814 F7800.000
G1 F3600.000
G1 X95.221 Y108.814 E62.13910
G1 X95.221 Y86.356 E62.74493
G1 X104.779 Y86.356 E63.00276
G1 X104.779 Y108.739 E63.60656
G1 X105.414 Y109.449 F7800.000
G1 F3600.000
G1 X94.586 Y109.449 E63.89868
G1 X94.586 Y85.721 E64.53880
G1 X105.414 Y85.721 E64.83092
G1 X105.414 Y109.374 E65.46902
G1 X105.975 Y110.010 F7800.000
G1 F1800.000
G1 X94.025 Y110.010 E65.71531
G1 X94.025 Y85.160 E66.22748
G1 X105.975 Y85.160 E66.47377
G1 X105.975 Y109.935 E66.98439
G1 X105.510 Y109.827 F7800.000
G1 X104.498 Y103.148 F7800.000
G1 F4800.000
G1 X95.502 Y105.558 E67.20601
G1 X95.587 Y107.479 F7800.000
G1 F4800.000
G1 X96.556 Y108.448 E67.23862
G1 X104.413 Y108.448 E67.42557
G1 X104.413 Y104.413 E67.52158
G1 X95.587 Y95.587 E67.81858
G1 X95.587 Y86.722 E68.02951
G1 X98.614 Y86.722 E68.10155
G1 X104.413 Y92.521 E68.29668
G1 X104.498 Y94.442 F7800.000
G1 F4800.000
G1 X95.502 Y96.852 E68.51830
G1 X95.502 Y88.146 F7800.000
G1 F4800.000
G1 X100.268 Y86.869 E68.63571
G1 X103.581 Y86.637 F7800.000
G1 F4800.000
G1 X97.713 Y108.533 E69.17509
G1 Z2.450 F7800.000
G1 X104.779 Y108.814 F7800.000
G1 F3600.000
G1 X95.221 Y108.814 E69.43292
G1 X95.221 Y86.356 E70.03875
G1 X104.779 Y86.356 E70.29658
G1 X104.779 Y108.739 E70.90038
G1 X105.414 Y109.449 F7800.000
G1 F3600.000
G1 X94.586 Y109.449 E71.19250
G1 X94.586 Y85.721 E71.83262
G1 X105.414 Y85.721 E72.12474
G1 X105.414 Y109.374 E72.76284
G1 X105.975 Y110.010 F7800.000
G1 F1800.000
G1 X94.025 Y110.010 E73.00913
G1 X94.025 Y85.160 E73.52130
G1 X105.975 Y85.160 E73.76759
G1 X105.975 Y109.935 E74.27821
G1 X105.510 Y109.827 F7800.000
G1 X104.498 Y103.148 F7800.000
G1 F4800.000
G1 X95.502 Y105.558 E74.49983
G1 X95.587 Y107.479 F7800.000
G1 F4800.000
G1 X96.556 Y108.448 E74.53244
G1 X104.413 Y108.448 E74.71939
G1 X104.413 Y104.413 E74.81540
G1 X95.587 Y95.587 E75.11241
G1 X95.587 Y86.722 E75.32333
G1 X98.614 Y86.722 E75.39537
G1 X104.413 Y92.521 E75.59050
G1 X104.498 Y94.442 F7800.000
G1 F4800.000
G1 X95.502 Y96.852 E75.81212
G1 X95.502 Y88.146 F7800.000
G1 F4800.000
G1 X100.268 Y86.869 E75.92953
G1 X103.581 Y86.637 F7800.000
G1 F4800.000
G1 X97.713 Y108.533 E76.46891
G1 Z2.750 F7800.000
G1 X104.779 Y108.814 F7800.000
G1 F3600.000
G1 X95.221 Y108.814 E76.72674
G1 X95.221 Y86.356 E77.33257
G1 X104.779 Y86.356 E77.59040
G1 X104.779 Y108.739 E78.19420
G1 X105.414 Y109.449 F7800.000
G1 F3600.000
G1 X94.586 Y109.449 E78.48632
G1 X94.586 Y85.721 E79.12644
G1 X105.414 Y85.721 E79.41856
G1 X105.414 Y109.374 E80.05666
G1 X105.975 Y110.010 F7800.000
G1 F1800.000
G1 X94.025 Y110.010 E80.30295
G1 X94.025 Y85.160 E80.81512
G1 X105.975 Y85.160 E81.06141
G1 X105.975 Y109.935 E81.57204
G1 X105.510 Y109.827 F7800.000
G1 X104.498 Y103.148 F7800.000
G1 F4800.000
G1 X95.502 Y105.558 E81.79365
G1 X95.587 Y107.479 F7800.000
G1 F4800.000
G1 X96.556 Y108.448 E81.82626
G1 X104.413 Y108.448 E82.01322
G1 X104.413 Y104.413 E82.10922
G1 X95.587 Y95.587 E82.40623
G1 X95.587 Y86.722 E82.61715
G1 X98.614 Y86.722 E82.68919
G1 X104.413 Y92.521 E82.88432
G1 X104.498 Y94.442 F7800.000
G1 F4800.000
G1 X95.502 Y96.852 E83.10594
G1 X95.502 Y88.146 F7800.000
G1 F4800.000
G1 X100.268 Y86.869 E83.22336
G1 X103.581 Y86.637 F7800.000
G1 F4800.000
G1 X97.713 Y108.533 E83.76273
G1 Z3.050 F7800.000
G1 X104.779 Y108.814 F7800.000
G1 F3600.000
G1 X95.221 Y108.814 E84.02056
G1 X95.221 Y86.356 E84.62639
G1 X104.779 Y86.356 E84.88422
G1 X104.779 Y108.739 E85.48802
G1 X105.414 Y109.449 F7800.000
G1 F3600.000
G1 X94.586 Y109.449 E85.78014
G1 X94.586 Y85.721 E86.42026
G1 X105.414 Y85.721 E86.71239
G1 X105.414 Y109.374 E87.35048
G1 X105.975 Y110.010 F7800.000
G1 F1800.000
