; generated by Slic3r 1.3.1-dev (Build 2ef957d) on 2019-11-25 at 09:20:34

; external perimeters extrusion width = 0.55mm (4.37mm^3/s)
; perimeters extrusion width = 0.70mm (11.44mm^3/s)
; infill extrusion width = 0.62mm (13.45mm^3/s)
; solid infill extrusion width = 0.70mm (3.81mm^3/s)
; top infill extrusion width = 0.70mm (2.86mm^3/s)

M107
G92 E0
M104 S200 ; set temperature
G28 ; home all axes
G1 Z5 F5000 ; lift nozzle

; Filament gcode

M109 S200 ; set temperature and wait for it to be reached
G21 ; set units to millimeters
G90 ; use absolute coordinates
M82 ; use absolute distances for extrusion
G92 E0
G1 Z0.350 F7800.000
G1 E-2.00000 F2400.00000
G92 E0
G1 X92.549 Y92.433 F7800.000
G1 E2.00000 F2400.00000
G1 F1385.803
G1 X92.915 Y92.089 E2.01554
G1 X93.556 Y91.558 E2.04129
G1 X93.963 Y91.263 E2.05683
G1 X94.665 Y90.817 E2.08257
G1 X95.105 Y90.575 E2.09811
G1 X95.858 Y90.221 E2.12385
G1 X96.325 Y90.036 E2.13940
G1 X97.116 Y89.779 E2.16514
G1 X97.603 Y89.654 E2.18068
G1 X98.420 Y89.498 E2.20642
G1 X98.919 Y89.435 E2.22197
G1 X99.749 Y89.383 E2.24771
G1 X100.251 Y89.383 E2.26325
G1 X101.081 Y89.435 E2.28899
G1 X101.580 Y89.498 E2.30454
G1 X102.397 Y89.654 E2.33028
G1 X102.884 Y89.779 E2.34582
G1 X103.675 Y90.036 E2.37156
G1 X104.142 Y90.221 E2.38711
G1 X104.895 Y90.575 E2.41285
G1 X105.335 Y90.817 E2.42839
G1 X106.037 Y91.263 E2.45413
G1 X106.444 Y91.558 E2.46967
G1 X107.085 Y92.089 E2.49542
G1 X107.451 Y92.433 E2.51096
G1 X108.020 Y93.039 E2.53670
G1 X108.341 Y93.426 E2.55224
G1 X108.830 Y94.099 E2.57798
G1 X109.099 Y94.523 E2.59353
G1 X109.500 Y95.252 E2.61927
G1 X109.713 Y95.707 E2.63481
G1 X110.020 Y96.480 E2.66056
G1 X110.175 Y96.958 E2.67610
G1 X110.382 Y97.764 E2.70184
G1 X110.476 Y98.257 E2.71738
G1 X110.580 Y99.083 E2.74312
G1 X110.612 Y99.584 E2.75867
G1 X110.612 Y100.416 E2.78441
G1 X110.580 Y100.917 E2.79995
G1 X110.476 Y101.743 E2.82569
G1 X110.382 Y102.236 E2.84124
G1 X110.175 Y103.042 E2.86697
G1 X110.020 Y103.520 E2.88252
G1 X109.713 Y104.293 E2.90826
G1 X109.500 Y104.748 E2.92380
G1 X109.099 Y105.477 E2.94954
G1 X108.830 Y105.901 E2.96509
G1 X108.341 Y106.574 E2.99083
G1 X108.020 Y106.961 E3.00637
G1 X107.451 Y107.567 E3.03211
G1 X107.085 Y107.911 E3.04766
G1 X106.444 Y108.442 E3.07340
G1 X106.037 Y108.737 E3.08894
G1 X105.335 Y109.183 E3.11468
G1 X104.895 Y109.425 E3.13022
G1 X104.142 Y109.779 E3.15597
G1 X103.675 Y109.964 E3.17151
G1 X102.884 Y110.221 E3.19725
G1 X102.397 Y110.346 E3.21280
G1 X101.580 Y110.502 E3.23854
G1 X101.082 Y110.565 E3.25408
G1 X100.251 Y110.617 E3.27982
G1 X99.749 Y110.617 E3.29536
G1 X98.918 Y110.565 E3.32111
G1 X98.420 Y110.502 E3.33665
G1 X97.603 Y110.346 E3.36239
G1 X97.116 Y110.221 E3.37793
G1 X96.325 Y109.964 E3.40368
G1 X95.858 Y109.779 E3.41922
G1 X95.105 Y109.425 E3.44496
G1 X94.665 Y109.183 E3.46050
G1 X93.963 Y108.737 E3.48624
G1 X93.556 Y108.442 E3.50179
G1 X92.915 Y107.911 E3.52753
G1 X92.549 Y107.568 E3.54307
G1 X91.980 Y106.961 E3.56881
G1 X91.659 Y106.574 E3.58435
G1 X91.170 Y105.901 E3.61010
G1 X90.901 Y105.477 E3.62564
G1 X90.500 Y104.748 E3.65138
G1 X90.287 Y104.293 E3.66692
G1 X89.980 Y103.520 E3.69267
G1 X89.825 Y103.042 E3.70821
G1 X89.618 Y102.236 E3.73395
G1 X89.524 Y101.743 E3.74949
G1 X89.420 Y100.917 E3.77524
G1 X89.388 Y100.416 E3.79078
G1 X89.388 Y99.584 E3.81652
G1 X89.420 Y99.083 E3.83206
G1 X89.524 Y98.257 E3.85781
G1 X89.618 Y97.764 E3.87335
G1 X89.825 Y96.958 E3.89909
G1 X89.980 Y96.480 E3.91463
G1 X90.287 Y95.707 E3.94038
G1 X90.500 Y95.252 E3.95592
G1 X90.901 Y94.523 E3.98166
G1 X91.170 Y94.099 E3.99720
G1 X91.659 Y93.426 E4.02294
G1 X91.980 Y93.039 E4.03849
G1 X92.498 Y92.487 E4.06191
G1 E2.06191 F2400.00000
G92 E0
G1 X101.823 Y101.712 F7800.000
G1 E2.00000 F2400.00000
G1 F1800.000
G1 X101.594 Y101.927 E2.00972
G1 X101.340 Y102.111 E2.01943
G1 X101.065 Y102.263 E2.02915
G1 X100.773 Y102.378 E2.03887
G1 X100.469 Y102.456 E2.04858
G1 X100.157 Y102.496 E2.05830
G1 X99.843 Y102.496 E2.06802
G1 X99.531 Y102.456 E2.07773
G1 X99.227 Y102.378 E2.08745
G1 X98.935 Y102.263 E2.09717
G1 X98.660 Y102.111 E2.10688
G1 X98.406 Y101.927 E2.11660
G1 X98.177 Y101.712 E2.12632
G1 X97.977 Y101.470 E2.13603
G1 X97.809 Y101.205 E2.14575
G1 X97.675 Y100.921 E2.15547
G1 X97.578 Y100.622 E2.16519
G1 X97.519 Y100.313 E2.17490
G1 X97.499 Y100.000 E2.18462
G1 X97.519 Y99.687 E2.19434
G1 X97.578 Y99.378 E2.20405
G1 X97.675 Y99.079 E2.21377
G1 X97.809 Y98.795 E2.22349
G1 X97.977 Y98.530 E2.23320
G1 X98.177 Y98.288 E2.24292
G1 X98.406 Y98.073 E2.25264
G1 X98.660 Y97.889 E2.26235
G1 X98.935 Y97.737 E2.27207
G1 X99.227 Y97.622 E2.28179
G1 X99.531 Y97.544 E2.29150
G1 X99.843 Y97.504 E2.30122
G1 X100.157 Y97.504 E2.31094
G1 X100.469 Y97.544 E2.32065
G1 X100.773 Y97.622 E2.33037
G1 X101.065 Y97.737 E2.34009
G1 X101.340 Y97.889 E2.34980
G1 X101.594 Y98.073 E2.35952
G1 X101.823 Y98.288 E2.36924
G1 X102.023 Y98.530 E2.37895
G1 X102.191 Y98.795 E2.38867
G1 X102.325 Y99.079 E2.39839
G1 X102.422 Y99.378 E2.40810
G1 X102.481 Y99.687 E2.41782
G1 X102.501 Y100.000 E2.42754
G1 X102.481 Y100.313 E2.43726
G1 X102.422 Y100.622 E2.44697
G1 X102.325 Y100.921 E2.45669
G1 X102.191 Y101.205 E2.46641
G1 X102.023 Y101.470 E2.47612
G1 X101.871 Y101.654 E2.48352
G1 X101.823 Y101.712 F7800.000
G1 X102.608 Y102.547 F7800.000
G1 F1800.000
G1 X102.326 Y102.812 E2.49547
G1 X101.955 Y103.081 E2.50965
G1 X101.554 Y103.302 E2.52383
G1 X101.128 Y103.471 E2.53801
G1 X100.684 Y103.585 E2.55219
G1 X100.229 Y103.642 E2.56637
G1 X99.771 Y103.642 E2.58055
G1 X99.316 Y103.585 E2.59473
G1 X98.872 Y103.471 E2.60891
G1 X98.446 Y103.302 E2.62309
G1 X98.045 Y103.081 E2.63727
G1 X97.674 Y102.812 E2.65145
G1 X97.340 Y102.498 E2.66563
G1 X97.048 Y102.145 E2.67981
G1 X96.802 Y101.758 E2.69399
G1 X96.607 Y101.343 E2.70817
G1 X96.465 Y100.908 E2.72235
G1 X96.379 Y100.457 E2.73653
G1 X96.351 Y100.000 E2.75071
G1 X96.379 Y99.543 E2.76489
G1 X96.465 Y99.092 E2.77907
G1 X96.607 Y98.657 E2.79325
G1 X96.802 Y98.242 E2.80743
G1 X97.048 Y97.855 E2.82161
G1 X97.340 Y97.502 E2.83579
G1 X97.674 Y97.188 E2.84997
G1 X98.045 Y96.919 E2.86415
G1 X98.446 Y96.698 E2.87832
G1 X98.872 Y96.529 E2.89250
G1 X99.316 Y96.415 E2.90668
G1 X99.771 Y96.358 E2.92086
G1 X100.229 Y96.358 E2.93504
G1 X100.684 Y96.415 E2.94922
G1 X101.128 Y96.529 E2.96340
G1 X101.554 Y96.698 E2.97758
G1 X101.955 Y96.919 E2.99176
G1 X102.326 Y97.188 E3.00594
G1 X102.660 Y97.502 E3.02012
G1 X102.952 Y97.855 E3.03430
G1 X103.198 Y98.242 E3.04848
G1 X103.393 Y98.657 E3.06266
G1 X103.535 Y99.092 E3.07684
G1 X103.621 Y99.543 E3.09102
G1 X103.649 Y100.000 E3.10520
G1 X103.621 Y100.457 E3.11938
G1 X103.535 Y100.908 E3.13356
G1 X103.393 Y101.343 E3.14774
G1 X103.198 Y101.758 E3.16192
G1 X102.952 Y102.145 E3.17610
G1 X102.662 Y102.496 E3.19019
G1 X102.232 Y102.458 F7800.000
G1 X102.215 Y102.130 F7800.000
G1 F1385.803
G1 X101.960 Y102.369 E3.19794
G1 X101.648 Y102.596 E3.20648
G1 X101.309 Y102.782 E3.21503
G1 X100.965 Y102.918 E3.22321
G1 X100.560 Y103.023 E3.23247
G1 X100.193 Y103.069 E3.24065
G1 X99.823 Y103.069 E3.24884
G1 X99.408 Y103.016 E3.25810
G1 X99.050 Y102.924 E3.26628
G1 X98.691 Y102.782 E3.27482
G1 X98.339 Y102.587 E3.28373
G1 X98.040 Y102.369 E3.29191
G1 X97.770 Y102.116 E3.30009
G1 X97.503 Y101.794 E3.30936
G1 X97.306 Y101.481 E3.31754
G1 X97.141 Y101.132 E3.32608
G1 X97.022 Y100.765 E3.33462
G1 X96.952 Y100.402 E3.34280
G1 X96.925 Y100.000 E3.35171
G1 X96.952 Y99.598 E3.36061
G1 X97.022 Y99.235 E3.36879
G1 X97.141 Y98.868 E3.37734
G1 X97.306 Y98.519 E3.38588
G1 X97.503 Y98.206 E3.39406
G1 X97.759 Y97.895 E3.40297
G1 X98.040 Y97.631 E3.41151
G1 X98.339 Y97.413 E3.41969
G1 X98.691 Y97.218 E3.42860
G1 X99.050 Y97.076 E3.43714
G1 X99.408 Y96.984 E3.44532
G1 X99.807 Y96.931 E3.45423
G1 X100.193 Y96.931 E3.46277
G1 X100.560 Y96.977 E3.47095
G1 X100.950 Y97.076 E3.47985
G1 X101.309 Y97.218 E3.48840
G1 X101.633 Y97.396 E3.49658
G1 X101.972 Y97.642 E3.50584
G1 X102.241 Y97.895 E3.51402
G1 X102.477 Y98.180 E3.52221
G1 X102.694 Y98.519 E3.53111
G1 X102.859 Y98.868 E3.53965
G1 X102.973 Y99.220 E3.54783
G1 X103.052 Y99.631 E3.55710
G1 X103.075 Y100.000 E3.56528
G1 X103.052 Y100.369 E3.57346
G1 X102.973 Y100.780 E3.58273
G1 X102.859 Y101.132 E3.59091
G1 X102.694 Y101.481 E3.59945
G1 X102.488 Y101.807 E3.60799
G1 X102.266 Y102.075 E3.61568
G1 Z0.650 F7800.000
G1 X101.768 Y101.660 F7800.000
G1 F634.647
G1 X101.546 Y101.869 E3.62195
G1 X101.300 Y102.048 E3.62823
G1 X101.033 Y102.195 E3.63451
G1 X100.750 Y102.307 E3.64079
G1 X100.455 Y102.383 E3.64707
G1 X100.152 Y102.421 E3.65334
G1 X99.848 Y102.421 E3.65962
G1 X99.545 Y102.383 E3.66590
G1 X99.250 Y102.307 E3.67218
G1 X98.967 Y102.195 E3.67846
G1 X98.700 Y102.048 E3.68473
G1 X98.454 Y101.869 E3.69101
G1 X98.232 Y101.660 E3.69729
G1 X98.038 Y101.426 E3.70357
G1 X97.874 Y101.169 E3.70985
G1 X97.745 Y100.893 E3.71612
G1 X97.651 Y100.603 E3.72240
G1 X97.594 Y100.304 E3.72868
G1 X97.574 Y100.000 E3.73496
G1 X97.594 Y99.696 E3.74123
G1 X97.651 Y99.397 E3.74751
G1 X97.745 Y99.107 E3.75379
G1 X97.874 Y98.831 E3.76007
G1 X98.038 Y98.574 E3.76635
G1 X98.232 Y98.340 E3.77262
G1 X98.454 Y98.131 E3.77890
G1 X98.700 Y97.952 E3.78518
G1 X98.967 Y97.805 E3.79146
G1 X99.250 Y97.693 E3.79774
G1 X99.545 Y97.617 E3.80401
G1 X99.848 Y97.579 E3.81029
G1 X100.152 Y97.579 E3.81657
G1 X100.455 Y97.617 E3.82285
G1 X100.750 Y97.693 E3.82913
G1 X101.033 Y97.805 E3.83540
G1 X101.300 Y97.952 E3.84168
G1 X101.546 Y98.131 E3.84796
G1 X101.768 Y98.340 E3.85424
G1 X101.962 Y98.574 E3.86052
G1 X102.126 Y98.831 E3.86679
G1 X102.255 Y99.107 E3.87307
G1 X102.349 Y99.397 E3.87935
G1 X102.406 Y99.696 E3.88563
G1 X102.426 Y100.000 E3.89191
G1 X102.406 Y100.304 E3.89818
G1 X102.349 Y100.603 E3.90446
G1 X102.255 Y100.893 E3.91074
G1 X102.126 Y101.169 E3.91702
G1 X101.962 Y101.426 E3.92330
G1 X101.816 Y101.603 E3.92803
G1 X101.768 Y101.660 F7800.000
G1 X102.656 Y102.605 F7800.000
G1 F634.647
G1 X102.374 Y102.870 E3.93599
G1 X101.996 Y103.145 E3.94563
G1 X101.586 Y103.370 E3.95527
G1 X101.151 Y103.542 E3.96491
G1 X100.698 Y103.658 E3.97455
G1 X100.234 Y103.717 E3.98419
G1 X99.766 Y103.717 E3.99383
G1 X99.302 Y103.658 E4.00347
G1 X98.849 Y103.542 E4.01311
G1 X98.414 Y103.370 E4.02275
G1 X98.004 Y103.145 E4.03239
G1 X97.626 Y102.870 E4.04203
G1 X97.285 Y102.550 E4.05167
G1 X96.987 Y102.189 E4.06131
G1 X96.736 Y101.794 E4.07095
G1 X96.537 Y101.371 E4.08059
G1 X96.393 Y100.926 E4.09023
G1 X96.305 Y100.467 E4.09986
G1 X96.276 Y100.000 E4.10950
G1 X96.305 Y99.533 E4.11914
G1 X96.393 Y99.074 E4.12878
G1 X96.537 Y98.629 E4.13842
G1 X96.736 Y98.206 E4.14806
G1 X96.987 Y97.811 E4.15770
G1 X97.285 Y97.450 E4.16734
G1 X97.626 Y97.130 E4.17698
G1 X98.004 Y96.855 E4.18662
G1 X98.414 Y96.630 E4.19626
G1 X98.849 Y96.458 E4.20590
G1 X99.302 Y96.342 E4.21554
G1 X99.766 Y96.283 E4.22518
G1 X100.234 Y96.283 E4.23482
G1 X100.698 Y96.342 E4.24446
G1 X101.151 Y96.458 E4.25410
G1 X101.586 Y96.630 E4.26374
G1 X101.996 Y96.855 E4.27338
G1 X102.374 Y97.130 E4.28302
G1 X102.715 Y97.450 E4.29266
G1 X103.013 Y97.811 E4.30230
G1 X103.264 Y98.206 E4.31194
G1 X103.463 Y98.629 E4.32158
G1 X103.607 Y99.074 E4.33122
G1 X103.695 Y99.533 E4.34086
G1 X103.724 Y100.000 E4.35050
G1 X103.695 Y100.467 E4.36014
G1 X103.607 Y100.926 E4.36978
G1 X103.463 Y101.371 E4.37942
G1 X103.264 Y101.794 E4.38906
G1 X103.013 Y102.189 E4.39870
G1 X102.710 Y102.554 E4.40848
G1 X102.282 Y102.507 F7800.000
G1 X102.212 Y102.133 F7800.000
G1 F846.196
G1 X101.960 Y102.369 E4.41833
G1 X101.647 Y102.596 E4.42934
G1 X101.309 Y102.782 E4.44035
G1 X100.972 Y102.916 E4.45071
G1 X100.553 Y103.023 E4.46303
G1 X100.193 Y103.069 E4.47339
G1 X99.830 Y103.069 E4.48374
G1 X99.401 Y103.015 E4.49607
G1 X99.050 Y102.924 E4.50642
G1 X98.691 Y102.782 E4.51743
G1 X98.334 Y102.583 E4.52910
G1 X98.040 Y102.369 E4.53946
G1 X97.775 Y102.121 E4.54981
G1 X97.500 Y101.788 E4.56213
G1 X97.306 Y101.481 E4.57249
G1 X97.141 Y101.132 E4.58350
G1 X97.022 Y100.765 E4.59451
G1 X96.954 Y100.408 E4.60487
G1 X96.925 Y100.000 E4.61654
G1 X96.954 Y99.592 E4.62821
G1 X97.022 Y99.235 E4.63856
G1 X97.141 Y98.868 E4.64958
G1 X97.306 Y98.519 E4.66059
G1 X97.500 Y98.212 E4.67094
G1 X97.759 Y97.895 E4.68261
G1 X98.040 Y97.631 E4.69363
G1 X98.334 Y97.417 E4.70398
G1 X98.691 Y97.218 E4.71565
G1 X99.050 Y97.076 E4.72666
G1 X99.401 Y96.985 E4.73702
G1 X99.807 Y96.931 E4.74869
G1 X100.193 Y96.931 E4.75970
G1 X100.553 Y96.977 E4.77005
G1 X100.950 Y97.076 E4.78172
G1 X101.309 Y97.218 E4.79274
G1 X101.627 Y97.393 E4.80309
G1 X101.977 Y97.647 E4.81541
G1 X102.241 Y97.895 E4.82577
G1 X102.473 Y98.175 E4.83612
G1 X102.694 Y98.519 E4.84779
G1 X102.859 Y98.868 E4.85880
G1 X102.971 Y99.213 E4.86916
G1 X103.052 Y99.638 E4.88148
G1 X103.075 Y100.000 E4.89184
G1 X103.052 Y100.362 E4.90219
G1 X102.971 Y100.787 E4.91452
G1 X102.859 Y101.132 E4.92487
G1 X102.694 Y101.481 E4.93588
G1 X102.487 Y101.807 E4.94690
G1 X102.263 Y102.079 E4.95693
G1 Z0.950 F7800.000
G1 X101.768 Y101.660 F7800.000
G1 F634.647
G1 X101.546 Y101.869 E4.96321
G1 X101.300 Y102.048 E4.96949
G1 X101.033 Y102.195 E4.97577
G1 X100.750 Y102.307 E4.98205
G1 X100.455 Y102.383 E4.98832
G1 X100.152 Y102.421 E4.99460
G1 X99.848 Y102.421 E5.00088
G1 X99.545 Y102.383 E5.00716
G1 X99.250 Y102.307 E5.01344
G1 X98.967 Y102.195 E5.01971
G1 X98.700 Y102.048 E5.02599
G1 X98.454 Y101.869 E5.03227
G1 X98.232 Y101.660 E5.03855
G1 X98.038 Y101.426 E5.04482
G1 X97.874 Y101.169 E5.05110
G1 X97.745 Y100.893 E5.05738
G1 X97.651 Y100.603 E5.06366
G1 X97.594 Y100.304 E5.06994
G1 X97.574 Y100.000 E5.07621
G1 X97.594 Y99.696 E5.08249
G1 X97.651 Y99.397 E5.08877
G1 X97.745 Y99.107 E5.09505
G1 X97.874 Y98.831 E5.10133
G1 X98.038 Y98.574 E5.10760
G1 X98.232 Y98.340 E5.11388
G1 X98.454 Y98.131 E5.12016
G1 X98.700 Y97.952 E5.12644
G1 X98.967 Y97.805 E5.13272
G1 X99.250 Y97.693 E5.13899
G1 X99.545 Y97.617 E5.14527
G1 X99.848 Y97.579 E5.15155
G1 X100.152 Y97.579 E5.15783
G1 X100.455 Y97.617 E5.16411
G1 X100.750 Y97.693 E5.17038
G1 X101.033 Y97.805 E5.17666
G1 X101.300 Y97.952 E5.18294
G1 X101.546 Y98.131 E5.18922
G1 X101.768 Y98.340 E5.19550
G1 X101.962 Y98.574 E5.20177
G1 X102.126 Y98.831 E5.20805
G1 X102.255 Y99.107 E5.21433
G1 X102.349 Y99.397 E5.22061
G1 X102.406 Y99.696 E5.22689
G1 X102.426 Y100.000 E5.23316
G1 X102.406 Y100.304 E5.23944
G1 X102.349 Y100.603 E5.24572
G1 X102.255 Y100.893 E5.25200
G1 X102.126 Y101.169 E5.25828
G1 X101.962 Y101.426 E5.26455
G1 X101.816 Y101.603 E5.26929
G1 X101.768 Y101.660 F7800.000
G1 X102.656 Y102.605 F7800.000
G1 F634.647
G1 X102.374 Y102.870 E5.27724
G1 X101.996 Y103.145 E5.28688
G1 X101.586 Y103.370 E5.29652
G1 X101.151 Y103.542 E5.30616
G1 X100.698 Y103.658 E5.31580
G1 X100.234 Y103.717 E5.32544
G1 X99.766 Y103.717 E5.33508
G1 X99.302 Y103.658 E5.34472
G1 X98.849 Y103.542 E5.35436
G1 X98.414 Y103.370 E5.36400
G1 X98.004 Y103.145 E5.37364
G1 X97.626 Y102.870 E5.38328
G1 X97.285 Y102.550 E5.39292
G1 X96.987 Y102.189 E5.40256
G1 X96.736 Y101.794 E5.41220
G1 X96.537 Y101.371 E5.42184
G1 X96.393 Y100.926 E5.43148
G1 X96.305 Y100.467 E5.44112
G1 X96.276 Y100.000 E5.45076
G1 X96.305 Y99.533 E5.46040
G1 X96.393 Y99.074 E5.47004
G1 X96.537 Y98.629 E5.47968
G1 X96.736 Y98.206 E5.48932
G1 X96.987 Y97.811 E5.49896
G1 X97.285 Y97.450 E5.50860
G1 X97.626 Y97.130 E5.51824
G1 X98.004 Y96.855 E5.52788
G1 X98.414 Y96.630 E5.53752
G1 X98.849 Y96.458 E5.54716
G1 X99.302 Y96.342 E5.55680
G1 X99.766 Y96.283 E5.56644
G1 X100.234 Y96.283 E5.57608
G1 X100.698 Y96.342 E5.58572
G1 X101.151 Y96.458 E5.59536
G1 X101.586 Y96.630 E5.60500
G1 X101.996 Y96.855 E5.61464
G1 X102.374 Y97.130 E5.62428
G1 X102.715 Y97.450 E5.63392
G1 X103.013 Y97.811 E5.64356
G1 X103.264 Y98.206 E5.65320
G1 X103.463 Y98.629 E5.66284
G1 X103.607 Y99.074 E5.67248
G1 X103.695 Y99.533 E5.68212
G1 X103.724 Y100.000 E5.69176
G1 X103.695 Y100.467 E5.70140
G1 X103.607 Y100.926 E5.71104
G1 X103.463 Y101.371 E5.72068
G1 X103.264 Y101.794 E5.73032
G1 X103.013 Y102.189 E5.73996
G1 X102.710 Y102.554 E5.74973
G1 X102.282 Y102.507 F7800.000
G1 X102.212 Y102.133 F7800.000
G1 F846.196
G1 X101.960 Y102.369 E5.75958
G1 X101.647 Y102.596 E5.77060
