; generated by Slic3r 1.3.1-dev (Build 2ef957d) on 2019-11-25 at 09:21:08

; external perimeters extrusion width = 0.55mm (4.37mm^3/s)
; perimeters extrusion width = 0.70mm (11.44mm^3/s)
; infill extrusion width = 0.62mm (13.45mm^3/s)
; solid infill extrusion width = 0.70mm (3.81mm^3/s)
; top infill extrusion width = 0.70mm (2.86mm^3/s)

M107
G92 E0
M104 S200 ; set temperature
G28 ; home all axes
G1 Z5 F5000 ; lift nozzle

; Filament gcode

M109 S200 ; set temperature and wait for it to be reached
G21 ; set units to millimeters
G90 ; use absolute coordinates
M82 ; use absolute distances for extrusion
G92 E0
G1 Z0.350 F7800.000
G1 E-2.00000 F2400.00000
G92 E0
G1 X75.151 Y81.753 F7800.000
G1 E2.00000 F2400.00000
G1 F1800.000
G1 X76.904 Y80.274 E2.07096
G1 X79.056 Y79.481 E2.14192
G1 X80.235 Y79.375 E2.17858
G1 X84.765 Y79.375 E2.31871
G1 X87.023 Y79.772 E2.38968
G1 X89.012 Y80.915 E2.46064
G1 X90.491 Y82.668 E2.53160
G1 X91.284 Y84.820 E2.60256
G1 X91.389 Y86.000 E2.63921
G1 X91.389 Y114.000 E3.50557
G1 X90.992 Y116.259 E3.57653
G1 X89.849 Y118.247 E3.64750
G1 X88.096 Y119.726 E3.71846
G1 X85.944 Y120.519 E3.78942
G1 X84.765 Y120.625 E3.82607
G1 X80.235 Y120.625 E3.96621
G1 X77.977 Y120.228 E4.03717
G1 X75.988 Y119.085 E4.10813
G1 X74.509 Y117.332 E4.17910
G1 X73.716 Y115.180 E4.25006
G1 X73.611 Y114.000 E4.28671
G1 X73.611 Y86.000 E5.15307
G1 X74.008 Y83.741 E5.22403
G1 X75.113 Y81.818 E5.29267
G1 E3.29267 F2400.00000
G92 E0
G1 X83.165 Y112.400 F7800.000
G1 E2.00000 F2400.00000
G1 F1800.000
G1 X81.835 Y112.400 E2.04114
G1 X81.835 Y107.850 E2.18194
G1 X83.165 Y107.850 E2.22308
G1 X83.165 Y112.325 E2.36155
G1 X83.790 Y113.025 F7800.000
G1 F1800.000
G1 X81.210 Y113.025 E2.44136
G1 X81.210 Y107.225 E2.62083
G1 X83.790 Y107.225 E2.70064
G1 X83.790 Y112.950 E2.87779
G1 X84.415 Y113.650 F7800.000
G1 F1800.000
G1 X80.585 Y113.650 E2.99627
G1 X80.585 Y106.600 E3.21440
G1 X84.415 Y106.600 E3.33288
G1 X84.415 Y113.575 E3.54870
G1 X83.946 Y113.475 F7800.000
G1 E1.54870 F2400.00000
G92 E0
G1 X82.500 Y112.088 F7800.000
G1 E2.00000 F2400.00000
G1 F1800.000
G1 X82.500 Y108.162 E2.12238
G1 E0.12238 F2400.00000
G92 E0
G1 X83.165 Y92.150 F7800.000
G1 E2.00000 F2400.00000
G1 F1800.000
G1 X81.835 Y92.150 E2.04114
G1 X81.835 Y87.600 E2.18194
G1 X83.165 Y87.600 E2.22308
G1 X83.165 Y92.075 E2.36155
G1 X83.790 Y92.775 F7800.000
G1 F1800.000
G1 X81.210 Y92.775 E2.44136
G1 X81.210 Y86.975 E2.62083
G1 X83.790 Y86.975 E2.70064
G1 X83.790 Y92.700 E2.87779
G1 X84.415 Y93.400 F7800.000
G1 F1800.000
G1 X80.585 Y93.400 E2.99627
G1 X80.585 Y86.350 E3.21440
G1 X84.415 Y86.350 E3.33288
G1 X84.415 Y93.325 E3.54870
G1 X83.946 Y93.225 F7800.000
G1 E1.54870 F2400.00000
G92 E0
G1 X82.500 Y91.838 F7800.000
G1 E2.00000 F2400.00000
G1 F1800.000
G1 X82.500 Y87.912 E2.12238
G1 Z0.650 F7800.000
G1 E0.12238 F2400.00000
G92 E0
G1 X84.834 Y107.721 F7800.000
G1 E2.00000 F2400.00000
G1 F900.000
G1 X84.834 Y112.529 E2.12969
G1 X80.166 Y112.529 E2.25560
G1 X80.166 Y107.721 E2.38529
G1 X84.759 Y107.721 E2.50917
G1 X85.469 Y107.086 F7800.000

G1 F3600.000
G1 X85.469 Y113.164 E2.67803
G1 X85.015 Y113.164 E2.69065

G1 F3600.000
G1 X79.985 Y113.164 E2.82632

G1 F3600.000
G1 X79.531 Y113.164 E2.83895
G1 X79.531 Y107.086 E3.00781
G1 X79.985 Y107.086 E3.02044

G1 F3600.000
G1 X85.015 Y107.086 E3.15611

G1 F3600.000
G1 X85.394 Y107.086 E3.16665

G1 X86.030 Y106.525 F7800.000

G1 F3600.000
G1 X86.030 Y113.725 E3.36665
G1 X85.015 Y113.725 E3.39486

G1 F1800.000
G1 X79.985 Y113.725 E3.49851

G1 F3600.000
G1 X78.970 Y113.725 E3.52671
G1 X78.970 Y106.525 E3.72671
G1 X79.985 Y106.525 E3.75491

G1 F1800.000
G1 X85.015 Y106.525 E3.85857

G1 F3600.000
G1 X85.955 Y106.525 E3.88469

G1 E1.88469 F2400.00000
G92 E0
G1 X84.445 Y108.604 F7800.000
G1 E2.00000 F2400.00000
G1 F1200.000
G1 X83.951 Y108.110 E2.02079
G1 X82.960 Y108.110 E2.05022
G1 X84.445 Y109.594 E2.11262
G1 X84.445 Y110.585 E2.14206
G1 X81.970 Y108.110 E2.24608
G1 X80.980 Y108.110 E2.27552
G1 X84.445 Y111.575 E2.42117
G1 X84.445 Y112.140 E2.43797
G1 X84.020 Y112.140 E2.45060
G1 X80.555 Y108.675 E2.59625
G1 X80.555 Y109.665 E2.62568
G1 X83.030 Y112.140 E2.72971
G1 X82.040 Y112.140 E2.75914
G1 X80.555 Y110.656 E2.82155
G1 X80.555 Y111.646 E2.85098
G1 X81.049 Y112.140 E2.87176
G1 E0.87176 F2400.00000
G92 E0
G1 X84.834 Y92.279 F7800.000
G1 E2.00000 F2400.00000
G1 F900.000
G1 X80.166 Y92.279 E2.12591
G1 X80.166 Y87.471 E2.25560
G1 X84.834 Y87.471 E2.38150
G1 X84.834 Y92.204 E2.50917
G1 X85.469 Y92.914 F7800.000

G1 F3600.000
G1 X85.015 Y92.914 E2.52180

G1 F3600.000
G1 X79.985 Y92.914 E2.65747

G1 F3600.000
G1 X79.531 Y92.914 E2.67010
G1 X79.531 Y86.836 E2.83895
G1 X79.985 Y86.836 E2.85158

G1 F3600.000
G1 X85.015 Y86.836 E2.98725

G1 F3600.000
G1 X85.469 Y86.836 E2.99988
G1 X85.469 Y92.839 E3.16665

G1 X86.030 Y93.475 F7800.000

G1 F3600.000
G1 X85.015 Y93.475 E3.19486

G1 F1800.000
G1 X79.985 Y93.475 E3.29851

G1 F3600.000
G1 X78.970 Y93.475 E3.32671
G1 X78.970 Y86.275 E3.52671
G1 X79.985 Y86.275 E3.55491

G1 F1800.000
G1 X85.015 Y86.275 E3.65857

G1 F3600.000
G1 X86.030 Y86.275 E3.68677
G1 X86.030 Y93.400 E3.88469

G1 E1.88469 F2400.00000
G92 E0
G1 X81.049 Y91.890 F7800.000
G1 E2.00000 F2400.00000
G1 F1200.000
G1 X80.555 Y91.396 E2.02078
G1 X80.555 Y90.406 E2.05021
G1 X82.040 Y91.890 E2.11262
G1 X83.030 Y91.890 E2.14205
G1 X80.555 Y89.415 E2.24608
G1 X80.555 Y88.425 E2.27551
G1 X84.020 Y91.890 E2.42116
G1 X84.445 Y91.890 E2.43379
G1 X84.445 Y91.325 E2.45059
G1 X80.980 Y87.860 E2.59624
G1 X81.970 Y87.860 E2.62568
G1 X84.445 Y90.335 E2.72971
G1 X84.445 Y89.344 E2.75914
G1 X82.960 Y87.860 E2.82154
G1 X83.951 Y87.860 E2.85098
G1 X84.445 Y88.354 E2.87176
G1 Z0.950 F7800.000
G1 E0.87176 F2400.00000
G92 E0
G1 X85.842 Y107.721 F7800.000
G1 E2.00000 F2400.00000
G1 F900.000
G1 X85.842 Y112.529 E2.12969
G1 X79.158 Y112.529 E2.31003
G1 X79.158 Y107.721 E2.43972
G1 X85.767 Y107.721 E2.61803
G1 X86.478 Y107.086 F7800.000
G1 F900.000
G1 X86.478 Y113.164 E2.78201
G1 X78.522 Y113.164 E2.99664
G1 X78.522 Y107.086 E3.16062
G1 X86.403 Y107.086 E3.37323
G1 X87.039 Y106.525 F7800.000

G1 F3600.000
G1 X87.039 Y113.725 E3.57323
G1 X86.555 Y113.725 E3.58667

G1 F1800.000
G1 X78.445 Y113.725 E3.75381

G1 F3600.000
G1 X77.961 Y113.725 E3.76725
G1 X77.961 Y106.525 E3.96725
G1 X78.445 Y106.525 E3.98069

G1 F1800.000
G1 X86.555 Y106.525 E4.14783

G1 F3600.000
G1 X86.964 Y106.525 E4.15919

G1 E2.15919 F2400.00000
G92 E0
G1 X84.960 Y112.140 F7800.000
G1 E2.00000 F2400.00000
G1 F1200.000
G1 X85.454 Y111.646 E2.02087
G1 X85.454 Y110.651 E2.05055
G1 X83.965 Y112.140 E2.11339
G1 X82.971 Y112.140 E2.14306
G1 X85.454 Y109.657 E2.24787
G1 X85.454 Y108.663 E2.27755
G1 X81.976 Y112.140 E2.42432
G1 X80.982 Y112.140 E2.45400
G1 X85.013 Y108.110 E2.62411
G1 X84.018 Y108.110 E2.65379
G1 X79.987 Y112.140 E2.82390
G1 X79.546 Y112.140 E2.83708
G1 X79.546 Y111.587 E2.85358
G1 X83.024 Y108.110 E3.00036
G1 X82.029 Y108.110 E3.03003
G1 X79.546 Y110.593 E3.13484
G1 X79.546 Y109.599 E3.16452
G1 X81.035 Y108.110 E3.22736
G1 X80.041 Y108.110 E3.25703
G1 X79.546 Y108.604 E3.27790
G1 E1.27790 F2400.00000
G92 E0
G1 X85.842 Y92.279 F7800.000
G1 E2.00000 F2400.00000
G1 F900.000
G1 X79.158 Y92.279 E2.18033
G1 X79.158 Y87.471 E2.31003
G1 X85.842 Y87.471 E2.49036
G1 X85.842 Y92.204 E2.61803
G1 X86.478 Y92.914 F7800.000
G1 F900.000
G1 X78.522 Y92.914 E2.83266
G1 X78.522 Y86.836 E2.99664
G1 X86.478 Y86.836 E3.21127
G1 X86.478 Y92.839 E3.37323
G1 X87.039 Y93.475 F7800.000

G1 F3600.000
G1 X86.555 Y93.475 E3.38667

G1 F1800.000
G1 X78.445 Y93.475 E3.55381

G1 F3600.000
G1 X77.961 Y93.475 E3.56725
G1 X77.961 Y86.275 E3.76725
G1 X78.445 Y86.275 E3.78069

G1 F1800.000
G1 X86.555 Y86.275 E3.94783

G1 F3600.000
G1 X87.039 Y86.275 E3.96127
G1 X87.039 Y93.400 E4.15919

G1 E2.15919 F2400.00000
G92 E0
G1 X84.960 Y91.890 F7800.000
G1 E2.00000 F2400.00000
G1 F1200.000
G1 X85.454 Y91.396 E2.02087
G1 X85.454 Y90.401 E2.05055
G1 X83.965 Y91.890 E2.11339
G1 X82.971 Y91.890 E2.14306
G1 X85.454 Y89.407 E2.24787
G1 X85.454 Y88.413 E2.27755
G1 X81.976 Y91.890 E2.42432
G1 X80.982 Y91.890 E2.45400
G1 X85.013 Y87.860 E2.62411
G1 X84.018 Y87.860 E2.65379
G1 X79.987 Y91.890 E2.82390
G1 X79.546 Y91.890 E2.83708
G1 X79.546 Y91.337 E2.85358
G1 X83.024 Y87.860 E3.00036
G1 X82.029 Y87.860 E3.03003
G1 X79.546 Y90.343 E3.13484
G1 X79.546 Y89.349 E3.16452
G1 X81.035 Y87.860 E3.22736
G1 X80.041 Y87.860 E3.25703
G1 X79.546 Y88.354 E3.27790
M106 S224.4
G1 Z1.250 F7800.000
G1 E1.27790 F2400.00000
G92 E0
G1 X86.656 Y107.721 F7800.000
G1 E2.00000 F2400.00000
G1 F900.000
G1 X86.656 Y112.529 E2.12969
G1 X78.344 Y112.529 E2.35390
G1 X78.344 Y107.721 E2.48359
G1 X86.581 Y107.721 E2.70578
G1 X87.291 Y107.086 F7800.000
G1 F900.000
G1 X87.291 Y113.164 E2.86977
G1 X77.709 Y113.164 E3.12827
G1 X77.709 Y107.086 E3.29226
G1 X87.216 Y107.086 E3.54874
G1 X87.852 Y106.525 F7800.000
M106 S255

G1 F3600.000
G1 X87.852 Y113.725 E3.74874
G1 X87.564 Y113.725 E3.75675
M106 S224.4

G1 F1800.000
G1 X77.436 Y113.725 E3.96548
M106 S255

G1 F3600.000
G1 X77.148 Y113.725 E3.97348
G1 X77.148 Y106.525 E4.17348
G1 X77.436 Y106.525 E4.18149
M106 S224.4

G1 F1800.000
G1 X87.564 Y106.525 E4.39022
M106 S255

G1 F3600.000
G1 X87.777 Y106.525 E4.39614
M106 S224.4

G1 E2.39614 F2400.00000
G92 E0
G1 X86.267 Y108.604 F7800.000
G1 E2.00000 F2400.00000
G1 F1200.000
G1 X85.773 Y108.110 E2.02018
G1 X84.811 Y108.110 E2.04792
G1 X86.267 Y109.566 E2.10734
G1 X86.267 Y110.527 E2.13508
G1 X83.850 Y108.110 E2.23373
G1 X82.888 Y108.110 E2.26147
G1 X86.267 Y111.489 E2.39935
G1 X86.267 Y112.140 E2.41816
G1 X85.958 Y112.140 E2.42710
G1 X81.927 Y108.110 E2.59157
G1 X80.965 Y108.110 E2.61932
G1 X84.996 Y112.140 E2.78380
G1 X84.035 Y112.140 E2.81154
G1 X80.004 Y108.110 E2.97602
G1 X79.042 Y108.110 E3.00376
G1 X83.073 Y112.140 E3.16824
G1 X82.112 Y112.140 E3.19598
G1 X78.733 Y108.761 E3.33386
G1 X78.733 Y109.723 E3.36161
G1 X81.150 Y112.140 E3.46026
G1 X80.189 Y112.140 E3.48800
G1 X78.733 Y110.684 E3.54741
G1 X78.733 Y111.646 E3.57516
G1 X79.227 Y112.140 E3.59533
G1 E1.59533 F2400.00000
G92 E0
G1 X86.656 Y92.279 F7800.000
G1 E2.00000 F2400.00000
G1 F900.000
G1 X78.344 Y92.279 E2.22421
G1 X78.344 Y87.471 E2.35390
G1 X86.656 Y87.471 E2.57812
G1 X86.656 Y92.204 E2.70578
G1 X87.291 Y92.914 F7800.000
G1 F900.000
G1 X77.709 Y92.914 E2.96429
G1 X77.709 Y86.836 E3.12827
G1 X87.291 Y86.836 E3.38678
G1 X87.291 Y92.839 E3.54874
G1 X87.852 Y93.475 F7800.000
M106 S255

G1 F3600.000
G1 X87.564 Y93.475 E3.55675
M106 S224.4

G1 F1800.000
G1 X77.436 Y93.475 E3.76548
M106 S255

G1 F3600.000
G1 X77.148 Y93.475 E3.77348
G1 X77.148 Y86.275 E3.97348
G1 X77.436 Y86.275 E3.98149
M106 S224.4

G1 F1800.000
G1 X87.564 Y86.275 E4.19022
M106 S255

G1 F3600.000
G1 X87.852 Y86.275 E4.19822
G1 X87.852 Y93.400 E4.39614
M106 S224.4

G1 E2.39614 F2400.00000
G92 E0
G1 X86.267 Y88.354 F7800.000
G1 E2.00000 F2400.00000
G1 F1200.000
G1 X85.773 Y87.860 E2.02018
G1 X84.811 Y87.860 E2.04792
G1 X86.267 Y89.316 E2.10734
G1 X86.267 Y90.277 E2.13508
G1 X83.850 Y87.860 E2.23373
G1 X82.888 Y87.860 E2.26147
G1 X86.267 Y91.239 E2.39935
G1 X86.267 Y91.890 E2.41816
G1 X85.958 Y91.890 E2.42710
G1 X81.927 Y87.860 E2.59157
G1 X80.965 Y87.860 E2.61932
G1 X84.996 Y91.890 E2.78380
G1 X84.035 Y91.890 E2.81154
G1 X80.004 Y87.860 E2.97602
G1 X79.042 Y87.860 E3.00376
G1 X83.073 Y91.890 E3.16824
G1 X82.112 Y91.890 E3.19598
G1 X78.733 Y88.511 E3.33386
G1 X78.733 Y89.473 E3.36161
G1 X81.150 Y91.890 E3.46026
G1 X80.189 Y91.890 E3.48800
G1 X78.733 Y90.434 E3.54741
G1 X78.733 Y91.396 E3.57516
G1 X79.227 Y91.890 E3.59533
M106 S216.75
G1 Z1.550 F7800.000
G1 E1.59533 F2400.00000
G92 E0
G1 X87.427 Y107.721 F7800.000
G1 E2.00000 F2400.00000
G1 F900.000
G1 X87.427 Y112.529 E2.12969
G1 X77.671 Y112.529 E2.39289
G1 X77.671 Y107.721 E2.52258
G1 X87.352 Y107.721 E2.78375
G1 X88.063 Y107.086 F7800.000
G1 F900.000
G1 X88.063 Y113.164 E2.94773
G1 X77.035 Y113.164 E3.24522
G1 X77.035 Y107.086 E3.40921
G1 X87.988 Y107.086 E3.70467
G1 E1.70467 F2400.00000
G92 E0
G1 X88.377 Y113.725 F7800.000
G1 E2.00000 F2400.00000
G1 F1800.000
G1 X76.623 Y113.725 E2.24225
M106 S255

G1 F3600.000
G1 X76.475 Y113.725 E2.24637
G1 X76.475 Y106.525 E2.44637
G1 X76.623 Y106.525 E2.45050
M106 S216.75

G1 F1800.000
G1 X88.377 Y106.525 E2.69275
M106 S255

G1 F3600.000
G1 X88.624 Y106.525 E2.69960
G1 X88.624 Y113.725 E2.89960
G1 X88.452 Y113.725 E2.90437
M106 S216.75

G1 E0.90437 F2400.00000
G92 E0
G1 X86.544 Y112.140 F7800.000
G1 E2.00000 F2400.00000
G1 F1200.000
G1 X87.039 Y111.646 E2.01941
G1 X87.039 Y110.721 E2.04507
G1 X85.620 Y112.140 E2.10077
G1 X84.695 Y112.140 E2.12643
G1 X87.039 Y109.796 E2.21842
G1 X87.039 Y108.872 E2.24409
G1 X83.770 Y112.140 E2.37237
G1 X82.846 Y112.140 E2.39803
G1 X86.876 Y108.110 E2.55622
G1 X85.952 Y108.110 E2.58188
G1 X81.921 Y112.140 E2.74007
G1 X80.996 Y112.140 E2.76573
G1 X85.027 Y108.110 E2.92392
G1 X84.102 Y108.110 E2.94958
G1 X80.071 Y112.140 E3.10777
G1 X79.147 Y112.140 E3.13344
G1 X83.177 Y108.110 E3.29163
G1 X82.253 Y108.110 E3.31729
G1 X78.222 Y112.140 E3.47548
G1 X78.059 Y112.140 E3.47999
G1 X78.059 Y111.378 E3.50114
G1 X81.328 Y108.110 E3.62942
G1 X80.403 Y108.110 E3.65508
G1 X78.059 Y110.454 E3.74708
G1 X78.059 Y109.529 E3.77274
G1 X79.479 Y108.110 E3.82844
G1 X78.554 Y108.110 E3.85410
G1 X78.059 Y108.604 E3.87350
G1 E1.87350 F2400.00000
G92 E0
G1 X87.427 Y92.279 F7800.000
G1 E2.00000 F2400.00000
G1 F900.000
G1 X77.671 Y92.279 E2.26320
G1 X77.671 Y87.471 E2.39289
G1 X87.427 Y87.471 E2.65608
G1 X87.427 Y92.204 E2.78375
G1 X88.063 Y92.914 F7800.000
G1 F900.000
G1 X77.035 Y92.914 E3.08124
G1 X77.035 Y86.836 E3.24522
G1 X88.063 Y86.836 E3.54271
G1 X88.063 Y92.839 E3.70467
G1 X88.377 Y93.475 F7800.000
G1 F1800.000
G1 X76.623 Y93.475 E3.94693
M106 S255

G1 F3600.000
G1 X76.475 Y93.475 E3.95105
G1 X76.475 Y86.275 E4.15105
G1 X76.623 Y86.275 E4.15517
M106 S216.75

G1 F1800.000
G1 X88.377 Y86.275 E4.39742
M106 S255

G1 F3600.000
G1 X88.624 Y86.275 E4.40428
G1 X88.624 Y93.475 E4.60428
G1 X88.452 Y93.475 E4.60904
M106 S216.75

G1 E2.60904 F2400.00000
G92 E0
G1 X86.544 Y91.890 F7800.000
G1 E2.00000 F2400.00000
G1 F1200.000
G1 X87.039 Y91.396 E2.01941
G1 X87.039 Y90.471 E2.04507
G1 X85.620 Y91.890 E2.10077
G1 X84.695 Y91.890 E2.12643
G1 X87.039 Y89.546 E2.21842
G1 X87.039 Y88.622 E2.24409
G1 X83.770 Y91.890 E2.37237
G1 X82.846 Y91.890 E2.39803
G1 X86.876 Y87.860 E2.55622
G1 X85.952 Y87.860 E2.58188
G1 X81.921 Y91.890 E2.74007
G1 X80.996 Y91.890 E2.76573
G1 X85.027 Y87.860 E2.92392
G1 X84.102 Y87.860 E2.94959
G1 X80.071 Y91.890 E3.10777
G1 X79.147 Y91.890 E3.13344
G1 X83.177 Y87.860 E3.29163
G1 X82.253 Y87.860 E3.31729
G1 X78.222 Y91.890 E3.47548
G1 X78.059 Y91.890 E3.47999
G1 X78.059 Y91.128 E3.50114
G1 X81.328 Y87.860 E3.62942
G1 X80.403 Y87.860 E3.65508
G1 X78.059 Y90.204 E3.74708
G1 X78.059 Y89.279 E3.77274
G1 X79.479 Y87.860 E3.82844
G1 X78.554 Y87.860 E3.85410
G1 X78.059 Y88.354 E3.87350
M106 S211.65
G1 Z1.850 F7800.000
G1 E1.87350 F2400.00000
G92 E0
G1 X88.192 Y107.721 F7800.000
G1 E2.00000 F2400.00000
G1 F900.000
G1 X88.192 Y112.529 E2.12969
G1 X77.045 Y112.529 E2.43040
G1 X77.045 Y107.721 E2.56009
G1 X88.117 Y107.721 E2.85879
G1 X88.828 Y107.086 F7800.000
G1 F900.000
G1 X88.828 Y113.164 E3.02277
G1 X76.409 Y113.164 E3.35778
G1 X76.409 Y107.086 E3.52176
G1 X88.753 Y107.086 E3.85475
G1 E1.85475 F2400.00000
G92 E0
G1 X89.149 Y113.725 F7800.000
G1 E2.00000 F2400.00000
G1 F1800.000
G1 X75.950 Y113.725 E2.27204
M106 S255

G1 F3600.000
G1 X75.849 Y113.725 E2.27484
G1 X75.849 Y106.525 E2.47484
G1 X75.950 Y106.525 E2.47764
M106 S211.65

G1 F1800.000
G1 X89.149 Y106.525 E2.74967
M106 S255

G1 F3600.000
G1 X89.389 Y106.525 E2.75634
G1 X89.389 Y113.725 E2.95634
G1 X89.224 Y113.725 E2.96092
M106 S211.65

G1 E0.96092 F2400.00000
G92 E0
G1 X87.804 Y108.604 F7800.000
G1 E2.00000 F2400.00000
G1 F1200.000
G1 X87.309 Y108.110 E2.02011
G1 X86.351 Y108.110 E2.04765
G1 X87.804 Y109.562 E2.10671
G1 X87.804 Y110.520 E2.13425
G1 X85.393 Y108.110 E2.23226
G1 X84.435 Y108.110 E2.25981
G1 X87.804 Y111.478 E2.39677
G1 X87.804 Y112.140 E2.41580
