; generated by Slic3r 1.3.1-dev (Build 4f5b935) on 2019-11-26 at 14:50:22

; external perimeters extrusion width = 0.55mm (1.90mm^3/s)
; perimeters extrusion width = 0.70mm (2.71mm^3/s)
; infill extrusion width = 0.62mm (2.41mm^3/s)
; solid infill extrusion width = 0.70mm (2.04mm^3/s)
; top infill extrusion width = 0.70mm (2.04mm^3/s)

M107
G92 E0
;D3D:START:START
T0
M104 S215 T0

G21
G90
M107
T0
G28
G29
M109 T0 S215 T0
G0 F3000
M107
T0
G92 E0
G0 X0 Y149 Z0.1 F3600
G1 Y49 E6.5 F1200
G0 Z1
G92 E0
; Filament gcode

G21 ; set units to millimeters
G90 ; use absolute coordinates
M82 ; use absolute distances for extrusion
G92 E0
G1 Z0.090 F7800.000
G1 E-2.00000 F2400.00000
G92 E0
G1 X45.526 Y54.212 F7800.000
G1 E2.00000 F2400.00000
G1 F1800.000
G1 X47.258 Y52.860 E2.00655
G1 X50.071 Y52.170 E2.01519
G1 X58.929 Y52.170 E2.04160
G1 X59.946 Y52.256 E2.04464
G1 X105.162 Y59.938 E2.18139
G1 X105.629 Y60.026 E2.18281
G1 X107.678 Y60.817 E2.18936
G1 X109.312 Y62.285 E2.19591
G1 X110.318 Y64.237 E2.20245
G1 X110.580 Y66.000 E2.20777
G1 X110.580 Y84.000 E2.26144
G1 X110.183 Y86.160 E2.26799
G1 X109.045 Y88.038 E2.27454
G1 X107.313 Y89.390 E2.28108
G1 X105.629 Y89.974 E2.28640
G1 X105.162 Y90.062 E2.28782
G1 X59.946 Y97.744 E2.42457
G1 X58.929 Y97.830 E2.42761
G1 X50.071 Y97.830 E2.45402
G1 X47.911 Y97.433 E2.46057
G1 X46.032 Y96.295 E2.46712
G1 X44.681 Y94.563 E2.47367
G1 X43.991 Y91.750 E2.48230
G1 X43.991 Y58.250 E2.58219
G1 X44.388 Y56.090 E2.58874
G1 X45.487 Y54.276 E2.59506
G1 E0.59506 F2400.00000
G92 E0
G1 X69.789 Y81.289 F7800.000
G1 E2.00000 F2400.00000
G1 F1800.000
G1 X69.789 Y68.711 E2.03750
G1 X50.359 Y68.711 E2.09543
G1 X50.359 Y58.539 E2.12576
G1 X58.905 Y58.539 E2.15124
G1 X104.211 Y66.243 E2.28827
G1 X104.211 Y83.756 E2.34049
G1 X58.905 Y91.461 E2.47752
G1 X50.359 Y91.461 E2.50300
G1 X50.359 Y81.289 E2.53333
G1 X69.714 Y81.289 E2.59104
G1 X69.709 Y81.209 F7800.000
G1 F1800.000
G1 X69.709 Y68.791 E2.62806
G1 X50.280 Y68.791 E2.68599
G1 X50.280 Y58.459 E2.71680
G1 X58.912 Y58.459 E2.74254
G1 X104.291 Y66.176 E2.87979
G1 X104.291 Y83.824 E2.93241
G1 X58.912 Y91.541 E3.06966
G1 X50.280 Y91.541 E3.09539
G1 X50.280 Y81.209 E3.12620
G1 X69.634 Y81.209 E3.18391
G1 X69.629 Y81.129 F7800.000
G1 F1800.000
G1 X69.629 Y68.871 E3.22046
G1 X50.200 Y68.871 E3.27839
G1 X50.200 Y58.379 E3.30967
G1 X58.918 Y58.379 E3.33567
G1 X104.371 Y66.109 E3.47314
G1 X104.371 Y83.891 E3.52616
G1 X58.918 Y91.621 E3.66363
G1 X50.200 Y91.621 E3.68962
G1 X50.200 Y81.129 E3.72090
G1 X69.554 Y81.129 E3.77861
G1 X69.549 Y81.049 F7800.000
G1 F1800.000
G1 X69.549 Y68.951 E3.81469
G1 X50.120 Y68.951 E3.87262
G1 X50.120 Y58.300 E3.90437
G1 X58.925 Y58.300 E3.93063
G1 X104.451 Y66.042 E4.06832
G1 X104.451 Y83.958 E4.12174
G1 X58.925 Y91.701 E4.25943
G1 X50.120 Y91.701 E4.28568
G1 X50.120 Y81.049 E4.31744
G1 X69.475 Y81.049 E4.37515
G1 X70.043 Y80.966 F7800.000
G1 E2.37515 F2400.00000
G92 E0
G1 X59.913 Y91.235 F7800.000
G1 E2.00000 F2400.00000
G1 F1800.000
G1 X69.810 Y81.337 E2.04179
G1 X69.698 Y81.337 E2.04213
G1 X59.777 Y91.258 E2.08401
G1 X59.641 Y91.281 E2.08443
G1 X69.585 Y81.337 E2.12641
G1 X69.472 Y81.337 E2.12675
G1 X59.505 Y91.304 E2.16883
G1 X59.369 Y91.327 E2.16924
G1 X69.359 Y81.337 E2.21142
G1 X69.246 Y81.337 E2.21176
G1 X59.233 Y91.351 E2.25404
G1 X59.097 Y91.374 E2.25445
G1 X69.133 Y81.337 E2.29683
G1 X69.021 Y81.337 E2.29716
G1 X58.961 Y91.397 E2.33964
G1 X58.867 Y91.413 E2.33992
G1 X58.832 Y91.413 E2.34003
G1 X68.908 Y81.337 E2.38257
G1 X68.795 Y81.337 E2.38290
G1 X58.719 Y91.413 E2.42545
G1 X58.607 Y91.413 E2.42578
G1 X68.682 Y81.337 E2.46832
G1 X68.569 Y81.337 E2.46866
G1 X58.494 Y91.413 E2.51120
G1 X58.381 Y91.413 E2.51154
G1 X68.456 Y81.337 E2.55408
G1 X68.344 Y81.337 E2.55442
G1 X58.268 Y91.413 E2.59696
G1 X58.155 Y91.413 E2.59729
G1 X68.231 Y81.337 E2.63984
G1 X68.118 Y81.337 E2.64017
G1 X58.042 Y91.413 E2.68271
G1 X57.929 Y91.413 E2.68305
G1 X68.005 Y81.337 E2.72559
G1 X67.892 Y81.337 E2.72593
G1 X57.817 Y91.413 E2.76847
G1 X57.704 Y91.413 E2.76881
G1 X67.779 Y81.337 E2.81135
G1 X67.667 Y81.337 E2.81168
G1 X57.591 Y91.413 E2.85423
G1 X57.478 Y91.413 E2.85456
G1 X67.554 Y81.337 E2.89710
G1 X67.441 Y81.337 E2.89744
G1 X57.365 Y91.413 E2.93998
G1 X57.252 Y91.413 E2.94032
G1 X67.328 Y81.337 E2.98286
G1 X67.215 Y81.337 E2.98320
G1 X57.140 Y91.413 E3.02574
G1 X57.027 Y91.413 E3.02607
G1 X67.102 Y81.337 E3.06862
G1 X66.989 Y81.337 E3.06895
G1 X56.914 Y91.413 E3.11149
G1 X56.801 Y91.413 E3.11183
G1 X66.877 Y81.337 E3.15437
G1 X66.764 Y81.337 E3.15471
G1 X56.688 Y91.413 E3.19725
G1 X56.575 Y91.413 E3.19759
G1 X66.651 Y81.337 E3.24013
G1 X66.538 Y81.337 E3.24046
G1 X56.463 Y91.413 E3.28301
G1 X56.350 Y91.413 E3.28334
G1 X66.425 Y81.337 E3.32588
G1 X66.312 Y81.337 E3.32622
G1 X56.237 Y91.413 E3.36876
G1 X56.124 Y91.413 E3.36910
G1 X66.200 Y81.337 E3.41164
G1 X66.087 Y81.337 E3.41198
G1 X56.011 Y91.413 E3.45452
G1 X55.898 Y91.413 E3.45485
G1 X65.974 Y81.337 E3.49740
G1 X65.861 Y81.337 E3.49773
G1 X55.786 Y91.413 E3.54027
G1 X55.673 Y91.413 E3.54061
G1 X65.748 Y81.337 E3.58315
G1 X65.635 Y81.337 E3.58349
G1 X55.560 Y91.413 E3.62603
G1 X55.447 Y91.413 E3.62637
G1 X65.523 Y81.337 E3.66891
G1 X65.410 Y81.337 E3.66924
G1 X55.334 Y91.413 E3.71178
G1 X55.221 Y91.413 E3.71212
G1 X65.297 Y81.337 E3.75466
G1 X65.184 Y81.337 E3.75500
G1 X55.108 Y91.413 E3.79754
G1 X54.996 Y91.413 E3.79788
G1 X65.071 Y81.337 E3.84042
G1 X64.958 Y81.337 E3.84076
G1 X54.883 Y91.413 E3.88330
G1 X54.770 Y91.413 E3.88363
G1 X64.846 Y81.337 E3.92617
G1 X64.733 Y81.337 E3.92651
G1 X54.657 Y91.413 E3.96905
G1 X54.544 Y91.413 E3.96939
G1 X64.620 Y81.337 E4.01193
G1 X64.507 Y81.337 E4.01227
G1 X54.431 Y91.413 E4.05481
G1 X54.319 Y91.413 E4.05515
G1 X64.394 Y81.337 E4.09769
G1 X64.281 Y81.337 E4.09802
G1 X54.206 Y91.413 E4.14056
G1 X54.093 Y91.413 E4.14090
G1 X64.168 Y81.337 E4.18344
G1 X64.056 Y81.337 E4.18378
G1 X53.980 Y91.413 E4.22632
G1 X53.867 Y91.413 E4.22666
G1 X63.943 Y81.337 E4.26920
G1 X63.830 Y81.337 E4.26954
G1 X53.754 Y91.413 E4.31208
G1 X53.642 Y91.413 E4.31241
G1 X63.717 Y81.337 E4.35495
G1 X63.604 Y81.337 E4.35529
G1 X53.529 Y91.413 E4.39783
G1 X53.416 Y91.413 E4.39817
G1 X63.491 Y81.337 E4.44071
G1 X63.379 Y81.337 E4.44105
G1 X53.303 Y91.413 E4.48359
G1 X53.190 Y91.413 E4.48393
G1 X63.266 Y81.337 E4.52647
G1 X63.153 Y81.337 E4.52680
G1 X53.077 Y91.413 E4.56934
G1 X52.965 Y91.413 E4.56968
G1 X63.040 Y81.337 E4.61222
G1 X62.927 Y81.337 E4.61256
G1 X52.852 Y91.413 E4.65510
G1 X52.739 Y91.413 E4.65544
G1 X62.814 Y81.337 E4.69798
G1 X62.702 Y81.337 E4.69832
G1 X52.626 Y91.413 E4.74086
G1 X52.513 Y91.413 E4.74119
G1 X62.589 Y81.337 E4.78373
G1 X62.476 Y81.337 E4.78407
G1 X52.400 Y91.413 E4.82661
G1 X52.287 Y91.413 E4.82695
G1 X62.363 Y81.337 E4.86949
G1 X62.250 Y81.337 E4.86983
G1 X52.175 Y91.413 E4.91237
G1 X52.062 Y91.413 E4.91270
G1 X62.137 Y81.337 E4.95525
G1 X62.025 Y81.337 E4.95558
G1 X51.949 Y91.413 E4.99812
G1 X51.836 Y91.413 E4.99846
G1 X61.912 Y81.337 E5.04100
G1 X61.799 Y81.337 E5.04134
G1 X51.723 Y91.413 E5.08388
G1 X51.610 Y91.413 E5.08422
G1 X61.686 Y81.337 E5.12676
G1 X61.573 Y81.337 E5.12709
G1 X51.498 Y91.413 E5.16964
G1 X51.385 Y91.413 E5.16997
G1 X61.460 Y81.337 E5.21251
G1 X61.347 Y81.337 E5.21285
G1 X51.272 Y91.413 E5.25539
G1 X51.159 Y91.413 E5.25573
G1 X61.235 Y81.337 E5.29827
G1 X61.122 Y81.337 E5.29861
G1 X51.046 Y91.413 E5.34115
G1 X50.933 Y91.413 E5.34148
G1 X61.009 Y81.337 E5.38403
G1 X60.896 Y81.337 E5.38436
G1 X50.821 Y91.413 E5.42690
G1 X50.708 Y91.413 E5.42724
G1 X60.783 Y81.337 E5.46978
G1 X60.670 Y81.337 E5.47012
G1 X50.595 Y91.413 E5.51266
G1 X50.482 Y91.413 E5.51300
G1 X60.558 Y81.337 E5.55554
G1 X60.445 Y81.337 E5.55587
G1 X50.408 Y91.374 E5.59825
G1 X50.408 Y91.261 E5.59859
G1 X60.332 Y81.337 E5.64049
G1 X60.219 Y81.337 E5.64083
G1 X50.408 Y91.148 E5.68225
G1 X50.408 Y91.035 E5.68259
G1 X60.106 Y81.337 E5.72353
G1 X59.993 Y81.337 E5.72387
G1 X50.408 Y90.923 E5.76434
G1 X50.408 Y90.810 E5.76468
G1 X59.881 Y81.337 E5.80468
G1 X59.768 Y81.337 E5.80501
G1 X50.408 Y90.697 E5.84453
G1 X50.408 Y90.584 E5.84487
G1 X59.655 Y81.337 E5.88391
G1 X59.542 Y81.337 E5.88425
G1 X50.408 Y90.471 E5.92281
G1 X50.408 Y90.358 E5.92315
G1 X59.429 Y81.337 E5.96124
G1 X59.316 Y81.337 E5.96158
G1 X50.408 Y90.246 E5.99919
G1 X50.408 Y90.133 E5.99952
G1 X59.204 Y81.337 E6.03666
G1 X59.091 Y81.337 E6.03700
G1 X50.408 Y90.020 E6.07366
G1 X50.408 Y89.907 E6.07399
G1 X58.978 Y81.337 E6.11018
G1 X58.865 Y81.337 E6.11052
G1 X50.408 Y89.794 E6.14622
G1 X50.408 Y89.681 E6.14656
G1 X58.752 Y81.337 E6.18179
G1 X58.639 Y81.337 E6.18213
G1 X50.408 Y89.569 E6.21688
G1 X50.408 Y89.456 E6.21722
G1 X58.526 Y81.337 E6.25150
G1 X58.414 Y81.337 E6.25183
G1 X50.408 Y89.343 E6.28563
G1 X50.408 Y89.230 E6.28597
G1 X58.301 Y81.337 E6.31930
G1 X58.188 Y81.337 E6.31963
G1 X50.408 Y89.117 E6.35248
G1 X50.408 Y89.004 E6.35282
G1 X58.075 Y81.337 E6.38519
G1 X57.962 Y81.337 E6.38553
G1 X50.408 Y88.891 E6.41742
G1 X50.408 Y88.779 E6.41776
G1 X57.849 Y81.337 E6.44918
G1 X57.737 Y81.337 E6.44951
G1 X50.408 Y88.666 E6.48046
G1 X50.408 Y88.553 E6.48079
G1 X57.624 Y81.337 E6.51126
G1 X57.511 Y81.337 E6.51160
G1 X50.408 Y88.440 E6.54159
G1 X50.408 Y88.327 E6.54192
G1 X57.398 Y81.337 E6.57144
G1 X57.285 Y81.337 E6.57177
G1 X50.408 Y88.214 E6.60081
G1 X50.408 Y88.102 E6.60115
G1 X57.172 Y81.337 E6.62971
G1 X57.060 Y81.337 E6.63005
G1 X50.408 Y87.989 E6.65813
G1 X50.408 Y87.876 E6.65847
G1 X56.947 Y81.337 E6.68607
G1 X56.834 Y81.337 E6.68641
G1 X50.408 Y87.763 E6.71354
G1 X50.408 Y87.650 E6.71388
G1 X56.721 Y81.337 E6.74053
G1 X56.608 Y81.337 E6.74087
G1 X50.408 Y87.537 E6.76705
G1 X50.408 Y87.425 E6.76739
G1 X56.495 Y81.337 E6.79309
G1 X56.383 Y81.337 E6.79343
G1 X50.408 Y87.312 E6.81865
G1 X50.408 Y87.199 E6.81899
G1 X56.270 Y81.337 E6.84374
G1 X56.157 Y81.337 E6.84407
G1 X50.408 Y87.086 E6.86835
G1 X50.408 Y86.973 E6.86868
G1 X56.044 Y81.337 E6.89248
G1 X55.931 Y81.337 E6.89282
G1 X50.408 Y86.860 E6.91614
G1 X50.408 Y86.747 E6.91647
G1 X55.818 Y81.337 E6.93932
G1 X55.705 Y81.337 E6.93965
G1 X50.408 Y86.635 E6.96202
G1 X50.408 Y86.522 E6.96236
G1 X55.593 Y81.337 E6.98425
G1 X55.480 Y81.337 E6.98458
G1 X50.408 Y86.409 E7.00600
G1 X50.408 Y86.296 E7.00634
G1 X55.367 Y81.337 E7.02727
G1 X55.254 Y81.337 E7.02761
G1 X50.408 Y86.183 E7.04807
G1 X50.408 Y86.070 E7.04841
G1 X55.141 Y81.337 E7.06839
G1 X55.028 Y81.337 E7.06873
G1 X50.408 Y85.958 E7.08824
G1 X50.408 Y85.845 E7.08857
G1 X54.916 Y81.337 E7.10761
G1 X54.803 Y81.337 E7.10794
G1 X50.408 Y85.732 E7.12650
G1 X50.408 Y85.619 E7.12684
G1 X54.690 Y81.337 E7.14491
G1 X54.577 Y81.337 E7.14525
G1 X50.408 Y85.506 E7.16285
G1 X50.408 Y85.393 E7.16319
G1 X54.464 Y81.337 E7.18032
G1 X54.351 Y81.337 E7.18065
G1 X50.408 Y85.281 E7.19730
G1 X50.408 Y85.168 E7.19764
G1 X54.239 Y81.337 E7.21381
G1 X54.126 Y81.337 E7.21415
G1 X50.408 Y85.055 E7.22985
G1 X50.408 Y84.942 E7.23018
G1 X54.013 Y81.337 E7.24540
G1 X53.900 Y81.337 E7.24574
G1 X50.408 Y84.829 E7.26048
G1 X50.408 Y84.716 E7.26082
G1 X53.787 Y81.337 E7.27509
G1 X53.674 Y81.337 E7.27543
G1 X50.408 Y84.604 E7.28922
G1 X50.408 Y84.491 E7.28955
G1 X53.562 Y81.337 E7.30287
G1 X53.449 Y81.337 E7.30321
G1 X50.408 Y84.378 E7.31604
G1 X50.408 Y84.265 E7.31638
G1 X53.336 Y81.337 E7.32874
G1 X53.223 Y81.337 E7.32908
G1 X50.408 Y84.152 E7.34096
G1 X50.408 Y84.039 E7.34130
G1 X53.110 Y81.337 E7.35271
G1 X52.997 Y81.337 E7.35305
G1 X50.408 Y83.926 E7.36398
G1 X50.408 Y83.814 E7.36432
G1 X52.884 Y81.337 E7.37477
G1 X52.772 Y81.337 E7.37511
G1 X50.408 Y83.701 E7.38509
G1 X50.408 Y83.588 E7.38543
G1 X52.659 Y81.337 E7.39493
G1 X52.546 Y81.337 E7.39527
G1 X50.408 Y83.475 E7.40429
G1 X50.408 Y83.362 E7.40463
G1 X52.433 Y81.337 E7.41318
G1 X52.320 Y81.337 E7.41352
G1 X50.408 Y83.249 E7.42159
G1 X50.408 Y83.137 E7.42193
G1 X52.207 Y81.337 E7.42952
G1 X52.095 Y81.337 E7.42986
G1 X50.408 Y83.024 E7.43698
G1 X50.408 Y82.911 E7.43732
G1 X51.982 Y81.337 E7.44396
G1 X51.869 Y81.337 E7.44430
G1 X50.408 Y82.798 E7.45047
G1 X50.408 Y82.685 E7.45081
G1 X51.756 Y81.337 E7.45650
G1 X51.643 Y81.337 E7.45683
G1 X50.408 Y82.572 E7.46205
G1 X50.408 Y82.460 E7.46239
G1 X51.530 Y81.337 E7.46713
G1 X51.418 Y81.337 E7.46746
G1 X50.408 Y82.347 E7.47172
G1 X50.408 Y82.234 E7.47206
G1 X51.305 Y81.337 E7.47585
G1 X51.192 Y81.337 E7.47618
G1 X50.408 Y82.121 E7.47949
G1 X50.408 Y82.008 E7.47983
G1 X51.079 Y81.337 E7.48266
G1 X50.966 Y81.337 E7.48300
G1 X50.408 Y81.895 E7.48536
G1 X50.408 Y81.783 E7.48569
G1 X50.853 Y81.337 E7.48757
G1 X50.741 Y81.337 E7.48791
G1 X50.408 Y81.670 E7.48932
G1 X50.408 Y81.557 E7.48965
G1 X50.628 Y81.337 E7.49058
G1 X50.515 Y81.337 E7.49092
G1 X50.408 Y81.444 E7.49137
G1 X50.408 Y81.399 E7.49150
G1 X50.453 Y81.399 E7.49163
G1 E5.49163 F2400.00000
G92 E0
G1 X50.471 Y58.587 F7800.000
G1 E2.00000 F2400.00000
G1 F1800.000
G1 X50.408 Y58.650 E2.00027
G1 X50.408 Y58.763 E2.00060
G1 X50.584 Y58.587 E2.00135
G1 X50.697 Y58.587 E2.00168
G1 X50.408 Y58.876 E2.00290
G1 X50.408 Y58.989 E2.00324
G1 X50.810 Y58.587 E2.00493
G1 X50.922 Y58.587 E2.00527
G1 X50.408 Y59.102 E2.00744
G1 X50.408 Y59.215 E2.00778
G1 X51.035 Y58.587 E2.01043
G1 X51.148 Y58.587 E2.01077
G1 X50.408 Y59.327 E2.01389
G1 X50.408 Y59.440 E2.01423
G1 X51.261 Y58.587 E2.01783
G1 X51.374 Y58.587 E2.01817
G1 X50.408 Y59.553 E2.02224
G1 X50.408 Y59.666 E2.02258
G1 X51.487 Y58.587 E2.02714
G1 X51.600 Y58.587 E2.02747
G1 X50.408 Y59.779 E2.03250
G1 X50.408 Y59.892 E2.03284
G1 X51.712 Y58.587 E2.03835
G1 X51.825 Y58.587 E2.03868
G1 X50.408 Y60.004 E2.04467
G1 X50.408 Y60.117 E2.04500
G1 X51.938 Y58.587 E2.05146
G1 X52.051 Y58.587 E2.05180
G1 X50.408 Y60.230 E2.05874
G1 X50.408 Y60.343 E2.05907
G1 X52.164 Y58.587 E2.06649
G1 X52.277 Y58.587 E2.06682
G1 X50.408 Y60.456 E2.07471
G1 X50.408 Y60.569 E2.07505
G1 X52.389 Y58.587 E2.08342
G1 X52.502 Y58.587 E2.08375
G1 X50.408 Y60.681 E2.09260
G1 X50.408 Y60.794 E2.09293
G1 X52.615 Y58.587 E2.10225
G1 X52.728 Y58.587 E2.10259
G1 X50.408 Y60.907 E2.11238
G1 X50.408 Y61.020 E2.11272
G1 X52.841 Y58.587 E2.12299
G1 X52.954 Y58.587 E2.12333
G1 X50.408 Y61.133 E2.13408
G1 X50.408 Y61.246 E2.13441
G1 X53.066 Y58.587 E2.14564
G1 X53.179 Y58.587 E2.14597
G1 X50.408 Y61.358 E2.15768
G1 X50.408 Y61.471 E2.15801
G1 X53.292 Y58.587 E2.17019
G1 X53.405 Y58.587 E2.17053
G1 X50.408 Y61.584 E2.18318
G1 X50.408 Y61.697 E2.18352
G1 X53.518 Y58.587 E2.19665
G1 X53.631 Y58.587 E2.19698
G1 X50.408 Y61.810 E2.21059
G1 X50.408 Y61.923 E2.21093
G1 X53.743 Y58.587 E2.22501
G1 X53.856 Y58.587 E2.22535
G1 X50.408 Y62.036 E2.23991
G1 X50.408 Y62.148 E2.24024
G1 X53.969 Y58.587 E2.25528
G1 X54.082 Y58.587 E2.25562
G1 X50.408 Y62.261 E2.27113
G1 X50.408 Y62.374 E2.27147
G1 X54.195 Y58.587 E2.28745
G1 X54.308 Y58.587 E2.28779
G1 X50.408 Y62.487 E2.30426
G1 X50.408 Y62.600 E2.30459
G1 X54.421 Y58.587 E2.32153
G1 X54.533 Y58.587 E2.32187
G1 X50.408 Y62.713 E2.33929
G1 X50.408 Y62.825 E2.33963
G1 X54.646 Y58.587 E2.35752
G1 X54.759 Y58.587 E2.35786
G1 X50.408 Y62.938 E2.37623
G1 X50.408 Y63.051 E2.37657
G1 X54.872 Y58.587 E2.39541
G1 X54.985 Y58.587 E2.39575
G1 X50.408 Y63.164 E2.41507
G1 X50.408 Y63.277 E2.41541
G1 X55.098 Y58.587 E2.43521
G1 X55.210 Y58.587 E2.43555
G1 X50.408 Y63.390 E2.45582
G1 X50.408 Y63.502 E2.45616
G1 X55.323 Y58.587 E2.47691
G1 X55.436 Y58.587 E2.47725
G1 X50.408 Y63.615 E2.49848
G1 X50.408 Y63.728 E2.49882
G1 X55.549 Y58.587 E2.52052
G1 X55.662 Y58.587 E2.52086
G1 X50.408 Y63.841 E2.54304
G1 X50.408 Y63.954 E2.54338
G1 X55.775 Y58.587 E2.56604
G1 X55.887 Y58.587 E2.56638
G1 X50.408 Y64.067 E2.58951
G1 X50.408 Y64.179 E2.58985
G1 X56.000 Y58.587 E2.61346
G1 X56.113 Y58.587 E2.61380
G1 X50.408 Y64.292 E2.63788
G1 X50.408 Y64.405 E2.63822
G1 X56.226 Y58.587 E2.66279
G1 X56.339 Y58.587 E2.66312
G1 X50.408 Y64.518 E2.68816
G1 X50.408 Y64.631 E2.68850
G1 X56.452 Y58.587 E2.71402
G1 X56.564 Y58.587 E2.71435
G1 X50.408 Y64.744 E2.74035
G1 X50.408 Y64.857 E2.74069
G1 X56.677 Y58.587 E2.76716
G1 X56.790 Y58.587 E2.76749
G1 X50.408 Y64.969 E2.79444
G1 X50.408 Y65.082 E2.79478
G1 X56.903 Y58.587 E2.82220
G1 X57.016 Y58.587 E2.82254
