; generated by Slic3r 1.3.1-dev (Build adea0d9) on 2019-12-16 at 00:52:02

; external perimeters extrusion width = 0.44mm (2.86mm^3/s)
; perimeters extrusion width = 0.56mm (4.14mm^3/s)
; infill extrusion width = 0.50mm (3.66mm^3/s)
; solid infill extrusion width = 0.56mm (3.10mm^3/s)
; top infill extrusion width = 0.56mm (3.10mm^3/s)

M107
G92 E0
;D3D:START:START
T0
M104 S215 T0

G21
G90
M107
T0
G28
G29
M109 T0 S215 T0
G0 F3000
M107
T0
G92 E0
G0 X0 Y149 Z0.1 F3600
G1 Y49 E6.5 F1200
G0 Z1
G92 E0
; Filament gcode

G21 ; set units to millimeters
G90 ; use absolute coordinates
M82 ; use absolute distances for extrusion
G92 E0
G1 Z0.300 F7800.000
G1 E-2.00000 F2400.00000
G92 E0
G1 X66.554 Y70.618 F7800.000
G1 E2.00000 F2400.00000
G1 F1800.000
G1 X67.034 Y70.229 E2.02045
G1 X67.551 Y69.893 E2.04090
G1 X68.101 Y69.613 E2.06135
G1 X68.678 Y69.391 E2.08180
G1 X69.274 Y69.232 E2.10225
G1 X69.884 Y69.135 E2.12270
G1 X70.500 Y69.103 E2.14315
G1 X71.116 Y69.135 E2.16360
G1 X71.726 Y69.232 E2.18405
G1 X72.322 Y69.391 E2.20450
G1 X72.899 Y69.613 E2.22495
G1 X73.449 Y69.893 E2.24540
G1 X73.966 Y70.229 E2.26585
G1 X74.446 Y70.618 E2.28630
G1 X74.882 Y71.054 E2.30675
G1 X75.271 Y71.534 E2.32720
G1 X75.607 Y72.051 E2.34765
G1 X75.887 Y72.601 E2.36810
G1 X76.109 Y73.178 E2.38855
G1 X76.268 Y73.774 E2.40900
G1 X76.365 Y74.384 E2.42945
G1 X76.397 Y75.000 E2.44990
G1 X76.365 Y75.616 E2.47035
G1 X76.268 Y76.226 E2.49080
G1 X76.109 Y76.822 E2.51125
G1 X75.887 Y77.399 E2.53170
G1 X75.607 Y77.949 E2.55215
G1 X75.271 Y78.466 E2.57260
G1 X74.882 Y78.946 E2.59305
G1 X74.446 Y79.382 E2.61350
G1 X73.966 Y79.771 E2.63395
G1 X73.449 Y80.107 E2.65440
G1 X72.899 Y80.387 E2.67485
G1 X72.322 Y80.609 E2.69530
G1 X71.726 Y80.768 E2.71575
G1 X71.116 Y80.865 E2.73620
G1 X70.500 Y80.897 E2.75665
G1 X69.884 Y80.865 E2.77710
G1 X69.274 Y80.768 E2.79755
G1 X68.678 Y80.609 E2.81800
G1 X68.101 Y80.387 E2.83845
G1 X67.551 Y80.107 E2.85890
G1 X67.034 Y79.771 E2.87934
G1 X66.554 Y79.382 E2.89979
G1 X66.118 Y78.946 E2.92024
G1 X65.729 Y78.466 E2.94069
G1 X65.393 Y77.949 E2.96114
G1 X65.113 Y77.399 E2.98159
G1 X64.891 Y76.822 E3.00204
G1 X64.732 Y76.226 E3.02249
G1 X64.635 Y75.616 E3.04294
G1 X64.603 Y75.000 E3.06339
G1 X64.635 Y74.384 E3.08384
G1 X64.732 Y73.774 E3.10429
G1 X64.891 Y73.178 E3.12474
G1 X65.113 Y72.601 E3.14519
G1 X65.393 Y72.051 E3.16564
G1 X65.729 Y71.534 E3.18609
G1 X66.118 Y71.054 E3.20654
G1 X66.512 Y70.660 E3.22500
G1 X66.732 Y70.815 F7800.000
G1 F1800.000
G1 X67.190 Y70.444 E3.24453
G1 X67.684 Y70.123 E3.26406
G1 X68.210 Y69.856 E3.28359
G1 X68.760 Y69.644 E3.30311
G1 X69.329 Y69.492 E3.32264
G1 X69.911 Y69.400 E3.34217
G1 X70.500 Y69.369 E3.36170
G1 X71.089 Y69.400 E3.38122
G1 X71.671 Y69.492 E3.40075
G1 X72.240 Y69.644 E3.42028
G1 X72.790 Y69.856 E3.43981
G1 X73.316 Y70.123 E3.45933
G1 X73.810 Y70.444 E3.47886
G1 X74.268 Y70.815 E3.49839
G1 X74.685 Y71.232 E3.51792
G1 X75.056 Y71.690 E3.53745
G1 X75.377 Y72.184 E3.55697
G1 X75.644 Y72.710 E3.57650
G1 X75.856 Y73.260 E3.59603
G1 X76.008 Y73.829 E3.61556
G1 X76.100 Y74.411 E3.63508
G1 X76.131 Y75.000 E3.65461
G1 X76.100 Y75.589 E3.67414
G1 X76.008 Y76.171 E3.69367
G1 X75.856 Y76.740 E3.71319
G1 X75.644 Y77.290 E3.73272
G1 X75.377 Y77.816 E3.75225
G1 X75.056 Y78.310 E3.77178
G1 X74.685 Y78.768 E3.79130
G1 X74.268 Y79.185 E3.81083
G1 X73.810 Y79.556 E3.83036
G1 X73.316 Y79.877 E3.84989
G1 X72.790 Y80.144 E3.86941
G1 X72.240 Y80.356 E3.88894
G1 X71.671 Y80.508 E3.90847
G1 X71.089 Y80.600 E3.92800
G1 X70.500 Y80.631 E3.94752
G1 X69.911 Y80.600 E3.96705
G1 X69.329 Y80.508 E3.98658
G1 X68.760 Y80.356 E4.00611
G1 X68.210 Y80.144 E4.02563
G1 X67.684 Y79.877 E4.04516
G1 X67.190 Y79.556 E4.06469
G1 X66.732 Y79.185 E4.08422
G1 X66.315 Y78.768 E4.10374
G1 X65.944 Y78.310 E4.12327
G1 X65.623 Y77.816 E4.14280
G1 X65.356 Y77.290 E4.16233
G1 X65.144 Y76.740 E4.18185
G1 X64.992 Y76.171 E4.20138
G1 X64.900 Y75.589 E4.22091
G1 X64.869 Y75.000 E4.24044
G1 X64.900 Y74.411 E4.25996
G1 X64.992 Y73.829 E4.27949
G1 X65.144 Y73.260 E4.29902
G1 X65.356 Y72.710 E4.31855
G1 X65.623 Y72.184 E4.33807
G1 X65.944 Y71.690 E4.35760
G1 X66.315 Y71.232 E4.37713
G1 X66.690 Y70.858 E4.39467
G1 X66.910 Y71.013 F7800.000
G1 F1800.000
G1 X67.346 Y70.659 E4.41327
G1 X67.817 Y70.354 E4.43188
G1 X68.318 Y70.099 E4.45048
G1 X68.842 Y69.897 E4.46909
G1 X69.385 Y69.752 E4.48769
G1 X69.939 Y69.664 E4.50630
G1 X70.500 Y69.635 E4.52490
G1 X71.061 Y69.664 E4.54351
G1 X71.615 Y69.752 E4.56211
G1 X72.158 Y69.897 E4.58072
G1 X72.682 Y70.099 E4.59932
G1 X73.183 Y70.354 E4.61793
G1 X73.654 Y70.659 E4.63653
G1 X74.090 Y71.013 E4.65514
G1 X74.487 Y71.410 E4.67375
G1 X74.841 Y71.846 E4.69235
G1 X75.146 Y72.317 E4.71096
G1 X75.401 Y72.818 E4.72956
G1 X75.603 Y73.342 E4.74817
G1 X75.748 Y73.885 E4.76677
G1 X75.836 Y74.439 E4.78538
G1 X75.865 Y75.000 E4.80398
G1 X75.836 Y75.561 E4.82259
G1 X75.748 Y76.115 E4.84119
G1 X75.603 Y76.658 E4.85980
G1 X75.401 Y77.182 E4.87840
G1 X75.146 Y77.683 E4.89701
G1 X74.841 Y78.154 E4.91561
G1 X74.487 Y78.590 E4.93422
G1 X74.090 Y78.987 E4.95282
G1 X73.654 Y79.341 E4.97143
G1 X73.183 Y79.646 E4.99003
G1 X72.682 Y79.901 E5.00864
G1 X72.158 Y80.103 E5.02724
G1 X71.615 Y80.248 E5.04585
G1 X71.061 Y80.336 E5.06445
G1 X70.500 Y80.365 E5.08306
G1 X69.939 Y80.336 E5.10166
G1 X69.385 Y80.248 E5.12027
G1 X68.842 Y80.103 E5.13887
G1 X68.318 Y79.901 E5.15748
G1 X67.817 Y79.646 E5.17609
G1 X67.346 Y79.341 E5.19469
G1 X66.910 Y78.987 E5.21330
G1 X66.513 Y78.590 E5.23190
G1 X66.159 Y78.154 E5.25051
G1 X65.854 Y77.683 E5.26911
G1 X65.599 Y77.182 E5.28772
G1 X65.397 Y76.658 E5.30632
G1 X65.252 Y76.115 E5.32493
G1 X65.164 Y75.561 E5.34353
G1 X65.135 Y75.000 E5.36214
G1 X65.164 Y74.439 E5.38074
G1 X65.252 Y73.885 E5.39935
G1 X65.397 Y73.342 E5.41795
G1 X65.599 Y72.818 E5.43656
G1 X65.854 Y72.317 E5.45516
G1 X66.159 Y71.846 E5.47377
G1 X66.513 Y71.410 E5.49237
G1 X66.868 Y71.055 E5.50899
G1 E3.50899 F2400.00000
G92 E0
G1 X63.196 Y65.696 F7800.000
G1 E2.00000 F2400.00000
G1 F1800.000
G1 X86.804 Y65.696 E2.78211
G1 X86.804 Y84.304 E3.39856
G1 X63.196 Y84.304 E4.18067
G1 X63.196 Y65.756 E4.79514
G1 X62.931 Y65.431 F7800.000
G1 F1800.000
G1 X87.069 Y65.431 E5.59485
G1 X87.069 Y84.569 E6.22890
G1 X62.931 Y84.569 E7.02861
G1 X62.931 Y65.491 E7.66068
G1 X62.665 Y65.165 F7800.000
G1 F1800.000
G1 X87.335 Y65.165 E8.47799
G1 X87.335 Y84.835 E9.12964
G1 X62.665 Y84.835 E9.94695
G1 X62.665 Y65.225 E10.59662
G1 X63.359 Y66.065 F7800.000
G1 F1800.000
G1 X63.565 Y65.859 E10.60635
G1 X63.943 Y65.859 E10.61892
G1 X63.359 Y66.443 E10.64644
G1 X63.359 Y66.820 E10.65901
G1 X64.320 Y65.859 E10.70430
G1 X64.698 Y65.859 E10.71687
G1 X63.359 Y67.198 E10.77995
G1 X63.359 Y67.576 E10.79252
G1 X65.076 Y65.859 E10.87337
G1 X65.453 Y65.859 E10.88594
G1 X63.359 Y67.953 E10.98457
G1 X63.359 Y68.331 E10.99714
G1 X65.831 Y65.859 E11.11355
G1 X66.208 Y65.859 E11.12612
G1 X63.359 Y68.708 E11.26031
G1 X63.359 Y69.086 E11.27288
G1 X66.586 Y65.859 E11.42484
G1 X66.963 Y65.859 E11.43742
G1 X63.359 Y69.463 E11.60716
G1 X63.359 Y69.841 E11.61973
G1 X67.341 Y65.859 E11.80725
G1 X67.718 Y65.859 E11.81982
G1 X63.359 Y70.218 E12.02512
G1 X63.359 Y70.596 E12.03769
G1 X68.096 Y65.859 E12.26077
G1 X68.473 Y65.859 E12.27334
G1 X63.359 Y70.973 E12.51420
G1 X63.359 Y71.351 E12.52677
G1 X68.851 Y65.859 E12.78541
G1 X69.229 Y65.859 E12.79798
G1 X63.359 Y71.729 E13.07439
G1 X63.359 Y72.106 E13.08696
G1 X69.606 Y65.859 E13.38115
G1 X69.984 Y65.859 E13.39372
G1 X63.359 Y72.484 E13.70569
G1 X63.359 Y72.861 E13.71826
G1 X70.361 Y65.859 E14.04801
G1 X70.739 Y65.859 E14.06058
G1 X63.359 Y73.239 E14.40811
G1 X63.359 Y73.616 E14.42068
G1 X65.463 Y71.512 E14.51976
G1 X65.266 Y71.815 E14.53179
G1 X64.984 Y72.368 E14.55246
G1 X63.359 Y73.994 E14.62900
G1 X63.359 Y74.371 E14.64157
G1 X64.744 Y72.985 E14.70683
G1 X64.605 Y73.502 E14.72465
G1 X63.359 Y74.749 E14.78335
G1 X63.359 Y75.126 E14.79592
G1 X64.519 Y73.966 E14.85058
G1 X64.466 Y74.396 E14.86503
G1 X63.359 Y75.504 E14.91719
G1 X63.359 Y75.881 E14.92977
G1 X64.445 Y74.795 E14.98095
G1 X64.454 Y75.163 E14.99324
G1 X63.359 Y76.259 E15.04483
G1 X63.359 Y76.637 E15.05740
G1 X64.473 Y75.522 E15.10988
G1 X64.523 Y75.850 E15.12091
G1 X63.359 Y77.014 E15.17574
G1 X63.359 Y77.392 E15.18831
G1 X64.574 Y76.176 E15.24556
G1 X64.654 Y76.474 E15.25583
G1 X63.359 Y77.769 E15.31684
G1 X63.359 Y78.147 E15.32941
G1 X64.734 Y76.771 E15.39417
G1 X64.836 Y77.047 E15.40395
G1 X63.359 Y78.524 E15.47352
G1 X63.359 Y78.902 E15.48610
G1 X64.941 Y77.320 E15.56060
G1 X65.061 Y77.577 E15.57006
G1 X63.359 Y79.279 E15.65023
G1 X63.359 Y79.657 E15.66281
G1 X65.189 Y77.827 E15.74899
G1 X65.324 Y78.069 E15.75822
G1 X63.359 Y80.034 E15.85079
G1 X63.359 Y80.412 E15.86336
G1 X65.473 Y78.297 E15.96294
G1 X65.622 Y78.526 E15.97202
G1 X63.359 Y80.790 E16.07862
G1 X63.359 Y81.167 E16.09119
G1 X65.791 Y78.734 E16.20575
G1 X65.960 Y78.943 E16.21469
G1 X63.359 Y81.545 E16.33720
G1 X63.359 Y81.922 E16.34977
G1 X66.142 Y79.139 E16.48083
G1 X66.330 Y79.328 E16.48972
G1 X63.359 Y82.300 E16.62966
G1 X63.359 Y82.677 E16.64223
G1 X66.523 Y79.512 E16.79126
G1 X66.732 Y79.681 E16.80020
G1 X63.359 Y83.055 E16.95905
G1 X63.359 Y83.432 E16.97162
G1 X66.941 Y79.850 E17.14030
G1 X67.166 Y80.003 E17.14935
G1 X63.359 Y83.810 E17.32862
G1 X63.359 Y84.141 E17.33966
G1 X63.405 Y84.141 E17.34119
G1 X67.394 Y80.152 E17.52908
G1 X67.633 Y80.291 E17.53827
G1 X63.782 Y84.141 E17.71960
G1 X64.160 Y84.141 E17.73217
G1 X67.883 Y80.418 E17.90750
G1 X68.136 Y80.542 E17.91689
G1 X64.537 Y84.141 E18.08637
G1 X64.915 Y84.141 E18.09895
G1 X68.409 Y80.647 E18.26350
G1 X68.682 Y80.752 E18.27323
G1 X65.292 Y84.141 E18.43285
G1 X65.670 Y84.141 E18.44542
G1 X68.978 Y80.833 E18.60121
G1 X69.276 Y80.913 E18.61147
G1 X66.047 Y84.141 E18.76351
G1 X66.425 Y84.141 E18.77608
G1 X69.598 Y80.969 E18.92547
G1 X69.923 Y81.020 E18.93646
G1 X66.802 Y84.141 E19.08343
G1 X67.180 Y84.141 E19.09600
G1 X70.279 Y81.043 E19.24191
G1 X70.641 Y81.058 E19.25399
G1 X67.558 Y84.141 E19.39920
G1 X67.935 Y84.141 E19.41177
G1 X71.040 Y81.037 E19.55796
G1 X71.462 Y80.992 E19.57210
G1 X68.313 Y84.141 E19.72040
G1 X68.690 Y84.141 E19.73297
G1 X71.914 Y80.917 E19.88480
G1 X72.430 Y80.779 E19.90258
G1 X69.068 Y84.141 E20.06092
G1 X69.445 Y84.141 E20.07349
G1 X73.028 Y80.558 E20.24221
G1 X73.685 Y80.234 E20.26659
G1 X73.814 Y80.150 E20.27172
G1 X69.823 Y84.141 E20.45965
G1 X70.200 Y84.141 E20.47223
G1 X86.641 Y67.700 E21.24643
G1 X86.641 Y68.078 E21.25900
G1 X70.578 Y84.141 E22.01542
G1 X70.955 Y84.141 E22.02800
G1 X86.641 Y68.455 E22.76664
G1 X86.641 Y68.833 E22.77921
G1 X71.333 Y84.141 E23.50008
G1 X71.710 Y84.141 E23.51265
G1 X86.641 Y69.211 E24.21574
G1 X86.641 Y69.588 E24.22831
G1 X72.088 Y84.141 E24.91363
G1 X72.466 Y84.141 E24.92620
G1 X86.641 Y69.966 E25.59373
G1 X86.641 Y70.343 E25.60630
G1 X72.843 Y84.141 E26.25606
G1 X73.221 Y84.141 E26.26863
G1 X86.641 Y70.721 E26.90060
G1 X86.641 Y71.098 E26.91317
G1 X73.598 Y84.141 E27.52737
G1 X73.976 Y84.141 E27.53994
G1 X86.641 Y71.476 E28.13636
G1 X86.641 Y71.853 E28.14894
G1 X74.353 Y84.141 E28.72758
G1 X74.731 Y84.141 E28.74015
G1 X86.641 Y72.231 E29.30101
G1 X86.641 Y72.608 E29.31358
G1 X75.108 Y84.141 E29.85667
G1 X75.486 Y84.141 E29.86924
G1 X86.641 Y72.986 E30.39455
G1 X86.641 Y73.363 E30.40712
G1 X75.863 Y84.141 E30.91464
G1 X76.241 Y84.141 E30.92722
G1 X86.641 Y73.741 E31.41697
G1 X86.641 Y74.119 E31.42954
G1 X76.619 Y84.141 E31.90151
G1 X76.996 Y84.141 E31.91408
G1 X86.641 Y74.496 E32.36827
G1 X86.641 Y74.874 E32.38084
G1 X77.374 Y84.141 E32.81726
G1 X77.751 Y84.141 E32.82983
G1 X86.641 Y75.251 E33.24847
G1 X86.641 Y75.629 E33.26104
G1 X78.129 Y84.141 E33.66190
G1 X78.506 Y84.141 E33.67447
G1 X86.641 Y76.006 E34.05755
G1 X86.641 Y76.384 E34.07012
G1 X78.884 Y84.141 E34.43542
G1 X79.261 Y84.141 E34.44799
G1 X86.641 Y76.761 E34.79552
G1 X86.641 Y77.139 E34.80809
G1 X79.639 Y84.141 E35.13783
G1 X80.016 Y84.141 E35.15040
G1 X86.641 Y77.516 E35.46237
G1 X86.641 Y77.894 E35.47494
G1 X80.394 Y84.141 E35.76913
G1 X80.772 Y84.141 E35.78170
G1 X86.641 Y78.272 E36.05811
G1 X86.641 Y78.649 E36.07068
G1 X81.149 Y84.141 E36.32931
G1 X81.527 Y84.141 E36.34189
G1 X86.641 Y79.027 E36.58274
G1 X86.641 Y79.404 E36.59531
G1 X81.904 Y84.141 E36.81839
G1 X82.282 Y84.141 E36.83096
G1 X86.641 Y79.782 E37.03625
G1 X86.641 Y80.159 E37.04882
G1 X82.659 Y84.141 E37.23634
G1 X83.037 Y84.141 E37.24891
G1 X86.641 Y80.537 E37.41865
G1 X86.641 Y80.914 E37.43123
G1 X83.414 Y84.141 E37.58319
G1 X83.792 Y84.141 E37.59576
G1 X86.641 Y81.292 E37.72994
G1 X86.641 Y81.669 E37.74251
G1 X84.169 Y84.141 E37.85892
G1 X84.547 Y84.141 E37.87149
G1 X86.641 Y82.047 E37.97012
G1 X86.641 Y82.425 E37.98269
G1 X84.925 Y84.141 E38.06354
G1 X85.302 Y84.141 E38.07611
G1 X86.641 Y82.802 E38.13918
G1 X86.641 Y83.180 E38.15175
G1 X85.680 Y84.141 E38.19704
G1 X86.057 Y84.141 E38.20961
G1 X86.641 Y83.557 E38.23713
G1 X86.641 Y83.935 E38.24970
G1 X86.435 Y84.141 E38.25943
G1 E36.25943 F2400.00000
G92 E0
G1 X75.650 Y78.314 F7800.000
G1 E2.00000 F2400.00000
G1 F1800.000
G1 X86.641 Y67.323 E2.51756
G1 X86.641 Y66.945 E2.53014
G1 X76.058 Y77.528 E3.02848
G1 X76.279 Y76.930 E3.04971
G1 X86.641 Y66.568 E3.53767
G1 X86.641 Y66.190 E3.55024
G1 X76.417 Y76.414 E4.03170
G1 X76.492 Y75.962 E4.04697
G1 X86.596 Y65.859 E4.52273
G1 X86.218 Y65.859 E4.53530
G1 X76.537 Y75.540 E4.99118
G1 X76.558 Y75.141 E5.00446
G1 X85.840 Y65.859 E5.44157
G1 X85.463 Y65.859 E5.45414
G1 X76.543 Y74.779 E5.87418
G1 X76.520 Y74.423 E5.88603
G1 X85.085 Y65.859 E6.28935
G1 X84.708 Y65.859 E6.30192
G1 X76.469 Y74.098 E6.68989
G1 X76.413 Y73.776 E6.70076
G1 X84.330 Y65.859 E7.07358
G1 X83.953 Y65.859 E7.08615
G1 X76.333 Y73.478 E7.44496
G1 X76.252 Y73.182 E7.45519
G1 X83.575 Y65.859 E7.80004
G1 X83.198 Y65.859 E7.81261
G1 X76.147 Y72.909 E8.14462
G1 X76.042 Y72.636 E8.15435
G1 X82.820 Y65.859 E8.47352
G1 X82.443 Y65.859 E8.48609
G1 X75.918 Y72.383 E8.79332
G1 X75.791 Y72.133 E8.80266
G1 X82.065 Y65.859 E9.09811
G1 X81.687 Y65.859 E9.11068
G1 X75.652 Y71.894 E9.39491
G1 X75.503 Y71.666 E9.40400
G1 X81.310 Y65.859 E9.67745
G1 X80.932 Y65.859 E9.69002
G1 X75.350 Y71.441 E9.95288
G1 X75.181 Y71.232 E9.96182
G1 X80.555 Y65.859 E10.21485
G1 X80.177 Y65.859 E10.22742
G1 X75.012 Y71.023 E10.47063
G1 X74.828 Y70.830 E10.47952
G1 X79.800 Y65.859 E10.71364
G1 X79.422 Y65.859 E10.72621
G1 X74.639 Y70.642 E10.95145
G1 X74.443 Y70.460 E10.96034
G1 X79.045 Y65.859 E11.17703
G1 X78.667 Y65.859 E11.18961
G1 X74.234 Y70.291 E11.39834
G1 X74.026 Y70.122 E11.40728
G1 X78.290 Y65.859 E11.60806
G1 X77.912 Y65.859 E11.62063
G1 X73.797 Y69.973 E11.81439
G1 X73.569 Y69.824 E11.82347
G1 X77.534 Y65.859 E12.01023
G1 X77.157 Y65.859 E12.02280
G1 X73.327 Y69.689 E12.20316
G1 X73.077 Y69.561 E12.21250
G1 X76.779 Y65.859 E12.38686
G1 X76.402 Y65.859 E12.39943
G1 X72.820 Y69.441 E12.56812
G1 X72.547 Y69.336 E12.57785
G1 X76.024 Y65.859 E12.74160
G1 X75.647 Y65.859 E12.75417
G1 X72.271 Y69.234 E12.91311
G1 X71.974 Y69.154 E12.92338
G1 X75.269 Y65.859 E13.07856
G1 X74.892 Y65.859 E13.09113
G1 X71.676 Y69.074 E13.24257
G1 X71.350 Y69.023 E13.25356
G1 X74.514 Y65.859 E13.40256
G1 X74.137 Y65.859 E13.41513
G1 X71.022 Y68.973 E13.56179
G1 X70.663 Y68.954 E13.57375
G1 X73.759 Y65.859 E13.71952
G1 X73.381 Y65.859 E13.73209
G1 X70.295 Y68.945 E13.87745
G1 X69.896 Y68.966 E13.89074
G1 X73.004 Y65.859 E14.03708
G1 X72.626 Y65.859 E14.04965
G1 X69.466 Y69.019 E14.19849
G1 X69.002 Y69.105 E14.21418
G1 X72.249 Y65.859 E14.36706
G1 X71.871 Y65.859 E14.37963
G1 X68.485 Y69.244 E14.53907
G1 X67.868 Y69.484 E14.56111
G1 X71.494 Y65.859 E14.73183
G1 X71.116 Y65.859 E14.74440
G1 X67.012 Y69.963 E14.93766
G1 X66.774 Y70.117 E14.94711
G1 X66.273 Y70.523 E14.96859
G1 X65.817 Y70.979 E14.99007
G1 X65.411 Y71.481 E15.01155
G1 X65.256 Y71.719 E15.02101
M106 S255
G1 Z0.500 F7800.000
G1 E13.02101 F2400.00000
G92 E0
G1 X67.045 Y70.245 F7800.000
G1 E2.00000 F2400.00000
G1 F1800.000
G1 X67.561 Y69.909 E2.02645
G1 X68.109 Y69.630 E2.05291
G1 X68.684 Y69.410 E2.07936
G1 X69.278 Y69.250 E2.10581
G1 X69.886 Y69.154 E2.13227
