; generated by Slic3r 1.3.1-dev (Build adea0d9) on 2019-12-16 at 00:50:03

; external perimeters extrusion width = 0.44mm (2.86mm^3/s)
; perimeters extrusion width = 0.56mm (4.14mm^3/s)
; infill extrusion width = 0.50mm (3.66mm^3/s)
; solid infill extrusion width = 0.56mm (3.10mm^3/s)
; top infill extrusion width = 0.56mm (3.10mm^3/s)

M107
G92 E0
;D3D:START:START
T0
M104 S215 T0

G21
G90
M107
T0
G28
G29
M109 T0 S215 T0
G0 F3000
M107
T0
G92 E0
G0 X0 Y149 Z0.1 F3600
G1 Y49 E6.5 F1200
G0 Z1
G92 E0
; Filament gcode

G21 ; set units to millimeters
G90 ; use absolute coordinates
M82 ; use absolute distances for extrusion
G92 E0
G1 Z0.300 F7800.000
G1 E-2.00000 F2400.00000
G92 E0
G1 X69.446 Y60.581 F7800.000
G1 E2.00000 F2400.00000
G1 F1800.000
G1 X80.554 Y60.581 E2.36799
G1 X80.554 Y84.589 E3.16334
G1 X69.446 Y84.589 E3.53133
G1 X69.446 Y60.641 E4.32470
G1 X69.181 Y60.316 F7800.000
G1 F1800.000
G1 X80.819 Y60.316 E4.71029
G1 X80.819 Y84.854 E5.52325
G1 X69.181 Y84.854 E5.90883
G1 X69.181 Y60.376 E6.71980
G1 X68.915 Y60.050 F7800.000
G1 F1800.000
G1 X81.085 Y60.050 E7.12299
G1 X81.085 Y85.120 E7.95355
G1 X68.915 Y85.120 E8.35673
G1 X68.915 Y60.110 E9.18530
G1 X69.815 Y60.744 F7800.000
G1 F1800.000
G1 X69.609 Y60.950 E9.19506
G1 X69.609 Y61.329 E9.20769
G1 X70.194 Y60.744 E9.23530
G1 X70.572 Y60.744 E9.24793
G1 X69.609 Y61.707 E9.29340
G1 X69.609 Y62.085 E9.30603
G1 X70.950 Y60.744 E9.36935
G1 X71.329 Y60.744 E9.38198
G1 X69.609 Y62.464 E9.46316
G1 X69.609 Y62.842 E9.47578
G1 X71.707 Y60.744 E9.57482
G1 X72.086 Y60.744 E9.58745
G1 X69.609 Y63.221 E9.70434
G1 X69.609 Y63.599 E9.71696
G1 X72.464 Y60.744 E9.85171
G1 X72.842 Y60.744 E9.86434
G1 X69.609 Y63.977 E10.01694
G1 X69.609 Y64.356 E10.02956
G1 X73.221 Y60.744 E10.20002
G1 X73.599 Y60.744 E10.21265
G1 X69.609 Y64.734 E10.40096
G1 X69.609 Y65.112 E10.41358
G1 X73.977 Y60.744 E10.61975
G1 X74.356 Y60.744 E10.63238
G1 X69.609 Y65.491 E10.85640
G1 X69.609 Y65.869 E10.86902
G1 X74.734 Y60.744 E11.11090
G1 X75.112 Y60.744 E11.12353
G1 X69.609 Y66.247 E11.38326
G1 X69.609 Y66.626 E11.39588
G1 X75.491 Y60.744 E11.67347
G1 X75.869 Y60.744 E11.68610
G1 X69.609 Y67.004 E11.98154
G1 X69.609 Y67.382 E11.99417
G1 X76.247 Y60.744 E12.30746
G1 X76.626 Y60.744 E12.32009
G1 X69.609 Y67.761 E12.65124
G1 X69.609 Y68.139 E12.66387
G1 X77.004 Y60.744 E13.01288
G1 X77.383 Y60.744 E13.02550
G1 X69.609 Y68.518 E13.39236
G1 X69.609 Y68.896 E13.40499
G1 X77.761 Y60.744 E13.78971
G1 X78.139 Y60.744 E13.80233
G1 X69.609 Y69.274 E14.20491
G1 X69.609 Y69.653 E14.21753
G1 X78.518 Y60.744 E14.63796
G1 X78.896 Y60.744 E14.65059
G1 X69.609 Y70.031 E15.08887
G1 X69.609 Y70.409 E15.10150
G1 X79.274 Y60.744 E15.55763
G1 X79.653 Y60.744 E15.57026
G1 X69.609 Y70.788 E16.04425
G1 X69.609 Y71.166 E16.05688
G1 X80.031 Y60.744 E16.54873
G1 X80.391 Y60.744 E16.56076
G1 X80.391 Y60.761 E16.56135
G1 X69.609 Y71.544 E17.07021
G1 X69.609 Y71.923 E17.08284
G1 X80.391 Y61.140 E17.59169
G1 X80.391 Y61.518 E17.60432
G1 X69.609 Y72.301 E18.11318
G1 X69.609 Y72.679 E18.12580
G1 X80.391 Y61.897 E18.63466
G1 X80.391 Y62.275 E18.64728
G1 X69.609 Y73.058 E19.15614
G1 X69.609 Y73.436 E19.16877
G1 X80.391 Y62.653 E19.67762
G1 X80.391 Y63.032 E19.69025
G1 X69.609 Y73.815 E20.19911
G1 X69.609 Y74.193 E20.21173
G1 X80.391 Y63.410 E20.72059
G1 X80.391 Y63.788 E20.73321
G1 X69.609 Y74.571 E21.24207
G1 X69.609 Y74.950 E21.25470
G1 X80.391 Y64.167 E21.76355
G1 X80.391 Y64.545 E21.77618
G1 X69.609 Y75.328 E22.28504
G1 X69.609 Y75.706 E22.29766
G1 X80.391 Y64.923 E22.80652
G1 X80.391 Y65.302 E22.81914
G1 X69.609 Y76.085 E23.32800
G1 X69.609 Y76.463 E23.34063
G1 X80.391 Y65.680 E23.84948
G1 X80.391 Y66.059 E23.86211
G1 X69.609 Y76.841 E24.37097
G1 X69.609 Y77.220 E24.38359
G1 X80.391 Y66.437 E24.89245
G1 X80.391 Y66.815 E24.90507
G1 X69.609 Y77.598 E25.41393
G1 X69.609 Y77.977 E25.42656
G1 X80.391 Y67.194 E25.93541
G1 X80.391 Y67.572 E25.94804
G1 X69.609 Y78.355 E26.45690
G1 X69.609 Y78.733 E26.46952
G1 X80.391 Y67.950 E26.97838
G1 X80.391 Y68.329 E26.99100
G1 X69.609 Y79.112 E27.49986
G1 X69.609 Y79.490 E27.51249
G1 X80.391 Y68.707 E28.02134
G1 X80.391 Y69.085 E28.03397
G1 X69.609 Y79.868 E28.54283
G1 X69.609 Y80.247 E28.55545
G1 X80.391 Y69.464 E29.06431
G1 X80.391 Y69.842 E29.07693
G1 X69.609 Y80.625 E29.58579
G1 X69.609 Y81.003 E29.59842
G1 X80.391 Y70.220 E30.10727
G1 X80.391 Y70.599 E30.11990
G1 X69.609 Y81.382 E30.62876
G1 X69.609 Y81.760 E30.64138
G1 X80.391 Y70.977 E31.15024
G1 X80.391 Y71.356 E31.16286
G1 X69.609 Y82.138 E31.67172
G1 X69.609 Y82.517 E31.68435
G1 X80.391 Y71.734 E32.19320
G1 X80.391 Y72.112 E32.20583
G1 X69.609 Y82.895 E32.71469
G1 X69.609 Y83.274 E32.72731
G1 X80.391 Y72.491 E33.23617
G1 X80.391 Y72.869 E33.24879
G1 X69.609 Y83.652 E33.75765
G1 X69.609 Y84.030 E33.77028
G1 X80.391 Y73.247 E34.27913
G1 X80.391 Y73.626 E34.29176
G1 X69.609 Y84.409 E34.80062
G1 X69.609 Y84.426 E34.80121
G1 X69.969 Y84.426 E34.81324
G1 X80.391 Y74.004 E35.30509
G1 X80.391 Y74.382 E35.31771
G1 X70.347 Y84.426 E35.79170
G1 X70.726 Y84.426 E35.80433
G1 X80.391 Y74.761 E36.26046
G1 X80.391 Y75.139 E36.27309
G1 X71.104 Y84.426 E36.71137
G1 X71.482 Y84.426 E36.72399
G1 X80.391 Y75.517 E37.14442
G1 X80.391 Y75.896 E37.15704
G1 X71.861 Y84.426 E37.55961
G1 X72.239 Y84.426 E37.57224
G1 X80.391 Y76.274 E37.95695
G1 X80.391 Y76.653 E37.96957
G1 X72.618 Y84.426 E38.33643
G1 X72.996 Y84.426 E38.34906
G1 X80.391 Y77.031 E38.69806
G1 X80.391 Y77.409 E38.71069
G1 X73.374 Y84.426 E39.04184
G1 X73.753 Y84.426 E39.05446
G1 X80.391 Y77.788 E39.36776
G1 X80.391 Y78.166 E39.38038
G1 X74.131 Y84.426 E39.67582
G1 X74.509 Y84.426 E39.68844
G1 X80.391 Y78.544 E39.96603
G1 X80.391 Y78.923 E39.97865
G1 X74.888 Y84.426 E40.23838
G1 X75.266 Y84.426 E40.25101
G1 X80.391 Y79.301 E40.49288
G1 X80.391 Y79.679 E40.50551
G1 X75.644 Y84.426 E40.72952
G1 X76.023 Y84.426 E40.74215
G1 X80.391 Y80.058 E40.94831
G1 X80.391 Y80.436 E40.96094
G1 X76.401 Y84.426 E41.14924
G1 X76.779 Y84.426 E41.16187
G1 X80.391 Y80.814 E41.33232
G1 X80.391 Y81.193 E41.34495
G1 X77.158 Y84.426 E41.49755
G1 X77.536 Y84.426 E41.51017
G1 X80.391 Y81.571 E41.64491
G1 X80.391 Y81.950 E41.65754
G1 X77.915 Y84.426 E41.77443
G1 X78.293 Y84.426 E41.78705
G1 X80.391 Y82.328 E41.88608
G1 X80.391 Y82.706 E41.89871
G1 X78.671 Y84.426 E41.97989
G1 X79.050 Y84.426 E41.99251
G1 X80.391 Y83.085 E42.05583
G1 X80.391 Y83.463 E42.06846
G1 X79.428 Y84.426 E42.11393
G1 X79.806 Y84.426 E42.12655
G1 X80.391 Y83.841 E42.15416
G1 X80.391 Y84.220 E42.16679
G1 X80.185 Y84.426 E42.17654
M106 S255
G1 Z0.500 F7800.000
G1 E40.17654 F2400.00000
G92 E0
G1 X69.427 Y60.562 F7800.000
G1 E2.00000 F2400.00000
G1 F2400.000
G1 X80.573 Y60.562 E2.47922
G1 X80.573 Y84.608 E3.51308
G1 X69.427 Y84.608 E3.99230
G1 X69.427 Y60.622 E5.02358
G1 X68.970 Y60.105 F7800.000
G1 F2160.000
G1 X81.030 Y60.105 E5.42177
G1 X81.030 Y85.065 E6.24588
G1 X68.970 Y85.065 E6.64407
G1 X68.970 Y60.165 E7.46620
G1 E5.46620 F2400.00000
G92 E0
G1 X80.257 Y61.280 F7800.000
G1 E2.00000 F2400.00000
G1 F1800.000
G1 X79.855 Y60.878 E2.02462
G1 X79.119 Y60.878 E2.05648
G1 X80.257 Y62.016 E2.12616
G1 X80.257 Y62.753 E2.15801
G1 X78.382 Y60.878 E2.27274
G1 X77.646 Y60.878 E2.30459
G1 X80.257 Y63.489 E2.46437
G1 X80.257 Y64.225 E2.49623
G1 X76.910 Y60.878 E2.70105
G1 X76.174 Y60.878 E2.73291
G1 X80.257 Y64.961 E2.98279
G1 X80.257 Y65.697 E3.01464
G1 X75.438 Y60.878 E3.30957
G1 X74.702 Y60.878 E3.34143
G1 X80.257 Y66.433 E3.68141
G1 X80.257 Y67.169 E3.71326
G1 X73.966 Y60.878 E4.09829
G1 X73.230 Y60.878 E4.13015
G1 X80.257 Y67.905 E4.56023
G1 X80.257 Y68.641 E4.59209
G1 X72.494 Y60.878 E5.06722
G1 X71.758 Y60.878 E5.09907
G1 X80.257 Y69.377 E5.61926
G1 X80.257 Y70.113 E5.65111
G1 X71.022 Y60.878 E6.21635
G1 X70.286 Y60.878 E6.24820
G1 X80.257 Y70.849 E6.85849
G1 X80.257 Y71.585 E6.89034
G1 X69.743 Y61.071 E7.53384
G1 X69.743 Y61.808 E7.56570
G1 X80.257 Y72.321 E8.20920
G1 X80.257 Y73.057 E8.24105
G1 X69.743 Y62.544 E8.88455
G1 X69.743 Y63.280 E8.91641
G1 X80.257 Y73.794 E9.55990
G1 X80.257 Y74.530 E9.59176
G1 X69.743 Y64.016 E10.23526
G1 X69.743 Y64.752 E10.26711
G1 X80.257 Y75.266 E10.91061
G1 X80.257 Y76.002 E10.94247
G1 X69.743 Y65.488 E11.58597
G1 X69.743 Y66.224 E11.61782
G1 X80.257 Y76.738 E12.26132
G1 X80.257 Y77.474 E12.29318
G1 X69.743 Y66.960 E12.93668
G1 X69.743 Y67.696 E12.96853
G1 X80.257 Y78.210 E13.61203
G1 X80.257 Y78.946 E13.64389
G1 X69.743 Y68.432 E14.28739
G1 X69.743 Y69.168 E14.31924
G1 X80.257 Y79.682 E14.96274
G1 X80.257 Y80.418 E14.99460
G1 X69.743 Y69.904 E15.63809
G1 X69.743 Y70.640 E15.66995
G1 X80.257 Y81.154 E16.31345
G1 X80.257 Y81.890 E16.34530
G1 X69.743 Y71.376 E16.98880
G1 X69.743 Y72.112 E17.02066
G1 X80.257 Y82.626 E17.66416
G1 X80.257 Y83.362 E17.69601
G1 X69.743 Y72.849 E18.33951
G1 X69.743 Y73.585 E18.37137
G1 X80.257 Y84.099 E19.01487
G1 X80.257 Y84.292 E19.02324
G1 X79.714 Y84.292 E19.04672
G1 X69.743 Y74.321 E19.65701
G1 X69.743 Y75.057 E19.68886
G1 X78.978 Y84.292 E20.25410
G1 X78.242 Y84.292 E20.28596
G1 X69.743 Y75.793 E20.80614
G1 X69.743 Y76.529 E20.83800
G1 X77.506 Y84.292 E21.31313
G1 X76.770 Y84.292 E21.34499
G1 X69.743 Y77.265 E21.77507
G1 X69.743 Y78.001 E21.80692
G1 X76.034 Y84.292 E22.19196
G1 X75.298 Y84.292 E22.22381
G1 X69.743 Y78.737 E22.56379
G1 X69.743 Y79.473 E22.59565
G1 X74.562 Y84.292 E22.89058
G1 X73.826 Y84.292 E22.92244
G1 X69.743 Y80.209 E23.17232
G1 X69.743 Y80.945 E23.20417
G1 X73.090 Y84.292 E23.40900
G1 X72.354 Y84.292 E23.44086
G1 X69.743 Y81.681 E23.60064
G1 X69.743 Y82.417 E23.63249
G1 X71.618 Y84.292 E23.74722
G1 X70.881 Y84.292 E23.77908
G1 X69.743 Y83.154 E23.84875
G1 X69.743 Y83.890 E23.88061
G1 X70.145 Y84.292 E23.90523
G1 Z0.700 F7800.000
G1 E21.90523 F2400.00000
G92 E0
G1 X69.427 Y60.562 F7800.000
G1 E2.00000 F2400.00000
G1 F2400.000
G1 X80.573 Y60.562 E2.47922
G1 X80.573 Y84.608 E3.51308
G1 X69.427 Y84.608 E3.99230
G1 X69.427 Y60.622 E5.02358
G1 X68.970 Y60.105 F7800.000
G1 F2160.000
G1 X81.030 Y60.105 E5.42177
G1 X81.030 Y85.065 E6.24588
G1 X68.970 Y85.065 E6.64407
G1 X68.970 Y60.165 E7.46620
G1 X69.743 Y61.280 F7800.000
G1 F1800.000
G1 X70.145 Y60.878 E7.49081
G1 X70.881 Y60.878 E7.52267
G1 X69.743 Y62.016 E7.59235
G1 X69.743 Y62.753 E7.62420
G1 X71.618 Y60.878 E7.73893
G1 X72.354 Y60.878 E7.77079
G1 X69.743 Y63.489 E7.93057
G1 X69.743 Y64.225 E7.96242
G1 X73.090 Y60.878 E8.16725
G1 X73.826 Y60.878 E8.19911
G1 X69.743 Y64.961 E8.44899
G1 X69.743 Y65.697 E8.48084
G1 X74.562 Y60.878 E8.77577
G1 X75.298 Y60.878 E8.80763
G1 X69.743 Y66.433 E9.14761
G1 X69.743 Y67.169 E9.17947
G1 X76.034 Y60.878 E9.56450
G1 X76.770 Y60.878 E9.59636
G1 X69.743 Y67.905 E10.02644
G1 X69.743 Y68.641 E10.05829
G1 X77.506 Y60.878 E10.53343
G1 X78.242 Y60.878 E10.56528
G1 X69.743 Y69.377 E11.08547
G1 X69.743 Y70.113 E11.11732
G1 X78.978 Y60.878 E11.68256
G1 X79.714 Y60.878 E11.71442
G1 X69.743 Y70.849 E12.32470
G1 X69.743 Y71.585 E12.35656
G1 X80.257 Y61.071 E13.00006
G1 X80.257 Y61.808 E13.03191
G1 X69.743 Y72.321 E13.67541
G1 X69.743 Y73.058 E13.70727
G1 X80.257 Y62.544 E14.35077
G1 X80.257 Y63.280 E14.38262
G1 X69.743 Y73.794 E15.02612
G1 X69.743 Y74.530 E15.05798
G1 X80.257 Y64.016 E15.70147
G1 X80.257 Y64.752 E15.73333
G1 X69.743 Y75.266 E16.37683
G1 X69.743 Y76.002 E16.40868
G1 X80.257 Y65.488 E17.05218
G1 X80.257 Y66.224 E17.08404
G1 X69.743 Y76.738 E17.72754
G1 X69.743 Y77.474 E17.75939
G1 X80.257 Y66.960 E18.40289
G1 X80.257 Y67.696 E18.43475
G1 X69.743 Y78.210 E19.07825
G1 X69.743 Y78.946 E19.11010
G1 X80.257 Y68.432 E19.75360
G1 X80.257 Y69.168 E19.78546
G1 X69.743 Y79.682 E20.42895
G1 X69.743 Y80.418 E20.46081
G1 X80.257 Y69.904 E21.10431
G1 X80.257 Y70.640 E21.13616
G1 X69.743 Y81.154 E21.77966
G1 X69.743 Y81.890 E21.81152
G1 X80.257 Y71.376 E22.45502
G1 X80.257 Y72.113 E22.48687
G1 X69.743 Y82.626 E23.13037
G1 X69.743 Y83.362 E23.16223
G1 X80.257 Y72.849 E23.80573
G1 X80.257 Y73.585 E23.83758
G1 X69.743 Y84.099 E24.48108
G1 X69.743 Y84.292 E24.48945
G1 X70.286 Y84.292 E24.51294
G1 X80.257 Y74.321 E25.12322
G1 X80.257 Y75.057 E25.15508
G1 X71.022 Y84.292 E25.72031
G1 X71.758 Y84.292 E25.75217
G1 X80.257 Y75.793 E26.27235
G1 X80.257 Y76.529 E26.30420
G1 X72.494 Y84.292 E26.77934
G1 X73.230 Y84.292 E26.81119
G1 X80.257 Y77.265 E27.24127
G1 X80.257 Y78.001 E27.27313
G1 X73.966 Y84.292 E27.65816
G1 X74.702 Y84.292 E27.69002
G1 X80.257 Y78.737 E28.03000
G1 X80.257 Y79.473 E28.06185
G1 X75.438 Y84.292 E28.35678
G1 X76.174 Y84.292 E28.38864
G1 X80.257 Y80.209 E28.63851
G1 X80.257 Y80.945 E28.67037
G1 X76.910 Y84.292 E28.87520
G1 X77.646 Y84.292 E28.90705
G1 X80.257 Y81.681 E29.06683
G1 X80.257 Y82.417 E29.09869
G1 X78.382 Y84.292 E29.21341
G1 X79.119 Y84.292 E29.24527
G1 X80.257 Y83.154 E29.31494
G1 X80.257 Y83.890 E29.34680
G1 X79.855 Y84.292 E29.37142
G1 Z0.900 F7800.000
G1 E27.37142 F2400.00000
G92 E0
G1 X69.427 Y60.562 F7800.000
G1 E2.00000 F2400.00000
G1 F2400.000
G1 X80.573 Y60.562 E2.47922
G1 X80.573 Y84.608 E3.51308
G1 X69.427 Y84.608 E3.99230
G1 X69.427 Y60.622 E5.02358
G1 X68.970 Y60.105 F7800.000
G1 F2160.000
G1 X81.030 Y60.105 E5.42177
G1 X81.030 Y85.065 E6.24588
G1 X68.970 Y85.065 E6.64407
G1 X68.970 Y60.165 E7.46620
G1 E5.46620 F2400.00000
G92 E0
G1 X80.257 Y61.280 F7800.000
G1 E2.00000 F2400.00000
G1 F1800.000
G1 X79.855 Y60.878 E2.02462
G1 X79.119 Y60.878 E2.05648
G1 X80.257 Y62.016 E2.12616
G1 X80.257 Y62.753 E2.15801
G1 X78.382 Y60.878 E2.27274
G1 X77.646 Y60.878 E2.30459
G1 X80.257 Y63.489 E2.46437
G1 X80.257 Y64.225 E2.49623
G1 X76.910 Y60.878 E2.70105
G1 X76.174 Y60.878 E2.73291
G1 X80.257 Y64.961 E2.98279
G1 X80.257 Y65.697 E3.01464
G1 X75.438 Y60.878 E3.30957
G1 X74.702 Y60.878 E3.34143
G1 X80.257 Y66.433 E3.68141
G1 X80.257 Y67.169 E3.71326
G1 X73.966 Y60.878 E4.09829
G1 X73.230 Y60.878 E4.13015
G1 X80.257 Y67.905 E4.56023
G1 X80.257 Y68.641 E4.59209
G1 X72.494 Y60.878 E5.06722
G1 X71.758 Y60.878 E5.09907
G1 X80.257 Y69.377 E5.61926
G1 X80.257 Y70.113 E5.65111
G1 X71.022 Y60.878 E6.21635
G1 X70.286 Y60.878 E6.24820
G1 X80.257 Y70.849 E6.85849
G1 X80.257 Y71.585 E6.89034
G1 X69.743 Y61.071 E7.53384
G1 X69.743 Y61.808 E7.56570
G1 X80.257 Y72.321 E8.20920
G1 X80.257 Y73.057 E8.24105
G1 X69.743 Y62.544 E8.88455
G1 X69.743 Y63.280 E8.91641
G1 X80.257 Y73.794 E9.55990
G1 X80.257 Y74.530 E9.59176
G1 X69.743 Y64.016 E10.23526
G1 X69.743 Y64.752 E10.26711
G1 X80.257 Y75.266 E10.91061
G1 X80.257 Y76.002 E10.94247
G1 X69.743 Y65.488 E11.58597
G1 X69.743 Y66.224 E11.61782
G1 X80.257 Y76.738 E12.26132
G1 X80.257 Y77.474 E12.29318
G1 X69.743 Y66.960 E12.93668
G1 X69.743 Y67.696 E12.96853
G1 X80.257 Y78.210 E13.61203
G1 X80.257 Y78.946 E13.64389
G1 X69.743 Y68.432 E14.28739
G1 X69.743 Y69.168 E14.31924
G1 X80.257 Y79.682 E14.96274
G1 X80.257 Y80.418 E14.99460
G1 X69.743 Y69.904 E15.63809
G1 X69.743 Y70.640 E15.66995
G1 X80.257 Y81.154 E16.31345
G1 X80.257 Y81.890 E16.34530
G1 X69.743 Y71.376 E16.98880
G1 X69.743 Y72.112 E17.02066
G1 X80.257 Y82.626 E17.66416
G1 X80.257 Y83.362 E17.69601
G1 X69.743 Y72.849 E18.33951
G1 X69.743 Y73.585 E18.37137
G1 X80.257 Y84.099 E19.01487
G1 X80.257 Y84.292 E19.02324
G1 X79.714 Y84.292 E19.04672
G1 X69.743 Y74.321 E19.65701
G1 X69.743 Y75.057 E19.68886
G1 X78.978 Y84.292 E20.25410
G1 X78.242 Y84.292 E20.28596
G1 X69.743 Y75.793 E20.80614
G1 X69.743 Y76.529 E20.83800
G1 X77.506 Y84.292 E21.31313
G1 X76.770 Y84.292 E21.34499
G1 X69.743 Y77.265 E21.77507
G1 X69.743 Y78.001 E21.80692
G1 X76.034 Y84.292 E22.19196
G1 X75.298 Y84.292 E22.22381
G1 X69.743 Y78.737 E22.56379
G1 X69.743 Y79.473 E22.59565
G1 X74.562 Y84.292 E22.89058
G1 X73.826 Y84.292 E22.92244
G1 X69.743 Y80.209 E23.17232
G1 X69.743 Y80.945 E23.20417
G1 X73.090 Y84.292 E23.40900
G1 X72.354 Y84.292 E23.44086
G1 X69.743 Y81.681 E23.60064
G1 X69.743 Y82.417 E23.63249
G1 X71.618 Y84.292 E23.74722
G1 X70.881 Y84.292 E23.77908
G1 X69.743 Y83.154 E23.84875
G1 X69.743 Y83.890 E23.88061
G1 X70.145 Y84.292 E23.90523
G1 Z1.100 F7800.000
G1 E21.90523 F2400.00000
G92 E0
G1 X69.427 Y60.562 F7800.000
G1 E2.00000 F2400.00000
G1 F2400.000
G1 X80.573 Y60.562 E2.47922
G1 X80.573 Y84.608 E3.51308
