; Gcode updated with 'stl_info' on 2019-12-09 21:16:03.945891

; stl_min_x = -24.1299991607666
; stl_max_x = 47.459999084472656
; stl_min_y = -24.082399368286133
; stl_max_y = 24.082399368286133
; stl_min_z = 0.0

; generated by Slic3r 1.3.1-dev (Build adea0d9) on 2019-12-09 at 21:16:03

; external perimeters extrusion width = 0.44mm (2.86mm^3/s)
; perimeters extrusion width = 0.56mm (4.14mm^3/s)
; infill extrusion width = 0.50mm (3.66mm^3/s)
; solid infill extrusion width = 0.56mm (3.10mm^3/s)
; top infill extrusion width = 0.56mm (3.10mm^3/s)

M107
G92 E0
;D3D:START:START
T0
M104 S215 T0

G21
G90
M107
T0
G28
G29
M109 T0 S215 T0
G0 F3000
M107
T0
G92 E0
G0 X0 Y149 Z0.1 F3600
G1 Y49 E6.5 F1200
G0 Z1
G92 E0
; Filament gcode

G21 ; set units to millimeters
G90 ; use absolute coordinates
M82 ; use absolute distances for extrusion
G92 E0
G1 Z0.300 F7800.000
G1 E-2.00000 F2400.00000
G92 E0
G1 X92.101 Y72.650 F7800.000
G1 E2.00000 F2400.00000
G1 F1800.000
G1 X92.421 Y72.263 E2.01663
G1 X92.787 Y71.920 E2.03327
G1 X93.193 Y71.625 E2.04990
G1 X93.633 Y71.383 E2.06653
G1 X94.100 Y71.198 E2.08316
G1 X94.586 Y71.073 E2.09979
G1 X95.084 Y71.010 E2.11642
G1 X95.586 Y71.010 E2.13306
G1 X96.084 Y71.073 E2.14969
G1 X96.570 Y71.198 E2.16632
G1 X97.037 Y71.383 E2.18295
G1 X97.477 Y71.625 E2.19958
G1 X97.883 Y71.920 E2.21621
G1 X98.249 Y72.263 E2.23285
G1 X98.569 Y72.650 E2.24948
G1 X98.838 Y73.074 E2.26611
G1 X99.052 Y73.528 E2.28274
G1 X99.207 Y74.006 E2.29937
G1 X99.301 Y74.499 E2.31601
G1 X99.333 Y75.000 E2.33264
G1 X99.301 Y75.501 E2.34927
G1 X99.207 Y75.994 E2.36590
G1 X99.052 Y76.472 E2.38253
G1 X98.838 Y76.926 E2.39917
G1 X98.569 Y77.350 E2.41580
G1 X98.249 Y77.737 E2.43243
G1 X97.883 Y78.080 E2.44906
G1 X97.477 Y78.375 E2.46569
G1 X97.037 Y78.617 E2.48232
G1 X96.570 Y78.802 E2.49896
G1 X96.084 Y78.927 E2.51559
G1 X95.586 Y78.990 E2.53222
G1 X95.084 Y78.990 E2.54885
G1 X94.586 Y78.927 E2.56549
G1 X94.100 Y78.802 E2.58212
G1 X93.633 Y78.617 E2.59875
G1 X93.193 Y78.375 E2.61538
G1 X92.787 Y78.080 E2.63201
G1 X92.421 Y77.737 E2.64864
G1 X92.101 Y77.350 E2.66528
G1 X91.832 Y76.926 E2.68191
G1 X91.618 Y76.472 E2.69854
G1 X91.463 Y75.994 E2.71517
G1 X91.369 Y75.501 E2.73180
G1 X91.337 Y75.000 E2.74843
G1 X91.369 Y74.499 E2.76507
G1 X91.463 Y74.006 E2.78170
G1 X91.618 Y73.528 E2.79833
G1 X91.832 Y73.074 E2.81496
G1 X92.069 Y72.701 E2.82961
G1 X92.316 Y72.807 F7800.000
G1 F1800.000
G1 X92.615 Y72.446 E2.84513
G1 X92.956 Y72.125 E2.86066
G1 X93.336 Y71.849 E2.87618
G1 X93.746 Y71.624 E2.89170
G1 X94.182 Y71.451 E2.90723
G1 X94.636 Y71.335 E2.92275
G1 X95.101 Y71.276 E2.93828
G1 X95.569 Y71.276 E2.95380
G1 X96.034 Y71.335 E2.96933
G1 X96.488 Y71.451 E2.98485
G1 X96.924 Y71.624 E3.00038
G1 X97.334 Y71.849 E3.01590
G1 X97.714 Y72.125 E3.03143
G1 X98.055 Y72.446 E3.04695
G1 X98.354 Y72.807 E3.06248
G1 X98.605 Y73.202 E3.07800
G1 X98.804 Y73.626 E3.09352
G1 X98.949 Y74.072 E3.10905
G1 X99.037 Y74.532 E3.12457
G1 X99.066 Y75.000 E3.14010
G1 X99.037 Y75.468 E3.15562
G1 X98.949 Y75.928 E3.17115
G1 X98.804 Y76.374 E3.18667
G1 X98.605 Y76.798 E3.20220
G1 X98.354 Y77.193 E3.21772
G1 X98.055 Y77.554 E3.23325
G1 X97.714 Y77.875 E3.24877
G1 X97.334 Y78.151 E3.26430
G1 X96.924 Y78.376 E3.27982
G1 X96.488 Y78.549 E3.29534
G1 X96.034 Y78.665 E3.31087
G1 X95.569 Y78.724 E3.32639
G1 X95.101 Y78.724 E3.34192
G1 X94.636 Y78.665 E3.35744
G1 X94.182 Y78.549 E3.37297
G1 X93.746 Y78.376 E3.38849
G1 X93.336 Y78.151 E3.40402
G1 X92.956 Y77.875 E3.41954
G1 X92.615 Y77.554 E3.43506
G1 X92.316 Y77.193 E3.45059
G1 X92.065 Y76.798 E3.46611
G1 X91.866 Y76.374 E3.48164
G1 X91.721 Y75.928 E3.49716
G1 X91.633 Y75.468 E3.51269
G1 X91.604 Y75.000 E3.52821
G1 X91.633 Y74.532 E3.54374
G1 X91.721 Y74.072 E3.55926
G1 X91.866 Y73.626 E3.57479
G1 X92.065 Y73.202 E3.59031
G1 X92.284 Y72.857 E3.60385
G1 X92.531 Y72.963 F7800.000
G1 F1800.000
G1 X92.809 Y72.628 E3.61826
G1 X93.126 Y72.330 E3.63268
G1 X93.478 Y72.074 E3.64710
G1 X93.859 Y71.864 E3.66152
G1 X94.264 Y71.704 E3.67593
G1 X94.686 Y71.596 E3.69035
G1 X95.117 Y71.542 E3.70477
G1 X95.553 Y71.542 E3.71919
G1 X95.984 Y71.596 E3.73360
G1 X96.406 Y71.704 E3.74802
G1 X96.810 Y71.864 E3.76244
G1 X97.192 Y72.074 E3.77685
G1 X97.544 Y72.330 E3.79127
G1 X97.861 Y72.628 E3.80569
G1 X98.139 Y72.963 E3.82011
G1 X98.372 Y73.331 E3.83452
G1 X98.557 Y73.724 E3.84894
G1 X98.691 Y74.138 E3.86336
G1 X98.773 Y74.566 E3.87778
G1 X98.800 Y75.000 E3.89219
G1 X98.773 Y75.434 E3.90661
G1 X98.691 Y75.862 E3.92103
G1 X98.557 Y76.276 E3.93544
G1 X98.372 Y76.669 E3.94986
G1 X98.139 Y77.037 E3.96428
G1 X97.861 Y77.372 E3.97870
G1 X97.544 Y77.670 E3.99311
G1 X97.192 Y77.926 E4.00753
G1 X96.810 Y78.136 E4.02195
G1 X96.406 Y78.296 E4.03637
G1 X95.984 Y78.404 E4.05078
G1 X95.553 Y78.458 E4.06520
G1 X95.117 Y78.458 E4.07962
G1 X94.686 Y78.404 E4.09404
G1 X94.264 Y78.296 E4.10845
G1 X93.860 Y78.136 E4.12287
G1 X93.478 Y77.926 E4.13729
G1 X93.126 Y77.670 E4.15171
G1 X92.809 Y77.372 E4.16612
G1 X92.531 Y77.037 E4.18054
G1 X92.298 Y76.669 E4.19496
G1 X92.113 Y76.276 E4.20937
G1 X91.979 Y75.862 E4.22379
G1 X91.897 Y75.434 E4.23821
G1 X91.870 Y75.000 E4.25263
G1 X91.897 Y74.566 E4.26704
G1 X91.979 Y74.138 E4.28146
G1 X92.113 Y73.724 E4.29588
G1 X92.298 Y73.331 E4.31030
G1 X92.499 Y73.014 E4.32272
G1 E2.32272 F2400.00000
G92 E0
G1 X110.099 Y66.297 F7800.000
G1 E2.00000 F2400.00000
G1 F1800.000
G1 X110.099 Y83.703 E2.57666
G1 X70.592 Y97.282 E3.96066
G1 X67.726 Y98.017 E4.05868
G1 X65.031 Y98.358 E4.14866
G1 X65.031 Y88.263 E4.48309
G1 X65.845 Y88.160 E4.51028
G1 X67.475 Y87.742 E4.56602
G1 X69.039 Y87.123 E4.62176
G1 X70.514 Y86.312 E4.67750
G1 X71.875 Y85.323 E4.73324
G1 X73.101 Y84.171 E4.78898
G1 X74.174 Y82.875 E4.84472
G1 X75.075 Y81.454 E4.90046
G1 X75.792 Y79.932 E4.95620
G1 X76.312 Y78.332 E5.01194
G1 X76.627 Y76.679 E5.06768
G1 X76.733 Y75.000 E5.12342
G1 X76.627 Y73.321 E5.17916
G1 X76.312 Y71.668 E5.23490
G1 X75.792 Y70.068 E5.29064
G1 X75.075 Y68.546 E5.34638
G1 X74.174 Y67.125 E5.40212
G1 X73.101 Y65.829 E5.45786
G1 X71.875 Y64.677 E5.51360
G1 X70.514 Y63.688 E5.56934
G1 X69.039 Y62.877 E5.62508
G1 X67.475 Y62.258 E5.68082
G1 X65.845 Y61.840 E5.73656
G1 X65.031 Y61.737 E5.76375
G1 X65.031 Y51.642 E6.09818
G1 X67.726 Y51.983 E6.18815
G1 X70.592 Y52.718 E6.28617
G1 X110.042 Y66.277 E7.66819
G1 X110.364 Y66.107 F7800.000
G1 F1800.000
G1 X110.364 Y83.893 E8.25741
G1 X70.668 Y97.536 E9.64804
G1 X67.776 Y98.279 E9.74697
G1 X64.766 Y98.659 E9.84748
G1 X64.766 Y88.029 E10.19965
G1 X65.796 Y87.899 E10.23404
G1 X67.393 Y87.489 E10.28868
G1 X68.926 Y86.882 E10.34331
G1 X70.371 Y86.087 E10.39794
G1 X71.705 Y85.118 E10.45257
G1 X72.907 Y83.989 E10.50721
G1 X73.959 Y82.718 E10.56184
G1 X74.842 Y81.326 E10.61647
G1 X75.544 Y79.834 E10.67111
G1 X76.054 Y78.266 E10.72574
G1 X76.363 Y76.646 E10.78037
G1 X76.466 Y75.000 E10.83500
G1 X76.363 Y73.354 E10.88964
G1 X76.054 Y71.734 E10.94427
G1 X75.544 Y70.166 E10.99890
G1 X74.842 Y68.674 E11.05354
G1 X73.959 Y67.282 E11.10817
G1 X72.907 Y66.011 E11.16280
G1 X71.705 Y64.882 E11.21743
G1 X70.371 Y63.913 E11.27207
G1 X68.926 Y63.118 E11.32670
G1 X67.393 Y62.511 E11.38133
G1 X65.796 Y62.101 E11.43596
G1 X64.766 Y61.971 E11.47036
G1 X64.766 Y51.341 E11.82253
G1 X67.776 Y51.721 E11.92304
G1 X70.668 Y52.464 E12.02196
G1 X110.308 Y66.088 E13.41061
G1 X110.630 Y65.918 F7800.000
G1 F1800.000
G1 X110.630 Y84.082 E14.01239
G1 X70.744 Y97.791 E15.40966
G1 X67.826 Y98.540 E15.50949
G1 X64.840 Y98.917 E15.60919
G1 X64.500 Y98.917 E15.62045
G1 X64.500 Y87.795 E15.98893
G1 X65.746 Y87.637 E16.03053
G1 X67.311 Y87.236 E16.08406
G1 X68.813 Y86.641 E16.13758
G1 X70.229 Y85.863 E16.19111
G1 X71.536 Y84.913 E16.24463
G1 X72.713 Y83.807 E16.29816
G1 X73.743 Y82.562 E16.35168
G1 X74.609 Y81.198 E16.40521
G1 X75.297 Y79.736 E16.45873
G1 X75.796 Y78.199 E16.51226
G1 X76.099 Y76.612 E16.56578
G1 X76.200 Y75.000 E16.61931
G1 X76.099 Y73.388 E16.67283
G1 X75.796 Y71.801 E16.72636
G1 X75.297 Y70.264 E16.77989
G1 X74.609 Y68.802 E16.83341
G1 X73.743 Y67.438 E16.88694
G1 X72.713 Y66.193 E16.94046
G1 X71.536 Y65.087 E16.99399
G1 X70.229 Y64.137 E17.04751
G1 X68.813 Y63.359 E17.10104
G1 X67.311 Y62.764 E17.15456
G1 X65.746 Y62.363 E17.20809
G1 X64.500 Y62.205 E17.24969
G1 X64.500 Y51.083 E17.61817
G1 X64.840 Y51.083 E17.62943
G1 X67.826 Y51.460 E17.72913
G1 X70.744 Y52.209 E17.82896
G1 X110.573 Y65.898 E19.22424
G1 E17.22424 F2400.00000
G92 E0
G1 X99.066 Y76.950 F7800.000
G1 E2.00000 F2400.00000
G1 F1800.000
G1 X109.710 Y66.305 E2.50020
G1 X109.430 Y66.209 E2.51005
G1 X99.307 Y76.332 E2.98574
G1 X99.361 Y76.164 E2.99162
G1 X99.424 Y75.838 E3.00263
G1 X109.149 Y66.113 E3.45966
G1 X108.869 Y66.016 E3.46951
G1 X99.476 Y75.409 E3.91089
G1 X99.490 Y75.018 E3.92388
G1 X108.589 Y65.920 E4.35143
G1 X108.308 Y65.824 E4.36128
G1 X99.468 Y74.664 E4.77671
G1 X99.418 Y74.337 E4.78769
G1 X108.028 Y65.727 E5.19229
G1 X107.747 Y65.631 E5.20215
G1 X99.355 Y74.023 E5.59652
G1 X99.263 Y73.739 E5.60645
G1 X107.467 Y65.534 E5.99199
G1 X107.187 Y65.438 E6.00184
G1 X99.162 Y73.462 E6.37891
G1 X99.042 Y73.206 E6.38832
G1 X106.906 Y65.342 E6.75788
G1 X106.626 Y65.245 E6.76773
G1 X98.911 Y72.960 E7.13025
G1 X98.765 Y72.729 E7.13932
G1 X106.345 Y65.149 E7.49554
G1 X106.065 Y65.053 E7.50539
G1 X98.608 Y72.509 E7.85579
G1 X98.438 Y72.303 E7.86468
G1 X105.785 Y64.956 E8.20992
G1 X105.504 Y64.860 E8.21977
G1 X98.257 Y72.107 E8.56033
G1 X98.063 Y71.924 E8.56918
G1 X105.224 Y64.763 E8.90569
G1 X104.943 Y64.667 E8.91554
G1 X97.859 Y71.752 E9.24847
G1 X97.640 Y71.593 E9.25744
G1 X104.663 Y64.571 E9.58745
G1 X104.383 Y64.474 E9.59730
G1 X97.411 Y71.446 E9.92489
G1 X97.168 Y71.312 E9.93411
G1 X104.102 Y64.378 E10.25995
G1 X103.822 Y64.282 E10.26980
G1 X96.912 Y71.192 E10.59452
G1 X96.642 Y71.085 E10.60417
G1 X103.541 Y64.185 E10.92839
G1 X103.261 Y64.089 E10.93824
G1 X96.352 Y70.998 E11.26290
G1 X96.053 Y70.921 E11.27319
G1 X102.981 Y63.993 E11.59875
G1 X102.700 Y63.896 E11.60861
G1 X95.721 Y70.876 E11.93660
G1 X95.372 Y70.848 E11.94823
G1 X102.420 Y63.800 E12.27943
G1 X102.140 Y63.703 E12.28929
G1 X94.995 Y70.848 E12.62502
G1 X94.568 Y70.898 E12.63930
G1 X101.859 Y63.607 E12.98191
G1 X101.579 Y63.511 E12.99177
G1 X94.085 Y71.004 E13.34391
G1 X93.914 Y71.048 E13.34977
G1 X93.501 Y71.212 E13.36455
G1 X101.298 Y63.414 E13.73097
G1 X101.018 Y63.318 E13.74082
G1 X92.528 Y71.808 E14.13977
G1 X92.124 Y72.185 E14.15815
G1 X91.991 Y72.345 E14.16507
G1 E12.16507 F2400.00000
G92 E0
G1 X109.730 Y83.617 F7800.000
G1 E2.00000 F2400.00000
G1 F1800.000
G1 X109.936 Y83.410 E2.00972
G1 X109.936 Y83.033 E2.02224
G1 X109.156 Y83.814 E2.05893
G1 X108.582 Y84.011 E2.07910
G1 X109.936 Y82.657 E2.14278
G1 X109.936 Y82.280 E2.15529
G1 X108.007 Y84.209 E2.24594
G1 X107.433 Y84.406 E2.26611
G1 X109.936 Y81.903 E2.38374
G1 X109.936 Y81.526 E2.39626
G1 X106.859 Y84.603 E2.54086
G1 X106.285 Y84.801 E2.56103
G1 X109.936 Y81.149 E2.73260
G1 X109.936 Y80.773 E2.74512
G1 X105.711 Y84.998 E2.94368
G1 X105.137 Y85.195 E2.96385
G1 X109.936 Y80.396 E3.18938
G1 X109.936 Y80.019 E3.20190
G1 X104.563 Y85.393 E3.45440
G1 X103.989 Y85.590 E3.47457
G1 X109.936 Y79.642 E3.75406
G1 X109.936 Y79.266 E3.76658
G1 X103.415 Y85.787 E4.07304
G1 X102.841 Y85.985 E4.09321
G1 X109.936 Y78.889 E4.42664
G1 X109.936 Y78.512 E4.43916
G1 X102.267 Y86.182 E4.79957
G1 X101.693 Y86.379 E4.81974
G1 X109.936 Y78.135 E5.20713
G1 X109.936 Y77.759 E5.21965
G1 X101.119 Y86.576 E5.63402
G1 X100.545 Y86.774 E5.65419
G1 X109.936 Y77.382 E6.09553
G1 X109.936 Y77.005 E6.10805
G1 X99.971 Y86.971 E6.57637
G1 X99.396 Y87.168 E6.59654
G1 X109.936 Y76.628 E7.09183
G1 X109.936 Y76.252 E7.10435
G1 X98.822 Y87.366 E7.62662
G1 X98.248 Y87.563 E7.64679
G1 X109.936 Y75.875 E8.19604
G1 X109.936 Y75.498 E8.20856
G1 X97.674 Y87.760 E8.78478
G1 X97.100 Y87.958 E8.80495
G1 X109.936 Y75.121 E9.40815
G1 X109.936 Y74.745 E9.42067
G1 X96.526 Y88.155 E10.05085
G1 X95.952 Y88.352 E10.07102
G1 X109.936 Y74.368 E10.72817
G1 X109.936 Y73.991 E10.74069
G1 X95.378 Y88.549 E11.42482
G1 X94.804 Y88.747 E11.44499
G1 X109.936 Y73.614 E12.15609
G1 X109.936 Y73.237 E12.16861
G1 X94.230 Y88.944 E12.90670
G1 X93.656 Y89.141 E12.92687
G1 X109.936 Y72.861 E13.69193
G1 X109.936 Y72.484 E13.70444
G1 X93.082 Y89.339 E14.49648
G1 X92.508 Y89.536 E14.51665
G1 X109.936 Y72.107 E15.33566
G1 X109.936 Y71.730 E15.34818
G1 X91.934 Y89.733 E16.19417
G1 X91.360 Y89.931 E16.21434
G1 X109.936 Y71.354 E17.08730
G1 X109.936 Y70.977 E17.09982
G1 X90.785 Y90.128 E17.99976
G1 X90.211 Y90.325 E18.01993
G1 X109.936 Y70.600 E18.94685
G1 X109.936 Y70.223 E18.95937
G1 X89.637 Y90.523 E19.91326
G1 X89.063 Y90.720 E19.93343
G1 X109.936 Y69.847 E20.91430
G1 X109.936 Y69.470 E20.92682
G1 X88.489 Y90.917 E21.93467
G1 X87.915 Y91.114 E21.95484
G1 X109.936 Y69.093 E22.98966
G1 X109.936 Y68.716 E23.00218
G1 X87.341 Y91.312 E24.06398
G1 X86.767 Y91.509 E24.08415
G1 X109.936 Y68.340 E25.17293
G1 X109.936 Y67.963 E25.18545
G1 X86.193 Y91.706 E26.30120
G1 X85.619 Y91.904 E26.32137
G1 X109.936 Y67.586 E27.46410
G1 X109.936 Y67.209 E27.47662
G1 X85.045 Y92.101 E28.64632
G1 X84.471 Y92.298 E28.66649
G1 X109.936 Y66.833 E29.86317
G1 X109.936 Y66.456 E29.87569
G1 X83.897 Y92.496 E31.09935
G1 X83.323 Y92.693 E31.11952
G1 X97.270 Y78.746 E31.77491
G1 X96.663 Y78.976 E31.79646
G1 X82.749 Y92.890 E32.45033
G1 X82.174 Y93.087 E32.47050
G1 X96.168 Y79.094 E33.12810
G1 X95.737 Y79.148 E33.14254
G1 X81.600 Y93.285 E33.80685
G1 X81.026 Y93.482 E33.82702
G1 X95.356 Y79.152 E34.50041
G1 X95.001 Y79.131 E34.51224
G1 X80.452 Y93.679 E35.19592
G1 X79.878 Y93.877 E35.21609
G1 X94.667 Y79.088 E35.91102
G1 X94.364 Y79.014 E35.92137
G1 X79.304 Y94.074 E36.62906
G1 X78.730 Y94.271 E36.64923
G1 X94.070 Y78.932 E37.37007
G1 X93.800 Y78.825 E37.37972
G1 X78.156 Y94.469 E38.11485
G1 X77.582 Y94.666 E38.13502
G1 X93.539 Y78.709 E38.88488
G1 X93.296 Y78.575 E38.89410
G1 X77.008 Y94.863 E39.65952
G1 X76.434 Y95.061 E39.67969
G1 X93.063 Y78.431 E40.46114
G1 X92.845 Y78.272 E40.47010
G1 X75.860 Y95.258 E41.26827
G1 X75.286 Y95.455 E41.28844
G1 X92.637 Y78.104 E42.10382
G1 X92.443 Y77.921 E42.11268
G1 X74.712 Y95.652 E42.94590
G1 X74.138 Y95.850 E42.96607
G1 X92.258 Y77.729 E43.81761
G1 X92.088 Y77.523 E43.82650
G1 X73.563 Y96.047 E44.69699
G1 X72.989 Y96.244 E44.71717
G1 X91.928 Y77.306 E45.60710
G1 X91.781 Y77.076 E45.61617
G1 X72.415 Y96.442 E46.52621
G1 X71.841 Y96.639 E46.54638
G1 X91.647 Y76.833 E47.47708
G1 X91.526 Y76.577 E47.48649
G1 X71.267 Y96.836 E48.43849
G1 X70.693 Y97.034 E48.45866
G1 X91.422 Y76.305 E49.43273
G1 X91.329 Y76.021 E49.44267
G1 X70.153 Y97.197 E50.43776
G1 X69.646 Y97.327 E50.45515
G1 X91.262 Y75.712 E51.47089
G1 X91.206 Y75.391 E51.48171
G1 X69.140 Y97.457 E52.51864
G1 X68.633 Y97.587 E52.53603
G1 X91.183 Y75.036 E53.59573
G1 X91.190 Y74.653 E53.60847
G1 X68.126 Y97.717 E54.69230
G1 X67.619 Y97.847 E54.70969
G1 X91.233 Y74.233 E55.81935
G1 X91.335 Y73.754 E55.83564
G1 X67.181 Y97.909 E56.97071
G1 X66.749 Y97.963 E56.98515
G1 X91.553 Y73.160 E58.15070
G1 X91.702 Y72.843 E58.16235
G1 X91.989 Y72.391 E58.18015
G1 X92.197 Y72.139 E58.19101
G1 X66.318 Y98.018 E59.40712
G1 X65.887 Y98.072 E59.42156
G1 X100.738 Y63.222 E61.05926
G1 X100.457 Y63.125 E61.06911
G1 X65.456 Y98.127 E62.71390
G1 X65.194 Y98.160 E62.72267
G1 X65.194 Y98.012 E62.72758
G1 X100.177 Y63.029 E64.37151
G1 X99.896 Y62.932 E64.38136
G1 X65.194 Y97.635 E66.01211
G1 X65.194 Y97.259 E66.02463
G1 X99.616 Y62.836 E67.64221
G1 X99.336 Y62.740 E67.65206
G1 X65.194 Y96.882 E69.25645
G1 X65.194 Y96.505 E69.26897
G1 X99.055 Y62.643 E70.86020
G1 X98.775 Y62.547 E70.87005
G1 X65.194 Y96.128 E72.44809
G1 X65.194 Y95.751 E72.46061
G1 X98.494 Y62.451 E74.02548
G1 X98.214 Y62.354 E74.03533
G1 X65.194 Y95.375 E75.58703
G1 X65.194 Y94.998 E75.59954
G1 X97.934 Y62.258 E77.13806
G1 X97.653 Y62.161 E77.14791
G1 X65.194 Y94.621 E78.67325
G1 X65.194 Y94.244 E78.68577
G1 X97.373 Y62.065 E80.19794
G1 X97.092 Y61.969 E80.20779
G1 X65.194 Y93.868 E81.70678
G1 X65.194 Y93.491 E81.71930
G1 X96.812 Y61.872 E83.20511
G1 X96.532 Y61.776 E83.21496
G1 X65.194 Y93.114 E84.68760
