; generated by Slic3r 1.3.1-dev (Build adea0d9) on 2019-12-16 at 00:48:56

; external perimeters extrusion width = 0.44mm (2.86mm^3/s)
; perimeters extrusion width = 0.56mm (4.14mm^3/s)
; infill extrusion width = 0.50mm (3.66mm^3/s)
; solid infill extrusion width = 0.56mm (3.10mm^3/s)
; top infill extrusion width = 0.56mm (3.10mm^3/s)

M107
G92 E0
;D3D:START:START
T0
M104 S215 T0

G21
G90
M107
T0
G28
G29
M109 T0 S215 T0
G0 F3000
M107
T0
G92 E0
G0 X0 Y149 Z0.1 F3600
G1 Y49 E6.5 F1200
G0 Z1
G92 E0
; Filament gcode

G21 ; set units to millimeters
G90 ; use absolute coordinates
M82 ; use absolute distances for extrusion
G92 E0
G1 Z0.300 F7800.000
G1 E-2.00000 F2400.00000
G92 E0
G1 X50.417 Y81.415 F7800.000
G1 E2.00000 F2400.00000
G1 F600.000
G1 X50.974 Y81.415 E2.01843
G1 X50.974 Y89.335 E2.28082
G1 X50.417 Y89.335 E2.29925
G1 X50.417 Y81.475 E2.55965
G1 X50.696 Y81.548 F7800.000
G1 F600.000
G1 X50.696 Y89.202 E2.77579
G1 E0.77579 F2400.00000
G92 E0
G1 X50.417 Y68.585 F7800.000
G1 E2.00000 F2400.00000
G1 F600.000
G1 X50.417 Y60.665 E2.26239
G1 X50.974 Y60.665 E2.28082
G1 X50.974 Y68.585 E2.54320
G1 X50.477 Y68.585 E2.55965
G1 X50.696 Y68.452 F7800.000
G1 F600.000
G1 X50.696 Y60.798 E2.77579
M106 S255
G1 Z0.500 F7800.000
G1 E0.77579 F2400.00000
G92 E0
G1 X50.455 Y81.927 F7800.000
G1 E2.00000 F2400.00000
G1 F698.141
G1 X51.339 Y81.927 E2.03799
M106 S255

G1 F2400.000
G1 X51.397 Y81.927 E2.04102
G1 X51.397 Y88.823 E2.40130
G1 X51.339 Y88.823 E2.40433
M106 S255

G1 F698.141
G1 X50.455 Y88.823 E2.44232
G1 X50.455 Y81.987 E2.73623
G1 X49.998 Y81.470 F7800.000
M106 S255

G1 F2400.000
G1 X50.052 Y81.470 E2.73906
M106 S255

G1 F2160.000
G1 X51.339 Y81.470 E2.78154
M106 S255

G1 F2400.000
G1 X51.854 Y81.470 E2.80845
G1 X51.854 Y89.280 E3.21648
G1 X51.339 Y89.280 E3.24340
M106 S255

G1 F2160.000
G1 X50.052 Y89.280 E3.28587
M106 S255

G1 F2400.000
G1 X49.998 Y89.280 E3.28871
G1 X49.998 Y81.530 E3.69360
M106 S255

G1 X50.926 Y82.186 F7800.000
G1 F600.000
G1 X50.926 Y88.564 E3.89603
G1 E1.89603 F2400.00000
G92 E0
G1 X50.455 Y68.073 F7800.000
G1 E2.00000 F2400.00000
G1 F698.141
G1 X50.455 Y61.177 E2.29649
G1 X51.339 Y61.177 E2.33448
M106 S255

G1 F2400.000
G1 X51.397 Y61.177 E2.33751
G1 X51.397 Y68.073 E2.69779
G1 X51.339 Y68.073 E2.70082
M106 S255

G1 F698.141
G1 X50.515 Y68.073 E2.73623
G1 X49.998 Y68.530 F7800.000
M106 S255

G1 F2400.000
G1 X49.998 Y60.720 E3.14426
G1 X50.052 Y60.720 E3.14709
M106 S255

G1 F2160.000
G1 X51.339 Y60.720 E3.18957
M106 S255

G1 F2400.000
G1 X51.854 Y60.720 E3.21648
G1 X51.854 Y68.530 E3.62452
G1 X51.339 Y68.530 E3.65143
M106 S255

G1 F2160.000
G1 X50.058 Y68.530 E3.69372
G1 X50.926 Y67.814 F7800.000
G1 F600.000
G1 X50.926 Y61.436 E3.89614
G1 Z0.700 F7800.000
G1 E1.89614 F2400.00000
G92 E0
G1 X50.124 Y81.927 F7800.000
G1 E2.00000 F2400.00000
G1 F1270.697
G1 X52.145 Y81.927 E2.08689
G1 X52.145 Y88.823 E2.38338
G1 X50.124 Y88.823 E2.47028
G1 X50.124 Y81.987 E2.76419
G1 X49.667 Y81.470 F7800.000
G1 F2160.000
G1 X52.274 Y81.470 E2.85026
M106 S255

G1 F2400.000
G1 X52.602 Y81.470 E2.86741
G1 X52.602 Y89.280 E3.27544
G1 X52.274 Y89.280 E3.29258
M106 S255

G1 F2160.000
G1 X49.667 Y89.280 E3.37866
G1 X49.667 Y81.530 E3.63454
G1 X50.440 Y82.645 F7800.000
G1 F1270.697
G1 X50.842 Y82.243 E3.65999
G1 X51.603 Y82.243 E3.69403
G1 X50.440 Y83.406 E3.76763
G1 X50.440 Y84.167 E3.80168
G1 X51.829 Y82.778 E3.88957
G1 X51.829 Y83.539 E3.92361
G1 X50.440 Y84.928 E4.01150
G1 X50.440 Y85.689 E4.04554
G1 X51.829 Y84.300 E4.13343
G1 X51.829 Y85.061 E4.16747
G1 X50.440 Y86.450 E4.25536
G1 X50.440 Y87.211 E4.28940
G1 X51.829 Y85.822 E4.37729
G1 X51.829 Y86.583 E4.41133
G1 X50.440 Y87.972 E4.49922
G1 X50.440 Y88.507 E4.52316
G1 X50.666 Y88.507 E4.53327
G1 X51.829 Y87.344 E4.60687
G1 X51.829 Y88.105 E4.64091
G1 X51.427 Y88.507 E4.66636
G1 E2.66636 F2400.00000
G92 E0
G1 X50.124 Y68.073 F7800.000
G1 E2.00000 F2400.00000
G1 F1270.697
G1 X50.124 Y61.177 E2.29649
G1 X52.145 Y61.177 E2.38338
G1 X52.145 Y68.073 E2.67987
G1 X50.184 Y68.073 E2.76419
G1 X49.667 Y68.530 F7800.000
G1 F2160.000
G1 X49.667 Y60.720 E3.02205
G1 X52.274 Y60.720 E3.10813
M106 S255

G1 F2400.000
G1 X52.602 Y60.720 E3.12527
G1 X52.602 Y68.530 E3.53330
G1 X52.274 Y68.530 E3.55045
M106 S255

G1 F2160.000
G1 X49.727 Y68.530 E3.63454
G1 X51.427 Y67.757 F7800.000
G1 F1270.697
G1 X51.829 Y67.355 E3.66000
G1 X51.829 Y66.594 E3.69404
G1 X50.666 Y67.757 E3.76764
G1 X50.440 Y67.757 E3.77775
G1 X50.440 Y67.222 E3.80169
G1 X51.829 Y65.833 E3.88958
G1 X51.829 Y65.072 E3.92362
G1 X50.440 Y66.461 E4.01151
G1 X50.440 Y65.700 E4.04555
G1 X51.829 Y64.311 E4.13344
G1 X51.829 Y63.550 E4.16748
G1 X50.440 Y64.939 E4.25537
G1 X50.440 Y64.178 E4.28941
G1 X51.829 Y62.789 E4.37730
G1 X51.829 Y62.028 E4.41134
G1 X50.440 Y63.417 E4.49923
G1 X50.440 Y62.656 E4.53327
G1 X51.603 Y61.493 E4.60688
G1 X50.842 Y61.493 E4.64092
G1 X50.440 Y61.895 E4.66637
G1 Z0.900 F7800.000
G1 E2.66637 F2400.00000
G92 E0
G1 X49.825 Y81.927 F7800.000
G1 E2.00000 F2400.00000
G1 F1742.759
G1 X52.893 Y81.927 E2.13193
G1 X52.893 Y88.823 E2.42842
G1 X49.825 Y88.823 E2.56035
G1 X49.825 Y81.987 E2.85426
G1 X49.368 Y81.470 F7800.000
G1 F2160.000
G1 X53.022 Y81.470 E2.97492
M106 S255

G1 F2400.000
G1 X53.350 Y81.470 E2.99206
G1 X53.350 Y89.280 E3.40010
G1 X53.022 Y89.280 E3.41724
M106 S255

G1 F2160.000
G1 X49.368 Y89.280 E3.53790
G1 X49.368 Y81.530 E3.79379
G1 E1.79379 F2400.00000
G92 E0
G1 X52.175 Y82.243 F7800.000
G1 E2.00000 F2400.00000
G1 F1742.759
G1 X52.577 Y82.645 E2.02641
G1 X52.577 Y83.435 F7800.000
G1 F1742.759
G1 X51.385 Y82.243 E2.10466
G1 X50.596 Y82.243 E2.14131
G1 X52.577 Y84.225 E2.27141
G1 X52.577 Y85.014 E2.30806
G1 X50.141 Y82.578 E2.46803
G1 X50.141 Y83.367 E2.50468
G1 X52.577 Y85.804 E2.66465
G1 X52.577 Y86.593 E2.70131
G1 X50.141 Y84.157 E2.86127
G1 X50.141 Y84.946 E2.89793
G1 X52.577 Y87.383 E3.05790
G1 X52.577 Y88.172 E3.09455
G1 X50.141 Y85.736 E3.25452
G1 X50.141 Y86.525 E3.29118
G1 X52.122 Y88.507 E3.42127
G1 X51.333 Y88.507 E3.45792
G1 X50.141 Y87.315 E3.53618
G1 X50.141 Y88.105 E3.57283
G1 X50.543 Y88.507 E3.59924
G1 E1.59924 F2400.00000
G92 E0
G1 X49.825 Y68.073 F7800.000
G1 E2.00000 F2400.00000
G1 F1742.759
G1 X49.825 Y61.177 E2.29649
G1 X52.893 Y61.177 E2.42842
G1 X52.893 Y68.073 E2.72491
G1 X49.885 Y68.073 E2.85426
G1 X49.368 Y68.530 F7800.000
G1 F2160.000
G1 X49.368 Y60.720 E3.11212
G1 X53.022 Y60.720 E3.23278
M106 S255

G1 F2400.000
G1 X53.350 Y60.720 E3.24993
G1 X53.350 Y68.530 E3.65796
G1 X53.022 Y68.530 E3.67511
M106 S255

G1 F2160.000
G1 X49.428 Y68.530 E3.79379
G1 X50.543 Y67.757 F7800.000
G1 F1742.759
G1 X50.141 Y67.355 E3.82019
G1 X50.141 Y66.565 E3.85685
G1 X51.333 Y67.757 E3.93510
G1 X52.122 Y67.757 E3.97176
G1 X50.141 Y65.775 E4.10185
G1 X50.141 Y64.986 E4.13850
G1 X52.577 Y67.422 E4.29847
G1 X52.577 Y66.633 E4.33513
G1 X50.141 Y64.196 E4.49510
G1 X50.141 Y63.407 E4.53175
G1 X52.577 Y65.843 E4.69172
G1 X52.577 Y65.054 E4.72837
G1 X50.141 Y62.617 E4.88834
G1 X50.141 Y61.828 E4.92500
G1 X52.577 Y64.264 E5.08496
G1 X52.577 Y63.475 E5.12162
G1 X50.596 Y61.493 E5.25171
G1 X51.385 Y61.493 E5.28837
G1 X52.577 Y62.685 E5.36662
G1 X52.577 Y61.895 F7800.000
G1 F1742.759
G1 X52.175 Y61.493 E5.39303
G1 Z1.100 F7800.000
G1 E3.39303 F2400.00000
G92 E0
G1 X49.562 Y81.927 F7800.000
G1 E2.00000 F2400.00000
G1 F1800.000
G1 X53.641 Y81.927 E2.17537
G1 X53.641 Y88.823 E2.47186
G1 X49.562 Y88.823 E2.64723
G1 X49.562 Y81.987 E2.94114
G1 X49.105 Y81.470 F7800.000
G1 F2160.000
G1 X53.770 Y81.470 E3.09516
M106 S255

G1 F2400.000
G1 X54.098 Y81.470 E3.11231
G1 X54.098 Y89.280 E3.52034
G1 X53.770 Y89.280 E3.53749
M106 S255

G1 F2160.000
G1 X49.105 Y89.280 E3.69151
G1 X49.105 Y81.530 E3.94739
G1 X50.281 Y82.243 F7800.000
G1 F1800.000
G1 X49.878 Y82.645 E3.97222
G1 X49.878 Y83.388 E4.00461
G1 X51.023 Y82.243 E4.07524
G1 X51.765 Y82.243 E4.10762
G1 X49.878 Y84.130 E4.22406
G1 X49.878 Y84.872 E4.25644
G1 X52.507 Y82.243 E4.41868
G1 X53.249 Y82.243 E4.45107
G1 X49.878 Y85.614 E4.65910
G1 X49.878 Y86.356 E4.69149
G1 X53.325 Y82.909 E4.90421
G1 X53.325 Y83.652 E4.93659
G1 X49.878 Y87.098 E5.14931
G1 X49.878 Y87.841 E5.18170
G1 X53.325 Y84.394 E5.39442
G1 X53.325 Y85.136 E5.42680
G1 X49.954 Y88.507 E5.63484
G1 X50.696 Y88.507 E5.66723
G1 X53.325 Y85.878 E5.82946
G1 X53.325 Y86.620 E5.86185
G1 X51.439 Y88.507 E5.97828
G1 X52.181 Y88.507 E6.01067
G1 X53.325 Y87.362 E6.08130
G1 X53.325 Y88.105 E6.11368
G1 X52.923 Y88.507 E6.13851
G1 E4.13851 F2400.00000
G92 E0
G1 X49.562 Y68.073 F7800.000
G1 E2.00000 F2400.00000
G1 F1800.000
G1 X49.562 Y61.177 E2.29649
G1 X53.641 Y61.177 E2.47186
G1 X53.641 Y68.073 E2.76835
G1 X49.622 Y68.073 E2.94114
G1 X49.105 Y68.530 F7800.000
G1 F2160.000
G1 X49.105 Y60.720 E3.19901
G1 X53.770 Y60.720 E3.35303
M106 S255

G1 F2400.000
G1 X54.098 Y60.720 E3.37017
G1 X54.098 Y68.530 E3.77821
G1 X53.770 Y68.530 E3.79535
M106 S255

G1 F2160.000
G1 X49.165 Y68.530 E3.94739
G1 E1.94739 F2400.00000
G92 E0
G1 X52.923 Y67.757 F7800.000
G1 E2.00000 F2400.00000
G1 F1800.000
G1 X53.325 Y67.355 E2.02483
G1 X53.325 Y66.612 E2.05722
G1 X52.181 Y67.757 E2.12785
G1 X51.439 Y67.757 E2.16023
G1 X53.325 Y65.870 E2.27666
G1 X53.325 Y65.128 E2.30905
G1 X50.696 Y67.757 E2.47129
G1 X49.954 Y67.757 E2.50367
G1 X53.325 Y64.386 E2.71171
G1 X53.325 Y63.644 E2.74409
G1 X49.878 Y67.091 E2.95681
G1 X49.878 Y66.348 E2.98920
G1 X53.325 Y62.902 E3.20192
G1 X53.325 Y62.159 E3.23430
G1 X49.878 Y65.606 E3.44702
G1 X49.878 Y64.864 E3.47941
G1 X53.249 Y61.493 E3.68744
G1 X52.507 Y61.493 E3.71983
G1 X49.878 Y64.122 E3.88207
G1 X49.878 Y63.380 E3.91445
G1 X51.765 Y61.493 E4.03089
G1 X51.023 Y61.493 E4.06327
G1 X49.878 Y62.638 E4.13391
G1 X49.878 Y61.895 E4.16629
G1 X50.281 Y61.493 E4.19112
G1 Z1.300 F7800.000
G1 E2.19112 F2400.00000
G92 E0
G1 X49.309 Y81.927 F7800.000
G1 E2.00000 F2400.00000
G1 F1800.000
G1 X54.389 Y81.927 E2.21845
G1 X54.389 Y88.823 E2.51494
G1 X49.309 Y88.823 E2.73338
G1 X49.309 Y81.987 E3.02729
G1 X48.852 Y81.470 F7800.000
G1 F2160.000
G1 X54.518 Y81.470 E3.21439
M106 S255

G1 F2400.000
G1 X54.847 Y81.470 E3.23154
G1 X54.846 Y89.280 E3.63957
G1 X54.518 Y89.280 E3.65671
M106 S255

G1 F2160.000
G1 X48.852 Y89.280 E3.84381
G1 X48.852 Y81.530 E4.09970
G1 E2.09970 F2400.00000
G92 E0
G1 X54.073 Y82.645 F7800.000
G1 E2.00000 F2400.00000
G1 F1800.000
G1 X53.671 Y82.243 E2.02550
G1 X52.909 Y82.243 E2.05965
G1 X54.073 Y83.408 E2.13345
G1 X54.073 Y84.170 E2.16760
G1 X52.147 Y82.243 E2.28970
G1 X51.385 Y82.243 E2.32385
G1 X54.073 Y84.932 E2.49425
G1 X54.073 Y85.694 E2.52840
G1 X50.623 Y82.243 E2.74710
G1 X49.860 Y82.243 E2.78125
G1 X54.073 Y86.456 E3.04825
G1 X54.073 Y87.218 E3.08241
G1 X49.625 Y82.770 E3.36434
G1 X49.625 Y83.532 E3.39849
G1 X54.073 Y87.980 E3.68043
G1 X54.073 Y88.507 E3.70402
G1 X53.838 Y88.507 E3.71458
G1 X49.625 Y84.294 E3.98158
G1 X49.625 Y85.056 E4.01573
G1 X53.076 Y88.507 E4.23443
G1 X52.314 Y88.507 E4.26859
G1 X49.625 Y85.818 E4.43899
G1 X49.625 Y86.580 E4.47314
G1 X51.551 Y88.507 E4.59524
G1 X50.789 Y88.507 E4.62939
G1 X49.625 Y87.342 E4.70319
G1 X49.625 Y88.105 E4.73735
G1 X50.027 Y88.507 E4.76283
G1 E2.76283 F2400.00000
G92 E0
G1 X49.309 Y68.073 F7800.000
G1 E2.00000 F2400.00000
G1 F1800.000
G1 X49.309 Y61.177 E2.29649
G1 X54.389 Y61.177 E2.51494
G1 X54.389 Y68.073 E2.81142
G1 X49.369 Y68.073 E3.02729
G1 X48.852 Y68.530 F7800.000
G1 F2160.000
G1 X48.852 Y60.720 E3.28516
G1 X54.518 Y60.720 E3.47226
M106 S255

G1 F2400.000
G1 X54.846 Y60.720 E3.48940
G1 X54.847 Y68.530 E3.89743
G1 X54.518 Y68.530 E3.91458
M106 S255

G1 F2160.000
G1 X48.912 Y68.530 E4.09970
G1 X50.027 Y67.757 F7800.000
G1 F1800.000
G1 X49.625 Y67.355 E4.12519
G1 X49.625 Y66.592 E4.15934
G1 X50.789 Y67.757 E4.23314
G1 X51.551 Y67.757 E4.26729
G1 X49.625 Y65.830 E4.38939
G1 X49.625 Y65.068 E4.42354
G1 X52.313 Y67.757 E4.59394
G1 X53.076 Y67.757 E4.62809
G1 X49.625 Y64.306 E4.84679
G1 X49.625 Y63.544 E4.88095
G1 X53.838 Y67.757 E5.14795
G1 X54.073 Y67.757 E5.15851
G1 X54.073 Y67.230 E5.18210
G1 X49.625 Y62.782 E5.46403
G1 X49.625 Y62.020 E5.49819
G1 X54.073 Y66.468 E5.78012
G1 X54.073 Y65.706 E5.81427
G1 X49.860 Y61.493 E6.08127
G1 X50.623 Y61.493 E6.11543
G1 X54.073 Y64.944 E6.33413
G1 X54.073 Y64.182 E6.36828
G1 X51.385 Y61.493 E6.53868
G1 X52.147 Y61.493 E6.57283
G1 X54.073 Y63.420 E6.69493
G1 X54.073 Y62.658 E6.72908
G1 X52.909 Y61.493 E6.80288
G1 X53.671 Y61.493 E6.83703
G1 X54.073 Y61.895 E6.86253
G1 Z1.500 F7800.000
G1 E4.86253 F2400.00000
G92 E0
G1 X49.092 Y81.927 F7800.000
G1 E2.00000 F2400.00000
G1 F1800.000
G1 X55.138 Y81.927 E2.25993
G1 X55.138 Y88.823 E2.55642
G1 X49.092 Y88.823 E2.81635
G1 X49.092 Y81.987 E3.11026
G1 X48.635 Y81.470 F7800.000
G1 F2160.000
G1 X55.267 Y81.470 E3.32922
M106 S255

G1 F2400.000
G1 X55.595 Y81.470 E3.34637
G1 X55.595 Y89.280 E3.75440
G1 X55.266 Y89.280 E3.77154
M106 S255

G1 F2160.000
G1 X48.635 Y89.280 E3.99050
G1 X48.635 Y81.530 E4.24638
G1 X49.810 Y82.243 F7800.000
G1 F1800.000
G1 X49.408 Y82.645 E4.27237
G1 X49.408 Y83.422 E4.30783
G1 X50.587 Y82.243 E4.38397
G1 X51.364 Y82.243 E4.41943
G1 X49.408 Y84.199 E4.54572
G1 X49.408 Y84.975 E4.58118
G1 X52.140 Y82.243 E4.75762
G1 X52.917 Y82.243 E4.79309
G1 X49.408 Y85.752 E5.01968
G1 X49.408 Y86.529 E5.05515
G1 X53.693 Y82.243 E5.33189
G1 X54.470 Y82.243 E5.36736
G1 X49.408 Y87.305 E5.69426
G1 X49.408 Y88.082 E5.72972
G1 X54.822 Y82.668 E6.07932
G1 X54.822 Y83.445 E6.11478
G1 X49.759 Y88.507 E6.44168
G1 X50.536 Y88.507 E6.47715
G1 X54.822 Y84.221 E6.75390
G1 X54.822 Y84.998 E6.78936
G1 X51.313 Y88.507 E7.01595
G1 X52.089 Y88.507 E7.05142
G1 X54.822 Y85.775 E7.22786
G1 X54.822 Y86.551 E7.26332
G1 X52.866 Y88.507 E7.38961
G1 X53.643 Y88.507 E7.42507
G1 X54.822 Y87.328 E7.50121
G1 X54.822 Y88.105 E7.53667
G1 X54.419 Y88.507 E7.56265
G1 E5.56265 F2400.00000
G92 E0
G1 X49.092 Y68.073 F7800.000
G1 E2.00000 F2400.00000
G1 F1800.000
G1 X49.092 Y61.177 E2.29649
G1 X55.138 Y61.177 E2.55642
G1 X55.138 Y68.073 E2.85291
G1 X49.152 Y68.073 E3.11026
G1 X48.635 Y68.530 F7800.000
G1 F2160.000
G1 X48.635 Y60.720 E3.36813
G1 X55.266 Y60.720 E3.58709
M106 S255

G1 F2400.000
G1 X55.595 Y60.720 E3.60423
G1 X55.595 Y68.530 E4.01226
G1 X55.267 Y68.530 E4.02941
M106 S255

G1 F2160.000
G1 X48.695 Y68.530 E4.24638
G1 E2.24638 F2400.00000
G92 E0
G1 X54.419 Y67.757 F7800.000
G1 E2.00000 F2400.00000
G1 F1800.000
G1 X54.822 Y67.355 E2.02598
G1 X54.822 Y66.578 E2.06145
G1 X53.643 Y67.757 E2.13758
G1 X52.866 Y67.757 E2.17304
G1 X54.822 Y65.801 E2.29933
G1 X54.822 Y65.025 E2.33479
G1 X52.089 Y67.757 E2.51123
G1 X51.313 Y67.757 E2.54670
G1 X54.822 Y64.248 E2.77329
G1 X54.822 Y63.471 E2.80876
G1 X50.536 Y67.757 E3.08550
G1 X49.759 Y67.757 E3.12097
G1 X54.822 Y62.695 E3.44787
G1 X54.822 Y61.918 E3.48333
G1 X49.408 Y67.332 E3.83293
G1 X49.408 Y66.555 E3.86839
G1 X54.470 Y61.493 E4.19530
G1 X53.693 Y61.493 E4.23076
G1 X49.408 Y65.779 E4.50751
G1 X49.408 Y65.002 E4.54297
G1 X52.917 Y61.493 E4.76957
G1 X52.140 Y61.493 E4.80503
G1 X49.408 Y64.225 E4.98147
G1 X49.408 Y63.449 E5.01694
G1 X51.364 Y61.493 E5.14323
G1 X50.587 Y61.493 E5.17869
G1 X49.408 Y62.672 E5.25483
G1 X49.408 Y61.895 E5.29029
G1 X49.810 Y61.493 E5.31627
G1 Z1.700 F7800.000
G1 E3.31627 F2400.00000
G92 E0
G1 X48.876 Y81.927 F7800.000
G1 E2.00000 F2400.00000
G1 F1800.000
G1 X55.886 Y81.927 E2.30140
G1 X55.886 Y88.823 E2.59789
G1 X48.876 Y88.823 E2.89929
G1 X48.876 Y81.987 E3.19320
G1 X48.419 Y81.470 F7800.000
G1 F2160.000
G1 X56.015 Y81.470 E3.44401
M106 S255

G1 F2400.000
G1 X56.343 Y81.470 E3.46115
G1 X56.343 Y89.280 E3.86918
G1 X56.015 Y89.280 E3.88633
M106 S255

G1 F2160.000
G1 X48.419 Y89.280 E4.13713
G1 X48.419 Y81.530 E4.39301
G1 E2.39301 F2400.00000
G92 E0
G1 X49.192 Y88.105 F7800.000
G1 E2.00000 F2400.00000
G1 F1800.000
G1 X49.594 Y88.507 E2.02475
G1 X50.334 Y88.507 E2.05693
G1 X49.192 Y87.365 E2.12720
G1 X49.192 Y86.625 E2.15938
G1 X51.074 Y88.507 E2.27516
G1 X51.813 Y88.507 E2.30734
G1 X49.192 Y85.885 E2.46864
G1 X49.192 Y85.145 E2.50082
G1 X52.553 Y88.507 E2.70762
G1 X53.293 Y88.507 E2.73981
G1 X49.192 Y84.405 E2.99213
G1 X49.192 Y83.666 E3.02431
G1 X54.033 Y88.507 E3.32214
