; generated by Slic3r Prusa Edition 1.39.0 on 2019-10-17 at 22:12:11

; 

; external perimeters extrusion width = 0.45mm
; perimeters extrusion width = 0.45mm
; infill extrusion width = 0.45mm
; solid infill extrusion width = 0.45mm
; top infill extrusion width = 0.40mm
; first layer extrusion width = 0.42mm

M107
M104 S213 ; set temperature
G28 ; home all axes
G1 Z5 F5000 ; lift nozzle
; Filament gcode
M109 S213 ; set temperature and wait for it to be reached
G21 ; set units to millimeters
G90 ; use absolute coordinates
M82 ; use absolute distances for extrusion
G92 E0
G1 Z0.350 F7800.000
G1 E-2.00000 F2400.00000
G92 E0
G1 X70.307 Y78.771 F7800.000
G1 E2.00000 F2400.00000
G1 F1800
G1 X71.555 Y77.798 E2.07943
G1 X73.005 Y77.165 E2.15886
G1 X73.818 Y76.982 E2.20068
G1 X74.654 Y76.907 E2.24281
G1 X84.205 Y76.905 E2.72214
G1 X85.252 Y76.993 E2.77486
G1 X129.092 Y84.466 E5.00674
G1 X131.503 Y84.980 E5.13046
G1 X132.364 Y85.338 E5.17726
G1 X133.168 Y85.823 E5.22438
G1 X134.229 Y86.770 E5.29575
G1 X135.052 Y87.929 E5.36712
G1 X135.597 Y89.243 E5.43848
G1 X135.835 Y90.645 E5.50985
G1 X135.836 Y109.330 E6.44756
G1 X135.727 Y110.218 E6.49249
G1 X135.493 Y111.083 E6.53743
G1 X135.140 Y111.906 E6.58236
G1 X134.675 Y112.671 E6.62730
G1 X133.906 Y113.566 E6.68655
G1 X132.978 Y114.307 E6.74611
G1 X131.935 Y114.859 E6.80537
G1 X130.801 Y115.210 E6.86493
G1 X85.113 Y123.029 E9.19114
G1 X84.227 Y123.095 E9.23577
G1 X74.304 Y123.075 E9.73376
G1 X73.461 Y122.952 E9.77652
G1 X72.642 Y122.716 E9.81927
G1 X71.862 Y122.373 E9.86203
G1 X71.130 Y121.925 E9.90509
G1 X70.074 Y120.982 E9.97615
G1 X69.253 Y119.829 E10.04721
G1 X68.708 Y118.522 E10.11827
G1 X68.467 Y117.127 E10.18932
G1 X68.456 Y83.206 E11.89164
G1 X68.523 Y82.332 E11.93564
G1 X68.707 Y81.482 E11.97933
G1 X69.335 Y80.028 E12.05876
G1 X70.270 Y78.819 E12.13549
G1 E10.13549 F2400.00000
G92 E0
G1 X128.600 Y108.253 F7800.000
G1 E2.00000 F2400.00000
G1 F1800
G1 X127.468 Y108.465 E2.05780
G1 X122.867 Y109.261 E2.29217
G1 X84.123 Y115.850 E4.26446
G1 X75.701 Y115.850 E4.68715
G1 X75.701 Y106.900 E5.13634
G1 X95.400 Y106.900 E6.12496
G1 X95.400 Y93.100 E6.81750
G1 X75.701 Y93.100 E7.80612
G1 X75.701 Y84.150 E8.25531
G1 X84.123 Y84.150 E8.67800
G1 X122.867 Y90.739 E10.65029
G1 X127.468 Y91.535 E10.88466
G1 X128.600 Y91.747 E10.94246
G1 X128.600 Y108.193 E11.76781
G1 E9.76781 F2400.00000
G92 E0
G1 X95.055 Y106.555 F7800.000
G1 E2.00000 F2400.00000
G1 F1800
G1 X95.055 Y93.445 E2.65793
G1 X75.356 Y93.445 E3.64655
G1 X75.356 Y83.805 E4.13035
G1 X84.152 Y83.805 E4.57182
G1 X122.925 Y90.399 E6.54559
G1 X127.529 Y91.196 E6.78010
G1 X128.945 Y91.461 E6.85239
G1 X128.945 Y108.539 E7.70949
G1 X127.529 Y108.804 E7.78178
G1 X122.925 Y109.601 E8.01629
G1 X84.152 Y116.195 E9.99007
G1 X75.356 Y116.195 E10.43153
G1 X75.356 Y106.555 E10.91534
G1 X94.995 Y106.555 E11.90094
G1 X94.710 Y106.210 F7800.000
G1 F1800
G1 X94.710 Y93.790 E12.52425
G1 X75.011 Y93.790 E13.51287
G1 X75.011 Y83.460 E14.03129
G1 X84.181 Y83.460 E14.49153
G1 X122.983 Y90.059 E16.46679
G1 X127.590 Y90.856 E16.70145
G1 X129.290 Y91.174 E16.78822
G1 X129.290 Y108.826 E17.67407
G1 X127.590 Y109.144 E17.76084
G1 X122.983 Y109.941 E17.99549
G1 X84.181 Y116.540 E19.97076
G1 X75.011 Y116.540 E20.43099
G1 X75.011 Y106.210 E20.94941
G1 X94.650 Y106.210 E21.93502
G1 X95.105 Y106.146 F7800.000
G1 E19.93502 F2400.00000
G92 E0
G1 X113.085 Y110.820 F7800.000
G1 E2.00000 F2400.00000
G1 F1800
G1 X95.658 Y93.392 E3.23841
G1 X95.658 Y93.881 E3.26295
G1 X112.534 Y110.756 E4.46215
G1 X112.116 Y110.827 E4.48342
G1 X95.658 Y94.369 E5.65295
G1 X95.658 Y94.858 E5.67749
G1 X111.699 Y110.898 E6.81737
G1 X111.281 Y110.969 E6.83864
G1 X95.658 Y95.346 E7.94885
G1 X95.658 Y95.834 E7.97339
G1 X110.864 Y111.040 E9.05395
G1 X110.447 Y111.111 E9.07522
G1 X95.658 Y96.323 E10.12611
G1 X95.658 Y96.811 E10.15065
G1 X110.029 Y111.182 E11.17189
G1 X109.612 Y111.253 E11.19316
G1 X95.658 Y97.299 E12.18473
G1 X95.658 Y97.788 E12.20927
G1 X109.195 Y111.324 E13.17119
G1 X108.777 Y111.395 E13.19246
G1 X95.658 Y98.276 E14.12472
G1 X95.658 Y98.764 E14.14926
G1 X108.360 Y111.466 E15.05185
G1 X107.942 Y111.537 E15.07312
G1 X95.658 Y99.253 E15.94606
G1 X95.658 Y99.741 E15.97060
G1 X107.525 Y111.608 E16.81387
G1 X107.108 Y111.679 E16.83515
G1 X95.658 Y100.230 E17.64876
G1 X95.658 Y100.718 E17.67330
G1 X106.690 Y111.750 E18.45726
G1 X106.273 Y111.821 E18.47853
G1 X95.658 Y101.206 E19.23283
G1 X95.658 Y101.695 E19.25736
G1 X105.856 Y111.892 E19.98200
G1 X105.438 Y111.963 E20.00327
G1 X95.658 Y102.183 E20.69825
G1 X95.658 Y102.671 E20.72279
G1 X105.021 Y112.034 E21.38810
G1 X104.603 Y112.105 E21.40938
G1 X95.658 Y103.160 E22.04503
G1 X95.658 Y103.648 E22.06957
G1 X104.186 Y112.176 E22.67557
G1 X103.769 Y112.247 E22.69684
G1 X95.658 Y104.136 E23.27318
G1 X95.658 Y104.625 E23.29772
G1 X103.351 Y112.318 E23.84439
G1 X102.934 Y112.389 E23.86567
G1 X95.658 Y105.113 E24.38268
G1 X95.658 Y105.601 E24.40722
G1 X102.517 Y112.460 E24.89458
G1 X102.099 Y112.531 E24.91585
G1 X95.658 Y106.090 E25.37355
G1 X95.658 Y106.578 E25.39809
G1 X101.682 Y112.602 E25.82613
G1 X101.264 Y112.673 E25.84740
G1 X95.658 Y107.067 E26.24578
G1 X95.658 Y107.158 E26.25039
G1 X95.262 Y107.158 E26.27032
G1 X100.847 Y112.744 E26.66721
G1 X100.430 Y112.815 E26.68849
G1 X94.774 Y107.158 E27.09042
G1 X94.285 Y107.158 E27.11496
G1 X100.012 Y112.886 E27.52195
G1 X99.595 Y112.956 E27.54322
G1 X93.797 Y107.158 E27.95525
G1 X93.308 Y107.158 E27.97979
G1 X99.178 Y113.027 E28.39686
G1 X98.760 Y113.098 E28.41813
G1 X92.820 Y107.158 E28.84025
G1 X92.332 Y107.158 E28.86479
G1 X98.343 Y113.169 E29.29195
G1 X97.925 Y113.240 E29.31322
G1 X91.843 Y107.158 E29.74543
G1 X91.355 Y107.158 E29.76997
G1 X97.508 Y113.311 E30.20722
G1 X97.091 Y113.382 E30.22849
G1 X90.867 Y107.158 E30.67078
G1 X90.378 Y107.158 E30.69532
G1 X96.673 Y113.453 E31.14266
G1 X96.256 Y113.524 E31.16394
G1 X89.890 Y107.158 E31.61632
G1 X89.402 Y107.158 E31.64086
G1 X95.839 Y113.595 E32.09828
G1 X95.421 Y113.666 E32.11956
G1 X88.913 Y107.158 E32.58203
G1 X88.425 Y107.158 E32.60657
G1 X95.004 Y113.737 E33.07409
G1 X94.586 Y113.808 E33.09536
G1 X87.937 Y107.158 E33.56792
G1 X87.448 Y107.158 E33.59246
G1 X94.169 Y113.879 E34.07006
G1 X93.752 Y113.950 E34.09134
G1 X86.960 Y107.158 E34.57399
G1 X86.471 Y107.158 E34.59853
G1 X93.334 Y114.021 E35.08622
G1 X92.917 Y114.092 E35.10749
G1 X85.983 Y107.158 E35.60023
G1 X85.495 Y107.158 E35.62477
G1 X92.500 Y114.163 E36.12255
G1 X92.082 Y114.234 E36.14383
G1 X85.006 Y107.158 E36.64665
G1 X84.518 Y107.158 E36.67119
G1 X91.665 Y114.305 E37.17907
G1 X91.247 Y114.376 E37.20034
G1 X84.030 Y107.158 E37.71325
G1 X83.541 Y107.158 E37.73779
G1 X90.830 Y114.447 E38.25575
G1 X90.413 Y114.518 E38.27703
G1 X83.053 Y107.158 E38.80003
G1 X82.565 Y107.158 E38.82457
G1 X89.995 Y114.589 E39.35262
G1 X89.578 Y114.660 E39.37390
G1 X82.076 Y107.158 E39.90699
G1 X81.588 Y107.158 E39.93153
G1 X89.161 Y114.731 E40.46967
G1 X88.743 Y114.802 E40.49094
G1 X81.099 Y107.158 E41.03412
G1 X80.611 Y107.158 E41.05866
G1 X88.326 Y114.873 E41.60689
G1 X87.908 Y114.944 E41.62816
G1 X80.123 Y107.158 E42.18143
G1 X79.634 Y107.158 E42.20597
G1 X87.491 Y115.015 E42.76429
G1 X87.074 Y115.086 E42.78556
G1 X79.146 Y107.158 E43.34892
G1 X78.658 Y107.158 E43.37346
G1 X86.656 Y115.157 E43.94187
G1 X86.239 Y115.228 E43.96314
G1 X78.169 Y107.158 E44.53659
G1 X77.681 Y107.158 E44.56113
G1 X85.822 Y115.299 E45.13962
G1 X85.404 Y115.370 E45.16090
G1 X77.193 Y107.158 E45.74443
G1 X76.704 Y107.158 E45.76897
G1 X84.987 Y115.441 E46.35756
G1 X84.569 Y115.512 E46.37883
G1 X76.216 Y107.158 E46.97246
G1 X75.959 Y107.158 E46.98535
G1 X75.959 Y107.390 E46.99700
G1 X84.152 Y115.583 E47.57920
G1 X83.672 Y115.592 E47.60331
G1 X75.959 Y107.879 E48.15141
G1 X75.959 Y108.367 E48.17595
G1 X83.184 Y115.592 E48.68936
G1 X82.696 Y115.592 E48.71390
G1 X75.959 Y108.855 E49.19260
G1 X75.959 Y109.344 E49.21714
G1 X82.207 Y115.592 E49.66113
G1 X81.719 Y115.592 E49.68567
G1 X75.959 Y109.832 E50.09496
G1 X75.959 Y110.320 E50.11950
G1 X81.230 Y115.592 E50.49409
G1 X80.742 Y115.592 E50.51863
G1 X75.959 Y110.809 E50.85851
G1 X75.959 Y111.297 E50.88305
G1 X80.254 Y115.592 E51.18823
G1 X79.765 Y115.592 E51.21277
G1 X75.959 Y111.785 E51.48324
G1 X75.959 Y112.274 E51.50778
G1 X79.277 Y115.592 E51.74355
G1 X78.789 Y115.592 E51.76809
G1 X75.959 Y112.762 E51.96915
G1 X75.959 Y113.251 E51.99369
G1 X78.300 Y115.592 E52.16005
G1 X77.812 Y115.592 E52.18459
G1 X75.959 Y113.739 E52.31625
G1 X75.959 Y114.227 E52.34079
G1 X77.324 Y115.592 E52.43774
G1 X76.835 Y115.592 E52.46228
G1 X75.959 Y114.716 E52.52453
G1 X75.959 Y115.204 E52.54907
G1 X76.502 Y115.747 E52.58764
G1 E50.58764 F2400.00000
G92 E0
G1 X75.804 Y92.584 F7800.000
G1 E2.00000 F2400.00000
G1 F1800
G1 X76.061 Y92.842 E2.01829
G1 X76.550 Y92.842 E2.04283
G1 X75.959 Y92.251 E2.08479
G1 X75.959 Y91.763 E2.10933
G1 X77.038 Y92.842 E2.18600
G1 X77.527 Y92.842 E2.21054
G1 X75.959 Y91.274 E2.32192
G1 X75.959 Y90.786 E2.34646
G1 X78.015 Y92.842 E2.49254
G1 X78.503 Y92.842 E2.51708
G1 X75.959 Y90.298 E2.69786
G1 X75.959 Y89.809 E2.72240
G1 X78.992 Y92.842 E2.93788
G1 X79.480 Y92.842 E2.96242
G1 X75.959 Y89.321 E3.21261
G1 X75.959 Y88.833 E3.23715
G1 X79.968 Y92.842 E3.52205
G1 X80.457 Y92.842 E3.54659
G1 X75.959 Y88.344 E3.86619
G1 X75.959 Y87.856 E3.89073
G1 X80.945 Y92.842 E4.24503
G1 X81.433 Y92.842 E4.26957
G1 X75.959 Y87.367 E4.65858
G1 X75.959 Y86.879 E4.68312
G1 X81.922 Y92.842 E5.10683
G1 X82.410 Y92.842 E5.13137
G1 X75.959 Y86.391 E5.58979
G1 X75.959 Y85.902 E5.61433
G1 X82.899 Y92.842 E6.10745
G1 X83.387 Y92.842 E6.13199
G1 X75.959 Y85.414 E6.65981
G1 X75.959 Y84.926 E6.68435
G1 X83.875 Y92.842 E7.24688
G1 X84.364 Y92.842 E7.27142
G1 X75.959 Y84.437 E7.86866
G1 X75.959 Y84.408 E7.87011
G1 X76.419 Y84.408 E7.89320
G1 X84.852 Y92.842 E8.49248
G1 X85.340 Y92.842 E8.51702
G1 X76.907 Y84.408 E9.11630
G1 X77.396 Y84.408 E9.14084
G1 X85.829 Y92.842 E9.74013
G1 X86.317 Y92.842 E9.76467
G1 X77.884 Y84.408 E10.36395
G1 X78.372 Y84.408 E10.38849
G1 X86.805 Y92.842 E10.98777
G1 X87.294 Y92.842 E11.01231
G1 X78.861 Y84.408 E11.61160
G1 X79.349 Y84.408 E11.63614
G1 X87.782 Y92.842 E12.23542
G1 X88.270 Y92.842 E12.25996
G1 X79.837 Y84.408 E12.85924
G1 X80.326 Y84.408 E12.88378
G1 X88.759 Y92.842 E13.48307
G1 X89.247 Y92.842 E13.50761
G1 X80.814 Y84.408 E14.10689
G1 X81.302 Y84.408 E14.13143
G1 X89.736 Y92.842 E14.73071
G1 X90.224 Y92.842 E14.75525
G1 X81.791 Y84.408 E15.35454
G1 X82.279 Y84.408 E15.37908
G1 X90.712 Y92.842 E15.97836
G1 X91.201 Y92.842 E16.00290
G1 X82.767 Y84.408 E16.60218
G1 X83.256 Y84.408 E16.62672
G1 X91.689 Y92.842 E17.22601
G1 X92.177 Y92.842 E17.25055
G1 X83.744 Y84.408 E17.84983
G1 X84.102 Y84.408 E17.86779
G1 X84.259 Y84.435 E17.87583
G1 X92.666 Y92.842 E18.47321
G1 X93.154 Y92.842 E18.49775
G1 X84.848 Y84.535 E19.08804
G1 X85.436 Y84.635 E19.11802
G1 X93.642 Y92.842 E19.70121
G1 X94.131 Y92.842 E19.72575
G1 X86.024 Y84.735 E20.30185
G1 X86.612 Y84.835 E20.33183
G1 X94.619 Y92.842 E20.90083
G1 X95.108 Y92.842 E20.92537
G1 X87.200 Y84.934 E21.48728
G1 X87.788 Y85.034 E21.51726
G1 X113.368 Y110.614 E23.33503
G1 X113.786 Y110.543 E23.35631
G1 X88.377 Y85.134 E25.16194
G1 X88.965 Y85.234 E25.19194
G1 X114.203 Y110.472 E26.98542
G1 X114.620 Y110.401 E27.00669
G1 X89.554 Y85.334 E28.78801
G1 X90.142 Y85.434 E28.81801
G1 X115.038 Y110.330 E30.58717
G1 X115.455 Y110.259 E30.60844
G1 X90.730 Y85.534 E32.36545
G1 X91.319 Y85.634 E32.39544
G1 X115.873 Y110.188 E34.14029
G1 X116.290 Y110.117 E34.16156
G1 X91.907 Y85.735 E35.89425
G1 X92.496 Y85.835 E35.92425
G1 X116.707 Y110.046 E37.64478
G1 X117.125 Y109.975 E37.66605
G1 X93.084 Y85.935 E39.37442
G1 X93.673 Y86.035 E39.40441
G1 X117.542 Y109.904 E41.10062
G1 X117.959 Y109.833 E41.12190
G1 X94.261 Y86.135 E42.80595
G1 X94.850 Y86.235 E42.83595
G1 X118.377 Y109.762 E44.50784
G1 X118.794 Y109.691 E44.52911
G1 X95.438 Y86.335 E46.18885
G1 X96.027 Y86.435 E46.21884
G1 X119.212 Y109.620 E47.86642
G1 X119.629 Y109.549 E47.88769
G1 X96.615 Y86.536 E49.52311
G1 X97.204 Y86.636 E49.55311
G1 X120.046 Y109.478 E51.17636
G1 X120.464 Y109.407 E51.19764
G1 X97.792 Y86.736 E52.80874
G1 X98.381 Y86.836 E52.83873
G1 X120.881 Y109.336 E54.43767
G1 X121.298 Y109.265 E54.45895
G1 X98.969 Y86.936 E56.04573
G1 X99.558 Y87.036 E56.07573
G1 X121.716 Y109.194 E57.65035
G1 X122.133 Y109.123 E57.67162
G1 X100.146 Y87.136 E59.23409
G1 X100.735 Y87.236 E59.26408
G1 X122.551 Y109.052 E60.81439
G1 X122.968 Y108.981 E60.83565
G1 X101.323 Y87.336 E62.37377
G1 X101.911 Y87.437 E62.40377
G1 X123.384 Y108.909 E63.92966
G1 X123.800 Y108.837 E63.95089
G1 X102.500 Y87.537 E65.46454
G1 X103.088 Y87.637 E65.49454
G1 X124.217 Y108.765 E66.99596
G1 X124.633 Y108.693 E67.01719
G1 X103.677 Y87.737 E68.50638
G1 X104.265 Y87.837 E68.53638
G1 X125.049 Y108.621 E70.01334
G1 X125.466 Y108.549 E70.03457
G1 X104.854 Y87.937 E71.49929
G1 X105.442 Y88.037 E71.52929
G1 X125.882 Y108.477 E72.98178
G1 X126.298 Y108.405 E73.00301
G1 X106.031 Y88.137 E74.44327
G1 X106.619 Y88.237 E74.47327
G1 X126.715 Y108.333 E75.90130
G1 X127.131 Y108.261 E75.92253
G1 X107.208 Y88.338 E77.33832
G1 X107.796 Y88.438 E77.36832
G1 X127.546 Y108.187 E78.77177
G1 X127.957 Y108.110 E78.79280
G1 X108.385 Y88.538 E80.18368
G1 X108.973 Y88.638 E80.21367
G1 X128.342 Y108.006 E81.59005
G1 X128.342 Y107.518 E81.61459
G1 X109.562 Y88.738 E82.94914
G1 X110.150 Y88.838 E82.97914
G1 X128.342 Y107.030 E84.27187
G1 X128.342 Y106.541 E84.29641
G1 X110.739 Y88.938 E85.54733
G1 X111.327 Y89.038 E85.57733
G1 X128.342 Y106.053 E86.78643
G1 X128.342 Y105.564 E86.81097
G1 X111.916 Y89.138 E87.97825
G1 X112.504 Y89.239 E88.00824
G1 X128.342 Y105.076 E89.13371
G1 X128.342 Y104.588 E89.15825
G1 X113.092 Y89.339 E90.24189
G1 X113.681 Y89.439 E90.27189
G1 X128.342 Y104.099 E91.31371
G1 X128.342 Y103.611 E91.33825
G1 X114.269 Y89.539 E92.33826
G1 X114.858 Y89.639 E92.36825
G1 X128.342 Y103.123 E93.32644
G1 X128.342 Y102.634 E93.35098
G1 X115.446 Y89.739 E94.26735
G1 X116.035 Y89.839 E94.29735
G1 X128.342 Y102.146 E95.17190
G1 X128.342 Y101.658 E95.19644
G1 X116.623 Y89.939 E96.02917
G1 X117.212 Y90.039 E96.05917
G1 X128.342 Y101.169 E96.85008
G1 X128.342 Y100.681 E96.87462
G1 X117.800 Y90.140 E97.62372
G1 X118.389 Y90.240 E97.65371
G1 X128.342 Y100.193 E98.36099
G1 X128.342 Y99.704 E98.38553
G1 X118.977 Y90.340 E99.05099
G1 X119.566 Y90.440 E99.08098
G1 X128.342 Y99.216 E99.70462
G1 X128.342 Y98.727 E99.72916
G1 X120.154 Y90.540 E100.31098
G1 X120.743 Y90.640 E100.34098
G1 X128.342 Y98.239 E100.88098
G1 X128.342 Y97.751 E100.90552
G1 X121.331 Y90.740 E101.40370
G1 X121.920 Y90.840 E101.43370
G1 X128.342 Y97.262 E101.89006
G1 X128.342 Y96.774 E101.91460
G1 X122.508 Y90.940 E102.32915
G1 X123.097 Y91.042 E102.35920
G1 X128.342 Y96.286 E102.73186
G1 X128.342 Y95.797 E102.75640
G1 X123.688 Y91.144 E103.08710
G1 X124.279 Y91.246 E103.11721
G1 X128.342 Y95.309 E103.40594
G1 X128.342 Y94.821 E103.43048
G1 X124.869 Y91.348 E103.67725
G1 X125.460 Y91.450 E103.70737
G1 X128.342 Y94.332 E103.91217
G1 X128.342 Y93.844 E103.93671
G1 X126.050 Y91.552 E104.09955
G1 X126.641 Y91.654 E104.12967
G1 X128.342 Y93.355 E104.25054
G1 X128.342 Y92.867 E104.27508
G1 X127.231 Y91.757 E104.35399
G1 X127.829 Y91.866 E104.38451
G1 X128.497 Y92.534 E104.43200
G1 Z0.650 F7800.000
G1 X95.496 Y106.996 F7800.000
G1 F3600
G1 X95.496 Y93.004 E105.10499
G1 X75.245 Y93.004 E106.07898
G1 X75.245 Y84.246 E106.50019
G1 X84.667 Y84.246 E106.95331
G1 X120.557 Y90.381 E108.70456
G1 X124.906 Y91.146 E108.91694
G1 X128.504 Y91.826 E109.09303
G1 X128.504 Y108.174 E109.87936
G1 X124.906 Y108.854 E110.05546
G1 X120.557 Y109.619 E110.26783
G1 X84.666 Y115.754 E112.01910
G1 X75.245 Y115.754 E112.47221
G1 X75.245 Y106.996 E112.89342
G1 X95.436 Y106.996 E113.86452
G1 X95.111 Y106.611 F7800.000
G1 F3600
G1 X95.111 Y93.389 E114.50042
G1 X74.860 Y93.389 E115.47441
G1 X74.860 Y83.861 E115.93271
G1 X84.699 Y83.861 E116.40595
G1 X120.623 Y90.001 E118.15883
G1 X124.975 Y90.766 E118.37136
G1 X128.889 Y91.506 E118.56295
G1 X128.889 Y108.494 E119.38001
