; generated by Slic3r 1.3.1-dev (Build 2ef957d) on 2019-11-25 at 09:22:23

; external perimeters extrusion width = 0.55mm (4.37mm^3/s)
; perimeters extrusion width = 0.70mm (11.44mm^3/s)
; infill extrusion width = 0.62mm (13.45mm^3/s)
; solid infill extrusion width = 0.70mm (3.81mm^3/s)
; top infill extrusion width = 0.70mm (2.86mm^3/s)

M107
G92 E0
M104 S200 ; set temperature
G28 ; home all axes
G1 Z5 F5000 ; lift nozzle

; Filament gcode

M109 S200 ; set temperature and wait for it to be reached
G21 ; set units to millimeters
G90 ; use absolute coordinates
M82 ; use absolute distances for extrusion
G92 E0
G1 Z0.350 F7800.000
G1 E-2.00000 F2400.00000
G92 E0
G1 X67.793 Y148.519 F7800.000
G1 E2.00000 F2400.00000
G1 F1800.000
G1 X70.685 Y147.635 E2.09358
G1 X78.935 Y147.086 E2.34941
G1 X79.375 Y147.072 E2.36300
G1 X104.376 Y147.072 E3.13657
G1 X104.815 Y147.086 E3.15016
G1 X113.065 Y147.635 E3.40599
G1 X115.292 Y148.181 E3.47695
G1 X117.200 Y149.454 E3.54791
G1 X118.560 Y151.301 E3.61887
G1 X119.190 Y153.354 E3.68532
G1 X119.306 Y154.418 E3.71843
G1 X119.364 Y155.729 E3.75906
G1 X119.364 Y156.303 E3.77680
G1 X119.307 Y157.650 E3.81854
G1 X119.199 Y158.693 E3.85096
G1 X118.524 Y160.885 E3.92192
G1 X117.143 Y162.715 E3.99288
G1 X115.220 Y163.965 E4.06384
G1 X112.625 Y164.495 E4.14578
G1 X71.125 Y164.495 E5.42985
G1 X68.866 Y164.098 E5.50081
G1 X66.878 Y162.954 E5.57177
G1 X65.399 Y161.201 E5.64273
G1 X64.606 Y159.049 E5.71370
G1 X64.500 Y157.870 E5.75035
G1 X64.500 Y154.245 E5.86249
G1 X64.897 Y151.987 E5.93345
G1 X66.040 Y149.998 E6.00441
G1 X67.736 Y148.568 E6.07305
G1 E4.07305 F2400.00000
G92 E0
G1 X102.775 Y155.845 F7800.000
G1 E2.00000 F2400.00000
G1 F1800.000
G1 X111.152 Y155.845 E2.25918
G1 X111.134 Y156.270 E2.27233
G1 X72.725 Y156.270 E3.46075
G1 X72.725 Y155.845 E3.47389
G1 X80.975 Y155.845 E3.72916
G1 X80.975 Y155.297 E3.74613
G1 X102.775 Y155.297 E4.42067
G1 X102.775 Y155.770 E4.43532
G1 X103.400 Y155.220 F7800.000
G1 F1800.000
G1 X111.735 Y155.220 E4.69320
G1 X111.770 Y156.020 E4.71798
G1 X111.732 Y156.895 E4.74506
G1 X72.100 Y156.895 E5.97133
G1 X72.100 Y155.220 E6.02315
G1 X80.350 Y155.220 E6.27841
G1 X80.350 Y154.672 E6.29539
G1 X103.400 Y154.672 E7.00859
G1 X103.400 Y155.145 E7.02324
G1 X104.025 Y154.595 F7800.000
G1 F1800.000
G1 X112.333 Y154.595 E7.28029
G1 X112.395 Y156.020 E7.32441
G1 X112.339 Y157.338 E7.36524
G1 X112.316 Y157.520 E7.37089
G1 X71.475 Y157.520 E8.63457
G1 X71.475 Y154.595 E8.72505
G1 X79.725 Y154.595 E8.98032
G1 X79.725 Y154.047 E8.99729
G1 X104.025 Y154.047 E9.74917
G1 X104.025 Y154.520 E9.76382
G1 X104.272 Y155.030 F7800.000
G1 E7.76382 F2400.00000
G92 E0
G1 X102.463 Y155.783 F7800.000
G1 E2.00000 F2400.00000
G1 F1800.000
G1 X81.287 Y155.783 E2.28658
G1 Z0.650 F7800.000
G1 X102.904 Y154.281 F7800.000
G1 F3600.000
G1 X111.377 Y154.281 E2.51515
G1 X111.445 Y154.788 E2.52897
G1 X111.496 Y155.951 E2.56036
G1 X111.445 Y157.156 E2.59288
G1 X111.371 Y157.744 E2.60889
G1 X72.596 Y157.744 E3.65491
G1 X72.596 Y154.281 E3.74834
G1 X80.846 Y154.281 E3.97090
G1 X80.846 Y153.447 E3.99340

G1 F3600.000
G1 X80.846 Y151.505 E4.04734
G1 X99.273 Y151.504 E4.55919
G1 X102.904 Y151.505 E4.66005
G1 X102.904 Y153.447 E4.71400

G1 F3600.000
G1 X102.904 Y154.206 E4.73448
G1 X103.539 Y153.645 F7800.000
G1 F3600.000
G1 X104.625 Y153.645 E4.76377

G1 F3600.000
G1 X111.932 Y153.645 E4.96673
G1 X111.979 Y153.995 E4.97654

G1 F3600.000
G1 X112.079 Y154.732 E4.99659
G1 X112.133 Y155.950 E5.02950
G1 X112.079 Y157.209 E5.06347
G1 X111.965 Y158.120 E5.08824

G1 F3600.000
G1 X111.932 Y158.380 E5.09553
G1 X71.961 Y158.380 E6.20585
G1 X71.961 Y158.120 E6.21308

G1 F3600.000
G1 X71.961 Y153.995 E6.32434

G1 F3600.000
G1 X71.961 Y153.645 E6.33407
G1 X79.125 Y153.645 E6.53308

G1 F3600.000
G1 X80.211 Y153.645 E6.56236
G1 X80.211 Y153.447 E6.56771

G1 F3600.000
G1 X80.211 Y150.869 E6.63932
G1 X99.273 Y150.869 E7.16882
G1 X103.539 Y150.869 E7.28734
G1 X103.539 Y153.447 E7.35894

G1 F3600.000
G1 X103.539 Y153.570 E7.36227
G1 X104.100 Y153.085 F7800.000

G1 F3600.000
G1 X112.386 Y153.085 E7.59244
G1 X112.470 Y153.442 E7.60263
G1 X112.545 Y153.995 E7.61815

G1 F1800.000
G1 X112.638 Y154.681 E7.63242
G1 X112.694 Y155.950 E7.65859
G1 X112.638 Y157.256 E7.68552
G1 X112.530 Y158.120 E7.70347

G1 F3600.000
G1 X112.469 Y158.606 E7.71710
G1 X112.401 Y158.941 E7.72657
G1 X71.400 Y158.941 E8.86548
G1 X71.400 Y158.120 E8.88828

G1 F1800.000
G1 X71.400 Y153.995 E8.97328

G1 F3600.000
G1 X71.400 Y153.085 E8.99858
G1 X79.650 Y153.085 E9.22775
G1 X79.650 Y150.308 E9.30486
G1 X104.100 Y150.308 E9.98403
G1 X104.100 Y153.010 E10.05906

G1 X102.542 Y152.894 F7800.000

G1 F3600.000
G1 X101.515 Y151.867 E10.10074
G1 X100.725 Y151.867 E10.12340
G1 X102.542 Y153.683 E10.19711
G1 X102.542 Y154.473 E10.21977
G1 X99.936 Y151.867 E10.32553
G1 X99.146 Y151.867 E10.34818

G1 E8.34818 F2400.00000
G92 E0
G1 X105.541 Y155.104 F7800.000
G1 E2.00000 F2400.00000

G1 F3600.000
G1 X105.080 Y154.643 E2.01872
G1 X104.291 Y154.643 E2.04137
G1 X105.541 Y155.894 E2.09213
G1 X105.541 Y156.652 E2.11390
G1 X105.511 Y156.652 E2.11479
G1 X103.501 Y154.643 E2.19633
G1 X102.712 Y154.643 E2.21899
G1 X104.721 Y156.652 E2.30053
G1 X103.932 Y156.652 E2.32319
G1 X99.146 Y151.867 E2.51741
G1 X98.357 Y151.867 E2.54006
G1 X103.142 Y156.652 E2.73428
G1 X102.353 Y156.652 E2.75694
G1 X97.567 Y151.867 E2.95116
G1 X96.778 Y151.867 E2.97381
G1 X101.563 Y156.652 E3.16803
G1 X100.774 Y156.652 E3.19069
G1 X95.989 Y151.867 E3.38490
G1 X95.199 Y151.867 E3.40756
G1 X99.985 Y156.652 E3.60178
G1 X99.195 Y156.652 E3.62443
G1 X94.410 Y151.867 E3.81865
G1 X93.620 Y151.867 E3.84131
G1 X98.406 Y156.652 E4.03552
G1 X97.616 Y156.652 E4.05818
G1 X92.831 Y151.867 E4.25240
G1 X92.041 Y151.867 E4.27505
G1 X96.827 Y156.652 E4.46927
G1 X96.037 Y156.652 E4.49193
G1 X91.252 Y151.867 E4.68614
G1 X90.463 Y151.867 E4.70880
G1 X95.248 Y156.652 E4.90302
G1 X94.459 Y156.652 E4.92567
G1 X89.673 Y151.867 E5.11989
G1 X88.884 Y151.867 E5.14254
G1 X93.669 Y156.652 E5.33676
G1 X92.880 Y156.652 E5.35942
G1 X88.094 Y151.867 E5.55363
G1 X87.305 Y151.867 E5.57629
G1 X92.090 Y156.652 E5.77051
G1 X91.301 Y156.652 E5.79316
G1 X86.515 Y151.867 E5.98738
G1 X85.726 Y151.867 E6.01003
G1 X90.511 Y156.652 E6.20425
G1 X89.722 Y156.652 E6.22691
G1 X84.936 Y151.867 E6.42112
G1 X84.147 Y151.867 E6.44378
G1 X88.932 Y156.652 E6.63800
G1 X88.143 Y156.652 E6.66065
G1 X83.358 Y151.867 E6.85487
G1 X82.568 Y151.867 E6.87752
G1 X87.354 Y156.652 E7.07174
G1 X86.564 Y156.652 E7.09439
G1 X81.779 Y151.867 E7.28861
G1 X81.208 Y151.867 E7.30498
G1 X81.208 Y152.086 E7.31127
G1 X85.775 Y156.652 E7.49659
G1 X84.985 Y156.652 E7.51924
G1 X81.208 Y152.875 E7.67252
G1 X81.208 Y153.665 E7.69518
G1 X84.196 Y156.652 E7.81642
G1 X83.406 Y156.652 E7.83908
G1 X81.208 Y154.454 E7.92828
G1 X81.208 Y154.643 E7.93370
G1 X80.608 Y154.643 E7.95094
G1 X82.617 Y156.652 E8.03248
G1 X81.828 Y156.652 E8.05514
G1 X79.818 Y154.643 E8.13668
G1 X79.029 Y154.643 E8.15934
G1 X81.038 Y156.652 E8.24088
G1 X80.249 Y156.652 E8.26354
G1 X78.239 Y154.643 E8.34508
G1 X78.209 Y154.643 E8.34597
G1 X78.209 Y155.402 E8.36774
G1 X79.459 Y156.652 E8.41850
G1 X78.670 Y156.652 E8.44115
G1 X78.209 Y156.191 E8.45987

G1 X78.093 Y155.642 F7800.000
G1 F1200.000
G1 X77.120 Y154.669 E8.49721
G1 X76.216 Y154.669 E8.52173
G1 X78.093 Y156.546 E8.59375
G1 X78.093 Y157.262 E8.61316
G1 X78.809 Y157.262 E8.63257
G1 X78.315 Y156.767 F7800.000
G1 F1200.000
G1 X78.903 Y157.356 E8.65515
G1 X79.807 Y157.356 E8.67967
G1 X79.219 Y156.767 E8.70225
G1 X80.123 Y156.767 E8.72677
G1 X80.711 Y157.356 E8.74935
G1 X81.615 Y157.356 E8.77388
G1 X81.026 Y156.767 E8.79646
G1 X81.930 Y156.767 E8.82098
G1 X82.519 Y157.356 E8.84356
G1 X83.423 Y157.356 E8.86809
G1 X82.834 Y156.767 E8.89067
G1 X83.738 Y156.767 E8.91519
G1 X84.327 Y157.356 E8.93777
G1 X85.231 Y157.356 E8.96229
G1 X84.642 Y156.767 E8.98487
G1 X85.546 Y156.767 E9.00940
G1 X86.135 Y157.356 E9.03198
G1 X87.039 Y157.356 E9.05650
G1 X86.450 Y156.767 E9.07908
G1 X87.354 Y156.767 E9.10360
G1 X87.943 Y157.356 E9.12618
G1 X88.847 Y157.356 E9.15071
G1 X88.258 Y156.767 E9.17329
G1 X89.162 Y156.767 E9.19781
G1 X89.751 Y157.356 E9.22039
G1 X90.655 Y157.356 E9.24491
G1 X90.066 Y156.767 E9.26749
G1 X90.970 Y156.767 E9.29202
G1 X91.559 Y157.356 E9.31460
G1 X92.463 Y157.356 E9.33912
G1 X91.874 Y156.767 E9.36170
G1 X92.778 Y156.767 E9.38623
G1 X93.367 Y157.356 E9.40881
G1 X94.271 Y157.356 E9.43333
G1 X93.682 Y156.767 E9.45591
G1 X94.586 Y156.767 E9.48043
G1 X95.175 Y157.356 E9.50301
G1 X96.079 Y157.356 E9.52754
G1 X95.490 Y156.767 E9.55012
G1 X96.394 Y156.767 E9.57464
G1 X96.983 Y157.356 E9.59722
G1 X97.887 Y157.356 E9.62174
G1 X97.298 Y156.767 E9.64432
G1 X98.202 Y156.767 E9.66885
G1 X98.791 Y157.356 E9.69143
G1 X99.695 Y157.356 E9.71595
G1 X99.106 Y156.767 E9.73853
G1 X100.010 Y156.767 E9.76306
G1 X100.599 Y157.356 E9.78563
G1 X101.503 Y157.356 E9.81016
G1 X100.914 Y156.767 E9.83274
G1 X101.818 Y156.767 E9.85726
G1 X102.406 Y157.356 E9.87984
G1 X103.310 Y157.356 E9.90437
G1 X102.722 Y156.767 E9.92695
G1 X103.626 Y156.767 E9.95147
G1 X104.214 Y157.356 E9.97405
G1 X105.118 Y157.356 E9.99857
G1 X104.530 Y156.767 E10.02115
G1 X105.434 Y156.767 E10.04568
G1 X106.022 Y157.356 E10.06826
G1 X106.926 Y157.356 E10.09278
G1 X105.657 Y156.086 E10.14150
G1 X105.657 Y155.182 E10.16602
G1 X107.830 Y157.356 E10.24942
G1 X108.734 Y157.356 E10.27395
G1 X106.048 Y154.669 E10.37702
G1 X106.952 Y154.669 E10.40155
G1 X109.638 Y157.356 E10.50462
G1 X110.542 Y157.356 E10.52915
G1 X107.856 Y154.669 E10.63222
G1 X108.760 Y154.669 E10.65675
G1 X111.074 Y156.984 E10.74554
G1 X111.104 Y156.109 E10.76928
G1 X109.664 Y154.669 E10.82452
G1 X110.568 Y154.669 E10.84905
G1 X111.062 Y155.164 E10.86802
G1 X77.999 Y157.356 F7800.000
G1 F1200.000
G1 X75.312 Y154.669 E10.97110
G1 X74.408 Y154.669 E10.99562
G1 X77.095 Y157.356 E11.09870
G1 X76.191 Y157.356 E11.12322
G1 X73.504 Y154.669 E11.22630
G1 X72.985 Y154.669 E11.24040
G1 X72.985 Y155.053 E11.25082
G1 X75.287 Y157.356 E11.33916
G1 X74.383 Y157.356 E11.36369
G1 X72.985 Y155.957 E11.41734
G1 X72.985 Y156.861 E11.44187
G1 X73.479 Y157.356 E11.46083
G1 Z0.950 F7800.000
G1 X102.904 Y153.195 F7800.000
G1 F3600.000
G1 X111.400 Y153.195 E11.69003
G1 X111.502 Y153.629 E11.70206
G1 X111.653 Y154.741 E11.73234
G1 X111.703 Y155.886 E11.76326
G1 X111.652 Y157.073 E11.79531
G1 X111.498 Y158.307 E11.82885
G1 X111.432 Y158.618 E11.83743
G1 X72.596 Y158.618 E12.88508
G1 X72.596 Y153.195 E13.03139
G1 X80.846 Y153.195 E13.25395
G1 X80.846 Y149.784 E13.34596

G1 F3600.000
G1 X80.846 Y148.123 E13.39209
G1 X95.593 Y148.123 E13.80172
G1 X102.904 Y148.123 E14.00479
G1 X102.904 Y149.784 E14.05092

G1 F3600.000
G1 X102.904 Y153.120 E14.14091
G1 X103.539 Y152.559 F7800.000
G1 F3600.000
G1 X104.625 Y152.559 E14.17020

G1 F3600.000
G1 X111.904 Y152.560 E14.37238

G1 F3600.000
G1 X112.127 Y153.513 E14.39880
G1 X112.286 Y154.684 E14.43069
G1 X112.339 Y155.886 E14.46314
G1 X112.286 Y157.126 E14.49663
G1 X112.125 Y158.412 E14.53158
G1 X111.947 Y159.254 E14.55479
G1 X71.961 Y159.254 E15.63349
G1 X71.961 Y152.560 E15.81407

G1 F3600.000
G1 X79.125 Y152.559 E16.01308

G1 F3600.000
G1 X80.211 Y152.559 E16.04237
G1 X80.211 Y149.783 E16.11724

G1 F3600.000
G1 X80.211 Y147.488 E16.18102
G1 X95.593 Y147.487 E16.60831
G1 X103.539 Y147.487 E16.82904
G1 X103.539 Y149.783 E16.89281

G1 F3600.000
G1 X103.539 Y152.484 E16.96567
G1 X104.100 Y151.998 F7800.000
G1 F1800.000
G1 X104.625 Y151.998 E16.97649

G1 F3600.000
G1 X112.168 Y151.998 E17.18602
G1 X112.361 Y152.129 E17.19248
G1 X112.400 Y152.220 E17.19524
G1 X112.479 Y152.560 E17.20492

G1 F1800.000
G1 X112.679 Y153.411 E17.22295
G1 X112.845 Y154.634 E17.24839
G1 X112.900 Y155.886 E17.27420
G1 X112.845 Y157.173 E17.30077
G1 X112.679 Y158.505 E17.32843
G1 X112.476 Y159.466 E17.34866

G1 F3600.000
G1 X112.402 Y159.814 E17.35856
G1 X71.400 Y159.814 E18.49751
G1 X71.400 Y159.466 E18.50719

G1 F1800.000
G1 X71.400 Y152.560 E18.64953

G1 F3600.000
G1 X71.400 Y152.122 E18.66169
G1 X71.582 Y151.998 E18.66779
G1 X79.125 Y151.998 E18.87733

G1 F1800.000
G1 X79.650 Y151.998 E18.88815
G1 X79.650 Y149.783 E18.93380

G1 F3600.000
G1 X79.650 Y146.927 E19.01314
G1 X95.593 Y146.926 E19.45600
G1 X104.100 Y146.927 E19.69231
G1 X104.100 Y149.783 E19.77165

G1 F1800.000
G1 X104.100 Y151.923 E19.81576
G1 X104.067 Y152.497 F7800.000
G1 X102.080 Y152.989 F7800.000

G1 F3600.000
G1 X102.542 Y152.528 E19.83392
G1 X102.542 Y151.749 E19.85559
G1 X101.302 Y152.989 E19.90440
G1 X100.523 Y152.989 E19.92608
G1 X102.542 Y150.971 E20.00554
G1 X102.542 Y150.192 E20.02721
G1 X99.745 Y152.989 E20.13732
G1 X98.966 Y152.989 E20.15898
G1 X102.542 Y149.413 E20.29972
G1 X102.542 Y148.635 E20.32140
G1 X98.187 Y152.989 E20.49281
G1 X97.409 Y152.989 E20.51448
G1 X101.913 Y148.485 E20.69178
G1 X101.134 Y148.485 E20.71345
G1 X96.630 Y152.989 E20.89075
G1 X95.852 Y152.989 E20.91243
G1 X100.355 Y148.485 E21.08973
G1 X99.577 Y148.485 E21.11140
G1 X95.073 Y152.989 E21.28870
G1 X94.295 Y152.989 E21.31037
G1 X98.798 Y148.485 E21.48767
G1 X98.020 Y148.485 E21.50934
G1 X93.516 Y152.989 E21.68664
G1 X92.737 Y152.989 E21.70832
G1 X97.241 Y148.485 E21.88561
G1 X96.463 Y148.485 E21.90729
G1 X91.959 Y152.989 E22.08459
G1 X91.180 Y152.989 E22.10626
G1 X95.684 Y148.485 E22.28356
G1 X94.905 Y148.485 E22.30523
G1 X90.402 Y152.989 E22.48253
G1 X89.623 Y152.989 E22.50420
G1 X94.127 Y148.485 E22.68150
G1 X93.348 Y148.485 E22.70318
G1 X88.845 Y152.989 E22.88047
G1 X88.066 Y152.989 E22.90215
G1 X92.570 Y148.485 E23.07945
G1 X91.791 Y148.485 E23.10112
G1 X87.287 Y152.989 E23.27842
G1 X86.509 Y152.989 E23.30009
G1 X91.013 Y148.485 E23.47739
G1 X90.234 Y148.485 E23.49906
G1 X85.730 Y152.989 E23.67636
G1 X84.952 Y152.989 E23.69803
G1 X89.455 Y148.485 E23.87533
G1 X88.677 Y148.485 E23.89701
G1 X84.174 Y152.989 E24.07429
G1 X83.395 Y152.989 E24.09597
G1 X87.898 Y148.485 E24.27327
G1 X87.120 Y148.485 E24.29494
G1 X82.616 Y152.989 E24.47224
G1 X81.837 Y152.989 E24.49391
G1 X86.341 Y148.485 E24.67121
G1 X85.563 Y148.485 E24.69288
G1 X81.208 Y152.839 E24.86429
G1 X81.208 Y152.061 E24.88596
G1 X84.784 Y148.485 E25.02672
G1 X84.005 Y148.485 E25.04839
G1 X81.208 Y151.282 E25.15850
G1 X81.208 Y150.504 E25.18018
G1 X83.227 Y148.485 E25.25963
G1 X82.448 Y148.485 E25.28131
G1 X81.208 Y149.725 E25.33012
G1 X81.208 Y148.947 E25.35179
G1 X81.670 Y148.485 E25.36995

G1 E23.36995 F2400.00000
G92 E0
G1 X81.645 Y153.599 F7800.000
G1 E2.00000 F2400.00000
G1 F1200.000
G1 X81.235 Y153.599 E2.01121
G1 X81.235 Y154.009 E2.02241
G1 X82.140 Y153.104 E2.05734
G1 X83.049 Y153.104 E2.08214
G1 X77.923 Y158.230 E2.27989
G1 X78.833 Y158.230 E2.30470
G1 X83.958 Y153.104 E2.50245
G1 X84.868 Y153.104 E2.52726
G1 X79.742 Y158.230 E2.72504
G1 X80.651 Y158.230 E2.74984
G1 X85.776 Y153.104 E2.94759
G1 X86.685 Y153.104 E2.97239
G1 X81.560 Y158.230 E3.17015
G1 X82.469 Y158.230 E3.19495
G1 X87.594 Y153.104 E3.39270
G1 X88.503 Y153.104 E3.41751
G1 X83.378 Y158.230 E3.61526
G1 X84.287 Y158.230 E3.64006
G1 X89.412 Y153.104 E3.83781
G1 X90.322 Y153.104 E3.86262
G1 X85.196 Y158.230 E4.06037
G1 X86.105 Y158.230 E4.08517
G1 X91.231 Y153.104 E4.28293
G1 X92.140 Y153.104 E4.30773
G1 X87.014 Y158.230 E4.50548
G1 X87.923 Y158.230 E4.53028
G1 X93.049 Y153.104 E4.72804
G1 X93.958 Y153.104 E4.75284
G1 X88.832 Y158.230 E4.95059
G1 X89.742 Y158.230 E4.97539
G1 X94.867 Y153.104 E5.17315
G1 X95.776 Y153.104 E5.19795
G1 X90.651 Y158.230 E5.39570
G1 X91.560 Y158.230 E5.42050
G1 X96.685 Y153.104 E5.61826
G1 X97.594 Y153.104 E5.64306
G1 X92.469 Y158.230 E5.84081
G1 X93.378 Y158.230 E5.86561
G1 X98.503 Y153.104 E6.06337
G1 X99.159 Y153.104 E6.08125
G1 X99.413 Y153.104 E6.08818
G1 X94.287 Y158.230 E6.28596
G1 X95.196 Y158.230 E6.31076
G1 X100.322 Y153.104 E6.50851
G1 X100.676 Y153.104 E6.51817
G1 X101.231 Y153.104 E6.53331
G1 X96.105 Y158.230 E6.73107
G1 X97.014 Y158.230 E6.75587
G1 X102.140 Y153.104 E6.95363
G1 X102.515 Y153.104 E6.96388
G1 X102.515 Y153.583 E6.97694
G1 X102.570 Y153.583 E6.97843
G1 X97.923 Y158.230 E7.15771
G1 X98.832 Y158.230 E7.18251
