; generated by Slic3r 1.3.1-dev (Build adea0d9) on 2019-12-16 at 00:49:20

; external perimeters extrusion width = 0.44mm (2.86mm^3/s)
; perimeters extrusion width = 0.56mm (4.14mm^3/s)
; infill extrusion width = 0.50mm (3.66mm^3/s)
; solid infill extrusion width = 0.56mm (3.10mm^3/s)
; top infill extrusion width = 0.56mm (3.10mm^3/s)

M107
G92 E0
;D3D:START:START
T0
M104 S215 T0

G21
G90
M107
T0
G28
G29
M109 T0 S215 T0
G0 F3000
M107
T0
G92 E0
G0 X0 Y149 Z0.1 F3600
G1 Y49 E6.5 F1200
G0 Z1
G92 E0
; Filament gcode

G21 ; set units to millimeters
G90 ; use absolute coordinates
M82 ; use absolute distances for extrusion
G92 E0
G1 Z0.300 F7800.000
G1 E-2.00000 F2400.00000
G92 E0
G1 X102.248 Y102.296 F7800.000
G1 E2.00000 F2400.00000
G1 F1800.000
G1 X102.723 Y102.053 E2.01767
G1 X103.250 Y101.970 E2.03535
G1 X103.777 Y102.053 E2.05302
G1 X104.252 Y102.296 E2.07069
G1 X104.629 Y102.673 E2.08836
G1 X104.872 Y103.148 E2.10603
G1 X104.955 Y103.675 E2.12371
G1 X104.872 Y104.202 E2.14138
G1 X104.629 Y104.677 E2.15905
G1 X104.252 Y105.054 E2.17672
G1 X103.777 Y105.297 E2.19439
G1 X103.250 Y105.380 E2.21206
G1 X102.723 Y105.297 E2.22974
G1 X102.248 Y105.054 E2.24741
G1 X101.871 Y104.677 E2.26508
G1 X101.628 Y104.202 E2.28275
G1 X101.545 Y103.675 E2.30042
G1 X101.628 Y103.148 E2.31810
G1 X101.871 Y102.673 E2.33577
G1 X102.205 Y102.338 E2.35145
G1 X102.406 Y102.513 F7800.000
G1 F1800.000
G1 X102.806 Y102.309 E2.36634
G1 X103.250 Y102.239 E2.38122
G1 X103.694 Y102.309 E2.39610
G1 X104.094 Y102.513 E2.41099
G1 X104.412 Y102.831 E2.42587
G1 X104.616 Y103.231 E2.44076
G1 X104.686 Y103.675 E2.45564
G1 X104.616 Y104.119 E2.47053
G1 X104.412 Y104.519 E2.48541
G1 X104.094 Y104.837 E2.50029
G1 X103.694 Y105.041 E2.51518
G1 X103.250 Y105.111 E2.53006
G1 X102.806 Y105.041 E2.54495
G1 X102.406 Y104.837 E2.55983
G1 X102.088 Y104.519 E2.57472
G1 X101.884 Y104.119 E2.58960
G1 X101.814 Y103.675 E2.60449
G1 X101.884 Y103.231 E2.61937
G1 X102.088 Y102.831 E2.63426
G1 X102.363 Y102.556 E2.64715
G1 X102.564 Y102.731 F7800.000
G1 F1800.000
G1 X102.889 Y102.565 E2.65925
G1 X103.250 Y102.508 E2.67135
G1 X103.611 Y102.565 E2.68344
G1 X103.936 Y102.731 E2.69554
G1 X104.194 Y102.989 E2.70763
G1 X104.360 Y103.314 E2.71973
G1 X104.417 Y103.675 E2.73183
G1 X104.360 Y104.036 E2.74393
G1 X104.194 Y104.361 E2.75603
G1 X103.936 Y104.619 E2.76812
G1 X103.611 Y104.785 E2.78022
G1 X103.250 Y104.842 E2.79231
G1 X102.889 Y104.785 E2.80441
G1 X102.564 Y104.619 E2.81651
G1 X102.306 Y104.361 E2.82860
G1 X102.140 Y104.036 E2.84070
G1 X102.083 Y103.675 E2.85280
G1 X102.140 Y103.314 E2.86489
G1 X102.306 Y102.989 E2.87699
G1 X102.522 Y102.773 E2.88710
G1 E0.88710 F2400.00000
G92 E0
G1 X48.455 Y103.675 F7800.000
G1 E2.00000 F2400.00000
G1 F1800.000
G1 X48.372 Y104.202 E2.01767
G1 X48.129 Y104.677 E2.03535
G1 X47.752 Y105.054 E2.05301
G1 X47.277 Y105.297 E2.07069
G1 X46.750 Y105.380 E2.08836
G1 X46.223 Y105.297 E2.10603
G1 X45.748 Y105.054 E2.12371
G1 X45.371 Y104.677 E2.14137
G1 X45.128 Y104.202 E2.15905
G1 X45.045 Y103.675 E2.17672
G1 X45.128 Y103.148 E2.19439
G1 X45.371 Y102.673 E2.21207
G1 X45.748 Y102.296 E2.22973
G1 X46.223 Y102.053 E2.24741
G1 X46.750 Y101.970 E2.26508
G1 X47.277 Y102.053 E2.28275
G1 X47.752 Y102.296 E2.30042
G1 X48.129 Y102.673 E2.31809
G1 X48.372 Y103.148 E2.33577
G1 X48.446 Y103.616 E2.35145
G1 X48.186 Y103.675 F7800.000
G1 F1800.000
G1 X48.116 Y104.119 E2.36633
G1 X47.912 Y104.519 E2.38122
G1 X47.594 Y104.837 E2.39610
G1 X47.194 Y105.041 E2.41099
G1 X46.750 Y105.111 E2.42587
G1 X46.306 Y105.041 E2.44076
G1 X45.906 Y104.837 E2.45564
G1 X45.588 Y104.519 E2.47052
G1 X45.384 Y104.119 E2.48541
G1 X45.314 Y103.675 E2.50029
G1 X45.384 Y103.231 E2.51518
G1 X45.588 Y102.831 E2.53006
G1 X45.906 Y102.513 E2.54495
G1 X46.306 Y102.309 E2.55983
G1 X46.750 Y102.239 E2.57472
G1 X47.194 Y102.309 E2.58960
G1 X47.594 Y102.513 E2.60449
G1 X47.912 Y102.831 E2.61937
G1 X48.116 Y103.231 E2.63426
G1 X48.177 Y103.616 E2.64715
G1 X47.917 Y103.675 F7800.000
G1 F1800.000
G1 X47.860 Y104.036 E2.65925
G1 X47.694 Y104.361 E2.67135
G1 X47.436 Y104.619 E2.68344
G1 X47.111 Y104.785 E2.69554
G1 X46.750 Y104.842 E2.70764
G1 X46.389 Y104.785 E2.71973
G1 X46.064 Y104.619 E2.73183
G1 X45.806 Y104.361 E2.74393
G1 X45.640 Y104.036 E2.75602
G1 X45.583 Y103.675 E2.76812
G1 X45.640 Y103.314 E2.78022
G1 X45.806 Y102.989 E2.79231
G1 X46.064 Y102.731 E2.80441
G1 X46.389 Y102.565 E2.81651
G1 X46.750 Y102.508 E2.82860
G1 X47.111 Y102.565 E2.84070
G1 X47.436 Y102.731 E2.85280
G1 X47.694 Y102.989 E2.86489
G1 X47.860 Y103.314 E2.87699
G1 X47.908 Y103.616 E2.88710
G1 E0.88710 F2400.00000
G92 E0
G1 X46.750 Y21.380 F7800.000
G1 E2.00000 F2400.00000
G1 F1800.000
G1 X46.223 Y21.296 E2.01767
G1 X45.748 Y21.054 E2.03534
G1 X45.371 Y20.677 E2.05301
G1 X45.128 Y20.202 E2.07069
G1 X45.045 Y19.675 E2.08836
G1 X45.128 Y19.148 E2.10603
G1 X45.371 Y18.673 E2.12371
G1 X45.748 Y18.296 E2.14138
G1 X46.223 Y18.054 E2.15905
G1 X46.750 Y17.970 E2.17672
G1 X47.277 Y18.054 E2.19439
G1 X47.752 Y18.296 E2.21206
G1 X48.129 Y18.673 E2.22973
G1 X48.372 Y19.148 E2.24741
G1 X48.455 Y19.675 E2.26508
G1 X48.372 Y20.202 E2.28275
G1 X48.129 Y20.677 E2.30043
G1 X47.752 Y21.054 E2.31810
G1 X47.277 Y21.296 E2.33577
G1 X46.809 Y21.371 E2.35145
G1 X46.750 Y21.111 F7800.000
G1 F1800.000
G1 X46.306 Y21.041 E2.36634
G1 X45.906 Y20.837 E2.38122
G1 X45.588 Y20.519 E2.39610
G1 X45.384 Y20.119 E2.41099
G1 X45.314 Y19.675 E2.42587
G1 X45.384 Y19.231 E2.44075
G1 X45.588 Y18.831 E2.45565
G1 X45.906 Y18.513 E2.47053
G1 X46.306 Y18.309 E2.48541
G1 X46.750 Y18.239 E2.50030
G1 X47.194 Y18.309 E2.51518
G1 X47.594 Y18.513 E2.53006
G1 X47.912 Y18.831 E2.54494
G1 X48.116 Y19.231 E2.55984
G1 X48.186 Y19.675 E2.57472
G1 X48.116 Y20.119 E2.58960
G1 X47.912 Y20.519 E2.60450
G1 X47.594 Y20.837 E2.61938
G1 X47.194 Y21.041 E2.63426
G1 X46.809 Y21.102 E2.64715
G1 X46.750 Y20.842 F7800.000
G1 F1800.000
G1 X46.389 Y20.785 E2.65925
G1 X46.064 Y20.619 E2.67134
G1 X45.806 Y20.361 E2.68344
G1 X45.640 Y20.036 E2.69554
G1 X45.583 Y19.675 E2.70764
G1 X45.640 Y19.314 E2.71973
G1 X45.806 Y18.989 E2.73184
G1 X46.064 Y18.731 E2.74393
G1 X46.389 Y18.565 E2.75603
G1 X46.750 Y18.508 E2.76812
G1 X47.111 Y18.565 E2.78022
G1 X47.436 Y18.731 E2.79231
G1 X47.694 Y18.989 E2.80441
G1 X47.860 Y19.314 E2.81651
G1 X47.917 Y19.675 E2.82861
G1 X47.860 Y20.036 E2.84070
G1 X47.694 Y20.361 E2.85281
G1 X47.436 Y20.619 E2.86490
G1 X47.111 Y20.785 E2.87699
G1 X46.809 Y20.833 E2.88710
G1 E0.88710 F2400.00000
G92 E0
G1 X101.545 Y19.675 F7800.000
G1 E2.00000 F2400.00000
G1 F1800.000
G1 X101.628 Y19.148 E2.01767
G1 X101.871 Y18.673 E2.03535
G1 X102.248 Y18.296 E2.05302
G1 X102.723 Y18.054 E2.07069
G1 X103.250 Y17.970 E2.08836
G1 X103.777 Y18.054 E2.10603
G1 X104.252 Y18.296 E2.12370
G1 X104.629 Y18.673 E2.14137
G1 X104.872 Y19.148 E2.15905
G1 X104.955 Y19.675 E2.17672
G1 X104.872 Y20.202 E2.19439
G1 X104.629 Y20.677 E2.21207
G1 X104.252 Y21.054 E2.22974
G1 X103.777 Y21.296 E2.24741
G1 X103.250 Y21.380 E2.26508
G1 X102.723 Y21.296 E2.28275
G1 X102.248 Y21.054 E2.30042
G1 X101.871 Y20.677 E2.31809
G1 X101.628 Y20.202 E2.33577
G1 X101.554 Y19.734 E2.35145
G1 X101.814 Y19.675 F7800.000
G1 F1800.000
G1 X101.884 Y19.231 E2.36633
G1 X102.088 Y18.831 E2.38123
G1 X102.406 Y18.513 E2.39611
G1 X102.806 Y18.309 E2.41099
G1 X103.250 Y18.239 E2.42587
G1 X103.694 Y18.309 E2.44076
G1 X104.094 Y18.513 E2.45564
G1 X104.412 Y18.831 E2.47052
G1 X104.616 Y19.231 E2.48541
G1 X104.686 Y19.675 E2.50030
G1 X104.616 Y20.119 E2.51518
G1 X104.412 Y20.519 E2.53007
G1 X104.094 Y20.837 E2.54495
G1 X103.694 Y21.041 E2.55983
G1 X103.250 Y21.111 E2.57472
G1 X102.806 Y21.041 E2.58960
G1 X102.406 Y20.837 E2.60448
G1 X102.088 Y20.519 E2.61936
G1 X101.884 Y20.119 E2.63426
G1 X101.823 Y19.734 E2.64715
G1 X102.083 Y19.675 F7800.000
G1 F1800.000
G1 X102.140 Y19.314 E2.65925
G1 X102.306 Y18.989 E2.67135
G1 X102.564 Y18.731 E2.68345
G1 X102.889 Y18.565 E2.69554
G1 X103.250 Y18.508 E2.70764
G1 X103.611 Y18.565 E2.71973
G1 X103.936 Y18.731 E2.73183
G1 X104.194 Y18.989 E2.74392
G1 X104.360 Y19.314 E2.75603
G1 X104.417 Y19.675 E2.76812
G1 X104.360 Y20.036 E2.78022
G1 X104.194 Y20.361 E2.79232
G1 X103.936 Y20.619 E2.80441
G1 X103.611 Y20.785 E2.81651
G1 X103.250 Y20.842 E2.82861
G1 X102.889 Y20.785 E2.84070
G1 X102.564 Y20.619 E2.85280
G1 X102.306 Y20.361 E2.86489
G1 X102.140 Y20.036 E2.87700
G1 X102.092 Y19.734 E2.88710
G1 E0.88710 F2400.00000
G92 E0
G1 X88.396 Y101.479 F7800.000
G1 E2.00000 F2400.00000
G1 F1800.000
G1 X61.604 Y101.479 E2.88762
G1 X61.604 Y128.231 E3.77389
G1 X48.008 Y128.231 E4.22430
G1 X46.475 Y123.435 E4.39109
G1 X42.290 Y110.112 E4.85375
G1 X40.527 Y104.286 E5.05542
G1 X40.148 Y102.933 E5.10196
G1 X39.946 Y102.093 E5.13059
G1 X39.946 Y12.871 E8.08645
G1 X53.554 Y12.871 E8.53726
G1 X53.554 Y79.719 E10.75188
G1 X53.733 Y81.145 E10.79952
G1 X54.278 Y82.573 E10.85013
G1 X55.157 Y83.926 E10.90360
G1 X56.345 Y85.188 E10.96102
G1 X57.816 Y86.347 E11.02305
G1 X59.545 Y87.392 E11.08999
G1 X61.506 Y88.313 E11.16177
G1 X63.670 Y89.099 E11.23804
G1 X66.005 Y89.741 E11.31826
G1 X68.476 Y90.230 E11.40171
G1 X71.045 Y90.560 E11.48754
G1 X73.675 Y90.726 E11.57483
G1 X76.325 Y90.726 E11.66262
G1 X78.954 Y90.560 E11.74991
G1 X81.524 Y90.230 E11.83574
G1 X83.995 Y89.741 E11.91919
G1 X86.330 Y89.099 E11.99941
G1 X88.494 Y88.313 E12.07568
G1 X90.455 Y87.392 E12.14746
G1 X92.184 Y86.347 E12.21439
G1 X93.655 Y85.188 E12.27643
G1 X94.843 Y83.926 E12.33384
G1 X95.722 Y82.573 E12.38732
G1 X96.267 Y81.145 E12.43793
G1 X96.446 Y79.719 E12.48557
G1 X96.446 Y12.871 E14.70019
G1 X110.054 Y12.871 E15.15100
G1 X110.054 Y102.093 E18.10686
G1 X109.852 Y102.933 E18.13549
G1 X109.473 Y104.286 E18.18203
G1 X107.710 Y110.112 E18.38369
G1 X103.525 Y123.435 E18.84636
G1 X101.992 Y128.231 E19.01314
G1 X88.396 Y128.231 E19.46355
G1 X88.396 Y101.539 E20.34784
G1 X88.131 Y101.744 F7800.000
G1 F1800.000
G1 X61.869 Y101.744 E21.21786
G1 X61.869 Y128.496 E22.10413
G1 X47.814 Y128.496 E22.56977
G1 X46.222 Y123.515 E22.74300
G1 X42.036 Y110.190 E23.20574
G1 X40.272 Y104.360 E23.40754
G1 X39.891 Y103.000 E23.45433
G1 X39.681 Y102.124 E23.48417
G1 X39.681 Y12.606 E26.44987
G1 X53.819 Y12.606 E26.91828
G1 X53.819 Y79.702 E29.14115
G1 X53.993 Y81.080 E29.18718
G1 X54.516 Y82.451 E29.23579
G1 X55.367 Y83.761 E29.28755
G1 X56.525 Y84.992 E29.34352
G1 X57.967 Y86.128 E29.40435
G1 X59.670 Y87.157 E29.47028
G1 X61.608 Y88.067 E29.54120
G1 X63.751 Y88.846 E29.61673
G1 X66.066 Y89.482 E29.69627
G1 X68.519 Y89.967 E29.77910
G1 X71.071 Y90.295 E29.86435
G1 X73.684 Y90.460 E29.95108
G1 X76.316 Y90.460 E30.03831
G1 X78.929 Y90.295 E30.12504
G1 X81.481 Y89.967 E30.21029
G1 X83.934 Y89.482 E30.29311
G1 X86.249 Y88.846 E30.37266
G1 X88.392 Y88.067 E30.44819
G1 X90.330 Y87.157 E30.51910
G1 X92.033 Y86.128 E30.58503
G1 X93.475 Y84.992 E30.64587
G1 X94.633 Y83.761 E30.70184
G1 X95.484 Y82.451 E30.75359
G1 X96.007 Y81.080 E30.80221
G1 X96.181 Y79.702 E30.84823
G1 X96.181 Y12.606 E33.07111
G1 X110.319 Y12.606 E33.53952
G1 X110.319 Y102.124 E36.50522
G1 X110.109 Y103.000 E36.53505
G1 X109.728 Y104.360 E36.58185
G1 X107.964 Y110.190 E36.78365
G1 X103.778 Y123.515 E37.24638
G1 X102.186 Y128.496 E37.41962
G1 X88.131 Y128.496 E37.88525
G1 X88.131 Y101.804 E38.76954
G1 X87.865 Y102.010 F7800.000
G1 F1800.000
G1 X62.135 Y102.010 E39.62196
G1 X62.135 Y128.762 E40.50823
G1 X47.620 Y128.762 E40.98909
G1 X45.969 Y123.596 E41.16878
G1 X41.782 Y110.268 E41.63158
G1 X40.017 Y104.434 E41.83352
G1 X39.634 Y103.067 E41.88057
G1 X39.415 Y102.155 E41.91161
G1 X39.415 Y12.340 E44.88715
G1 X54.085 Y12.340 E45.37317
G1 X54.085 Y79.685 E47.60428
G1 X54.252 Y81.016 E47.64870
G1 X54.754 Y82.330 E47.69532
G1 X55.577 Y83.597 E47.74535
G1 X56.705 Y84.795 E47.79988
G1 X58.119 Y85.909 E47.85952
G1 X59.796 Y86.923 E47.92444
G1 X61.710 Y87.822 E47.99450
G1 X63.831 Y88.592 E48.06927
G1 X66.127 Y89.223 E48.14815
G1 X68.561 Y89.705 E48.23035
G1 X71.096 Y90.031 E48.31502
G1 X73.692 Y90.194 E48.40119
G1 X76.308 Y90.194 E48.48786
G1 X78.904 Y90.031 E48.57403
G1 X81.439 Y89.705 E48.65869
G1 X83.873 Y89.223 E48.74090
G1 X86.169 Y88.592 E48.81978
G1 X88.290 Y87.822 E48.89455
G1 X90.204 Y86.923 E48.96461
G1 X91.881 Y85.909 E49.02953
G1 X93.295 Y84.795 E49.08917
G1 X94.423 Y83.597 E49.14370
G1 X95.246 Y82.330 E49.19373
G1 X95.748 Y81.016 E49.24035
G1 X95.915 Y79.685 E49.28477
G1 X95.915 Y12.340 E51.51588
G1 X110.585 Y12.340 E52.00189
G1 X110.585 Y102.155 E54.97744
G1 X110.366 Y103.067 E55.00848
G1 X109.983 Y104.434 E55.05553
G1 X108.218 Y110.268 E55.25747
G1 X104.031 Y123.596 E55.72027
G1 X102.380 Y128.762 E55.89996
G1 X87.865 Y128.762 E56.38081
G1 X87.865 Y102.070 E57.26510
G1 E55.26510 F2400.00000
G92 E0
G1 X77.666 Y101.316 F7800.000
G1 E2.00000 F2400.00000
G1 F1800.000
G1 X92.822 Y86.161 E2.71104
G1 X92.439 Y86.462 E2.72722
G1 X91.693 Y86.913 E2.75611
G1 X77.290 Y101.316 E3.43186
G1 X76.914 Y101.316 E3.44434
G1 X90.743 Y87.488 E4.09313
G1 X90.019 Y87.835 E4.11977
G1 X76.538 Y101.316 E4.75224
G1 X76.161 Y101.316 E4.76472
G1 X89.310 Y88.168 E5.38156
G1 X88.617 Y88.485 E5.40682
G1 X75.785 Y101.316 E6.00882
G1 X75.409 Y101.316 E6.02130
G1 X88.026 Y88.699 E6.61324
G1 X87.435 Y88.914 E6.63409
G1 X75.033 Y101.316 E7.21595
G1 X74.657 Y101.316 E7.22843
G1 X86.845 Y89.129 E7.80022
G1 X86.286 Y89.312 E7.81974
G1 X74.281 Y101.316 E8.38295
G1 X73.905 Y101.316 E8.39543
G1 X85.767 Y89.454 E8.95196
G1 X85.248 Y89.597 E8.96980
G1 X73.528 Y101.316 E9.51964
G1 X73.152 Y101.316 E9.53212
G1 X84.729 Y89.739 E10.07526
G1 X84.211 Y89.882 E10.09311
G1 X72.776 Y101.316 E10.62956
G1 X72.400 Y101.316 E10.64204
G1 X83.737 Y89.980 E11.17391
G1 X83.268 Y90.073 E11.18977
G1 X72.024 Y101.316 E11.71728
G1 X71.648 Y101.316 E11.72976
G1 X82.799 Y90.165 E12.25292
G1 X82.330 Y90.258 E12.26878
G1 X71.271 Y101.316 E12.78758
G1 X70.895 Y101.316 E12.80006
G1 X81.861 Y90.351 E13.31451
G1 X81.414 Y90.422 E13.32951
G1 X70.519 Y101.316 E13.84065
G1 X70.143 Y101.316 E13.85312
G1 X80.982 Y90.477 E14.36166
G1 X80.551 Y90.532 E14.37609
G1 X69.767 Y101.316 E14.88203
G1 X69.391 Y101.316 E14.89451
G1 X80.119 Y90.588 E15.39784
G1 X79.688 Y90.643 E15.41228
G1 X69.015 Y101.316 E15.91302
G1 X68.638 Y101.316 E15.92549
G1 X79.256 Y90.699 E16.42363
G1 X78.843 Y90.736 E16.43741
G1 X68.262 Y101.316 E16.93379
G1 X67.886 Y101.316 E16.94627
G1 X78.441 Y90.761 E17.44147
G1 X78.040 Y90.787 E17.45481
G1 X67.510 Y101.316 E17.94882
G1 X67.134 Y101.316 E17.96129
G1 X77.638 Y90.812 E18.45411
G1 X77.237 Y90.837 E18.46745
G1 X66.758 Y101.316 E18.95908
G1 X66.382 Y101.316 E18.97156
G1 X76.835 Y90.863 E19.46199
G1 X76.434 Y90.888 E19.47533
G1 X66.005 Y101.316 E19.96458
G1 X65.629 Y101.316 E19.97706
G1 X76.058 Y90.888 E20.46632
G1 X75.682 Y90.888 E20.47879
G1 X65.253 Y101.316 E20.96805
G1 X64.877 Y101.316 E20.98053
G1 X75.305 Y90.888 E21.46978
G1 X74.929 Y90.888 E21.48226
G1 X64.501 Y101.316 E21.97151
G1 X64.125 Y101.316 E21.98399
G1 X74.553 Y90.888 E22.47324
G1 X74.177 Y90.888 E22.48572
G1 X63.749 Y101.316 E22.97497
G1 X63.372 Y101.316 E22.98745
G1 X73.801 Y90.888 E23.47670
G1 X73.445 Y90.868 E23.48852
G1 X62.996 Y101.316 E23.97874
G1 X62.620 Y101.316 E23.99122
G1 X73.091 Y90.845 E24.48248
G1 X72.738 Y90.823 E24.49424
G1 X62.244 Y101.316 E24.98655
G1 X61.868 Y101.316 E24.99903
G1 X72.384 Y90.800 E25.49239
G1 X72.030 Y90.778 E25.50415
G1 X61.492 Y101.316 E25.99856
G1 X61.235 Y101.316 E26.00708
G1 X61.235 Y101.573 E26.01560
G1 X61.441 Y101.367 F7800.000
G1 F1800.000
G1 X44.886 Y117.922 E26.79231
G1 X44.976 Y118.208 E26.80226
G1 X61.441 Y101.743 E27.57475
G1 X61.441 Y102.119 E27.58723
G1 X45.066 Y118.495 E28.35550
G1 X45.156 Y118.781 E28.36545
G1 X61.441 Y102.495 E29.12950
G1 X61.441 Y102.871 E29.14198
G1 X45.246 Y119.067 E29.90182
G1 X45.336 Y119.353 E29.91177
G1 X61.441 Y103.247 E30.66738
G1 X61.441 Y103.624 E30.67986
G1 X45.425 Y119.640 E31.43126
G1 X45.515 Y119.926 E31.44121
G1 X61.441 Y104.000 E32.18839
G1 X61.441 Y104.376 E32.20087
G1 X45.605 Y120.212 E32.94383
G1 X45.695 Y120.498 E32.95378
G1 X61.441 Y104.752 E33.69252
G1 X61.441 Y105.128 E33.70500
G1 X45.785 Y120.784 E34.43952
