; generated by Slic3r 1.3.1-dev (Build 2ef957d) on 2019-11-25 at 09:20:09

; external perimeters extrusion width = 0.55mm (4.37mm^3/s)
; perimeters extrusion width = 0.70mm (11.44mm^3/s)
; infill extrusion width = 0.62mm (13.45mm^3/s)
; solid infill extrusion width = 0.70mm (3.81mm^3/s)
; top infill extrusion width = 0.70mm (2.86mm^3/s)

M107
G92 E0
M104 S200 ; set temperature
G28 ; home all axes
G1 Z5 F5000 ; lift nozzle

; Filament gcode

M109 S200 ; set temperature and wait for it to be reached
G21 ; set units to millimeters
G90 ; use absolute coordinates
M82 ; use absolute distances for extrusion
G92 E0
G1 Z0.350 F7800.000
G1 E-2.00000 F2400.00000
G92 E0
G1 X89.164 Y84.699 F7800.000
G1 E2.00000 F2400.00000
G1 F1800.000
G1 X89.899 Y83.964 E2.03216
G1 X90.878 Y83.128 E2.07198
G1 X91.719 Y82.517 E2.10414
G1 X92.816 Y81.845 E2.14396
G1 X93.742 Y81.373 E2.17612
G1 X94.931 Y80.881 E2.21593
G1 X95.920 Y80.559 E2.24810
G1 X97.171 Y80.259 E2.28791
G1 X98.197 Y80.096 E2.32008
G1 X99.480 Y79.996 E2.35989
G1 X100.520 Y79.996 E2.39206
G1 X101.803 Y80.096 E2.43187
G1 X102.829 Y80.259 E2.46404
G1 X104.080 Y80.559 E2.50385
G1 X105.069 Y80.881 E2.53601
G1 X106.258 Y81.373 E2.57583
G1 X107.184 Y81.845 E2.60799
G1 X108.281 Y82.517 E2.64781
G1 X109.122 Y83.128 E2.67997
G1 X110.101 Y83.964 E2.71979
G1 X110.836 Y84.699 E2.75195
G1 X111.672 Y85.678 E2.79176
G1 X112.283 Y86.519 E2.82393
G1 X112.955 Y87.616 E2.86374
G1 X113.427 Y88.542 E2.89591
G1 X113.919 Y89.731 E2.93572
G1 X114.241 Y90.720 E2.96789
G1 X114.541 Y91.971 E3.00770
G1 X114.704 Y92.997 E3.03986
G1 X114.804 Y94.280 E3.07968
G1 X114.825 Y94.800 E3.09577
G1 X114.825 Y113.400 E3.67128
G1 X114.428 Y115.659 E3.74224
G1 X113.285 Y117.647 E3.81321
G1 X111.532 Y119.126 E3.88417
G1 X109.380 Y119.919 E3.95513
G1 X108.200 Y120.025 E3.99178
G1 X91.800 Y120.025 E4.49922
G1 X89.541 Y119.628 E4.57018
G1 X87.553 Y118.485 E4.64114
G1 X86.074 Y116.732 E4.71211
G1 X85.281 Y114.580 E4.78307
G1 X85.175 Y113.400 E4.81972
G1 X85.175 Y94.800 E5.39523
G1 X85.196 Y94.280 E5.41132
G1 X85.296 Y92.997 E5.45114
G1 X85.459 Y91.971 E5.48330
G1 X85.759 Y90.720 E5.52311
G1 X86.081 Y89.731 E5.55528
G1 X86.573 Y88.542 E5.59509
G1 X87.045 Y87.616 E5.62726
G1 X87.717 Y86.519 E5.66707
G1 X88.328 Y85.678 E5.69924
G1 X89.115 Y84.756 E5.73673
G1 E3.73673 F2400.00000
G92 E0
G1 X102.213 Y110.033 F7800.000
G1 E2.00000 F2400.00000
G1 F1800.000
G1 X97.787 Y110.033 E2.13694
G1 X95.574 Y106.200 E2.27387
G1 X97.787 Y102.367 E2.41081
G1 X102.213 Y102.367 E2.54775
G1 X104.426 Y106.200 E2.68469
G1 X102.250 Y109.968 E2.81930
G1 X101.852 Y109.408 F7800.000
G1 F1800.000
G1 X98.148 Y109.408 E2.93391
G1 X96.296 Y106.200 E3.04853
G1 X98.148 Y102.992 E3.16314
G1 X101.852 Y102.992 E3.27775
G1 X103.704 Y106.200 E3.39236
G1 X101.890 Y109.343 E3.50465
G1 X101.852 Y109.908 F7800.000
G1 X102.574 Y110.658 F7800.000
G1 F1800.000
G1 X105.147 Y106.200 E3.66391
G1 X102.574 Y101.742 E3.82318
G1 X101.560 Y101.742 E3.85455
G1 X101.520 Y101.411 E3.86486
G1 X102.103 Y101.272 E3.88339
G1 X103.089 Y100.863 E3.91643
G1 X104.000 Y100.305 E3.94947
G1 X104.812 Y99.612 E3.98251
G1 X105.505 Y98.800 E4.01555
G1 X106.063 Y97.889 E4.04858
G1 X106.298 Y97.321 E4.06762
G1 X106.600 Y97.381 E4.07714
G1 X106.600 Y111.800 E4.52329
G1 X93.400 Y111.800 E4.93172
G1 X93.400 Y97.381 E5.37787
G1 X93.702 Y97.321 E5.38739
G1 X93.937 Y97.889 E5.40643
G1 X94.495 Y98.800 E5.43946
G1 X95.188 Y99.612 E5.47250
G1 X95.997 Y100.303 E5.50542
G1 X96.884 Y100.852 E5.53771
G1 X97.897 Y101.272 E5.57163
G1 X98.480 Y101.411 E5.59016
G1 X98.440 Y101.742 E5.60047
G1 X97.426 Y101.742 E5.63184
G1 X94.853 Y106.200 E5.79111
G1 X97.426 Y110.658 E5.95037
G1 X102.499 Y110.658 E6.10731
G1 E4.10731 F2400.00000
G92 E0
G1 X100.966 Y100.902 F7800.000
G1 E2.00000 F2400.00000
G1 F1800.000
G1 X100.000 Y100.978 E2.03000
G1 X99.034 Y100.902 E2.05999
G1 X98.091 Y100.676 E2.08999
G1 X97.170 Y100.294 E2.12082
G1 X96.367 Y99.796 E2.15006
G1 X95.632 Y99.168 E2.17998
G1 X95.002 Y98.431 E2.20998
G1 X94.495 Y97.605 E2.23997
G1 X94.124 Y96.709 E2.26997
G1 X93.898 Y95.766 E2.29996
G1 X93.822 Y94.800 E2.32996
G1 X93.898 Y93.834 E2.35995
G1 X94.124 Y92.891 E2.38995
G1 X94.495 Y91.995 E2.41994
G1 X95.002 Y91.169 E2.44994
G1 X95.632 Y90.432 E2.47993
G1 X96.369 Y89.802 E2.50993
G1 X97.195 Y89.295 E2.53992
G1 X98.091 Y88.924 E2.56992
G1 X99.034 Y88.698 E2.59992
G1 X100.000 Y88.622 E2.62991
G1 X100.966 Y88.698 E2.65991
G1 X101.909 Y88.924 E2.68990
G1 X102.805 Y89.295 E2.71990
G1 X103.631 Y89.802 E2.74989
G1 X104.368 Y90.432 E2.77989
G1 X104.996 Y91.167 E2.80981
G1 X105.494 Y91.970 E2.83905
G1 X105.876 Y92.891 E2.86988
G1 X106.102 Y93.834 E2.89988
G1 X106.178 Y94.800 E2.92987
G1 X106.102 Y95.766 E2.95987
G1 X105.876 Y96.709 E2.98986
G1 X105.505 Y97.605 E3.01986
G1 X104.998 Y98.431 E3.04985
G1 X104.368 Y99.168 E3.07985
G1 X103.631 Y99.798 E3.10985
G1 X102.805 Y100.305 E3.13984
G1 X101.909 Y100.676 E3.16984
G1 X101.039 Y100.884 E3.19751
G1 X100.868 Y100.283 F7800.000
G1 F1800.000
G1 X100.000 Y100.351 E3.22446
G1 X99.132 Y100.283 E3.25141
G1 X98.285 Y100.079 E3.27837
G1 X97.456 Y99.736 E3.30611
G1 X96.737 Y99.290 E3.33231
G1 X96.075 Y98.725 E3.35923
G1 X95.509 Y98.063 E3.38618
G1 X95.054 Y97.320 E3.41314
G1 X94.721 Y96.515 E3.44009
G1 X94.517 Y95.668 E3.46704
G1 X94.449 Y94.800 E3.49399
G1 X94.517 Y93.932 E3.52094
G1 X94.721 Y93.085 E3.54790
G1 X95.054 Y92.280 E3.57485
G1 X95.509 Y91.537 E3.60180
G1 X96.075 Y90.875 E3.62875
G1 X96.737 Y90.309 E3.65570
G1 X97.480 Y89.854 E3.68265
G1 X98.285 Y89.521 E3.70961
G1 X99.132 Y89.317 E3.73656
G1 X100.000 Y89.249 E3.76351
G1 X100.868 Y89.317 E3.79046
G1 X101.715 Y89.521 E3.81741
G1 X102.520 Y89.854 E3.84437
G1 X103.263 Y90.309 E3.87132
G1 X103.925 Y90.875 E3.89827
G1 X104.490 Y91.537 E3.92520
G1 X104.936 Y92.256 E3.95139
G1 X105.279 Y93.085 E3.97914
G1 X105.483 Y93.932 E4.00609
G1 X105.551 Y94.800 E4.03304
G1 X105.483 Y95.668 E4.05999
G1 X105.279 Y96.515 E4.08694
G1 X104.946 Y97.320 E4.11389
G1 X104.491 Y98.063 E4.14085
G1 X103.925 Y98.725 E4.16780
G1 X103.263 Y99.291 E4.19475
G1 X102.520 Y99.746 E4.22170
G1 X101.715 Y100.079 E4.24865
G1 X100.941 Y100.265 E4.27329
G1 X100.868 Y100.283 F7800.000
G1 E2.27329 F2400.00000
G92 E0
G1 X107.225 Y112.425 F7800.000
G1 E2.00000 F2400.00000
G1 F1800.000
G1 X92.775 Y112.425 E2.44711
G1 X92.775 Y94.838 E2.99127
G1 X92.867 Y93.670 E3.02752
G1 X93.131 Y92.568 E3.06259
G1 X93.565 Y91.521 E3.09765
G1 X94.157 Y90.555 E3.13272
G1 X94.893 Y89.693 E3.16778
G1 X95.755 Y88.957 E3.20285
G1 X96.721 Y88.365 E3.23791
G1 X97.768 Y87.931 E3.27298
G1 X98.870 Y87.667 E3.30804
G1 X100.000 Y87.578 E3.34311
G1 X101.130 Y87.667 E3.37817
G1 X102.232 Y87.931 E3.41324
G1 X103.279 Y88.365 E3.44830
G1 X104.245 Y88.957 E3.48337
G1 X105.107 Y89.693 E3.51843
G1 X105.843 Y90.555 E3.55350
G1 X106.435 Y91.521 E3.58856
G1 X106.869 Y92.568 E3.62363
G1 X107.133 Y93.670 E3.65869
G1 X107.225 Y94.838 E3.69495
G1 X107.225 Y112.350 E4.23679
G1 X107.850 Y113.050 F7800.000
G1 F1800.000
G1 X92.150 Y113.050 E4.72256
G1 X92.150 Y94.814 E5.28682
G1 X92.248 Y93.572 E5.32535
G1 X92.535 Y92.375 E5.36346
G1 X93.007 Y91.237 E5.40157
G1 X93.650 Y90.187 E5.43968
G1 X94.450 Y89.250 E5.47779
G1 X95.387 Y88.450 E5.51590
G1 X96.437 Y87.807 E5.55400
G1 X97.575 Y87.335 E5.59211
G1 X98.772 Y87.048 E5.63022
G1 X100.000 Y86.951 E5.66833
G1 X101.228 Y87.048 E5.70644
G1 X102.425 Y87.335 E5.74455
G1 X103.563 Y87.807 E5.78266
G1 X104.613 Y88.450 E5.82076
G1 X105.550 Y89.250 E5.85887
G1 X106.350 Y90.187 E5.89698
G1 X106.993 Y91.237 E5.93509
G1 X107.465 Y92.375 E5.97320
G1 X107.752 Y93.572 E6.01131
G1 X107.850 Y94.814 E6.04984
G1 X107.850 Y112.975 E6.61177
G1 X107.417 Y112.801 F7800.000
G1 E4.61177 F2400.00000
G92 E0
G1 X105.732 Y111.418 F7800.000
G1 E2.00000 F2400.00000
G1 F1800.000
G1 X106.218 Y110.932 E2.02146
G1 X106.218 Y110.041 E2.04928
G1 X104.841 Y111.418 E2.11009
G1 X103.949 Y111.418 E2.13791
G1 X106.218 Y109.149 E2.23806
G1 X106.218 Y108.258 E2.26588
G1 X103.058 Y111.418 E2.40538
G1 X102.986 Y111.418 E2.40761
G1 X102.986 Y111.015 E2.42021
G1 X103.555 Y110.030 E2.45569
G1 X106.218 Y107.367 E2.57326
G1 X106.218 Y106.475 E2.60108
G1 X104.772 Y107.921 E2.66490
G1 X105.626 Y106.443 E2.71817
G1 X105.528 Y106.274 E2.72426
G1 X106.218 Y105.584 E2.75473
G1 X106.218 Y104.692 E2.78255
G1 X105.202 Y105.709 E2.82741
G1 X104.876 Y105.144 E2.84778
G1 X106.218 Y103.801 E2.90705
G1 X106.218 Y102.909 E2.93487
G1 X104.549 Y104.579 E3.00854
G1 X104.223 Y104.013 E3.02891
G1 X106.218 Y102.018 E3.11698
G1 X106.218 Y101.127 E3.14480
G1 X103.897 Y103.448 E3.24727
G1 X103.570 Y102.883 E3.26764
G1 X106.218 Y100.235 E3.38451
G1 X106.218 Y99.344 E3.41234
G1 X103.244 Y102.318 E3.54361
G1 X102.918 Y101.753 E3.56398
G1 X103.404 Y101.267 E3.58544
G1 E1.58544 F2400.00000
G92 E0
G1 X101.231 Y101.625 F7800.000
G1 E2.00000 F2400.00000
G1 F1800.000
G1 X100.030 Y101.672 E2.04472
G1 F1800.000
G1 X99.369 Y101.649 E2.06729
G1 F1800.000
G1 X98.769 Y101.625 E2.08965
G1 E0.08965 F2400.00000
G92 E0
G1 X94.268 Y99.060 F7800.000
G1 E2.00000 F2400.00000
G1 F1800.000
G1 X93.782 Y99.547 E2.02201
G1 X93.782 Y100.461 E2.05123
G1 X94.731 Y99.511 E2.09419
G1 X94.988 Y99.812 E2.10684
G1 X95.180 Y99.976 E2.11492
G1 X93.782 Y101.374 E2.17817
G1 X93.782 Y102.288 E2.20739
G1 X95.673 Y100.397 E2.29294
G1 X95.871 Y100.566 E2.30127
G1 X96.208 Y100.775 E2.31397
G1 X93.782 Y103.201 E2.42373
G1 X93.782 Y104.115 E2.45296
G1 X96.772 Y101.124 E2.58824
G1 X97.082 Y101.267 E2.59915
G1 X96.452 Y102.358 E2.63945
G1 X93.782 Y105.028 E2.76025
G1 X93.782 Y105.942 E2.78947
G1 X95.204 Y104.519 E2.85382
G1 X94.374 Y105.957 E2.90692
G1 X94.486 Y106.151 E2.91408
G1 X93.782 Y106.856 E2.94596
G1 X93.782 Y107.769 E2.97518
G1 X94.821 Y106.730 E3.02218
G1 X95.155 Y107.309 E3.04357
G1 X93.782 Y108.683 E3.10569
G1 X93.782 Y109.596 E3.13492
G1 X95.489 Y107.889 E3.21217
G1 X95.824 Y108.468 E3.23356
G1 X93.782 Y110.510 E3.32594
G1 X93.782 Y111.418 E3.35500
G1 X96.158 Y109.047 E3.46239
G1 X96.493 Y109.626 E3.48378
G1 X94.700 Y111.418 E3.56486
G1 X95.614 Y111.418 E3.59408
G1 X96.827 Y110.205 E3.64895
G1 X97.014 Y110.528 E3.66089
G1 X97.014 Y110.932 E3.67381
G1 X96.527 Y111.418 E3.69580
G1 X97.395 Y111.229 F7800.000
G1 F1800.000
G1 X102.605 Y111.229 E3.80995
G1 E1.80995 F2400.00000
G92 E0
G1 X106.049 Y98.585 F7800.000
G1 E2.00000 F2400.00000
G1 F1800.000
G1 X106.225 Y98.341 E2.00074
G1 X106.257 Y98.229 E2.00102
G1 X106.520 Y97.046 F7800.000
G1 F1800.000
G1 X106.589 Y96.461 E2.01936
G1 F1800.000
G1 X106.659 Y95.875 E2.03485
G1 F1800.000
G1 X106.700 Y94.859 E2.05666
G1 F1800.000
G1 X106.617 Y93.752 E2.07591
G1 X106.366 Y92.714 E2.09442
G1 X105.948 Y91.719 E2.11314
G1 X105.420 Y90.862 E2.13060
G1 X104.737 Y90.063 E2.14883
G1 X103.938 Y89.380 E2.16706
G1 X103.027 Y88.824 E2.18557
G1 X102.070 Y88.428 E2.20352
G1 X101.064 Y88.186 E2.22147
G1 X100.000 Y88.100 E2.23998
G1 X98.952 Y88.183 E2.25821
G1 X97.914 Y88.434 E2.27672
G1 X96.958 Y88.831 E2.29467
G1 X96.076 Y89.371 E2.31261
G1 X95.263 Y90.063 E2.33113
G1 X94.571 Y90.876 E2.34964
G1 X94.031 Y91.758 E2.36759
G1 X93.628 Y92.730 E2.38582
G1 X93.383 Y93.752 E2.40405
G1 X93.301 Y94.784 E2.42200
G1 X93.319 Y95.347 E2.43177
G1 F1800.000
G1 X93.341 Y95.875 E2.44294
G1 F1800.000
G1 X93.411 Y96.461 E2.45701
G1 F1800.000
G1 X93.480 Y97.046 E2.47392
G1 X93.743 Y98.229 F7800.000
G1 F1800.000
G1 X93.775 Y98.341 E2.47421
G1 X93.951 Y98.585 E2.47495
G1 Z0.650 F7800.000
G1 E0.47495 F2400.00000
G92 E0
G1 X102.132 Y109.894 F7800.000
G1 E2.00000 F2400.00000
G1 F900.000
G1 X97.868 Y109.894 E2.11505
G1 X95.735 Y106.200 E2.23010
G1 X97.868 Y102.506 E2.34516
G1 X102.132 Y102.506 E2.46021
G1 X104.265 Y106.200 E2.57526
G1 X102.170 Y109.829 E2.68829
G1 X101.809 Y109.333 F7800.000
G1 F900.000
G1 X98.191 Y109.333 E2.76285
G1 X96.382 Y106.200 E2.83741
G1 X98.191 Y103.067 E2.91197
G1 X101.809 Y103.067 E2.98652
G1 X103.618 Y106.200 E3.06108
G1 X101.846 Y109.268 E3.13410
G1 X101.809 Y109.833 F7800.000
G1 X102.499 Y110.529 F7800.000
G1 F3600.000
G1 X104.999 Y106.200 E3.26895
G1 X102.499 Y101.871 E3.40380
G1 X101.969 Y101.871 E3.41812
G1 X104.720 Y99.520 E3.51575
G1 X106.729 Y97.169 E3.59917
G1 X106.729 Y111.929 E3.99734
G1 X93.271 Y111.929 E4.36037
G1 X93.271 Y96.723 E4.77057
G1 X93.608 Y96.683 E4.77972
G1 X93.651 Y96.863 E4.78470
G1 X94.052 Y97.831 E4.81296
G1 X94.599 Y98.724 E4.84122
G1 X95.279 Y99.520 E4.86948
G1 X96.076 Y100.201 E4.89774
G1 X96.969 Y100.748 E4.92600
G1 X97.937 Y101.149 E4.95426
G1 X98.956 Y101.394 E4.98252
G1 X100.000 Y101.476 E5.01078
G1 X101.044 Y101.394 E5.03904
G1 X101.522 Y101.279 E5.05229
G1 X101.522 Y101.871 E5.06825
G1 X97.501 Y101.871 E5.17673
G1 X95.001 Y106.200 E5.31159
G1 X97.501 Y110.529 E5.44644
G1 X102.424 Y110.529 E5.57927
G1 E3.57927 F2400.00000
G92 E0
G1 X102.157 Y100.874 F7800.000
G1 E2.00000 F2400.00000
G1 F900.000
G1 X102.157 Y100.422 E2.01219
G1 X101.866 Y100.543 E2.02070
G1 X100.945 Y100.764 E2.04626
G1 X100.000 Y100.838 E2.07182
G1 X99.055 Y100.764 E2.09738
G1 X98.134 Y100.543 E2.12294
G1 X97.259 Y100.180 E2.14850
G1 X96.451 Y99.685 E2.17406
G1 X95.730 Y99.070 E2.19962
G1 X95.115 Y98.349 E2.22518
G1 X94.620 Y97.541 E2.25074
G1 X94.257 Y96.666 E2.27630
G1 X94.036 Y95.745 E2.30186
G1 X93.962 Y94.800 E2.32742
G1 X94.036 Y93.855 E2.35298
G1 X94.257 Y92.934 E2.37854
G1 X94.620 Y92.059 E2.40410
G1 X95.115 Y91.251 E2.42966
G1 X95.730 Y90.530 E2.45523
G1 X96.451 Y89.915 E2.48079
G1 X97.259 Y89.420 E2.50635
G1 X98.134 Y89.057 E2.53191
G1 X99.055 Y88.836 E2.55747
G1 X100.000 Y88.762 E2.58303
G1 X100.945 Y88.836 E2.60859
G1 X101.866 Y89.057 E2.63415
G1 X102.741 Y89.420 E2.65971
G1 X103.549 Y89.915 E2.68527
G1 X104.270 Y90.530 E2.71083
G1 X104.885 Y91.251 E2.73639
G1 X105.380 Y92.059 E2.76195
G1 X105.743 Y92.934 E2.78751
G1 X105.964 Y93.855 E2.81307
G1 X106.038 Y94.800 E2.83863
G1 X105.964 Y95.745 E2.86419
G1 X105.743 Y96.666 E2.88975
G1 X105.622 Y96.957 E2.89826
G1 X106.074 Y96.957 E2.91045
G1 X104.270 Y99.070 E2.98538
G1 X102.215 Y100.825 E3.05829
G1 X101.783 Y99.970 F7800.000
G1 F900.000
G1 X101.692 Y100.008 E3.06032
G1 X100.857 Y100.208 E3.07803
G1 X100.000 Y100.276 E3.09574
G1 X99.143 Y100.208 E3.11345
G1 X98.308 Y100.008 E3.13116
G1 X97.514 Y99.679 E3.14887
G1 X96.781 Y99.230 E3.16658
G1 X96.128 Y98.672 E3.18429
G1 X95.570 Y98.019 E3.20200
G1 X95.121 Y97.286 E3.21971
G1 X94.792 Y96.492 E3.23742
G1 X94.592 Y95.657 E3.25513
G1 X94.524 Y94.800 E3.27284
G1 X94.592 Y93.943 E3.29055
G1 X94.792 Y93.108 E3.30826
G1 X95.121 Y92.314 E3.32597
G1 X95.570 Y91.581 E3.34368
G1 X96.128 Y90.928 E3.36139
G1 X96.781 Y90.370 E3.37910
G1 X97.514 Y89.921 E3.39681
G1 X98.308 Y89.592 E3.41452
G1 X99.143 Y89.392 E3.43223
G1 X100.000 Y89.324 E3.44994
G1 X100.857 Y89.392 E3.46765
G1 X101.692 Y89.592 E3.48536
G1 X102.486 Y89.921 E3.50307
G1 X103.219 Y90.370 E3.52077
G1 X103.872 Y90.928 E3.53848
G1 X104.430 Y91.581 E3.55619
G1 X104.879 Y92.314 E3.57390
G1 X105.208 Y93.108 E3.59161
G1 X105.408 Y93.943 E3.60932
G1 X105.476 Y94.800 E3.62703
G1 X105.408 Y95.657 E3.64474
G1 X105.208 Y96.492 E3.66245
G1 X104.879 Y97.286 E3.68016
G1 X104.737 Y97.518 E3.68577
G1 X104.858 Y97.518 E3.68826
G1 X103.872 Y98.672 E3.71954
G1 X102.718 Y99.658 E3.75081
G1 X102.718 Y99.537 E3.75330
G1 X102.486 Y99.679 E3.75891
G1 X101.853 Y99.941 E3.77304
G1 X101.772 Y100.068 F7800.000
G1 X107.364 Y112.564 F7800.000
G1 F3600.000
G1 X92.636 Y112.564 E4.17038
G1 X92.636 Y94.833 E4.64871
G1 X92.729 Y93.648 E4.68076
G1 X92.999 Y92.525 E4.71193
G1 X93.441 Y91.458 E4.74309
G1 X94.044 Y90.473 E4.77425
G1 X94.794 Y89.594 E4.80542
G1 X95.673 Y88.844 E4.83658
G1 X96.658 Y88.241 E4.86774
G1 X97.725 Y87.799 E4.89891
G1 X98.848 Y87.529 E4.93007
G1 X100.000 Y87.438 E4.96123
G1 X101.152 Y87.529 E4.99240
G1 X102.275 Y87.799 E5.02356
G1 X103.342 Y88.241 E5.05472
G1 X104.327 Y88.844 E5.08589
G1 X105.206 Y89.594 E5.11705
G1 X105.956 Y90.473 E5.14821
G1 X106.559 Y91.458 E5.17938
G1 X107.001 Y92.525 E5.21054
G1 X107.271 Y93.648 E5.24170
G1 X107.364 Y94.833 E5.27375
G1 X107.364 Y112.489 E5.75007
G1 X107.925 Y113.125 F7800.000
G1 F1800.000
G1 X92.075 Y113.125 E6.07674
G1 X92.075 Y94.811 E6.45420
