; generated by Slic3r 1.3.1-dev (Build 4f5b935) on 2019-11-26 at 14:51:54

; external perimeters extrusion width = 0.55mm (1.90mm^3/s)
; perimeters extrusion width = 0.70mm (2.71mm^3/s)
; infill extrusion width = 0.62mm (2.41mm^3/s)
; solid infill extrusion width = 0.70mm (2.04mm^3/s)
; top infill extrusion width = 0.70mm (2.04mm^3/s)

M107
G92 E0
;D3D:START:START
T0
M104 S215 T0

G21
G90
M107
T0
G28
G29
M109 T0 S215 T0
G0 F3000
M107
T0
G92 E0
G0 X0 Y149 Z0.1 F3600
G1 Y49 E6.5 F1200
G0 Z1
G92 E0
; Filament gcode

G21 ; set units to millimeters
G90 ; use absolute coordinates
M82 ; use absolute distances for extrusion
G92 E0
G1 Z0.090 F7800.000
G1 E-2.00000 F2400.00000
G92 E0
G1 X52.250 Y53.112 F7800.000
G1 E2.00000 F2400.00000
G1 F1800.000
G1 X54.584 Y50.920 E2.00955
G1 X55.172 Y50.433 E2.01182
G1 X57.763 Y48.551 E2.02137
G1 X58.408 Y48.142 E2.02365
G1 X61.214 Y46.599 E2.03320
G1 X61.905 Y46.274 E2.03547
G1 X64.882 Y45.095 E2.04502
G1 X65.608 Y44.859 E2.04730
G1 X68.710 Y44.063 E2.05685
G1 X69.460 Y43.920 E2.05912
G1 X72.637 Y43.519 E2.06867
G1 X73.399 Y43.471 E2.07095
G1 X76.601 Y43.471 E2.08050
G1 X77.363 Y43.519 E2.08277
G1 X80.540 Y43.920 E2.09232
G1 X81.290 Y44.063 E2.09460
G1 X84.392 Y44.859 E2.10415
G1 X85.118 Y45.095 E2.10642
G1 X88.095 Y46.274 E2.11597
G1 X88.786 Y46.599 E2.11825
G1 X91.592 Y48.142 E2.12779
G1 X92.237 Y48.551 E2.13007
G1 X94.828 Y50.433 E2.13962
G1 X95.416 Y50.920 E2.14190
G1 X97.750 Y53.112 E2.15144
G1 X98.273 Y53.669 E2.15372
G1 X100.314 Y56.136 E2.16327
G1 X100.763 Y56.754 E2.16555
G1 X102.479 Y59.458 E2.17509
G1 X102.847 Y60.127 E2.17737
G1 X104.210 Y63.024 E2.18692
G1 X104.491 Y63.734 E2.18919
G1 X105.481 Y66.780 E2.19874
G1 X105.671 Y67.519 E2.20102
G1 X106.271 Y70.665 E2.21057
G1 X106.367 Y71.422 E2.21284
G1 X106.568 Y74.618 E2.22239
G1 X106.568 Y75.382 E2.22467
G1 X106.367 Y78.578 E2.23422
G1 X106.271 Y79.335 E2.23649
G1 X105.671 Y82.481 E2.24604
G1 X105.481 Y83.220 E2.24832
G1 X104.491 Y86.266 E2.25787
G1 X104.210 Y86.976 E2.26014
G1 X102.847 Y89.873 E2.26969
G1 X102.479 Y90.542 E2.27197
G1 X100.763 Y93.246 E2.28152
G1 X100.314 Y93.864 E2.28379
G1 X98.273 Y96.331 E2.29334
G1 X97.750 Y96.888 E2.29562
G1 X95.416 Y99.080 E2.30517
G1 X94.828 Y99.567 E2.30744
G1 X92.237 Y101.449 E2.31699
G1 X91.592 Y101.858 E2.31927
G1 X88.786 Y103.401 E2.32881
G1 X88.095 Y103.726 E2.33109
G1 X85.118 Y104.905 E2.34064
G1 X84.392 Y105.141 E2.34292
G1 X81.290 Y105.937 E2.35246
G1 X80.540 Y106.080 E2.35474
G1 X77.363 Y106.481 E2.36429
G1 X76.601 Y106.529 E2.36656
G1 X73.399 Y106.529 E2.37611
G1 X72.637 Y106.481 E2.37839
G1 X69.460 Y106.080 E2.38794
G1 X68.710 Y105.937 E2.39021
G1 X65.608 Y105.141 E2.39976
G1 X64.882 Y104.905 E2.40204
G1 X61.905 Y103.726 E2.41159
G1 X61.214 Y103.401 E2.41386
G1 X58.408 Y101.858 E2.42341
G1 X57.763 Y101.449 E2.42569
G1 X55.172 Y99.567 E2.43524
G1 X54.584 Y99.080 E2.43751
G1 X52.250 Y96.888 E2.44706
G1 X51.727 Y96.331 E2.44934
G1 X49.686 Y93.864 E2.45889
G1 X49.237 Y93.246 E2.46116
G1 X47.521 Y90.542 E2.47071
G1 X47.153 Y89.873 E2.47299
G1 X45.790 Y86.976 E2.48254
G1 X45.509 Y86.266 E2.48481
G1 X44.519 Y83.220 E2.49436
G1 X44.329 Y82.481 E2.49664
G1 X43.729 Y79.335 E2.50618
G1 X43.633 Y78.578 E2.50846
G1 X43.432 Y75.382 E2.51801
G1 X43.432 Y74.618 E2.52029
G1 X43.633 Y71.422 E2.52983
G1 X43.729 Y70.665 E2.53211
G1 X44.329 Y67.519 E2.54166
G1 X44.519 Y66.780 E2.54394
G1 X45.509 Y63.734 E2.55348
G1 X45.790 Y63.024 E2.55576
G1 X47.153 Y60.127 E2.56531
G1 X47.521 Y59.458 E2.56758
G1 X49.237 Y56.754 E2.57713
G1 X49.686 Y56.136 E2.57941
G1 X51.727 Y53.669 E2.58896
G1 X52.198 Y53.167 E2.59101
G1 E0.59101 F2400.00000
G92 E0
G1 X70.983 Y88.250 F7800.000
G1 E2.00000 F2400.00000
G1 F1800.000
G1 X69.167 Y91.397 E2.01083
G1 X65.533 Y91.397 E2.02167
G1 X63.717 Y88.250 E2.03250
G1 X65.533 Y85.104 E2.04333
G1 X69.167 Y85.104 E2.05416
G1 X70.946 Y88.185 E2.06477
G1 X70.891 Y88.250 F7800.000
G1 F1800.000
G1 X69.121 Y91.317 E2.07533
G1 X65.579 Y91.317 E2.08589
G1 X63.809 Y88.250 E2.09645
G1 X65.579 Y85.183 E2.10701
G1 X69.121 Y85.183 E2.11757
G1 X70.854 Y88.185 E2.12790
G1 X70.799 Y88.250 F7800.000
G1 F1800.000
G1 X69.075 Y91.237 E2.13819
G1 X65.625 Y91.237 E2.14847
G1 X63.901 Y88.250 E2.15876
G1 X65.625 Y85.263 E2.16904
G1 X69.075 Y85.263 E2.17932
G1 X70.762 Y88.185 E2.18938
G1 X70.707 Y88.250 F7800.000
G1 F1800.000
G1 X69.029 Y91.158 E2.19939
G1 X65.671 Y91.158 E2.20940
G1 X63.993 Y88.250 E2.21941
G1 X65.671 Y85.343 E2.22942
G1 X69.029 Y85.343 E2.23943
G1 X70.670 Y88.185 E2.24922
G1 X71.140 Y88.500 F7800.000
G1 E0.24922 F2400.00000
G92 E0
G1 X71.465 Y85.879 F7800.000
G1 E2.00000 F2400.00000
G1 F1800.000
G1 X70.129 Y85.350 E2.00428
G1 X68.871 Y84.658 E2.00857
G1 X67.708 Y83.814 E2.01285
G1 X66.661 Y82.831 E2.01713
G1 X65.746 Y81.724 E2.02142
G1 X64.976 Y80.511 E2.02570
G1 X64.364 Y79.211 E2.02998
G1 X63.920 Y77.845 E2.03427
G1 X63.651 Y76.434 E2.03855
G1 X63.561 Y75.000 E2.04283
G1 X63.651 Y73.566 E2.04712
G1 X63.920 Y72.155 E2.05140
G1 X64.364 Y70.789 E2.05568
G1 X64.976 Y69.489 E2.05997
G1 X65.746 Y68.276 E2.06425
G1 X66.661 Y67.169 E2.06853
G1 X67.708 Y66.186 E2.07282
G1 X68.871 Y65.342 E2.07710
G1 X70.129 Y64.650 E2.08138
G1 X71.465 Y64.121 E2.08567
G1 X72.857 Y63.763 E2.08995
G1 X74.282 Y63.583 E2.09423
G1 X75.718 Y63.583 E2.09852
G1 X77.143 Y63.763 E2.10280
G1 X78.535 Y64.121 E2.10708
G1 X79.871 Y64.650 E2.11136
G1 X81.129 Y65.342 E2.11565
G1 X82.292 Y66.186 E2.11993
G1 X83.339 Y67.169 E2.12421
G1 X84.254 Y68.276 E2.12850
G1 X85.024 Y69.489 E2.13278
G1 X85.636 Y70.789 E2.13706
G1 X86.080 Y72.155 E2.14135
G1 X86.349 Y73.566 E2.14563
G1 X86.439 Y75.000 E2.14991
G1 X86.349 Y76.434 E2.15420
G1 X86.080 Y77.845 E2.15848
G1 X85.636 Y79.211 E2.16276
G1 X85.024 Y80.511 E2.16705
G1 X84.254 Y81.724 E2.17133
G1 X83.339 Y82.831 E2.17561
G1 X82.292 Y83.814 E2.17990
G1 X81.129 Y84.658 E2.18418
G1 X79.871 Y85.350 E2.18846
G1 X78.535 Y85.879 E2.19275
G1 X77.143 Y86.237 E2.19703
G1 X75.718 Y86.417 E2.20131
G1 X74.282 Y86.417 E2.20560
G1 X72.857 Y86.237 E2.20988
G1 X71.538 Y85.898 E2.21394
G1 X71.490 Y85.803 F7800.000
G1 F1800.000
G1 X70.163 Y85.278 E2.21819
G1 X68.913 Y84.591 E2.22245
G1 X67.759 Y83.752 E2.22670
G1 X66.719 Y82.776 E2.23095
G1 X65.810 Y81.677 E2.23521
G1 X65.046 Y80.472 E2.23946
G1 X64.438 Y79.182 E2.24371
G1 X63.998 Y77.825 E2.24797
G1 X63.730 Y76.424 E2.25222
G1 X63.641 Y75.000 E2.25647
G1 X63.730 Y73.576 E2.26073
G1 X63.998 Y72.175 E2.26498
G1 X64.438 Y70.818 E2.26923
G1 X65.046 Y69.528 E2.27349
G1 X65.810 Y68.323 E2.27774
G1 X66.719 Y67.224 E2.28199
G1 X67.759 Y66.248 E2.28625
G1 X68.913 Y65.409 E2.29050
G1 X70.163 Y64.722 E2.29475
G1 X71.490 Y64.197 E2.29901
G1 X72.871 Y63.842 E2.30326
G1 X74.287 Y63.663 E2.30751
G1 X75.713 Y63.663 E2.31177
G1 X77.129 Y63.842 E2.31602
G1 X78.510 Y64.197 E2.32027
G1 X79.837 Y64.722 E2.32453
G1 X81.087 Y65.409 E2.32878
G1 X82.241 Y66.248 E2.33303
G1 X83.281 Y67.224 E2.33729
G1 X84.190 Y68.323 E2.34154
G1 X84.954 Y69.528 E2.34579
G1 X85.562 Y70.818 E2.35005
G1 X86.002 Y72.175 E2.35430
G1 X86.270 Y73.576 E2.35855
G1 X86.359 Y75.000 E2.36281
G1 X86.270 Y76.424 E2.36706
G1 X86.002 Y77.825 E2.37131
G1 X85.562 Y79.182 E2.37557
G1 X84.954 Y80.472 E2.37982
G1 X84.190 Y81.677 E2.38407
G1 X83.281 Y82.776 E2.38833
G1 X82.241 Y83.752 E2.39258
G1 X81.087 Y84.591 E2.39683
G1 X79.837 Y85.278 E2.40109
G1 X78.510 Y85.803 E2.40534
G1 X77.129 Y86.158 E2.40959
G1 X75.713 Y86.337 E2.41385
G1 X74.287 Y86.337 E2.41810
G1 X72.871 Y86.158 E2.42235
G1 X71.562 Y85.822 E2.42638
G1 X71.514 Y85.727 F7800.000
G1 F1800.000
G1 X70.197 Y85.206 E2.43061
G1 X68.956 Y84.524 E2.43483
G1 X67.810 Y83.691 E2.43905
G1 X66.778 Y82.721 E2.44328
G1 X65.875 Y81.630 E2.44750
G1 X65.116 Y80.434 E2.45172
G1 X64.513 Y79.152 E2.45595
G1 X64.075 Y77.805 E2.46017
G1 X63.809 Y76.414 E2.46440
G1 X63.721 Y75.000 E2.46862
G1 X63.809 Y73.586 E2.47284
G1 X64.075 Y72.195 E2.47707
G1 X64.513 Y70.848 E2.48129
G1 X65.116 Y69.566 E2.48551
G1 X65.875 Y68.370 E2.48974
G1 X66.778 Y67.279 E2.49396
G1 X67.810 Y66.309 E2.49818
G1 X68.956 Y65.476 E2.50241
G1 X70.197 Y64.794 E2.50663
G1 X71.514 Y64.273 E2.51085
G1 X72.886 Y63.920 E2.51508
G1 X74.292 Y63.743 E2.51930
G1 X75.708 Y63.743 E2.52352
G1 X77.114 Y63.920 E2.52775
G1 X78.486 Y64.273 E2.53197
G1 X79.803 Y64.794 E2.53619
G1 X81.044 Y65.476 E2.54042
G1 X82.190 Y66.309 E2.54464
G1 X83.222 Y67.279 E2.54886
G1 X84.125 Y68.370 E2.55309
G1 X84.884 Y69.566 E2.55731
G1 X85.487 Y70.848 E2.56154
G1 X85.925 Y72.195 E2.56576
G1 X86.191 Y73.586 E2.56998
G1 X86.279 Y75.000 E2.57421
G1 X86.191 Y76.414 E2.57843
G1 X85.925 Y77.805 E2.58265
G1 X85.487 Y79.152 E2.58688
G1 X84.884 Y80.434 E2.59110
G1 X84.125 Y81.630 E2.59532
G1 X83.222 Y82.721 E2.59955
G1 X82.190 Y83.691 E2.60377
G1 X81.044 Y84.524 E2.60799
G1 X79.803 Y85.206 E2.61222
G1 X78.486 Y85.727 E2.61644
G1 X77.114 Y86.080 E2.62066
G1 X75.708 Y86.257 E2.62489
G1 X74.292 Y86.257 E2.62911
G1 X72.886 Y86.080 E2.63333
G1 X71.587 Y85.746 E2.63733
G1 X71.539 Y85.651 F7800.000
G1 F1800.000
G1 X70.231 Y85.134 E2.64153
G1 X68.999 Y84.456 E2.64572
G1 X67.861 Y83.629 E2.64991
G1 X66.836 Y82.667 E2.65411
G1 X65.939 Y81.583 E2.65830
G1 X65.186 Y80.395 E2.66250
G1 X64.587 Y79.123 E2.66669
G1 X64.152 Y77.785 E2.67088
G1 X63.889 Y76.404 E2.67508
G1 X63.800 Y75.000 E2.67927
G1 X63.889 Y73.596 E2.68346
G1 X64.152 Y72.215 E2.68766
G1 X64.587 Y70.877 E2.69185
G1 X65.186 Y69.605 E2.69604
G1 X65.939 Y68.417 E2.70024
G1 X66.836 Y67.333 E2.70443
G1 X67.861 Y66.371 E2.70862
G1 X68.999 Y65.544 E2.71282
G1 X70.231 Y64.866 E2.71701
G1 X71.539 Y64.349 E2.72121
G1 X72.901 Y63.999 E2.72540
G1 X74.297 Y63.822 E2.72959
G1 X75.703 Y63.822 E2.73379
G1 X77.099 Y63.999 E2.73798
G1 X78.461 Y64.349 E2.74217
G1 X79.769 Y64.866 E2.74637
G1 X81.001 Y65.544 E2.75056
G1 X82.139 Y66.371 E2.75475
G1 X83.164 Y67.333 E2.75895
G1 X84.061 Y68.417 E2.76314
G1 X84.814 Y69.605 E2.76733
G1 X85.413 Y70.877 E2.77153
G1 X85.848 Y72.215 E2.77572
G1 X86.111 Y73.596 E2.77992
G1 X86.200 Y75.000 E2.78411
G1 X86.111 Y76.404 E2.78830
G1 X85.848 Y77.785 E2.79250
G1 X85.413 Y79.123 E2.79669
G1 X84.814 Y80.395 E2.80088
G1 X84.061 Y81.583 E2.80508
G1 X83.164 Y82.667 E2.80927
G1 X82.139 Y83.629 E2.81346
G1 X81.001 Y84.456 E2.81766
G1 X79.769 Y85.134 E2.82185
G1 X78.461 Y85.651 E2.82604
G1 X77.099 Y86.001 E2.83024
G1 X75.703 Y86.177 E2.83443
G1 X74.297 Y86.177 E2.83863
G1 X72.901 Y86.001 E2.84282
G1 X71.612 Y85.670 E2.84679
G1 X71.539 Y85.651 F7800.000
G1 E0.84679 F2400.00000
G92 E0
G1 X69.167 Y64.896 F7800.000
G1 E2.00000 F2400.00000
G1 F1800.000
G1 X65.533 Y64.896 E2.01083
G1 X63.717 Y61.750 E2.02167
G1 X65.533 Y58.603 E2.03250
G1 X69.167 Y58.603 E2.04333
G1 X70.983 Y61.750 E2.05416
G1 X69.204 Y64.831 E2.06477
G1 X69.121 Y64.817 F7800.000
G1 F1800.000
G1 X65.579 Y64.817 E2.07533
G1 X63.809 Y61.750 E2.08589
G1 X65.579 Y58.683 E2.09645
G1 X69.121 Y58.683 E2.10701
G1 X70.891 Y61.750 E2.11757
G1 X69.158 Y64.752 E2.12790
G1 X69.075 Y64.737 F7800.000
G1 F1800.000
G1 X65.625 Y64.737 E2.13819
G1 X63.901 Y61.750 E2.14847
G1 X65.625 Y58.763 E2.15876
G1 X69.075 Y58.763 E2.16904
G1 X70.799 Y61.750 E2.17932
G1 X69.112 Y64.672 E2.18938
G1 X69.029 Y64.657 F7800.000
G1 F1800.000
G1 X65.671 Y64.657 E2.19939
G1 X63.993 Y61.750 E2.20940
G1 X65.671 Y58.842 E2.21941
G1 X69.029 Y58.842 E2.22942
G1 X70.707 Y61.750 E2.23943
G1 X69.066 Y64.592 E2.24922
G1 X69.029 Y65.157 F7800.000
G1 E0.24922 F2400.00000
G92 E0
G1 X86.667 Y75.000 F7800.000
G1 E2.00000 F2400.00000
G1 F1800.000
G1 X88.483 Y71.854 E2.01083
G1 X92.117 Y71.854 E2.02167
G1 X93.933 Y75.000 E2.03250
G1 X92.117 Y78.146 E2.04333
G1 X88.483 Y78.146 E2.05416
G1 X86.704 Y75.065 E2.06477
G1 X86.759 Y75.000 F7800.000
G1 F1800.000
G1 X88.529 Y71.933 E2.07533
G1 X92.071 Y71.933 E2.08589
G1 X93.841 Y75.000 E2.09645
G1 X92.071 Y78.067 E2.10701
G1 X88.529 Y78.067 E2.11757
G1 X86.796 Y75.065 E2.12790
G1 X86.851 Y75.000 F7800.000
G1 F1800.000
G1 X88.575 Y72.013 E2.13819
G1 X92.025 Y72.013 E2.14847
G1 X93.749 Y75.000 E2.15875
G1 X92.025 Y77.987 E2.16904
G1 X88.575 Y77.987 E2.17932
G1 X86.888 Y75.065 E2.18938
G1 X86.943 Y75.000 F7800.000
G1 F1800.000
G1 X88.621 Y72.093 E2.19939
G1 X91.979 Y72.093 E2.20940
G1 X93.657 Y75.000 E2.21941
G1 X91.979 Y77.907 E2.22942
G1 X88.621 Y77.907 E2.23943
G1 X86.980 Y75.065 E2.24922
G1 X86.510 Y74.750 F7800.000
G1 E0.24922 F2400.00000
G92 E0
G1 X100.159 Y74.168 F7800.000
G1 E2.00000 F2400.00000
G1 F1800.000
G1 X100.211 Y75.000 E2.00248
G1 X100.012 Y78.160 E2.01192
G1 X99.419 Y81.270 E2.02136
G1 X98.440 Y84.281 E2.03080
G1 X97.092 Y87.145 E2.04024
G1 X95.396 Y89.819 E2.04968
G1 X93.378 Y92.258 E2.05912
G1 X91.070 Y94.425 E2.06856
G1 X88.509 Y96.286 E2.07800
G1 X85.734 Y97.811 E2.08744
G1 X82.791 Y98.977 E2.09688
G1 X79.724 Y99.764 E2.10632
G1 X76.583 Y100.161 E2.11576
G1 X73.417 Y100.161 E2.12520
G1 X70.276 Y99.764 E2.13464
G1 X67.209 Y98.977 E2.14408
G1 X64.266 Y97.811 E2.15352
G1 X61.491 Y96.286 E2.16296
G1 X58.930 Y94.425 E2.17240
G1 X56.622 Y92.258 E2.18184
G1 X54.604 Y89.819 E2.19128
G1 X52.908 Y87.145 E2.20072
G1 X51.560 Y84.281 E2.21016
G1 X50.581 Y81.270 E2.21960
G1 X49.988 Y78.160 E2.22904
G1 X49.789 Y75.000 E2.23848
G1 X49.988 Y71.840 E2.24792
G1 X50.581 Y68.730 E2.25736
G1 X51.560 Y65.719 E2.26680
G1 X52.908 Y62.855 E2.27624
G1 X54.604 Y60.181 E2.28568
G1 X56.622 Y57.742 E2.29512
G1 X58.930 Y55.575 E2.30456
G1 X61.491 Y53.714 E2.31400
G1 X64.266 Y52.189 E2.32344
G1 X67.209 Y51.023 E2.33288
G1 X70.276 Y50.236 E2.34232
G1 X73.417 Y49.839 E2.35176
G1 X76.583 Y49.839 E2.36120
G1 X79.724 Y50.236 E2.37064
G1 X82.791 Y51.023 E2.38008
G1 X85.734 Y52.189 E2.38952
G1 X88.509 Y53.714 E2.39896
G1 X91.070 Y55.575 E2.40840
G1 X93.378 Y57.742 E2.41784
G1 X95.396 Y60.181 E2.42728
G1 X97.092 Y62.855 E2.43672
G1 X98.440 Y65.719 E2.44616
G1 X99.419 Y68.730 E2.45560
G1 X100.012 Y71.840 E2.46504
G1 X100.154 Y74.094 E2.47177
G1 X100.238 Y74.163 F7800.000
G1 F1800.000
G1 X100.291 Y75.000 E2.47427
G1 X100.091 Y78.170 E2.48374
G1 X99.496 Y81.290 E2.49321
G1 X98.515 Y84.310 E2.50268
G1 X97.162 Y87.184 E2.51215
G1 X95.461 Y89.865 E2.52162
G1 X93.436 Y92.313 E2.53109
G1 X91.121 Y94.487 E2.54056
G1 X88.551 Y96.354 E2.55003
G1 X85.768 Y97.884 E2.55950
G1 X82.815 Y99.053 E2.56897
G1 X79.739 Y99.843 E2.57844
G1 X76.588 Y100.241 E2.58791
G1 X73.412 Y100.241 E2.59738
G1 X70.261 Y99.843 E2.60685
G1 X67.185 Y99.053 E2.61632
G1 X64.232 Y97.884 E2.62579
G1 X61.449 Y96.354 E2.63526
G1 X58.879 Y94.487 E2.64473
G1 X56.564 Y92.313 E2.65420
G1 X54.539 Y89.865 E2.66367
G1 X52.838 Y87.184 E2.67314
G1 X51.485 Y84.310 E2.68261
G1 X50.504 Y81.290 E2.69208
G1 X49.909 Y78.170 E2.70155
G1 X49.709 Y75.000 E2.71102
G1 X49.909 Y71.830 E2.72049
G1 X50.504 Y68.710 E2.72996
G1 X51.485 Y65.690 E2.73943
G1 X52.838 Y62.816 E2.74890
G1 X54.539 Y60.135 E2.75837
G1 X56.564 Y57.687 E2.76784
G1 X58.879 Y55.513 E2.77731
G1 X61.449 Y53.646 E2.78678
G1 X64.232 Y52.116 E2.79625
G1 X67.185 Y50.947 E2.80572
G1 X70.261 Y50.157 E2.81519
G1 X73.412 Y49.759 E2.82466
G1 X76.588 Y49.759 E2.83413
G1 X79.739 Y50.157 E2.84360
G1 X82.815 Y50.947 E2.85307
G1 X85.768 Y52.116 E2.86254
G1 X88.551 Y53.646 E2.87201
G1 X91.121 Y55.513 E2.88148
G1 X93.436 Y57.687 E2.89095
G1 X95.461 Y60.135 E2.90042
G1 X97.162 Y62.816 E2.90989
G1 X98.515 Y65.690 E2.91936
G1 X99.496 Y68.710 E2.92883
G1 X100.091 Y71.830 E2.93830
G1 X100.233 Y74.089 E2.94504
G1 X100.318 Y74.158 F7800.000
G1 F1800.000
G1 X100.371 Y75.000 E2.94756
G1 X100.170 Y78.180 E2.95706
G1 X99.574 Y81.309 E2.96656
G1 X98.589 Y84.340 E2.97606
G1 X97.232 Y87.222 E2.98556
G1 X95.525 Y89.912 E2.99506
G1 X93.494 Y92.367 E3.00456
G1 X91.172 Y94.548 E3.01406
G1 X88.594 Y96.421 E3.02355
G1 X85.802 Y97.956 E3.03305
G1 X82.840 Y99.129 E3.04255
G1 X79.754 Y99.921 E3.05205
G1 X76.593 Y100.321 E3.06155
G1 X73.407 Y100.321 E3.07105
G1 X70.246 Y99.921 E3.08055
G1 X67.160 Y99.129 E3.09005
G1 X64.198 Y97.956 E3.09955
G1 X61.406 Y96.421 E3.10905
G1 X58.828 Y94.548 E3.11855
G1 X56.506 Y92.367 E3.12805
G1 X54.475 Y89.912 E3.13755
G1 X52.768 Y87.222 E3.14705
G1 X51.411 Y84.340 E3.15655
G1 X50.426 Y81.309 E3.16605
G1 X49.830 Y78.180 E3.17555
G1 X49.629 Y75.000 E3.18505
