; generated by Slic3r 1.3.1-dev (Build 2ef957d) on 2019-11-25 at 09:22:20

; external perimeters extrusion width = 0.55mm (4.37mm^3/s)
; perimeters extrusion width = 0.70mm (11.44mm^3/s)
; infill extrusion width = 0.62mm (13.45mm^3/s)
; solid infill extrusion width = 0.70mm (3.81mm^3/s)
; top infill extrusion width = 0.70mm (2.86mm^3/s)

M107
G92 E0
M104 S200 ; set temperature
G28 ; home all axes
G1 Z5 F5000 ; lift nozzle

; Filament gcode

M109 S200 ; set temperature and wait for it to be reached
G21 ; set units to millimeters
G90 ; use absolute coordinates
M82 ; use absolute distances for extrusion
G92 E0
G1 Z0.350 F7800.000
G1 E-2.00000 F2400.00000
G92 E0
G1 X89.943 Y89.985 F7800.000
G1 E2.00000 F2400.00000
G1 F1800.000
G1 X90.636 Y89.334 E2.02943
G1 X91.278 Y88.804 E2.05518
G1 X92.047 Y88.245 E2.08461
G1 X92.750 Y87.799 E2.11035
G1 X93.583 Y87.341 E2.13979
G1 X94.336 Y86.986 E2.16553
G1 X95.220 Y86.636 E2.19496
G1 X96.012 Y86.379 E2.22070
G1 X96.933 Y86.142 E2.25014
G1 X97.750 Y85.987 E2.27588
G1 X98.694 Y85.867 E2.30532
G1 X99.524 Y85.815 E2.33106
G1 X100.476 Y85.815 E2.36049
G1 X101.306 Y85.867 E2.38623
G1 X102.250 Y85.987 E2.41566
G1 X103.067 Y86.142 E2.44141
G1 X103.988 Y86.379 E2.47084
G1 X104.780 Y86.636 E2.49658
G1 X105.664 Y86.986 E2.52602
G1 X106.417 Y87.341 E2.55176
G1 X107.250 Y87.799 E2.58119
G1 X107.953 Y88.245 E2.60693
G1 X108.722 Y88.804 E2.63637
G1 X109.364 Y89.334 E2.66211
G1 X110.057 Y89.985 E2.69154
G1 X110.627 Y90.592 E2.71729
G1 X111.233 Y91.325 E2.74672
G1 X111.722 Y91.998 E2.77246
G1 X112.232 Y92.801 E2.80189
G1 X112.632 Y93.530 E2.82764
G1 X113.037 Y94.391 E2.85707
G1 X113.344 Y95.164 E2.88281
G1 X113.638 Y96.069 E2.91225
G1 X113.845 Y96.875 E2.93799
G1 X114.023 Y97.809 E2.96742
G1 X114.127 Y98.635 E2.99316
G1 X114.187 Y99.584 E3.02260
G1 X114.187 Y100.416 E3.04834
G1 X114.127 Y101.365 E3.07777
G1 X114.023 Y102.191 E3.10351
G1 X113.845 Y103.125 E3.13295
G1 X113.638 Y103.931 E3.15869
G1 X113.344 Y104.836 E3.18812
G1 X113.037 Y105.609 E3.21387
G1 X112.632 Y106.470 E3.24330
G1 X112.232 Y107.199 E3.26904
G1 X111.722 Y108.002 E3.29848
G1 X111.233 Y108.675 E3.32422
G1 X110.627 Y109.408 E3.35365
G1 X110.057 Y110.015 E3.37939
G1 X109.364 Y110.666 E3.40883
G1 X108.722 Y111.196 E3.43457
G1 X107.953 Y111.755 E3.46400
G1 X107.250 Y112.201 E3.48974
G1 X106.417 Y112.659 E3.51918
G1 X105.664 Y113.014 E3.54492
G1 X104.780 Y113.364 E3.57435
G1 X103.988 Y113.621 E3.60009
G1 X103.067 Y113.858 E3.62953
G1 X102.250 Y114.013 E3.65527
G1 X101.306 Y114.133 E3.68471
G1 X100.476 Y114.185 E3.71045
G1 X99.524 Y114.185 E3.73988
G1 X98.694 Y114.133 E3.76562
G1 X97.750 Y114.013 E3.79506
G1 X96.933 Y113.858 E3.82080
G1 X96.012 Y113.621 E3.85023
G1 X95.220 Y113.364 E3.87597
G1 X94.336 Y113.014 E3.90541
G1 X93.583 Y112.659 E3.93115
G1 X92.750 Y112.201 E3.96058
G1 X92.047 Y111.755 E3.98632
G1 X91.278 Y111.196 E4.01576
G1 X90.636 Y110.666 E4.04150
G1 X89.943 Y110.015 E4.07094
G1 X89.373 Y109.408 E4.09668
G1 X88.767 Y108.675 E4.12611
G1 X88.278 Y108.002 E4.15185
G1 X87.768 Y107.199 E4.18129
G1 X87.368 Y106.470 E4.20703
G1 X86.963 Y105.609 E4.23646
G1 X86.656 Y104.836 E4.26220
G1 X86.362 Y103.931 E4.29164
G1 X86.155 Y103.125 E4.31738
G1 X85.977 Y102.191 E4.34681
G1 X85.873 Y101.365 E4.37256
G1 X85.813 Y100.416 E4.40199
G1 X85.813 Y99.584 E4.42773
G1 X85.873 Y98.635 E4.45716
G1 X85.977 Y97.809 E4.48291
G1 X86.155 Y96.875 E4.51234
G1 X86.362 Y96.069 E4.53808
G1 X86.656 Y95.164 E4.56752
G1 X86.963 Y94.391 E4.59326
G1 X87.368 Y93.530 E4.62269
G1 X87.768 Y92.801 E4.64843
G1 X88.278 Y91.998 E4.67787
G1 X88.767 Y91.325 E4.70361
G1 X89.373 Y90.592 E4.73304
G1 X89.892 Y90.040 E4.75646
G1 E2.75646 F2400.00000
G92 E0
G1 X103.465 Y103.254 F7800.000
G1 E2.00000 F2400.00000
G1 F1800.000
G1 X103.030 Y103.662 E2.01847
G1 X102.547 Y104.013 E2.03694
G1 X102.024 Y104.301 E2.05540
G1 X101.469 Y104.520 E2.07387
G1 X100.891 Y104.669 E2.09234
G1 X100.298 Y104.744 E2.11081
G1 X99.702 Y104.744 E2.12928
G1 X99.109 Y104.669 E2.14775
G1 X98.531 Y104.520 E2.16621
G1 X97.976 Y104.301 E2.18468
G1 X97.453 Y104.013 E2.20315
G1 X96.970 Y103.662 E2.22162
G1 X96.535 Y103.254 E2.24009
G1 X96.155 Y102.794 E2.25856
G1 X95.835 Y102.290 E2.27702
G1 X95.581 Y101.750 E2.29549
G1 X95.396 Y101.182 E2.31396
G1 X95.285 Y100.596 E2.33243
G1 X95.247 Y100.000 E2.35090
G1 X95.285 Y99.404 E2.36936
G1 X95.396 Y98.818 E2.38783
G1 X95.581 Y98.250 E2.40630
G1 X95.835 Y97.710 E2.42477
G1 X96.155 Y97.206 E2.44324
G1 X96.535 Y96.746 E2.46171
G1 X96.970 Y96.338 E2.48017
G1 X97.453 Y95.987 E2.49864
G1 X97.976 Y95.699 E2.51711
G1 X98.531 Y95.480 E2.53558
G1 X99.109 Y95.331 E2.55405
G1 X99.702 Y95.256 E2.57252
G1 X100.298 Y95.256 E2.59098
G1 X100.891 Y95.331 E2.60945
G1 X101.469 Y95.480 E2.62792
G1 X102.024 Y95.699 E2.64639
G1 X102.547 Y95.987 E2.66486
G1 X103.030 Y96.338 E2.68332
G1 X103.465 Y96.746 E2.70179
G1 X103.845 Y97.206 E2.72026
G1 X104.165 Y97.710 E2.73873
G1 X104.419 Y98.250 E2.75720
G1 X104.604 Y98.818 E2.77567
G1 X104.715 Y99.404 E2.79413
G1 X104.753 Y100.000 E2.81260
G1 X104.715 Y100.596 E2.83107
G1 X104.604 Y101.182 E2.84954
G1 X104.419 Y101.750 E2.86801
G1 X104.165 Y102.290 E2.88648
G1 X103.845 Y102.794 E2.90494
G1 X103.513 Y103.196 E2.92109
G1 X103.008 Y102.825 F7800.000
G1 F1800.000
G1 X102.631 Y103.180 E2.93713
G1 X102.211 Y103.484 E2.95316
G1 X101.757 Y103.734 E2.96920
G1 X101.275 Y103.925 E2.98523
G1 X100.773 Y104.054 E3.00127
G1 X100.259 Y104.119 E3.01730
G1 X99.741 Y104.119 E3.03334
G1 X99.227 Y104.054 E3.04937
G1 X98.725 Y103.925 E3.06541
G1 X98.243 Y103.734 E3.08144
G1 X97.789 Y103.484 E3.09748
G1 X97.369 Y103.180 E3.11351
G1 X96.992 Y102.825 E3.12955
G1 X96.661 Y102.426 E3.14558
G1 X96.384 Y101.988 E3.16162
G1 X96.163 Y101.519 E3.17766
G1 X96.003 Y101.026 E3.19369
G1 X95.906 Y100.517 E3.20973
G1 X95.873 Y100.000 E3.22576
G1 X95.906 Y99.483 E3.24180
G1 X96.003 Y98.974 E3.25783
G1 X96.163 Y98.481 E3.27387
G1 X96.384 Y98.012 E3.28990
G1 X96.661 Y97.574 E3.30594
G1 X96.992 Y97.175 E3.32197
G1 X97.369 Y96.820 E3.33801
G1 X97.789 Y96.516 E3.35404
G1 X98.243 Y96.266 E3.37008
G1 X98.725 Y96.075 E3.38611
G1 X99.227 Y95.946 E3.40215
G1 X99.741 Y95.881 E3.41819
G1 X100.259 Y95.881 E3.43422
G1 X100.773 Y95.946 E3.45026
G1 X101.275 Y96.075 E3.46629
G1 X101.757 Y96.266 E3.48233
G1 X102.211 Y96.516 E3.49836
G1 X102.631 Y96.820 E3.51440
G1 X103.008 Y97.175 E3.53043
G1 X103.339 Y97.574 E3.54647
G1 X103.616 Y98.012 E3.56250
G1 X103.837 Y98.481 E3.57854
G1 X103.997 Y98.974 E3.59457
G1 X104.094 Y99.483 E3.61061
G1 X104.127 Y100.000 E3.62664
G1 X104.094 Y100.517 E3.64268
G1 X103.997 Y101.026 E3.65872
G1 X103.837 Y101.519 E3.67475
G1 X103.616 Y101.988 E3.69079
G1 X103.339 Y102.426 E3.70682
G1 X103.056 Y102.767 E3.72054
G1 X102.552 Y102.396 F7800.000
G1 F1800.000
G1 X102.231 Y102.697 E3.73414
G1 X101.876 Y102.956 E3.74774
G1 X101.491 Y103.168 E3.76134
G1 X101.082 Y103.329 E3.77495
G1 X100.656 Y103.439 E3.78855
G1 X100.220 Y103.494 E3.80215
G1 X99.780 Y103.494 E3.81575
G1 X99.344 Y103.439 E3.82936
G1 X98.918 Y103.329 E3.84296
G1 X98.509 Y103.168 E3.85656
G1 X98.124 Y102.956 E3.87016
G1 X97.769 Y102.697 E3.88376
G1 X97.448 Y102.396 E3.89737
G1 X97.168 Y102.058 E3.91097
G1 X96.932 Y101.686 E3.92457
G1 X96.745 Y101.289 E3.93817
G1 X96.609 Y100.871 E3.95178
G1 X96.527 Y100.439 E3.96538
G1 X96.499 Y100.000 E3.97898
G1 X96.527 Y99.561 E3.99258
G1 X96.609 Y99.129 E4.00619
G1 X96.745 Y98.711 E4.01979
G1 X96.932 Y98.314 E4.03339
G1 X97.168 Y97.942 E4.04699
G1 X97.448 Y97.604 E4.06060
G1 X97.769 Y97.303 E4.07420
G1 X98.124 Y97.044 E4.08780
G1 X98.509 Y96.832 E4.10140
G1 X98.918 Y96.671 E4.11501
G1 X99.344 Y96.561 E4.12861
G1 X99.780 Y96.506 E4.14221
G1 X100.220 Y96.506 E4.15581
G1 X100.656 Y96.561 E4.16942
G1 X101.082 Y96.671 E4.18302
G1 X101.491 Y96.832 E4.19662
G1 X101.876 Y97.044 E4.21022
G1 X102.231 Y97.303 E4.22383
G1 X102.552 Y97.604 E4.23743
G1 X102.832 Y97.942 E4.25103
G1 X103.068 Y98.314 E4.26463
G1 X103.255 Y98.711 E4.27824
G1 X103.391 Y99.129 E4.29184
G1 X103.473 Y99.561 E4.30544
G1 X103.501 Y100.000 E4.31904
G1 X103.473 Y100.439 E4.33265
G1 X103.391 Y100.871 E4.34625
G1 X103.255 Y101.289 E4.35985
G1 X103.068 Y101.686 E4.37345
G1 X102.832 Y102.058 E4.38706
G1 X102.600 Y102.339 E4.39834
G1 X102.552 Y102.396 F7800.000
G1 E2.39834 F2400.00000
G92 E0
G1 X104.452 Y103.969 F7800.000
G1 E2.00000 F2400.00000
G1 F1800.000
G1 X104.353 Y104.088 E2.00480
G1 X103.807 Y104.602 E2.02801
G1 X103.200 Y105.042 E2.05121
G1 X102.543 Y105.404 E2.07442
G1 X101.845 Y105.680 E2.09762
G1 X101.119 Y105.866 E2.12083
G1 X100.375 Y105.960 E2.14403
G1 X99.625 Y105.960 E2.16724
G1 X98.881 Y105.866 E2.19044
G1 X98.155 Y105.680 E2.21365
G1 X97.457 Y105.404 E2.23685
G1 X96.800 Y105.042 E2.26006
G1 X96.193 Y104.602 E2.28327
G1 X95.647 Y104.088 E2.30647
G1 X95.169 Y103.510 E2.32968
G1 X94.767 Y102.877 E2.35288
G1 X94.447 Y102.198 E2.37609
G1 X94.216 Y101.485 E2.39929
G1 X94.075 Y100.748 E2.42250
G1 X94.028 Y100.000 E2.44570
G1 X94.075 Y99.251 E2.46891
G1 X94.216 Y98.515 E2.49211
G1 X94.447 Y97.802 E2.51532
G1 X94.767 Y97.123 E2.53852
G1 X95.169 Y96.490 E2.56173
G1 X95.647 Y95.912 E2.58493
G1 X96.193 Y95.398 E2.60814
G1 X96.800 Y94.958 E2.63134
G1 X97.457 Y94.596 E2.65455
G1 X98.155 Y94.320 E2.67776
G1 X98.881 Y94.134 E2.70096
G1 X99.625 Y94.040 E2.72417
G1 X100.375 Y94.040 E2.74737
G1 X101.119 Y94.134 E2.77058
G1 X101.845 Y94.320 E2.79378
G1 X102.543 Y94.596 E2.81699
G1 X103.200 Y94.958 E2.84019
G1 X103.807 Y95.398 E2.86340
G1 X104.353 Y95.912 E2.88660
G1 X104.831 Y96.490 E2.90981
G1 X105.233 Y97.123 E2.93301
G1 X105.553 Y97.802 E2.95622
G1 X105.784 Y98.515 E2.97942
G1 X105.925 Y99.251 E3.00263
G1 X105.972 Y100.000 E3.02583
G1 X105.925 Y100.748 E3.04904
G1 X105.784 Y101.485 E3.07225
G1 X105.553 Y102.198 E3.09545
G1 X105.233 Y102.877 E3.11866
G1 X104.831 Y103.510 E3.14186
G1 X104.500 Y103.911 E3.15794
G1 X104.934 Y104.367 F7800.000
G1 F1800.000
G1 X104.810 Y104.517 E3.16396
G1 X104.206 Y105.084 E3.18960
G1 X103.535 Y105.571 E3.21524
G1 X102.809 Y105.970 E3.24088
G1 X102.039 Y106.275 E3.26652
G1 X101.236 Y106.481 E3.29215
G1 X100.414 Y106.585 E3.31779
G1 X99.586 Y106.585 E3.34343
G1 X98.764 Y106.481 E3.36907
G1 X97.961 Y106.275 E3.39471
G1 X97.191 Y105.970 E3.42034
G1 X96.465 Y105.571 E3.44598
G1 X95.794 Y105.084 E3.47162
G1 X95.190 Y104.517 E3.49726
G1 X94.662 Y103.878 E3.52290
G1 X94.218 Y103.179 E3.54854
G1 X93.865 Y102.429 E3.57417
G1 X93.609 Y101.641 E3.59981
G1 X93.454 Y100.827 E3.62545
G1 X93.402 Y100.000 E3.65109
G1 X93.454 Y99.173 E3.67673
G1 X93.609 Y98.359 E3.70236
G1 X93.865 Y97.571 E3.72800
G1 X94.218 Y96.821 E3.75364
G1 X94.662 Y96.122 E3.77928
G1 X95.190 Y95.483 E3.80492
G1 X95.794 Y94.916 E3.83055
G1 X96.465 Y94.429 E3.85619
G1 X97.191 Y94.030 E3.88183
G1 X97.961 Y93.725 E3.90747
G1 X98.764 Y93.519 E3.93311
G1 X99.586 Y93.415 E3.95875
G1 X100.414 Y93.415 E3.98438
G1 X101.236 Y93.519 E4.01002
G1 X102.039 Y93.725 E4.03566
G1 X102.809 Y94.030 E4.06130
G1 X103.535 Y94.429 E4.08694
G1 X104.206 Y94.916 E4.11258
G1 X104.810 Y95.483 E4.13821
G1 X105.338 Y96.122 E4.16385
G1 X105.782 Y96.821 E4.18949
G1 X106.135 Y97.571 E4.21513
G1 X106.391 Y98.359 E4.24077
G1 X106.546 Y99.173 E4.26640
G1 X106.598 Y100.000 E4.29204
G1 X106.546 Y100.827 E4.31768
G1 X106.391 Y101.641 E4.34332
G1 X106.135 Y102.429 E4.36896
G1 X105.782 Y103.179 E4.39459
G1 X105.338 Y103.878 E4.42023
G1 X104.982 Y104.309 E4.43753
G1 X105.415 Y104.765 F7800.000
G1 F1800.000
G1 X105.266 Y104.945 E4.44477
G1 X104.605 Y105.566 E4.47284
G1 X103.871 Y106.100 E4.50091
G1 X103.076 Y106.537 E4.52898
G1 X102.232 Y106.871 E4.55705
G1 X101.354 Y107.096 E4.58512
G1 X100.454 Y107.210 E4.61319
G1 X99.546 Y107.210 E4.64126
G1 X98.646 Y107.096 E4.66934
G1 X97.768 Y106.871 E4.69741
G1 X96.924 Y106.537 E4.72548
G1 X96.129 Y106.100 E4.75355
G1 X95.395 Y105.566 E4.78162
G1 X94.734 Y104.945 E4.80969
G1 X94.155 Y104.246 E4.83776
G1 X93.669 Y103.480 E4.86583
G1 X93.283 Y102.659 E4.89390
G1 X93.003 Y101.797 E4.92198
G1 X92.833 Y100.905 E4.95005
G1 X92.776 Y100.000 E4.97812
G1 X92.833 Y99.095 E5.00619
G1 X93.003 Y98.203 E5.03426
G1 X93.283 Y97.341 E5.06233
G1 X93.669 Y96.520 E5.09040
G1 X94.155 Y95.754 E5.11847
G1 X94.734 Y95.055 E5.14654
G1 X95.395 Y94.434 E5.17462
G1 X96.129 Y93.900 E5.20269
G1 X96.924 Y93.463 E5.23076
G1 X97.768 Y93.129 E5.25883
G1 X98.646 Y92.904 E5.28690
G1 X99.546 Y92.790 E5.31497
G1 X100.454 Y92.790 E5.34304
G1 X101.354 Y92.904 E5.37111
G1 X102.232 Y93.129 E5.39918
G1 X103.076 Y93.463 E5.42726
G1 X103.871 Y93.900 E5.45533
G1 X104.605 Y94.434 E5.48340
G1 X105.266 Y95.055 E5.51147
G1 X105.845 Y95.754 E5.53954
G1 X106.331 Y96.520 E5.56761
G1 X106.717 Y97.341 E5.59568
G1 X106.997 Y98.203 E5.62375
G1 X107.167 Y99.095 E5.65182
G1 X107.224 Y100.000 E5.67989
G1 X107.167 Y100.905 E5.70797
G1 X106.997 Y101.797 E5.73604
G1 X106.717 Y102.659 E5.76411
G1 X106.331 Y103.480 E5.79218
G1 X105.845 Y104.246 E5.82025
G1 X105.463 Y104.707 E5.83877
G1 X105.184 Y104.732 F7800.000
G1 X103.984 Y103.581 F7800.000
G1 F1800.000
G1 X103.896 Y103.684 E5.84223
G1 X103.403 Y104.143 E5.85948
G1 X102.873 Y104.527 E5.87625
G1 X102.283 Y104.852 E5.89350
G1 X101.639 Y105.105 E5.91122
G1 X101.005 Y105.267 E5.92799
G1 X100.337 Y105.352 E5.94524
G1 X99.645 Y105.350 E5.96296
G1 X98.995 Y105.267 E5.97973
G1 X98.343 Y105.100 E5.99698
G1 X97.717 Y104.852 E6.01423
G1 X97.143 Y104.537 E6.03100
G1 X96.568 Y104.119 E6.04920
G1 X96.091 Y103.671 E6.06597
G1 X95.662 Y103.152 E6.08322
G1 X95.301 Y102.583 E6.10047
G1 X95.022 Y101.991 E6.11724
G1 X94.802 Y101.315 E6.13543
G1 X94.680 Y100.672 E6.15220
G1 X94.639 Y100.019 E6.16898
G1 X94.683 Y99.310 E6.18717
G1 X94.806 Y98.666 E6.20394
G1 X95.014 Y98.026 E6.22119
G1 X95.311 Y97.401 E6.23891
G1 X95.662 Y96.848 E6.25568
G1 X96.091 Y96.329 E6.27293
G1 X96.597 Y95.857 E6.29066
G1 X97.127 Y95.473 E6.30743
G1 X97.717 Y95.148 E6.32467
G1 X98.361 Y94.895 E6.34240
G1 X98.995 Y94.733 E6.35917
G1 X99.663 Y94.648 E6.37642
G1 X100.355 Y94.650 E6.39414
G1 X101.005 Y94.733 E6.41091
G1 X101.657 Y94.900 E6.42816
G1 X102.283 Y95.148 E6.44541
G1 X102.857 Y95.463 E6.46218
G1 X103.418 Y95.868 E6.47990
G1 X103.921 Y96.343 E6.49762
G1 X104.338 Y96.848 E6.51439
G1 X104.699 Y97.417 E6.53164
G1 X104.986 Y98.026 E6.54889
G1 X105.188 Y98.649 E6.56566
G1 X105.320 Y99.328 E6.58338
G1 X105.361 Y100.019 E6.60110
G1 X105.320 Y100.672 E6.61788
G1 X105.194 Y101.334 E6.63512
G1 X104.986 Y101.974 E6.65237
G1 X104.699 Y102.583 E6.66962
G1 X104.338 Y103.152 E6.68687
G1 X104.031 Y103.523 E6.69920
G1 Z0.650 F7800.000
G1 X103.416 Y103.111 F7800.000
G1 F900.000
G1 X102.948 Y103.563 E6.71676
G1 X102.478 Y103.904 E6.73242
G1 X101.969 Y104.184 E6.74809
G1 X101.429 Y104.398 E6.76375
G1 X100.866 Y104.542 E6.77942
G1 X100.290 Y104.615 E6.79508
G1 X99.710 Y104.615 E6.81075
G1 X99.134 Y104.542 E6.82641
G1 X98.571 Y104.398 E6.84208
G1 X98.031 Y104.184 E6.85775
G1 X97.522 Y103.904 E6.87341
G1 X97.052 Y103.563 E6.88908
G1 X96.629 Y103.165 E6.90474
G1 X96.259 Y102.718 E6.92041
G1 X95.948 Y102.228 E6.93607
G1 X95.701 Y101.702 E6.95174
G1 X95.521 Y101.150 E6.96740
G1 X95.412 Y100.580 E6.98307
G1 X95.376 Y100.000 E6.99873
G1 X95.412 Y99.420 E7.01440
G1 X95.521 Y98.850 E7.03006
G1 X95.701 Y98.298 E7.04573
G1 X95.948 Y97.772 E7.06140
G1 X96.259 Y97.282 E7.07706
G1 X96.629 Y96.835 E7.09273
G1 X97.052 Y96.437 E7.10839
G1 X97.522 Y96.096 E7.12406
G1 X98.031 Y95.816 E7.13972
G1 X98.571 Y95.602 E7.15539
G1 X99.134 Y95.458 E7.17105
G1 X99.710 Y95.385 E7.18672
G1 X100.290 Y95.385 E7.20238
G1 X100.866 Y95.458 E7.21805
G1 X101.429 Y95.602 E7.23372
G1 X101.969 Y95.816 E7.24938
G1 X102.478 Y96.096 E7.26505
G1 X102.948 Y96.437 E7.28071
G1 X103.371 Y96.835 E7.29638
G1 X103.741 Y97.282 E7.31204
G1 X104.052 Y97.772 E7.32771
G1 X104.299 Y98.298 E7.34337
G1 X104.479 Y98.850 E7.35904
G1 X104.588 Y99.420 E7.37470
G1 X104.624 Y100.000 E7.39037
G1 X104.588 Y100.580 E7.40603
G1 X104.479 Y101.150 E7.42170
G1 X104.299 Y101.702 E7.43737
G1 X104.052 Y102.228 E7.45303
G1 X103.741 Y102.718 E7.46870
G1 X103.464 Y103.053 E7.48044
G1 X102.926 Y102.706 F7800.000
G1 F900.000
G1 X102.542 Y103.072 E7.49476
