; generated by Slic3r 1.3.1-dev (Build 2ef957d) on 2019-11-25 at 09:22:21

; external perimeters extrusion width = 0.55mm (4.37mm^3/s)
; perimeters extrusion width = 0.70mm (11.44mm^3/s)
; infill extrusion width = 0.62mm (13.45mm^3/s)
; solid infill extrusion width = 0.70mm (3.81mm^3/s)
; top infill extrusion width = 0.70mm (2.86mm^3/s)

M107
G92 E0
M104 S200 ; set temperature
G28 ; home all axes
G1 Z5 F5000 ; lift nozzle

; Filament gcode

M109 S200 ; set temperature and wait for it to be reached
G21 ; set units to millimeters
G90 ; use absolute coordinates
M82 ; use absolute distances for extrusion
G92 E0
G1 Z0.350 F7800.000
G1 E-2.00000 F2400.00000
G92 E0
G1 X70.949 Y87.438 F7800.000
G1 E2.00000 F2400.00000
G1 F1800.000
G1 X72.263 Y86.530 E2.04941
G1 X74.013 Y85.612 E2.11057
G1 X75.507 Y85.045 E2.15999
G1 X77.426 Y84.572 E2.22116
G1 X79.012 Y84.380 E2.27057
G1 X120.988 Y84.380 E3.56939
G1 X122.574 Y84.572 E3.61881
G1 X124.493 Y85.045 E3.67997
G1 X125.987 Y85.612 E3.72939
G1 X127.737 Y86.530 E3.79056
G1 X129.051 Y87.438 E3.83997
G1 X130.531 Y88.749 E3.90113
G1 X131.590 Y89.944 E3.95055
G1 X132.713 Y91.571 E4.01172
G1 X133.455 Y92.985 E4.06113
G1 X134.156 Y94.833 E4.12229
G1 X134.538 Y96.384 E4.17171
G1 X134.777 Y98.346 E4.23287
G1 X134.777 Y99.944 E4.28229
G1 X134.538 Y101.906 E4.34346
G1 X134.156 Y103.457 E4.39287
G1 X133.455 Y105.305 E4.45404
G1 X132.713 Y106.719 E4.50345
G1 X131.590 Y108.346 E4.56461
G1 X130.531 Y109.541 E4.61403
G1 X129.051 Y110.852 E4.67520
G1 X127.737 Y111.759 E4.72461
G1 X125.987 Y112.678 E4.78577
G1 X124.493 Y113.244 E4.83519
G1 X122.574 Y113.718 E4.89636
G1 X120.988 Y113.910 E4.94578
G1 X79.012 Y113.910 E6.24459
G1 X77.426 Y113.718 E6.29401
G1 X75.507 Y113.244 E6.35517
G1 X74.013 Y112.678 E6.40459
G1 X72.263 Y111.759 E6.46576
G1 X70.949 Y110.852 E6.51517
G1 X69.469 Y109.541 E6.57633
G1 X68.410 Y108.346 E6.62576
G1 X67.287 Y106.719 E6.68692
G1 X66.545 Y105.305 E6.73633
G1 X65.844 Y103.457 E6.79749
G1 X65.462 Y101.906 E6.84691
G1 X65.223 Y99.944 E6.90807
G1 X65.223 Y98.346 E6.95749
G1 X65.462 Y96.384 E7.01866
G1 X65.844 Y94.833 E7.06808
G1 X66.545 Y92.985 E7.12924
G1 X67.287 Y91.571 E7.17865
G1 X68.410 Y89.944 E7.23981
G1 X69.469 Y88.749 E7.28924
G1 X70.893 Y87.487 E7.34808
G1 E5.34808 F2400.00000
G92 E0
G1 X84.576 Y103.316 F7800.000
G1 E2.00000 F2400.00000
G1 F1800.000
G1 X82.760 Y104.688 E2.07041
G1 X80.571 Y105.310 E2.14081
G1 X78.306 Y105.100 E2.21121
G1 X76.269 Y104.086 E2.28162
G1 X74.736 Y102.405 E2.35203
G1 X73.914 Y100.283 E2.42243
G1 X73.914 Y98.007 E2.49284
G1 X74.736 Y95.885 E2.56325
G1 X76.269 Y94.204 E2.63365
G1 X78.306 Y93.190 E2.70406
G1 X80.571 Y92.980 E2.77446
G1 X82.760 Y93.602 E2.84487
G1 X84.576 Y94.974 E2.91528
G1 X85.774 Y96.908 E2.98568
G1 X86.192 Y99.145 E3.05609
G1 X85.774 Y101.382 E3.12650
G1 X84.615 Y103.253 E3.19458
G1 X84.106 Y102.888 F7800.000
G1 F1800.000
G1 X82.477 Y104.119 E3.25776
G1 X80.513 Y104.677 E3.32094
G1 X78.480 Y104.489 E3.38411
G1 X76.652 Y103.579 E3.44729
G1 X75.276 Y102.070 E3.51047
G1 X74.539 Y100.166 E3.57365
G1 X74.539 Y98.124 E3.63682
G1 X75.276 Y96.220 E3.70000
G1 X76.652 Y94.711 E3.76318
G1 X78.480 Y93.801 E3.82636
G1 X80.513 Y93.613 E3.88953
G1 X82.477 Y94.171 E3.95271
G1 X84.106 Y95.402 E4.01589
G1 X85.181 Y97.138 E4.07907
G1 X85.556 Y99.145 E4.14224
G1 X85.181 Y101.152 E4.20542
G1 X84.145 Y102.824 E4.26628
G1 X84.106 Y102.888 F7800.000
G1 E2.26628 F2400.00000
G92 E0
G1 X96.948 Y104.018 F7800.000
G1 E2.00000 F2400.00000
G1 F1800.000
G1 X96.043 Y105.685 E2.05871
G1 X82.717 Y105.685 E2.47103
G1 X82.672 Y105.362 E2.48112
G1 X83.043 Y105.257 E2.49306
G1 X85.046 Y103.745 E2.57069
G1 X86.366 Y101.611 E2.64833
G1 X86.827 Y99.145 E2.72596
G1 X86.366 Y96.679 E2.80360
G1 X85.046 Y94.545 E2.88124
G1 X83.043 Y93.033 E2.95887
G1 X82.672 Y92.928 E2.97081
G1 X82.717 Y92.605 E2.98090
G1 X117.430 Y92.605 E4.05496
G1 X117.498 Y92.894 E4.06415
G1 X115.886 Y93.696 E4.11988
G1 X114.195 Y95.551 E4.19752
G1 X113.289 Y97.890 E4.27515
G1 X113.289 Y100.400 E4.35279
G1 X114.195 Y102.739 E4.43042
G1 X115.886 Y104.593 E4.50806
G1 X117.498 Y105.396 E4.56379
G1 X117.430 Y105.685 E4.57298
G1 X103.957 Y105.685 E4.98986
G1 X103.052 Y104.018 E5.04856
G1 X97.023 Y104.018 E5.23512
G1 E3.23512 F2400.00000
G92 E0
G1 X113.914 Y100.283 F7800.000
G1 E2.00000 F2400.00000
G1 F1800.000
G1 X113.914 Y98.007 E2.07041
G1 X114.736 Y95.885 E2.14081
G1 X116.269 Y94.204 E2.21122
G1 X118.306 Y93.190 E2.28163
G1 X120.571 Y92.980 E2.35203
G1 X122.760 Y93.602 E2.42244
G1 X124.576 Y94.974 E2.49284
G1 X125.774 Y96.908 E2.56325
G1 X126.192 Y99.145 E2.63366
G1 X125.774 Y101.382 E2.70406
G1 X124.576 Y103.316 E2.77447
G1 X122.760 Y104.688 E2.84487
G1 X120.571 Y105.310 E2.91528
G1 X118.306 Y105.100 E2.98568
G1 X116.269 Y104.086 E3.05609
G1 X114.736 Y102.405 E3.12650
G1 X113.941 Y100.353 E3.19458
G1 X114.539 Y100.166 F7800.000
G1 F1800.000
G1 X114.539 Y98.124 E3.25776
G1 X115.276 Y96.220 E3.32094
G1 X116.652 Y94.711 E3.38412
G1 X118.480 Y93.801 E3.44729
G1 X120.513 Y93.613 E3.51047
G1 X122.477 Y94.171 E3.57365
G1 X124.106 Y95.402 E3.63682
G1 X125.181 Y97.138 E3.70000
G1 X125.556 Y99.145 E3.76318
G1 X125.181 Y101.152 E3.82636
G1 X124.106 Y102.888 E3.88954
G1 X122.477 Y104.119 E3.95271
G1 X120.513 Y104.677 E4.01589
G1 X118.480 Y104.489 E4.07907
G1 X116.652 Y103.579 E4.14224
G1 X115.276 Y102.070 E4.20542
G1 X114.566 Y100.236 E4.26628
G1 X114.539 Y100.166 F7800.000
G1 E2.26628 F2400.00000
G92 E0
G1 X102.680 Y104.643 F7800.000
G1 E2.00000 F2400.00000
G1 F1800.000
G1 X97.320 Y104.643 E2.16586
G1 X96.415 Y106.310 E2.22457
G1 X79.130 Y106.310 E2.75939
G1 X77.440 Y105.894 E2.81323
G1 X75.900 Y105.085 E2.86707
G1 X74.597 Y103.931 E2.92091
G1 X73.609 Y102.499 E2.97474
G1 X72.992 Y100.872 E3.02858
G1 X72.782 Y99.145 E3.08242
G1 X72.992 Y97.418 E3.13626
G1 X73.609 Y95.791 E3.19010
G1 X74.597 Y94.359 E3.24394
G1 X75.900 Y93.205 E3.29778
G1 X77.440 Y92.396 E3.35162
G1 X79.130 Y91.980 E3.40546
G1 X120.870 Y91.980 E4.69695
G1 X122.560 Y92.396 E4.75079
G1 X124.100 Y93.205 E4.80463
G1 X125.403 Y94.359 E4.85847
G1 X126.391 Y95.791 E4.91231
G1 X127.008 Y97.418 E4.96615
G1 X127.218 Y99.145 E5.01999
G1 X127.008 Y100.872 E5.07383
G1 X126.391 Y102.499 E5.12767
G1 X125.403 Y103.931 E5.18151
G1 X124.100 Y105.085 E5.23535
G1 X122.560 Y105.894 E5.28919
G1 X120.870 Y106.310 E5.34303
G1 X103.585 Y106.310 E5.87785
G1 X102.716 Y104.708 E5.93424
G1 X102.308 Y105.267 F7800.000
G1 F1800.000
G1 X97.692 Y105.267 E6.07708
G1 X96.787 Y106.935 E6.13579
G1 X79.054 Y106.935 E6.68446
G1 X77.217 Y106.482 E6.74300
G1 X75.542 Y105.603 E6.80153
G1 X74.126 Y104.349 E6.86007
G1 X73.051 Y102.792 E6.91860
G1 X72.381 Y101.023 E6.97714
G1 X72.153 Y99.145 E7.03567
G1 X72.381 Y97.267 E7.09421
G1 X73.051 Y95.498 E7.15274
G1 X74.126 Y93.941 E7.21128
G1 X75.542 Y92.687 E7.26981
G1 X77.217 Y91.807 E7.32834
G1 X79.054 Y91.355 E7.38688
G1 X120.946 Y91.355 E8.68307
G1 X122.783 Y91.807 E8.74160
G1 X124.458 Y92.687 E8.80014
G1 X125.874 Y93.941 E8.85867
G1 X126.949 Y95.498 E8.91721
G1 X127.619 Y97.267 E8.97574
G1 X127.847 Y99.145 E9.03428
G1 X127.619 Y101.023 E9.09281
G1 X126.949 Y102.792 E9.15135
G1 X125.874 Y104.349 E9.20988
G1 X124.458 Y105.603 E9.26842
G1 X122.783 Y106.482 E9.32695
G1 X120.946 Y106.935 E9.38549
G1 X103.213 Y106.935 E9.93416
G1 X102.344 Y105.333 E9.99055
G1 X102.071 Y104.827 F7800.000
G1 E7.99055 F2400.00000
G92 E0
G1 X95.759 Y104.817 F7800.000
G1 E2.00000 F2400.00000
G1 F1800.000
G1 X95.914 Y104.817 E2.00481
G1 X96.098 Y104.478 E2.01677
G1 X95.273 Y105.304 E2.05294
G1 E0.05294 F2400.00000
G92 E0
G1 X84.583 Y92.986 F7800.000
G1 E2.00000 F2400.00000
G1 F1800.000
G1 X84.097 Y93.472 E2.02130
G1 X84.601 Y93.853 E2.04087
G1 X85.468 Y92.986 E2.07885
G1 X86.353 Y92.986 E2.10627
G1 X85.105 Y94.234 E2.16093
G1 X85.272 Y94.360 E2.16741
G1 X85.499 Y94.726 E2.18073
G1 X87.238 Y92.986 E2.25694
G1 X88.123 Y92.986 E2.28435
G1 X85.837 Y95.272 E2.38450
G1 X86.175 Y95.819 E2.40441
G1 X89.008 Y92.986 E2.52850
G1 X89.892 Y92.986 E2.55592
G1 X86.514 Y96.365 E2.70395
G1 X86.716 Y96.692 E2.71586
G1 X86.772 Y96.991 E2.72530
G1 X90.777 Y92.986 E2.90079
G1 X91.662 Y92.986 E2.92820
G1 X86.912 Y97.737 E3.13635
G1 X87.051 Y98.483 E3.15985
G1 X92.547 Y92.986 E3.40066
G1 X93.432 Y92.986 E3.42808
G1 X87.190 Y99.228 E3.70156
G1 X87.220 Y99.388 E3.70660
G1 X87.060 Y100.243 E3.73354
G1 X94.317 Y92.986 E4.05148
G1 X95.202 Y92.986 E4.07890
G1 X86.857 Y101.331 E4.44452
G1 X86.716 Y102.084 E4.46825
G1 X86.273 Y102.800 E4.49435
G1 X96.087 Y92.986 E4.92434
G1 X96.971 Y92.986 E4.95176
G1 X84.654 Y105.304 E5.49144
G1 X85.539 Y105.304 E5.51885
G1 X97.856 Y92.986 E6.05853
G1 X98.741 Y92.986 E6.08594
G1 X86.424 Y105.304 E6.62562
G1 X87.309 Y105.304 E6.65304
G1 X99.626 Y92.986 E7.19271
G1 X100.511 Y92.986 E7.22013
G1 X88.194 Y105.304 E7.75980
G1 X89.079 Y105.304 E7.78722
G1 X101.396 Y92.986 E8.32690
G1 X102.281 Y92.986 E8.35431
G1 X89.964 Y105.304 E8.89399
G1 X90.848 Y105.304 E8.92140
G1 X103.166 Y92.986 E9.46108
G1 X104.051 Y92.986 E9.48850
G1 X91.733 Y105.304 E10.02817
G1 X92.618 Y105.304 E10.05559
G1 X104.935 Y92.986 E10.59526
G1 X105.820 Y92.986 E10.62268
G1 X93.503 Y105.304 E11.16236
G1 X94.388 Y105.304 E11.18977
G1 X106.705 Y92.986 E11.72945
G1 X107.590 Y92.986 E11.75686
G1 X96.941 Y103.636 E12.22347
G1 X97.826 Y103.636 E12.25088
G1 X108.475 Y92.986 E12.71749
G1 X109.360 Y92.986 E12.74491
G1 X98.710 Y103.636 E13.21151
G1 X99.595 Y103.636 E13.23893
G1 X110.245 Y92.986 E13.70553
G1 X111.130 Y92.986 E13.73295
G1 X100.480 Y103.636 E14.19955
G1 X101.365 Y103.636 E14.22697
G1 X112.015 Y92.986 E14.69357
G1 X112.899 Y92.986 E14.72099
G1 X102.250 Y103.636 E15.18759
G1 X103.135 Y103.636 E15.21501
G1 X113.784 Y92.986 E15.68161
G1 X114.669 Y92.986 E15.70903
G1 X103.476 Y104.180 E16.19946
G1 X103.787 Y104.753 E16.21968
G1 X115.367 Y93.173 E16.72707
G1 X115.445 Y93.276 E16.73106
G1 X113.898 Y94.973 E16.80221
G1 X113.547 Y95.878 E16.83229
G1 X104.122 Y105.304 E17.24526
G1 X105.007 Y105.304 E17.27267
G1 X112.987 Y97.323 E17.62235
G1 X112.907 Y97.531 E17.62925
G1 X112.907 Y98.288 E17.65272
G1 X105.892 Y105.304 E17.96010
G1 X106.776 Y105.304 E17.98752
G1 X112.907 Y99.173 E18.25612
G1 X112.907 Y100.058 E18.28354
G1 X107.661 Y105.304 E18.51337
G1 X108.546 Y105.304 E18.54079
G1 X113.094 Y100.756 E18.74004
G1 X113.341 Y101.394 E18.76123
G1 X109.431 Y105.304 E18.93254
G1 X110.316 Y105.304 E18.95996
G1 X113.588 Y102.031 E19.10333
G1 X113.835 Y102.669 E19.12452
G1 X111.201 Y105.304 E19.23994
G1 X112.086 Y105.304 E19.26735
G1 X114.213 Y103.176 E19.36055
G1 X114.635 Y103.639 E19.37996
G1 X112.971 Y105.304 E19.45288
G1 X113.855 Y105.304 E19.48029
G1 X115.057 Y104.102 E19.53293
G1 X115.445 Y104.528 E19.55078
G1 X115.227 Y104.817 E19.56199
G1 X114.740 Y105.304 E19.58331
G1 X115.843 Y104.959 F7800.000
G1 F1800.000
G1 X116.117 Y105.166 E19.58484
G1 F1800.000
G1 X116.390 Y105.373 E19.58774
G1 X117.768 Y105.612 F7800.000
G1 F1800.000
G1 X118.191 Y105.701 E19.59956
G1 X118.670 Y105.723 E19.61265
G1 F1800.000
G1 X119.627 Y105.768 E19.63512
G1 F1800.000
G1 X120.583 Y105.812 E19.65339
G1 F1800.000
G1 X120.807 Y105.787 E19.65676
G1 F1800.000
G1 X122.362 Y105.374 E19.68663
G1 X122.754 Y105.218 E19.69444
G1 F1800.000
G1 X123.006 Y105.111 E19.69875
G1 X123.264 Y104.947 E19.70353
G1 F1800.000
G1 X123.779 Y104.620 E19.71476
G1 X124.925 Y103.682 E19.74201
G1 F1800.000
G1 X125.014 Y103.587 E19.74403
G1 F1800.000
G1 X125.896 Y102.239 E19.77359
G1 X126.110 Y101.805 E19.78248
G1 F1800.000
G1 X126.240 Y101.528 E19.78729
G1 X126.314 Y101.265 E19.79160
G1 F1800.000
G1 X126.462 Y100.738 E19.80158
G1 X126.702 Y99.181 E19.83029
G1 F1800.000
G1 X126.622 Y98.590 E19.83965
G1 F1800.000
G1 X126.462 Y97.552 E19.85957
G1 X126.314 Y97.025 E19.86995
G1 F1800.000
G1 X126.217 Y96.702 E19.87529
G1 X126.003 Y96.268 E19.88295
G1 F1800.000
G1 X125.896 Y96.051 E19.88788
G1 X125.014 Y94.703 E19.92062
G1 F1800.000
G1 X124.925 Y94.607 E19.92276
G1 X124.543 Y94.295 E19.93084
G1 F1800.000
G1 X123.779 Y93.670 E19.94955
G1 X123.264 Y93.343 E19.96113
G1 F1800.000
G1 X122.949 Y93.150 E19.96700
G1 X122.558 Y92.994 E19.97371
G1 F1800.000
G1 X122.362 Y92.916 E19.97792
G1 X120.807 Y92.503 E20.01007
G1 F1800.000
G1 X120.583 Y92.478 E20.01392
G1 X119.627 Y92.522 E20.03033
G1 F1800.000
G1 X118.670 Y92.566 E20.05070
G1 F1800.000
G1 X118.191 Y92.589 E20.06298
G1 X117.768 Y92.678 E20.07407
G1 X116.390 Y92.917 F7800.000
G1 F1800.000
G1 X116.117 Y93.124 E20.07697
G1 F1800.000
G1 X115.843 Y93.330 E20.07850
G1 E18.07850 F2400.00000
G92 E0
G1 X82.385 Y92.723 F7800.000
G1 E2.00000 F2400.00000
G1 F1800.000
G1 X81.952 Y92.662 E2.01477
G1 F1800.000
G1 X81.519 Y92.602 E2.02749
G1 F1800.000
G1 X81.086 Y92.542 E2.03816
G1 F1800.000
G1 X80.652 Y92.481 E2.04677
G1 F1800.000
G1 X80.122 Y92.499 E2.05474
G1 F1800.000
G1 X79.198 Y92.542 E2.07223
G1 X78.451 Y92.668 E2.08656
G1 F1800.000
G1 X78.140 Y92.726 E2.09145
G1 X77.804 Y92.850 E2.09698
G1 F1800.000
G1 X77.636 Y92.912 E2.10048
G1 X76.203 Y93.644 E2.13192
G1 X76.099 Y93.714 E2.13438
G1 F1800.000
G1 X75.943 Y93.827 E2.13751
G1 X75.636 Y94.130 E2.14449
G1 F1800.000
G1 X75.022 Y94.735 E2.16074
G1 X74.564 Y95.311 E2.17462
G1 F1800.000
G1 X74.335 Y95.599 E2.18059
G1 X74.161 Y95.914 E2.18642
G1 F1800.000
G1 X74.093 Y96.044 E2.18923
G1 X73.517 Y97.547 E2.21986
G1 X73.474 Y97.715 E2.22317
G1 F1800.000
G1 X73.422 Y97.949 E2.22708
G1 X73.374 Y98.746 E2.24013
G1 F1800.000
G1 X73.350 Y99.145 E2.24859
G1 X73.398 Y99.942 E2.26549
G1 F1800.000
G1 X73.422 Y100.341 E2.27204
G1 X73.517 Y100.743 E2.27880
G1 F1800.000
G1 X74.093 Y102.245 E2.30944
G1 X74.230 Y102.506 E2.31505
G1 F1800.000
G1 X74.335 Y102.691 E2.31837
G1 X74.564 Y102.979 E2.32412
G1 F1800.000
G1 X75.022 Y103.555 E2.33786
G1 X75.943 Y104.462 E2.36200
G1 F1800.000
G1 X76.099 Y104.575 E2.36481
G1 F1800.000
G1 X76.203 Y104.646 E2.36705
G1 X77.636 Y105.378 E2.39576
G1 X78.140 Y105.563 E2.40535
G1 F1800.000
G1 X78.451 Y105.622 E2.40968
G1 F1800.000
G1 X78.949 Y105.706 E2.41842
G1 F1800.000
G1 X79.198 Y105.748 E2.42373
G1 X80.122 Y105.791 E2.44317
G1 F1800.000
G1 X80.583 Y105.812 E2.45094
G1 X80.869 Y105.778 E2.45577
G1 F1800.000
G1 X81.302 Y105.718 E2.46439
G1 F1800.000
G1 X81.735 Y105.658 E2.47505
G1 F1800.000
G1 X82.169 Y105.597 E2.48777
G1 F1800.000
G1 X82.385 Y105.567 E2.49516
G1 Z0.650 F7800.000
G1 X114.208 Y100.657 F7800.000
G1 F900.000
G1 X114.053 Y100.257 E2.50674
G1 X114.053 Y98.033 E2.56672
G1 X114.856 Y95.960 E2.62670
G1 X116.354 Y94.317 E2.68668
G1 X118.344 Y93.326 E2.74666
G1 X120.558 Y93.121 E2.80664
G1 X122.697 Y93.729 E2.86662
G1 X124.471 Y95.069 E2.92660
G1 X125.642 Y96.959 E2.98658
G1 X126.050 Y99.145 E3.04656
G1 X125.642 Y101.331 E3.10654
G1 X124.471 Y103.221 E3.16652
G1 X122.697 Y104.561 E3.22650
G1 X120.558 Y105.169 E3.28648
G1 X118.344 Y104.964 E3.34646
G1 X116.354 Y103.973 E3.40644
G1 X114.856 Y102.330 E3.46642
G1 X114.235 Y100.727 E3.51279
G1 X114.731 Y100.454 F7800.000
G1 F900.000
G1 X114.613 Y100.152 E3.51948
G1 X114.613 Y98.138 E3.56098
G1 X115.341 Y96.260 E3.60249
G1 X116.698 Y94.772 E3.64400
G1 X118.500 Y93.874 E3.68550
G1 X120.506 Y93.689 E3.72701
G1 X122.443 Y94.240 E3.76851
G1 X124.050 Y95.453 E3.81002
G1 X125.110 Y97.165 E3.85152
G1 X125.480 Y99.145 E3.89303
G1 X125.110 Y101.124 E3.93453
G1 X124.050 Y102.837 E3.97604
G1 X122.443 Y104.050 E4.01754
G1 X120.506 Y104.601 E4.05905
G1 X118.500 Y104.416 E4.10055
G1 X116.698 Y103.518 E4.14206
G1 X115.341 Y102.030 E4.18356
G1 X114.758 Y100.524 E4.21683
G1 X114.407 Y100.426 F7800.000
G1 X102.976 Y104.264 F7800.000
G1 F3600.000
G1 X97.024 Y104.264 E4.37738
G1 X96.184 Y105.814 E4.42493
G1 X81.816 Y105.814 E4.81252
G1 X81.770 Y105.485 E4.82147
G1 X82.985 Y105.140 E4.85555
G1 X84.949 Y103.657 E4.92193
G1 X86.245 Y101.564 E4.98833
G1 X86.697 Y99.145 E5.05472
G1 X86.245 Y96.726 E5.12111
G1 X84.949 Y94.633 E5.18750
G1 X82.985 Y93.150 E5.25389
G1 X81.770 Y92.805 E5.28796
G1 X81.816 Y92.476 E5.29691
G1 X117.965 Y92.476 E6.27209
G1 X118.035 Y92.770 E6.28024
G1 X115.964 Y93.801 E6.34263
G1 X114.306 Y95.620 E6.40902
G1 X113.417 Y97.914 E6.47541
G1 X113.417 Y100.375 E6.54180
G1 X114.306 Y102.670 E6.60819
