; generated by Slic3r 1.3.1-dev (Build 2ef957d) on 2019-11-25 at 09:20:33

; external perimeters extrusion width = 0.55mm (4.37mm^3/s)
; perimeters extrusion width = 0.70mm (11.44mm^3/s)
; infill extrusion width = 0.62mm (13.45mm^3/s)
; solid infill extrusion width = 0.70mm (3.81mm^3/s)
; top infill extrusion width = 0.70mm (2.86mm^3/s)

M107
G92 E0
M104 S200 ; set temperature
G28 ; home all axes
G1 Z5 F5000 ; lift nozzle

; Filament gcode

M109 S200 ; set temperature and wait for it to be reached
G21 ; set units to millimeters
G90 ; use absolute coordinates
M82 ; use absolute distances for extrusion
G92 E0
G1 Z0.350 F7800.000
G1 E-2.00000 F2400.00000
G92 E0
G1 X90.907 Y90.539 F7800.000
G1 E2.00000 F2400.00000
G1 F1800.000
G1 X91.677 Y89.855 E2.03188
G1 X92.078 Y89.539 E2.04768
G1 X92.923 Y88.949 E2.07955
G1 X93.812 Y88.428 E2.11144
G1 X94.739 Y87.978 E2.14332
G1 X95.220 Y87.779 E2.15941
G1 X96.193 Y87.442 E2.19130
G1 X96.684 Y87.303 E2.20709
G1 X97.691 Y87.082 E2.23897
G1 X98.204 Y87.001 E2.25506
G1 X99.230 Y86.900 E2.28694
G1 X100.260 Y86.880 E2.31882
G1 X100.770 Y86.900 E2.33462
G1 X101.795 Y87.001 E2.36649
G1 X102.810 Y87.182 E2.39838
G1 X103.807 Y87.442 E2.43025
G1 X104.302 Y87.603 E2.44635
G1 X105.261 Y87.978 E2.47823
G1 X105.725 Y88.192 E2.49403
G1 X106.633 Y88.678 E2.52590
G1 X107.501 Y89.233 E2.55779
G1 X108.323 Y89.855 E2.58967
G1 X108.718 Y90.193 E2.60576
G1 X109.461 Y90.907 E2.63764
G1 X110.145 Y91.677 E2.66952
G1 X110.461 Y92.078 E2.68532
G1 X111.051 Y92.923 E2.71720
G1 X111.322 Y93.367 E2.73329
G1 X111.808 Y94.275 E2.76517
G1 X112.221 Y95.220 E2.79705
G1 X112.558 Y96.193 E2.82894
G1 X112.697 Y96.684 E2.84473
G1 X112.918 Y97.691 E2.87661
G1 X112.999 Y98.204 E2.89270
G1 X113.100 Y99.230 E2.92458
G1 X113.120 Y100.260 E2.95646
G1 X113.100 Y100.770 E2.97226
G1 X112.999 Y101.796 E3.00414
G1 X112.818 Y102.810 E3.03602
G1 X112.558 Y103.807 E3.06789
G1 X112.397 Y104.302 E3.08399
G1 X112.022 Y105.261 E3.11587
G1 X111.808 Y105.725 E3.13167
G1 X111.322 Y106.633 E3.16355
G1 X110.767 Y107.501 E3.19543
G1 X110.145 Y108.323 E3.22731
G1 X109.807 Y108.718 E3.24340
G1 X109.093 Y109.461 E3.27528
G1 X108.323 Y110.145 E3.30716
G1 X107.501 Y110.767 E3.33904
G1 X107.077 Y111.051 E3.35484
G1 X106.188 Y111.572 E3.38672
G1 X105.261 Y112.022 E3.41860
G1 X104.780 Y112.221 E3.43469
G1 X103.807 Y112.558 E3.46658
G1 X103.316 Y112.697 E3.48237
G1 X102.309 Y112.918 E3.51425
G1 X101.796 Y112.999 E3.53034
G1 X100.770 Y113.100 E3.56222
G1 X99.740 Y113.120 E3.59410
G1 X98.711 Y113.059 E3.62598
G1 X98.204 Y112.999 E3.64178
G1 X97.190 Y112.818 E3.67366
G1 X96.193 Y112.558 E3.70553
G1 X95.698 Y112.397 E3.72163
G1 X94.739 Y112.022 E3.75351
G1 X94.275 Y111.808 E3.76931
G1 X93.367 Y111.322 E3.80119
G1 X92.499 Y110.767 E3.83307
G1 X91.677 Y110.145 E3.86495
G1 X91.282 Y109.807 E3.88104
G1 X90.539 Y109.093 E3.91292
G1 X89.855 Y108.323 E3.94480
G1 X89.539 Y107.922 E3.96060
G1 X88.949 Y107.077 E3.99248
G1 X88.678 Y106.633 E4.00857
G1 X88.192 Y105.725 E4.04045
G1 X87.779 Y104.780 E4.07233
G1 X87.442 Y103.807 E4.10422
G1 X87.303 Y103.316 E4.12001
G1 X87.082 Y102.309 E4.15189
G1 X87.001 Y101.795 E4.16798
G1 X86.900 Y100.770 E4.19986
G1 X86.880 Y99.740 E4.23174
G1 X86.941 Y98.711 E4.26362
G1 X87.001 Y98.204 E4.27942
G1 X87.182 Y97.190 E4.31130
G1 X87.442 Y96.193 E4.34317
G1 X87.603 Y95.698 E4.35927
G1 X87.978 Y94.739 E4.39115
G1 X88.192 Y94.275 E4.40695
G1 X88.678 Y93.367 E4.43883
G1 X89.233 Y92.499 E4.47071
G1 X89.855 Y91.677 E4.50259
G1 X90.193 Y91.282 E4.51868
G1 X90.854 Y90.592 E4.54824
G1 E2.54824 F2400.00000
G92 E0
G1 X103.545 Y103.545 F7800.000
G1 E2.00000 F2400.00000
G1 F1800.000
G1 X103.256 Y103.812 E2.01218
G1 X102.946 Y104.055 E2.02436
G1 X102.619 Y104.274 E2.03654
G1 X102.276 Y104.466 E2.04871
G1 X101.918 Y104.631 E2.06089
G1 X101.549 Y104.767 E2.07307
G1 X101.170 Y104.874 E2.08525
G1 X100.784 Y104.951 E2.09743
G1 X100.393 Y104.997 E2.10961
G1 X100.000 Y105.013 E2.12179
G1 X99.607 Y104.997 E2.13396
G1 X99.216 Y104.951 E2.14614
G1 X98.830 Y104.874 E2.15832
G1 X98.451 Y104.767 E2.17050
G1 X98.082 Y104.631 E2.18268
G1 X97.724 Y104.466 E2.19486
G1 X97.381 Y104.274 E2.20704
G1 X97.054 Y104.055 E2.21921
G1 X96.744 Y103.812 E2.23139
G1 X96.455 Y103.545 E2.24357
G1 X96.188 Y103.256 E2.25575
G1 X95.945 Y102.946 E2.26793
G1 X95.726 Y102.619 E2.28011
G1 X95.534 Y102.276 E2.29228
G1 X95.369 Y101.918 E2.30446
G1 X95.233 Y101.549 E2.31664
G1 X95.126 Y101.170 E2.32882
G1 X95.049 Y100.784 E2.34100
G1 X95.003 Y100.393 E2.35318
G1 X94.987 Y100.000 E2.36536
G1 X95.003 Y99.607 E2.37753
G1 X95.049 Y99.216 E2.38971
G1 X95.126 Y98.830 E2.40189
G1 X95.233 Y98.451 E2.41407
G1 X95.369 Y98.082 E2.42625
G1 X95.534 Y97.724 E2.43843
G1 X95.726 Y97.381 E2.45061
G1 X95.945 Y97.054 E2.46278
G1 X96.188 Y96.744 E2.47496
G1 X96.455 Y96.455 E2.48714
G1 X96.744 Y96.188 E2.49932
G1 X97.054 Y95.945 E2.51150
G1 X97.381 Y95.726 E2.52368
G1 X97.724 Y95.534 E2.53586
G1 X98.082 Y95.369 E2.54803
G1 X98.451 Y95.233 E2.56021
G1 X98.830 Y95.126 E2.57239
G1 X99.216 Y95.049 E2.58457
G1 X99.607 Y95.003 E2.59675
G1 X100.000 Y94.987 E2.60893
G1 X100.393 Y95.003 E2.62110
G1 X100.784 Y95.049 E2.63328
G1 X101.170 Y95.126 E2.64546
G1 X101.549 Y95.233 E2.65764
G1 X101.918 Y95.369 E2.66982
G1 X102.276 Y95.534 E2.68200
G1 X102.619 Y95.726 E2.69418
G1 X102.946 Y95.945 E2.70635
G1 X103.256 Y96.188 E2.71853
G1 X103.545 Y96.455 E2.73071
G1 X103.812 Y96.744 E2.74289
G1 X104.055 Y97.054 E2.75507
G1 X104.274 Y97.381 E2.76725
G1 X104.466 Y97.724 E2.77943
G1 X104.631 Y98.082 E2.79160
G1 X104.767 Y98.451 E2.80378
G1 X104.874 Y98.830 E2.81596
G1 X104.951 Y99.216 E2.82814
G1 X104.997 Y99.607 E2.84032
G1 X105.013 Y100.000 E2.85250
G1 X104.997 Y100.393 E2.86468
G1 X104.951 Y100.784 E2.87685
G1 X104.874 Y101.170 E2.88903
G1 X104.767 Y101.549 E2.90121
G1 X104.631 Y101.918 E2.91339
G1 X104.466 Y102.276 E2.92557
G1 X104.274 Y102.619 E2.93775
G1 X104.055 Y102.946 E2.94993
G1 X103.812 Y103.256 E2.96210
G1 X103.595 Y103.489 E2.97196
G1 X103.545 Y103.545 F7800.000
G1 X104.379 Y104.316 F7800.000
G1 F1800.000
G1 X103.994 Y104.676 E2.98828
G1 X103.615 Y104.975 E3.00322
G1 X103.213 Y105.244 E3.01816
G1 X102.792 Y105.479 E3.03310
G1 X102.353 Y105.682 E3.04804
G1 X101.900 Y105.849 E3.06298
G1 X101.436 Y105.980 E3.07792
G1 X100.962 Y106.074 E3.09286
G1 X100.482 Y106.131 E3.10781
G1 X100.000 Y106.150 E3.12275
G1 X99.517 Y106.131 E3.13769
G1 X99.038 Y106.074 E3.15263
G1 X98.564 Y105.980 E3.16757
G1 X98.100 Y105.849 E3.18251
G1 X97.647 Y105.682 E3.19745
G1 X97.208 Y105.479 E3.21239
G1 X96.787 Y105.244 E3.22733
G1 X96.385 Y104.975 E3.24227
G1 X96.006 Y104.676 E3.25721
G1 X95.651 Y104.349 E3.27215
G1 X95.324 Y103.994 E3.28709
G1 X95.025 Y103.615 E3.30204
G1 X94.756 Y103.213 E3.31698
G1 X94.521 Y102.792 E3.33192
G1 X94.318 Y102.353 E3.34686
G1 X94.151 Y101.900 E3.36180
G1 X94.020 Y101.436 E3.37674
G1 X93.926 Y100.962 E3.39168
G1 X93.869 Y100.483 E3.40662
G1 X93.850 Y100.000 E3.42156
G1 X93.869 Y99.517 E3.43650
G1 X93.926 Y99.038 E3.45144
G1 X94.020 Y98.564 E3.46638
G1 X94.151 Y98.100 E3.48132
G1 X94.318 Y97.647 E3.49627
G1 X94.521 Y97.208 E3.51121
G1 X94.756 Y96.787 E3.52615
G1 X95.025 Y96.385 E3.54109
G1 X95.324 Y96.006 E3.55603
G1 X95.651 Y95.651 E3.57097
G1 X96.006 Y95.324 E3.58591
G1 X96.385 Y95.025 E3.60085
G1 X96.787 Y94.756 E3.61579
G1 X97.208 Y94.521 E3.63073
G1 X97.647 Y94.318 E3.64567
G1 X98.100 Y94.151 E3.66061
G1 X98.564 Y94.020 E3.67555
G1 X99.038 Y93.926 E3.69050
G1 X99.517 Y93.869 E3.70544
G1 X100.000 Y93.850 E3.72038
G1 X100.483 Y93.869 E3.73532
G1 X100.962 Y93.926 E3.75026
G1 X101.436 Y94.020 E3.76520
G1 X101.900 Y94.151 E3.78014
G1 X102.353 Y94.318 E3.79508
G1 X102.792 Y94.521 E3.81002
G1 X103.213 Y94.756 E3.82496
G1 X103.615 Y95.025 E3.83990
G1 X103.994 Y95.324 E3.85484
G1 X104.349 Y95.651 E3.86978
G1 X104.676 Y96.006 E3.88473
G1 X104.975 Y96.385 E3.89967
G1 X105.244 Y96.787 E3.91461
G1 X105.479 Y97.208 E3.92955
G1 X105.682 Y97.647 E3.94449
G1 X105.849 Y98.100 E3.95943
G1 X105.980 Y98.564 E3.97437
G1 X106.074 Y99.038 E3.98931
G1 X106.131 Y99.517 E4.00425
G1 X106.150 Y100.000 E4.01919
G1 X106.131 Y100.482 E4.03413
G1 X106.074 Y100.962 E4.04907
G1 X105.980 Y101.436 E4.06401
G1 X105.849 Y101.900 E4.07896
G1 X105.682 Y102.353 E4.09390
G1 X105.479 Y102.792 E4.10884
G1 X105.244 Y103.213 E4.12378
G1 X104.975 Y103.615 E4.13872
G1 X104.676 Y103.994 E4.15366
G1 X104.430 Y104.261 E4.16490
G1 X104.335 Y104.306 F7800.000
G1 X103.962 Y103.930 F7800.000
G1 F1800.000
G1 X103.625 Y104.244 E4.17485
G1 X103.272 Y104.521 E4.18453
G1 X102.916 Y104.759 E4.19378
G1 X102.543 Y104.968 E4.20303
G1 X102.136 Y105.156 E4.21271
G1 X101.715 Y105.311 E4.22240
G1 X101.303 Y105.427 E4.23165
G1 X100.883 Y105.511 E4.24090
G1 X100.438 Y105.564 E4.25058
G1 X100.000 Y105.581 E4.26005
G1 X99.562 Y105.564 E4.26951
G1 X99.117 Y105.511 E4.27920
G1 X98.697 Y105.427 E4.28845
G1 X98.285 Y105.311 E4.29770
G1 X97.864 Y105.156 E4.30738
G1 X97.457 Y104.968 E4.31706
G1 X97.084 Y104.759 E4.32631
G1 X96.728 Y104.521 E4.33556
G1 X96.375 Y104.244 E4.34524
G1 X96.054 Y103.946 E4.35471
G1 X95.756 Y103.625 E4.36418
G1 X95.479 Y103.272 E4.37386
G1 X95.241 Y102.916 E4.38311
G1 X95.032 Y102.543 E4.39236
G1 X94.844 Y102.136 E4.40205
G1 X94.692 Y101.725 E4.41151
G1 X94.571 Y101.293 E4.42120
G1 X94.488 Y100.873 E4.43045
G1 X94.437 Y100.448 E4.43969
G1 X94.419 Y100.000 E4.44938
G1 X94.436 Y99.562 E4.45884
G1 X94.489 Y99.117 E4.46853
G1 X94.573 Y98.697 E4.47778
G1 X94.689 Y98.285 E4.48703
G1 X94.844 Y97.864 E4.49671
G1 X95.027 Y97.466 E4.50618
G1 X95.247 Y97.075 E4.51586
G1 X95.485 Y96.719 E4.52511
G1 X95.750 Y96.383 E4.53436
G1 X96.054 Y96.054 E4.54404
G1 X96.383 Y95.750 E4.55373
G1 X96.719 Y95.485 E4.56298
G1 X97.075 Y95.247 E4.57223
G1 X97.466 Y95.027 E4.58191
G1 X97.864 Y94.844 E4.59138
G1 X98.285 Y94.689 E4.60106
G1 X98.697 Y94.573 E4.61031
G1 X99.117 Y94.489 E4.61956
G1 X99.562 Y94.436 E4.62924
G1 X100.000 Y94.419 E4.63871
G1 X100.438 Y94.436 E4.64818
G1 X100.883 Y94.489 E4.65786
G1 X101.303 Y94.573 E4.66711
G1 X101.715 Y94.689 E4.67636
G1 X102.136 Y94.844 E4.68604
G1 X102.534 Y95.027 E4.69551
G1 X102.925 Y95.247 E4.70519
G1 X103.281 Y95.485 E4.71444
G1 X103.617 Y95.750 E4.72369
G1 X103.946 Y96.054 E4.73338
G1 X104.244 Y96.375 E4.74284
G1 X104.521 Y96.728 E4.75253
G1 X104.759 Y97.084 E4.76178
G1 X104.968 Y97.457 E4.77103
G1 X105.156 Y97.864 E4.78071
G1 X105.308 Y98.275 E4.79018
G1 X105.429 Y98.707 E4.79986
G1 X105.512 Y99.127 E4.80911
G1 X105.563 Y99.552 E4.81836
G1 X105.581 Y100.000 E4.82804
G1 X105.563 Y100.448 E4.83773
G1 X105.512 Y100.873 E4.84698
G1 X105.429 Y101.293 E4.85623
G1 X105.308 Y101.725 E4.86591
G1 X105.156 Y102.136 E4.87538
G1 X104.973 Y102.534 E4.88484
G1 X104.753 Y102.925 E4.89453
G1 X104.509 Y103.288 E4.90399
G1 X104.244 Y103.625 E4.91324
G1 X104.013 Y103.875 E4.92061
G1 Z0.650 F7800.000
G1 X103.377 Y103.377 F7800.000
G1 F900.000
G1 X103.101 Y103.631 E4.92834
G1 X102.807 Y103.863 E4.93606
G1 X102.495 Y104.072 E4.94379
G1 X102.168 Y104.255 E4.95152
G1 X101.827 Y104.412 E4.95925
G1 X101.476 Y104.541 E4.96697
G1 X101.115 Y104.643 E4.97470
G1 X100.747 Y104.716 E4.98243
G1 X100.375 Y104.760 E4.99016
G1 X100.000 Y104.775 E4.99789
G1 X99.625 Y104.760 E5.00561
G1 X99.253 Y104.716 E5.01334
G1 X98.885 Y104.643 E5.02107
G1 X98.524 Y104.541 E5.02880
G1 X98.173 Y104.412 E5.03652
G1 X97.832 Y104.255 E5.04425
G1 X97.505 Y104.072 E5.05198
G1 X97.193 Y103.863 E5.05971
G1 X96.899 Y103.631 E5.06744
G1 X96.623 Y103.377 E5.07516
G1 X96.369 Y103.101 E5.08289
G1 X96.137 Y102.807 E5.09062
G1 X95.928 Y102.495 E5.09835
G1 X95.745 Y102.168 E5.10607
G1 X95.588 Y101.827 E5.11380
G1 X95.459 Y101.476 E5.12153
G1 X95.357 Y101.115 E5.12926
G1 X95.284 Y100.747 E5.13699
G1 X95.240 Y100.375 E5.14471
G1 X95.225 Y100.000 E5.15244
G1 X95.240 Y99.625 E5.16017
G1 X95.284 Y99.253 E5.16790
G1 X95.357 Y98.885 E5.17562
G1 X95.459 Y98.524 E5.18335
G1 X95.588 Y98.173 E5.19108
G1 X95.745 Y97.832 E5.19881
G1 X95.928 Y97.505 E5.20654
G1 X96.137 Y97.193 E5.21426
G1 X96.369 Y96.899 E5.22199
G1 X96.623 Y96.623 E5.22972
G1 X96.899 Y96.369 E5.23745
G1 X97.193 Y96.137 E5.24518
G1 X97.505 Y95.928 E5.25290
G1 X97.832 Y95.745 E5.26063
G1 X98.173 Y95.588 E5.26836
G1 X98.524 Y95.459 E5.27609
G1 X98.885 Y95.357 E5.28381
G1 X99.253 Y95.284 E5.29154
G1 X99.625 Y95.240 E5.29927
G1 X100.000 Y95.225 E5.30700
G1 X100.375 Y95.240 E5.31473
G1 X100.747 Y95.284 E5.32245
G1 X101.115 Y95.357 E5.33018
G1 X101.476 Y95.459 E5.33791
G1 X101.827 Y95.588 E5.34564
G1 X102.168 Y95.745 E5.35336
G1 X102.495 Y95.928 E5.36109
G1 X102.807 Y96.137 E5.36882
G1 X103.101 Y96.369 E5.37655
G1 X103.377 Y96.623 E5.38428
G1 X103.631 Y96.899 E5.39200
G1 X103.863 Y97.193 E5.39973
G1 X104.072 Y97.505 E5.40746
G1 X104.255 Y97.832 E5.41519
G1 X104.412 Y98.173 E5.42291
G1 X104.541 Y98.524 E5.43064
G1 X104.643 Y98.885 E5.43837
G1 X104.716 Y99.253 E5.44610
G1 X104.760 Y99.625 E5.45383
G1 X104.775 Y100.000 E5.46155
G1 X104.760 Y100.375 E5.46928
G1 X104.716 Y100.747 E5.47701
G1 X104.643 Y101.115 E5.48474
G1 X104.541 Y101.476 E5.49246
G1 X104.412 Y101.827 E5.50019
G1 X104.255 Y102.168 E5.50792
G1 X104.072 Y102.495 E5.51565
G1 X103.863 Y102.807 E5.52338
G1 X103.631 Y103.101 E5.53110
G1 X103.427 Y103.322 E5.53729
G1 X103.377 Y103.377 F7800.000
G1 X104.440 Y104.360 F7800.000
G1 F900.000
G1 X104.043 Y104.733 E5.54853
G1 X103.659 Y105.036 E5.55860
G1 X103.252 Y105.308 E5.56868
G1 X102.826 Y105.546 E5.57875
G1 X102.382 Y105.751 E5.58882
G1 X101.924 Y105.920 E5.59890
G1 X101.453 Y106.053 E5.60897
G1 X100.974 Y106.148 E5.61904
G1 X100.488 Y106.206 E5.62912
G1 X100.000 Y106.225 E5.63919
G1 X99.512 Y106.206 E5.64927
G1 X99.026 Y106.148 E5.65934
G1 X98.547 Y106.053 E5.66941
G1 X98.076 Y105.920 E5.67949
G1 X97.618 Y105.751 E5.68956
G1 X97.174 Y105.546 E5.69963
G1 X96.748 Y105.308 E5.70971
G1 X96.341 Y105.036 E5.71978
G1 X95.957 Y104.733 E5.72985
G1 X95.598 Y104.402 E5.73993
G1 X95.267 Y104.043 E5.75000
G1 X94.964 Y103.659 E5.76008
G1 X94.692 Y103.252 E5.77015
G1 X94.454 Y102.826 E5.78022
G1 X94.249 Y102.382 E5.79030
G1 X94.080 Y101.924 E5.80037
G1 X93.947 Y101.453 E5.81044
G1 X93.852 Y100.974 E5.82052
G1 X93.794 Y100.488 E5.83059
G1 X93.775 Y100.000 E5.84067
G1 X93.794 Y99.512 E5.85074
G1 X93.852 Y99.026 E5.86081
G1 X93.947 Y98.547 E5.87089
G1 X94.080 Y98.076 E5.88096
G1 X94.249 Y97.618 E5.89103
G1 X94.454 Y97.174 E5.90111
G1 X94.692 Y96.748 E5.91118
G1 X94.964 Y96.341 E5.92125
G1 X95.267 Y95.957 E5.93133
G1 X95.598 Y95.598 E5.94140
G1 X95.957 Y95.267 E5.95148
G1 X96.341 Y94.964 E5.96155
G1 X96.748 Y94.692 E5.97162
G1 X97.174 Y94.454 E5.98170
G1 X97.618 Y94.249 E5.99177
G1 X98.076 Y94.080 E6.00184
G1 X98.547 Y93.947 E6.01192
G1 X99.026 Y93.852 E6.02199
G1 X99.512 Y93.794 E6.03206
G1 X100.000 Y93.775 E6.04214
G1 X100.488 Y93.794 E6.05221
G1 X100.974 Y93.852 E6.06229
G1 X101.453 Y93.947 E6.07236
G1 X101.924 Y94.080 E6.08243
G1 X102.382 Y94.249 E6.09251
G1 X102.826 Y94.454 E6.10258
G1 X103.252 Y94.692 E6.11265
G1 X103.659 Y94.964 E6.12273
G1 X104.043 Y95.267 E6.13280
G1 X104.402 Y95.598 E6.14288
G1 X104.733 Y95.957 E6.15295
G1 X105.036 Y96.341 E6.16302
G1 X105.308 Y96.748 E6.17310
G1 X105.546 Y97.174 E6.18317
G1 X105.751 Y97.618 E6.19324
G1 X105.920 Y98.076 E6.20332
G1 X106.053 Y98.547 E6.21339
G1 X106.148 Y99.026 E6.22346
G1 X106.206 Y99.512 E6.23354
G1 X106.225 Y100.000 E6.24361
G1 X106.206 Y100.488 E6.25369
G1 X106.148 Y100.974 E6.26376
G1 X106.053 Y101.453 E6.27383
G1 X105.920 Y101.924 E6.28391
G1 X105.751 Y102.382 E6.29398
G1 X105.546 Y102.826 E6.30405
G1 X105.308 Y103.252 E6.31413
G1 X105.036 Y103.659 E6.32420
G1 X104.733 Y104.043 E6.33427
G1 X104.491 Y104.305 E6.34163
G1 X104.385 Y104.348 F7800.000
G1 X103.908 Y103.868 F7800.000
G1 F1200.000
G1 X103.572 Y104.182 E6.35772
G1 X103.218 Y104.459 E6.37343
G1 X102.874 Y104.689 E6.38792
G1 X102.512 Y104.892 E6.40241
G1 X102.105 Y105.081 E6.41811
G1 X101.700 Y105.231 E6.43321
G1 X101.267 Y105.351 E6.44892
G1 X100.860 Y105.432 E6.46341
G1 X100.449 Y105.481 E6.47790
G1 X100.000 Y105.500 E6.49360
G1 X99.551 Y105.481 E6.50931
G1 X99.140 Y105.432 E6.52380
G1 X98.733 Y105.351 E6.53829
