; generated by Slic3r 1.3.1-dev (Build adea0d9) on 2019-12-16 at 00:49:31

; external perimeters extrusion width = 0.44mm (2.86mm^3/s)
; perimeters extrusion width = 0.56mm (4.14mm^3/s)
; infill extrusion width = 0.50mm (3.66mm^3/s)
; solid infill extrusion width = 0.56mm (3.10mm^3/s)
; top infill extrusion width = 0.56mm (3.10mm^3/s)

M107
G92 E0
;D3D:START:START
T0
M104 S215 T0

G21
G90
M107
T0
G28
G29
M109 T0 S215 T0
G0 F3000
M107
T0
G92 E0
G0 X0 Y149 Z0.1 F3600
G1 Y49 E6.5 F1200
G0 Z1
G92 E0
; Filament gcode

G21 ; set units to millimeters
G90 ; use absolute coordinates
M82 ; use absolute distances for extrusion
G92 E0
G1 Z0.300 F7800.000
G1 E-2.00000 F2400.00000
G92 E0
G1 X78.085 Y70.681 F7800.000
G1 E2.00000 F2400.00000
G1 F1800.000
G1 X78.375 Y70.470 E2.01188
G1 X78.966 Y70.145 E2.03420
G1 X79.592 Y69.897 E2.05652
G1 X80.245 Y69.730 E2.07885
G1 X80.913 Y69.645 E2.10117
G1 X81.587 Y69.645 E2.12349
G1 X82.255 Y69.730 E2.14581
G1 X82.908 Y69.897 E2.16814
G1 X83.534 Y70.145 E2.19046
G1 X84.125 Y70.470 E2.21278
G1 X84.415 Y70.681 E2.22466
G1 X84.415 Y79.319 E2.51085
G1 X84.125 Y79.530 E2.52273
G1 X83.534 Y79.855 E2.54505
G1 X82.908 Y80.103 E2.56738
G1 X82.255 Y80.270 E2.58970
G1 X81.587 Y80.355 E2.61202
G1 X80.913 Y80.355 E2.63434
G1 X80.245 Y80.270 E2.65667
G1 X79.592 Y80.103 E2.67899
G1 X78.966 Y79.855 E2.70131
G1 X78.375 Y79.530 E2.72363
G1 X78.085 Y79.319 E2.73551
G1 X78.085 Y70.741 E3.01972
G1 X79.630 Y69.613 F7800.000
G1 F1800.000
G1 X79.590 Y69.460 E3.02497
G1 X80.066 Y69.345 E3.04121
G1 X80.097 Y69.493 E3.04624
G1 X79.688 Y69.598 E3.06022
G1 E1.06022 F2400.00000
G92 E0
G1 X77.554 Y70.839 F7800.000
G1 E2.00000 F2400.00000
G1 F1800.000
G1 X77.554 Y79.161 E2.27573
G1 X77.077 Y78.685 E2.29807
G1 X76.715 Y78.238 E2.31710
G1 X76.403 Y77.757 E2.33613
G1 X76.140 Y77.242 E2.35526
G1 X75.934 Y76.705 E2.37431
G1 X75.786 Y76.150 E2.39335
G1 X75.695 Y75.575 E2.41266
G1 X75.665 Y75.000 E2.43172
G1 X75.695 Y74.422 E2.45091
G1 X75.785 Y73.853 E2.46997
G1 X75.934 Y73.294 E2.48914
G1 X76.140 Y72.758 E2.50818
G1 X76.403 Y72.243 E2.52731
G1 X76.715 Y71.762 E2.54634
G1 X77.077 Y71.315 E2.56537
G1 X77.511 Y70.881 E2.58572
G1 X77.819 Y70.545 F7800.000
G1 F1800.000
G1 X77.819 Y79.455 E2.88088
G1 X78.233 Y79.755 E2.89780
G1 X78.852 Y80.096 E2.92123
G1 X79.567 Y80.378 E2.94668
G1 X79.519 Y80.521 E2.95166
G1 X79.373 Y80.482 E2.95669
G1 X78.812 Y80.267 E2.97657
G1 X78.276 Y79.994 E2.99651
G1 X77.771 Y79.666 E3.01646
G1 X77.303 Y79.287 E3.03640
G1 X76.879 Y78.863 E3.05627
G1 X76.500 Y78.395 E3.07622
G1 X76.172 Y77.890 E3.09617
G1 X75.897 Y77.350 E3.11623
G1 X75.681 Y76.788 E3.13619
G1 X75.525 Y76.205 E3.15616
G1 X75.430 Y75.602 E3.17639
G1 X75.399 Y75.000 E3.19637
G1 X75.430 Y74.394 E3.21649
G1 X75.525 Y73.798 E3.23646
G1 X75.681 Y73.212 E3.25656
G1 X75.897 Y72.650 E3.27652
G1 X76.172 Y72.110 E3.29658
G1 X76.500 Y71.605 E3.31653
G1 X76.879 Y71.137 E3.33648
G1 X77.303 Y70.713 E3.35635
G1 X77.771 Y70.334 E3.37629
G1 X78.276 Y70.006 E3.39624
G1 X78.812 Y69.733 E3.41618
G1 X79.373 Y69.518 E3.43606
G1 X79.519 Y69.479 E3.44109
G1 X79.567 Y69.622 E3.44607
G1 X78.852 Y69.904 E3.47152
G1 X78.233 Y70.245 E3.49495
G1 X77.868 Y70.510 E3.50988
G1 E1.50988 F2400.00000
G92 E0
G1 X84.946 Y70.916 F7800.000
G1 E2.00000 F2400.00000
G1 F1800.000
G1 X85.342 Y71.312 E2.01853
G1 X85.554 Y71.573 E2.02969
G1 X85.554 Y78.427 E2.25674
G1 X85.342 Y78.688 E2.26790
G1 X84.946 Y79.084 E2.28643
G1 X84.946 Y70.976 E2.55504
G1 X84.681 Y70.357 F7800.000
G1 F1800.000
G1 X85.115 Y70.709 E2.57356
G1 X85.539 Y71.134 E2.59344
G1 X85.819 Y71.479 E2.60818
G1 X85.819 Y78.521 E2.84146
G1 X85.539 Y78.866 E2.85620
G1 X85.115 Y79.291 E2.87608
G1 X84.681 Y79.643 E2.89460
G1 X84.681 Y70.417 E3.20022
G1 E1.20022 F2400.00000
G92 E0
G1 X80.097 Y80.507 F7800.000
G1 E2.00000 F2400.00000
G1 F1800.000
G1 X80.066 Y80.655 E2.00504
G1 X79.590 Y80.540 E2.02127
G1 X79.630 Y80.387 E2.02652
G1 X80.039 Y80.492 E2.04050
G1 X79.899 Y80.898 F7800.000
G1 F1800.000
G1 X79.290 Y80.735 E2.06137
G1 X78.704 Y80.510 E2.08217
G1 X78.143 Y80.224 E2.10303
G1 X77.615 Y79.881 E2.12390
G1 X77.125 Y79.484 E2.14477
G1 X76.682 Y79.041 E2.16556
G1 X76.285 Y78.551 E2.18643
G1 X75.942 Y78.023 E2.20730
G1 X75.654 Y77.459 E2.22828
G1 X75.429 Y76.870 E2.24917
G1 X75.265 Y76.261 E2.27006
G1 X75.165 Y75.630 E2.29122
G1 X75.133 Y75.000 E2.31212
G1 X75.166 Y74.366 E2.33315
G1 X75.264 Y73.743 E2.35405
G1 X75.429 Y73.130 E2.37507
G1 X75.654 Y72.541 E2.39596
G1 X75.942 Y71.977 E2.41694
G1 X76.285 Y71.449 E2.43781
G1 X76.682 Y70.959 E2.45868
G1 X77.125 Y70.516 E2.47947
G1 X77.615 Y70.119 E2.50034
G1 X78.143 Y69.776 E2.52121
G1 X78.704 Y69.490 E2.54207
G1 X79.290 Y69.265 E2.56287
G1 X79.899 Y69.102 E2.58374
G1 X80.521 Y69.004 E2.60461
G1 X81.250 Y68.965 E2.62879
G1 X81.881 Y68.998 E2.64972
G1 X82.505 Y69.097 E2.67065
G1 X83.133 Y69.264 E2.69219
G1 X83.719 Y69.489 E2.71298
G1 X84.278 Y69.774 E2.73379
G1 X84.805 Y70.116 E2.75459
G1 X85.293 Y70.512 E2.77539
G1 X85.737 Y70.956 E2.79619
G1 X86.085 Y71.385 E2.81451
G1 X86.085 Y78.615 E3.05402
G1 X85.737 Y79.044 E3.07234
G1 X85.293 Y79.488 E3.09314
G1 X84.805 Y79.884 E3.11394
G1 X84.278 Y80.226 E3.13474
G1 X83.719 Y80.511 E3.15555
G1 X83.133 Y80.736 E3.17635
G1 X82.526 Y80.898 E3.19715
G1 X81.881 Y81.002 E3.21881
G1 X81.250 Y81.035 E3.23974
G1 X80.521 Y80.996 E3.26392
G1 X79.958 Y80.907 E3.28280
G1 X80.212 Y80.606 F7800.000
G1 F1800.000
G1 X80.880 Y80.684 E3.31125
G1 X81.250 Y80.695 E3.32690
G1 X81.845 Y80.664 E3.35208
G1 X82.456 Y80.568 E3.37822
G1 X83.024 Y80.418 E3.40306
G1 X83.581 Y80.201 E3.42835
G1 X84.107 Y79.929 E3.45339
G1 X84.548 Y79.644 E3.47557
G1 X85.250 Y78.591 F7800.000
G1 F1800.000
G1 X85.250 Y71.409 E3.72415
G1 X84.548 Y70.356 F7800.000
G1 F1800.000
G1 X84.107 Y70.071 E3.74633
G1 X83.581 Y69.799 E3.77137
G1 X83.024 Y69.582 E3.79666
G1 X82.435 Y69.428 E3.82240
G1 X81.845 Y69.336 E3.84762
G1 X81.250 Y69.305 E3.87282
G1 X80.880 Y69.316 E3.88848
G1 X80.212 Y69.394 E3.91692
G1 E1.91692 F2400.00000
G92 E0
G1 X77.391 Y71.377 F7800.000
G1 E2.00000 F2400.00000
G1 F1800.000
G1 X77.171 Y71.597 E2.01077
G1 X76.827 Y72.021 E2.02959
G1 X76.530 Y72.480 E2.04844
G1 X76.374 Y72.785 E2.06028
G1 X77.391 Y71.768 E2.10993
G1 X77.391 Y72.159 E2.12342
G1 X76.093 Y73.458 E2.18678
G1 X75.946 Y73.995 E2.20601
G1 X77.391 Y72.550 E2.27651
G1 X77.391 Y72.941 E2.29001
G1 X75.870 Y74.462 E2.36421
G1 X75.839 Y74.885 E2.37884
G1 X77.391 Y73.332 E2.45459
G1 X77.391 Y73.723 E2.46808
G1 X75.836 Y75.278 E2.54394
G1 X75.856 Y75.650 E2.55678
G1 X77.391 Y74.114 E2.63170
G1 X77.391 Y74.506 E2.64519
G1 X75.909 Y75.988 E2.71750
G1 X75.974 Y76.315 E2.72899
G1 X77.391 Y74.897 E2.79815
G1 X77.391 Y75.288 E2.81165
G1 X76.056 Y76.623 E2.87678
G1 X76.156 Y76.914 E2.88740
G1 X77.391 Y75.679 E2.94767
G1 X77.391 Y76.070 E2.96116
G1 X76.265 Y77.197 E3.01613
G1 X76.393 Y77.459 E3.02621
G1 X77.391 Y76.461 E3.07491
G1 X77.391 Y76.852 E3.08840
G1 X76.525 Y77.719 E3.13066
G1 X76.679 Y77.956 E3.14042
G1 X77.391 Y77.243 E3.17520
G1 X77.391 Y77.635 E3.18869
G1 X76.833 Y78.193 E3.21592
G1 X77.008 Y78.409 E3.22551
G1 X77.391 Y78.026 E3.24420
G1 X77.391 Y78.417 E3.25769
G1 X77.185 Y78.623 E3.26777
M106 S255
G1 Z0.500 F7800.000
G1 X78.030 Y79.347 F7800.000
G1 F1800.000
G1 X78.030 Y70.653 E3.55485
G1 X78.346 Y70.423 E3.56773
G1 X78.942 Y70.095 E3.59020
G1 X79.575 Y69.845 E3.61268
G1 X80.234 Y69.676 E3.63515
G1 X80.910 Y69.590 E3.65763
G1 X81.590 Y69.590 E3.68010
G1 X82.266 Y69.676 E3.70258
G1 X82.925 Y69.845 E3.72505
G1 X83.561 Y70.097 E3.74762
G1 X84.154 Y70.423 E3.77001
G1 X84.470 Y70.653 E3.78288
G1 X84.470 Y79.347 E4.06996
G1 X84.154 Y79.577 E4.08284
G1 X83.558 Y79.905 E4.10531
G1 X82.925 Y80.155 E4.12779
G1 X82.266 Y80.324 E4.15026
G1 X81.590 Y80.410 E4.17274
G1 X80.910 Y80.410 E4.19521
G1 X80.234 Y80.324 E4.21769
G1 X79.575 Y80.155 E4.24016
G1 X78.942 Y79.905 E4.26264
G1 X78.346 Y79.577 E4.28511
G1 X78.079 Y79.383 E4.29601
G1 E2.29601 F2400.00000
G92 E0
G1 X84.927 Y79.145 F7800.000
G1 E2.00000 F2400.00000
G1 F1800.000
G1 X84.927 Y70.855 E2.35641
G1 X85.360 Y71.288 E2.38272
G1 X85.573 Y71.551 E2.39728
G1 X85.573 Y78.449 E2.69385
G1 X85.360 Y78.712 E2.70840
G1 X84.970 Y79.102 E2.73214
G1 E0.73214 F2400.00000
G92 E0
G1 X77.573 Y79.351 F7800.000
G1 E2.00000 F2400.00000
G1 F1800.000
G1 X76.923 Y78.702 E2.03950
G1 X76.562 Y78.256 E2.06416
G1 X76.250 Y77.775 E2.08882
G1 X75.985 Y77.257 E2.11385
G1 X75.779 Y76.720 E2.13857
G1 X75.630 Y76.164 E2.16330
G1 X75.537 Y75.576 E2.18892
G1 X75.508 Y75.000 E2.21370
G1 X75.538 Y74.414 E2.23893
G1 X75.628 Y73.845 E2.26369
G1 X75.779 Y73.280 E2.28885
G1 X75.985 Y72.743 E2.31356
G1 X76.250 Y72.225 E2.33859
G1 X76.562 Y71.744 E2.36325
G1 X76.923 Y71.298 E2.38791
G1 X77.573 Y70.649 E2.42741
G1 X77.573 Y79.291 E2.79901
G1 X77.501 Y79.834 F7800.000
G1 F1800.000
G1 X77.018 Y79.443 E2.81952
G1 X76.583 Y79.008 E2.83982
G1 X76.192 Y78.525 E2.86034
G1 X75.853 Y78.004 E2.88086
G1 X75.567 Y77.443 E2.90167
G1 X75.344 Y76.861 E2.92223
G1 X75.183 Y76.259 E2.94280
G1 X75.082 Y75.623 E2.96407
G1 X75.050 Y75.000 E2.98467
G1 X75.083 Y74.366 E3.00562
G1 X75.181 Y73.750 E3.02622
G1 X75.344 Y73.139 E3.04712
G1 X75.567 Y72.557 E3.06768
G1 X75.853 Y71.996 E3.08848
G1 X76.192 Y71.475 E3.10901
G1 X76.583 Y70.992 E3.12952
G1 X77.018 Y70.557 E3.14982
G1 X77.501 Y70.166 E3.17033
G1 X78.021 Y69.828 E3.19084
G1 X78.575 Y69.546 E3.21135
G1 X79.149 Y69.325 E3.23167
G1 X79.749 Y69.164 E3.25218
G1 X80.363 Y69.067 E3.27269
G1 X81.250 Y69.020 E3.30202
G1 X81.875 Y69.053 E3.32268
G1 X82.494 Y69.151 E3.34336
G1 X83.146 Y69.323 E3.36564
G1 X83.721 Y69.544 E3.38596
G1 X84.269 Y69.823 E3.40629
G1 X84.786 Y70.159 E3.42663
G1 X85.265 Y70.546 E3.44697
G1 X85.700 Y70.982 E3.46730
G1 X86.030 Y71.389 E3.48461
G1 X86.030 Y78.611 E3.72304
G1 X85.700 Y79.018 E3.74035
G1 X85.264 Y79.454 E3.76069
G1 X84.786 Y79.841 E3.78102
G1 X84.269 Y80.177 E3.80136
G1 X83.721 Y80.456 E3.82169
G1 X83.146 Y80.677 E3.84202
G1 X82.550 Y80.837 E3.86237
G1 X81.875 Y80.947 E3.88499
G1 X81.250 Y80.980 E3.90563
G1 X80.363 Y80.933 E3.93496
G1 X79.749 Y80.836 E3.95547
G1 X79.149 Y80.675 E3.97598
G1 X78.575 Y80.454 E3.99630
G1 X78.021 Y80.172 E4.01681
G1 X77.551 Y79.867 E4.03533
G1 X77.801 Y79.613 F7800.000
G1 F1200.000
G1 X78.159 Y79.858 E4.04222
G1 F1200.000
G1 X78.799 Y80.194 E4.05064
G1 X79.476 Y80.445 E4.05903
G1 F1200.000
G1 X80.184 Y80.611 E4.06416
G1 X80.895 Y80.685 E4.06921
G1 X81.611 Y80.685 E4.07426
G1 X82.314 Y80.596 E4.07927
G1 X83.015 Y80.421 E4.08437
G1 X83.604 Y80.194 E4.08883
G1 X84.124 Y79.925 E4.09296
G1 X84.699 Y79.539 E4.09784
G1 X85.250 Y78.437 F7800.000
G1 F1200.000
G1 X85.250 Y71.563 E4.14691
G1 X84.699 Y70.461 F7800.000
G1 F1200.000
G1 X84.124 Y70.075 E4.15179
G1 X83.604 Y69.806 E4.15593
G1 X83.015 Y69.579 E4.16038
G1 X82.315 Y69.403 E4.16548
G1 X81.611 Y69.315 E4.17049
G1 X80.895 Y69.315 E4.17554
G1 X80.184 Y69.389 E4.18059
G1 X79.476 Y69.555 E4.18572
G1 F1200.000
G1 X78.799 Y69.806 E4.19412
G1 X78.159 Y70.142 E4.20253
G1 F1200.000
G1 X77.801 Y70.387 E4.20942
G1 X77.257 Y72.157 F7800.000
G1 F1800.000
G1 X76.855 Y71.755 E4.23487
G1 X76.546 Y72.207 E4.25937
G1 X77.257 Y72.918 E4.30437
G1 X77.257 Y73.679 E4.33842
G1 X76.282 Y72.704 E4.40011
G1 X76.068 Y73.251 E4.42639
G1 X77.257 Y74.440 E4.50165
G1 X77.257 Y75.201 E4.53570
G1 X75.916 Y73.861 E4.62052
G1 X75.852 Y74.267 E4.63894
G1 X75.838 Y74.543 E4.65129
G1 X77.257 Y75.962 E4.74110
G1 X77.257 Y76.723 E4.77515
G1 X75.851 Y75.317 E4.86411
G1 X75.936 Y75.856 E4.88850
G1 X76.048 Y76.276 E4.90795
G1 X77.257 Y77.484 E4.98443
G1 X77.257 Y78.245 E5.01848
G1 X76.854 Y77.842 E5.04397
G1 Z0.700 F7800.000
G1 X78.030 Y79.347 F7800.000
G1 F1800.000
G1 X78.030 Y70.653 E5.33104
G1 X78.346 Y70.423 E5.34392
G1 X78.942 Y70.095 E5.36640
G1 X79.575 Y69.845 E5.38887
G1 X80.234 Y69.676 E5.41135
G1 X80.910 Y69.590 E5.43382
G1 X81.590 Y69.590 E5.45630
G1 X82.266 Y69.676 E5.47877
G1 X82.925 Y69.845 E5.50125
G1 X83.558 Y70.095 E5.52373
G1 X84.154 Y70.423 E5.54620
G1 X84.470 Y70.653 E5.55908
G1 X84.470 Y79.347 E5.84615
G1 X84.154 Y79.577 E5.85903
G1 X83.558 Y79.905 E5.88151
G1 X82.925 Y80.155 E5.90398
G1 X82.266 Y80.324 E5.92646
G1 X81.590 Y80.410 E5.94893
G1 X80.910 Y80.410 E5.97141
G1 X80.234 Y80.324 E5.99388
G1 X79.575 Y80.155 E6.01636
G1 X78.942 Y79.905 E6.03883
G1 X78.346 Y79.577 E6.06131
G1 X78.079 Y79.383 E6.07221
G1 E4.07221 F2400.00000
G92 E0
G1 X84.927 Y79.156 F7800.000
G1 E2.00000 F2400.00000
G1 F1800.000
G1 X84.927 Y70.844 E2.35741
G1 X85.363 Y71.280 E2.38391
G1 X85.573 Y71.539 E2.39825
G1 X85.573 Y78.461 E2.69589
G1 X85.363 Y78.720 E2.71023
G1 X84.970 Y79.114 E2.73415
G1 E0.73415 F2400.00000
G92 E0
G1 X77.573 Y79.397 F7800.000
G1 E2.00000 F2400.00000
G1 F1800.000
G1 X77.209 Y79.102 E2.02016
G1 X76.812 Y78.705 E2.04430
G1 X76.452 Y78.261 E2.06887
G1 X76.140 Y77.782 E2.09343
G1 X75.875 Y77.262 E2.11855
G1 X75.670 Y76.727 E2.14318
G1 X75.518 Y76.158 E2.16850
G1 X75.431 Y75.605 E2.19256
G1 X75.398 Y74.984 E2.21930
G1 X75.428 Y74.410 E2.24402
G1 X75.518 Y73.842 E2.26873
G1 X75.674 Y73.261 E2.29460
G1 X75.875 Y72.738 E2.31869
G1 X76.140 Y72.218 E2.34382
G1 X76.452 Y71.739 E2.36838
G1 X76.812 Y71.295 E2.39294
G1 X77.209 Y70.898 E2.41709
G1 X77.573 Y70.603 E2.43724
G1 X77.573 Y79.337 E2.81281
G1 X77.383 Y79.832 F7800.000
G1 F1800.000
G1 X76.902 Y79.442 E2.83324
G1 X76.472 Y79.011 E2.85336
G1 X76.082 Y78.531 E2.87380
G1 X75.744 Y78.011 E2.89425
G1 X75.457 Y77.448 E2.91513
G1 X75.235 Y76.868 E2.93563
G1 X75.070 Y76.253 E2.95665
G1 X74.975 Y75.653 E2.97670
G1 X74.940 Y74.984 E2.99883
G1 X74.973 Y74.362 E3.01939
G1 X75.070 Y73.747 E3.03995
G1 X75.239 Y73.120 E3.06140
G1 X75.457 Y72.552 E3.08148
G1 X75.744 Y71.989 E3.10236
G1 X76.082 Y71.469 E3.12281
G1 X76.472 Y70.989 E3.14325
G1 X76.902 Y70.558 E3.16336
G1 X77.383 Y70.168 E3.18380
G1 X77.902 Y69.831 E3.20423
G1 X78.453 Y69.550 E3.22465
G1 X79.023 Y69.331 E3.24480
G1 X79.621 Y69.171 E3.26523
G1 X80.232 Y69.074 E3.28567
G1 X81.250 Y69.020 E3.31933
G1 X81.875 Y69.053 E3.33999
G1 X82.494 Y69.151 E3.36068
G1 X83.170 Y69.328 E3.38376
G1 X83.740 Y69.547 E3.40391
G1 X84.284 Y69.824 E3.42407
G1 X84.796 Y70.157 E3.44424
G1 X85.271 Y70.542 E3.46443
G1 X85.703 Y70.973 E3.48458
G1 X86.030 Y71.377 E3.50173
G1 X86.030 Y78.623 E3.74098
G1 X85.703 Y79.027 E3.75813
G1 X85.271 Y79.459 E3.77830
G1 X84.796 Y79.843 E3.79847
G1 X84.284 Y80.176 E3.81864
G1 X83.740 Y80.453 E3.83880
G1 X83.170 Y80.672 E3.85895
G1 X82.494 Y80.849 E3.88203
G1 X81.875 Y80.947 E3.90272
G1 X81.250 Y80.980 E3.92338
G1 X80.232 Y80.926 E3.95704
G1 X79.621 Y80.829 E3.97748
G1 X79.023 Y80.669 E3.99791
G1 X78.453 Y80.450 E4.01806
G1 X77.902 Y80.169 E4.03849
G1 X77.434 Y79.865 E4.05693
G1 X77.801 Y79.651 F7800.000
G1 F1200.000
G1 X78.157 Y79.890 E4.06518
G1 F1200.000
G1 X78.790 Y80.212 E4.07585
G1 X79.471 Y80.458 E4.08673
G1 F1200.000
G1 X80.183 Y80.617 E4.09234
G1 X80.895 Y80.685 E4.09785
G1 X81.611 Y80.685 E4.10336
G1 X82.321 Y80.596 E4.10886
G1 X83.015 Y80.422 E4.11437
G1 X83.622 Y80.189 E4.11938
G1 X84.305 Y79.821 E4.12535
G1 X84.699 Y79.544 E4.12905
G1 X85.250 Y78.449 F7800.000
G1 F1200.000
G1 X85.250 Y71.551 E4.17829
G1 X84.699 Y70.456 F7800.000
G1 F1200.000
G1 X84.305 Y70.179 E4.18199
G1 X83.622 Y69.811 E4.18796
G1 X83.015 Y69.578 E4.19296
G1 X82.321 Y69.404 E4.19847
G1 X81.611 Y69.315 E4.20398
G1 X80.895 Y69.315 E4.20948
G1 X80.183 Y69.383 E4.21499
G1 X79.471 Y69.542 E4.22061
G1 F1200.000
G1 X78.790 Y69.788 E4.23149
G1 X78.157 Y70.110 E4.24216
G1 F1200.000
G1 X77.801 Y70.349 E4.25041
G1 X77.257 Y71.614 F7800.000
G1 F1800.000
G1 X76.854 Y72.017 E4.27708
G1 X76.669 Y72.244 E4.29081
G1 X76.388 Y72.678 E4.31501
G1 X76.147 Y73.150 E4.33982
G1 X75.937 Y73.730 E4.36873
G1 X77.257 Y72.410 E4.45615
G1 X77.257 Y73.206 E4.49343
G1 X75.739 Y74.724 E4.59394
G1 X75.714 Y75.185 E4.61556
G1 X75.733 Y75.527 E4.63158
G1 X77.257 Y74.003 E4.73252
G1 X77.257 Y74.799 E4.76980
G1 X75.821 Y76.235 E4.86489
G1 X75.995 Y76.857 E4.89512
G1 X77.257 Y75.595 E4.97865
G1 X77.257 Y76.391 E5.01593
G1 X76.231 Y77.417 E5.08386
G1 X76.388 Y77.725 E5.10000
G1 X76.519 Y77.926 E5.11125
G1 X77.257 Y77.188 E5.16014
