; generated by Slic3r 1.3.1-dev (Build 2ef957d) on 2019-11-25 at 09:22:20

; external perimeters extrusion width = 0.55mm (4.37mm^3/s)
; perimeters extrusion width = 0.70mm (11.44mm^3/s)
; infill extrusion width = 0.62mm (13.45mm^3/s)
; solid infill extrusion width = 0.70mm (3.81mm^3/s)
; top infill extrusion width = 0.70mm (2.86mm^3/s)

M107
G92 E0
M104 S200 ; set temperature
G28 ; home all axes
G1 Z5 F5000 ; lift nozzle

; Filament gcode

M109 S200 ; set temperature and wait for it to be reached
G21 ; set units to millimeters
G90 ; use absolute coordinates
M82 ; use absolute distances for extrusion
G92 E0
G1 Z0.350 F7800.000
G1 E-2.00000 F2400.00000
G92 E0
G1 X90.636 Y90.636 F7800.000
G1 E2.00000 F2400.00000
G1 F1800.000
G1 X91.242 Y90.066 E2.02574
G1 X91.883 Y89.536 E2.05148
G1 X92.556 Y89.047 E2.07723
G1 X93.259 Y88.601 E2.10297
G1 X93.988 Y88.200 E2.12871
G1 X94.740 Y87.846 E2.15445
G1 X95.514 Y87.540 E2.18020
G1 X96.305 Y87.282 E2.20594
G1 X97.111 Y87.076 E2.23168
G1 X97.928 Y86.920 E2.25742
G1 X98.754 Y86.815 E2.28316
G1 X99.584 Y86.763 E2.30891
G1 X100.416 Y86.763 E2.33465
G1 X101.246 Y86.815 E2.36039
G1 X102.072 Y86.920 E2.38613
G1 X102.889 Y87.076 E2.41187
G1 X103.695 Y87.282 E2.43762
G1 X104.486 Y87.540 E2.46336
G1 X105.260 Y87.846 E2.48910
G1 X106.012 Y88.200 E2.51484
G1 X106.741 Y88.601 E2.54059
G1 X107.444 Y89.047 E2.56633
G1 X108.117 Y89.536 E2.59207
G1 X108.758 Y90.066 E2.61781
G1 X109.364 Y90.636 E2.64355
G1 X109.934 Y91.242 E2.66930
G1 X110.464 Y91.883 E2.69504
G1 X110.953 Y92.556 E2.72078
G1 X111.399 Y93.259 E2.74652
G1 X111.800 Y93.988 E2.77227
G1 X112.154 Y94.740 E2.79801
G1 X112.460 Y95.514 E2.82375
G1 X112.718 Y96.305 E2.84949
G1 X112.924 Y97.111 E2.87523
G1 X113.080 Y97.928 E2.90098
G1 X113.185 Y98.754 E2.92672
G1 X113.237 Y99.584 E2.95246
G1 X113.237 Y100.416 E2.97820
G1 X113.185 Y101.246 E3.00394
G1 X113.080 Y102.072 E3.02969
G1 X112.924 Y102.889 E3.05543
G1 X112.718 Y103.695 E3.08117
G1 X112.460 Y104.486 E3.10691
G1 X112.154 Y105.260 E3.13265
G1 X111.800 Y106.012 E3.15840
G1 X111.399 Y106.741 E3.18414
G1 X110.953 Y107.444 E3.20988
G1 X110.464 Y108.117 E3.23562
G1 X109.934 Y108.758 E3.26137
G1 X109.364 Y109.364 E3.28711
G1 X108.758 Y109.934 E3.31285
G1 X108.117 Y110.464 E3.33859
G1 X107.444 Y110.953 E3.36433
G1 X106.741 Y111.399 E3.39008
G1 X106.012 Y111.800 E3.41582
G1 X105.260 Y112.154 E3.44156
G1 X104.486 Y112.460 E3.46730
G1 X103.695 Y112.718 E3.49305
G1 X102.889 Y112.924 E3.51879
G1 X102.072 Y113.080 E3.54453
G1 X101.246 Y113.185 E3.57027
G1 X100.416 Y113.237 E3.59601
G1 X99.584 Y113.237 E3.62176
G1 X98.754 Y113.185 E3.64750
G1 X97.928 Y113.080 E3.67324
G1 X97.111 Y112.924 E3.69898
G1 X96.305 Y112.718 E3.72472
G1 X95.514 Y112.460 E3.75047
G1 X94.740 Y112.154 E3.77621
G1 X93.988 Y111.800 E3.80195
G1 X93.259 Y111.399 E3.82770
G1 X92.556 Y110.953 E3.85344
G1 X91.883 Y110.464 E3.87918
G1 X91.242 Y109.934 E3.90492
G1 X90.636 Y109.364 E3.93066
G1 X90.066 Y108.758 E3.95640
G1 X89.536 Y108.117 E3.98215
G1 X89.047 Y107.444 E4.00789
G1 X88.601 Y106.741 E4.03363
G1 X88.200 Y106.012 E4.05937
G1 X87.846 Y105.260 E4.08512
G1 X87.540 Y104.486 E4.11086
G1 X87.282 Y103.695 E4.13660
G1 X87.076 Y102.889 E4.16234
G1 X86.920 Y102.072 E4.18808
G1 X86.815 Y101.246 E4.21383
G1 X86.763 Y100.416 E4.23957
G1 X86.763 Y99.584 E4.26531
G1 X86.815 Y98.754 E4.29105
G1 X86.920 Y97.928 E4.31680
G1 X87.076 Y97.111 E4.34254
G1 X87.282 Y96.305 E4.36828
G1 X87.540 Y95.514 E4.39402
G1 X87.846 Y94.740 E4.41976
G1 X88.200 Y93.988 E4.44551
G1 X88.601 Y93.259 E4.47125
G1 X89.047 Y92.556 E4.49699
G1 X89.536 Y91.883 E4.52273
G1 X90.066 Y91.242 E4.54848
G1 X90.584 Y90.690 E4.57190
G1 E2.57190 F2400.00000
G92 E0
G1 X102.990 Y102.808 F7800.000
G1 E2.00000 F2400.00000
G1 F1800.000
G1 X102.615 Y103.161 E2.01594
G1 X102.198 Y103.463 E2.03188
G1 X101.746 Y103.711 E2.04781
G1 X101.268 Y103.901 E2.06375
G1 X100.769 Y104.029 E2.07969
G1 X100.258 Y104.094 E2.09563
G1 X99.742 Y104.094 E2.11157
G1 X99.231 Y104.029 E2.12751
G1 X98.732 Y103.901 E2.14344
G1 X98.254 Y103.711 E2.15938
G1 X97.802 Y103.463 E2.17532
G1 X97.385 Y103.161 E2.19126
G1 X97.010 Y102.808 E2.20720
G1 X96.682 Y102.411 E2.22313
G1 X96.406 Y101.976 E2.23907
G1 X96.188 Y101.514 E2.25486
G1 X96.033 Y101.053 E2.26992
G1 X95.931 Y100.514 E2.28689
G1 X95.898 Y100.000 E2.30283
G1 X95.931 Y99.486 E2.31877
G1 X96.027 Y98.980 E2.33471
G1 X96.186 Y98.490 E2.35065
G1 X96.406 Y98.024 E2.36659
G1 X96.682 Y97.589 E2.38252
G1 X97.010 Y97.192 E2.39846
G1 X97.385 Y96.839 E2.41440
G1 X97.802 Y96.537 E2.43034
G1 X98.254 Y96.289 E2.44628
G1 X98.732 Y96.099 E2.46221
G1 X99.231 Y95.971 E2.47815
G1 X99.742 Y95.906 E2.49409
G1 X100.258 Y95.906 E2.51003
G1 X100.769 Y95.971 E2.52597
G1 X101.268 Y96.099 E2.54191
G1 X101.746 Y96.289 E2.55784
G1 X102.198 Y96.537 E2.57378
G1 X102.615 Y96.839 E2.58972
G1 X102.990 Y97.192 E2.60566
G1 X103.318 Y97.589 E2.62160
G1 X103.594 Y98.024 E2.63754
G1 X103.814 Y98.490 E2.65347
G1 X103.973 Y98.980 E2.66941
G1 X104.069 Y99.486 E2.68535
G1 X104.102 Y100.000 E2.70129
G1 X104.069 Y100.514 E2.71723
G1 X103.973 Y101.020 E2.73316
G1 X103.814 Y101.510 E2.74910
G1 X103.594 Y101.976 E2.76504
G1 X103.318 Y102.411 E2.78098
G1 X103.038 Y102.750 E2.79460
G1 X102.534 Y102.379 F7800.000
G1 F1800.000
G1 X102.215 Y102.678 E2.80810
G1 X101.862 Y102.935 E2.82161
G1 X101.480 Y103.145 E2.83511
G1 X101.074 Y103.306 E2.84862
G1 X100.651 Y103.414 E2.86212
G1 X100.218 Y103.469 E2.87563
G1 X99.782 Y103.469 E2.88913
G1 X99.349 Y103.414 E2.90264
G1 X98.926 Y103.306 E2.91614
G1 X98.520 Y103.145 E2.92965
G1 X98.138 Y102.935 E2.94315
G1 X97.785 Y102.678 E2.95666
G1 X97.466 Y102.379 E2.97017
G1 X97.188 Y102.043 E2.98367
G1 X96.954 Y101.674 E2.99718
G1 X96.769 Y101.281 E3.01063
G1 X96.639 Y100.894 E3.02325
G1 X96.552 Y100.436 E3.03770
G1 X96.524 Y100.000 E3.05120
G1 X96.552 Y99.564 E3.06471
G1 X96.634 Y99.136 E3.07822
G1 X96.768 Y98.721 E3.09172
G1 X96.954 Y98.326 E3.10523
G1 X97.188 Y97.957 E3.11873
G1 X97.466 Y97.621 E3.13224
G1 X97.785 Y97.322 E3.14574
G1 X98.138 Y97.065 E3.15925
G1 X98.520 Y96.855 E3.17275
G1 X98.926 Y96.694 E3.18626
G1 X99.349 Y96.586 E3.19976
G1 X99.782 Y96.531 E3.21327
G1 X100.218 Y96.531 E3.22677
G1 X100.651 Y96.586 E3.24028
G1 X101.074 Y96.694 E3.25378
G1 X101.480 Y96.855 E3.26729
G1 X101.862 Y97.065 E3.28079
G1 X102.215 Y97.322 E3.29430
G1 X102.534 Y97.621 E3.30781
G1 X102.812 Y97.957 E3.32131
G1 X103.046 Y98.326 E3.33482
G1 X103.232 Y98.721 E3.34832
G1 X103.366 Y99.136 E3.36183
G1 X103.448 Y99.564 E3.37533
G1 X103.476 Y100.000 E3.38884
G1 X103.448 Y100.436 E3.40234
G1 X103.366 Y100.864 E3.41585
G1 X103.232 Y101.279 E3.42935
G1 X103.046 Y101.674 E3.44286
G1 X102.812 Y102.043 E3.45636
G1 X102.581 Y102.321 E3.46755
G1 X102.534 Y102.379 F7800.000
G1 E1.46755 F2400.00000
G92 E0
G1 X104.018 Y103.960 F7800.000
G1 E2.00000 F2400.00000
G1 F1800.000
G1 X103.600 Y104.352 E2.01773
G1 X103.026 Y104.769 E2.03967
G1 X102.405 Y105.111 E2.06162
G1 X101.745 Y105.372 E2.08357
G1 X101.058 Y105.548 E2.10551
G1 X100.355 Y105.637 E2.12746
G1 X99.645 Y105.637 E2.14941
G1 X98.942 Y105.548 E2.17135
G1 X98.255 Y105.372 E2.19330
G1 X97.595 Y105.111 E2.21525
G1 X96.974 Y104.769 E2.23719
G1 X96.400 Y104.352 E2.25914
G1 X95.883 Y103.866 E2.28109
G1 X95.431 Y103.320 E2.30303
G1 X95.050 Y102.721 E2.32498
G1 X94.748 Y102.079 E2.34693
G1 X94.529 Y101.405 E2.36888
G1 X94.396 Y100.708 E2.39082
G1 X94.352 Y100.000 E2.41277
G1 X94.396 Y99.292 E2.43472
G1 X94.529 Y98.595 E2.45666
G1 X94.748 Y97.921 E2.47861
G1 X95.050 Y97.279 E2.50056
G1 X95.431 Y96.680 E2.52250
G1 X95.883 Y96.134 E2.54445
G1 X96.400 Y95.648 E2.56640
G1 X96.974 Y95.231 E2.58834
G1 X97.595 Y94.889 E2.61029
G1 X98.255 Y94.628 E2.63224
G1 X98.942 Y94.452 E2.65418
G1 X99.645 Y94.363 E2.67613
G1 X100.355 Y94.363 E2.69808
G1 X101.058 Y94.452 E2.72002
G1 X101.745 Y94.628 E2.74197
G1 X102.405 Y94.889 E2.76392
G1 X103.026 Y95.231 E2.78586
G1 X103.600 Y95.648 E2.80781
G1 X104.117 Y96.134 E2.82976
G1 X104.569 Y96.680 E2.85171
G1 X104.950 Y97.279 E2.87365
G1 X105.252 Y97.921 E2.89560
G1 X105.471 Y98.595 E2.91755
G1 X105.604 Y99.292 E2.93949
G1 X105.648 Y100.000 E2.96144
G1 X105.604 Y100.708 E2.98339
G1 X105.471 Y101.405 E3.00533
G1 X105.252 Y102.079 E3.02728
G1 X104.950 Y102.721 E3.04923
G1 X104.569 Y103.320 E3.07117
G1 X104.073 Y103.908 E3.09501
G1 X104.446 Y104.415 F7800.000
G1 F1800.000
G1 X103.999 Y104.834 E3.11395
G1 X103.362 Y105.298 E3.13833
G1 X102.671 Y105.677 E3.16271
G1 X101.939 Y105.967 E3.18709
G1 X101.176 Y106.163 E3.21147
G1 X100.394 Y106.262 E3.23585
G1 X99.606 Y106.262 E3.26023
G1 X98.824 Y106.163 E3.28461
G1 X98.061 Y105.967 E3.30899
G1 X97.329 Y105.677 E3.33337
G1 X96.638 Y105.298 E3.35775
G1 X96.001 Y104.834 E3.38213
G1 X95.426 Y104.295 E3.40651
G1 X94.924 Y103.688 E3.43089
G1 X94.502 Y103.023 E3.45527
G1 X94.166 Y102.310 E3.47965
G1 X93.923 Y101.560 E3.50402
G1 X93.775 Y100.786 E3.52840
G1 X93.726 Y100.000 E3.55278
G1 X93.775 Y99.214 E3.57716
G1 X93.923 Y98.440 E3.60154
G1 X94.166 Y97.690 E3.62592
G1 X94.502 Y96.977 E3.65030
G1 X94.924 Y96.312 E3.67468
G1 X95.426 Y95.705 E3.69906
G1 X96.001 Y95.166 E3.72344
G1 X96.638 Y94.702 E3.74782
G1 X97.329 Y94.323 E3.77220
G1 X98.061 Y94.033 E3.79658
G1 X98.824 Y93.837 E3.82096
G1 X99.606 Y93.738 E3.84534
G1 X100.394 Y93.738 E3.86972
G1 X101.176 Y93.837 E3.89410
G1 X101.939 Y94.033 E3.91848
G1 X102.671 Y94.323 E3.94286
G1 X103.362 Y94.702 E3.96724
G1 X103.999 Y95.166 E3.99162
G1 X104.574 Y95.705 E4.01600
G1 X105.076 Y96.312 E4.04038
G1 X105.498 Y96.977 E4.06476
G1 X105.834 Y97.690 E4.08914
G1 X106.077 Y98.440 E4.11352
G1 X106.225 Y99.214 E4.13790
G1 X106.274 Y100.000 E4.16228
G1 X106.225 Y100.786 E4.18666
G1 X106.077 Y101.560 E4.21104
G1 X105.834 Y102.310 E4.23542
G1 X105.498 Y103.023 E4.25980
G1 X105.076 Y103.688 E4.28418
G1 X104.500 Y104.364 E4.31165
G1 X103.962 Y104.287 F7800.000
G1 X103.490 Y103.397 F7800.000
G1 F1800.000
G1 X103.107 Y103.756 E4.33357
G1 X102.612 Y104.116 E4.35916
G1 X102.075 Y104.411 E4.38475
G1 X101.533 Y104.626 E4.40913
G1 X100.885 Y104.792 E4.43712
G1 X100.306 Y104.865 E4.46150
G1 X99.723 Y104.865 E4.48588
G1 X99.059 Y104.781 E4.51387
G1 X98.494 Y104.636 E4.53825
G1 X97.925 Y104.411 E4.56384
G1 X97.364 Y104.099 E4.59063
G1 X96.893 Y103.756 E4.61501
G1 X96.467 Y103.357 E4.63939
G1 X96.041 Y102.841 E4.66738
G1 X95.728 Y102.348 E4.69176
G1 X95.468 Y101.794 E4.71735
G1 X95.278 Y101.212 E4.74294
G1 X95.164 Y100.611 E4.76853
G1 X95.125 Y100.000 E4.79412
G1 X95.169 Y99.361 E4.82091
G1 X95.279 Y98.788 E4.84529
G1 X95.468 Y98.206 E4.87088
G1 X95.743 Y97.627 E4.89767
G1 X96.056 Y97.135 E4.92205
G1 X96.447 Y96.663 E4.94764
G1 X96.916 Y96.227 E4.97443
G1 X97.388 Y95.884 E4.99881
G1 X97.925 Y95.589 E5.02440
G1 X98.494 Y95.364 E5.04999
G1 X99.059 Y95.219 E5.07437
G1 X99.723 Y95.135 E5.10236
G1 X100.306 Y95.135 E5.12674
G1 X100.885 Y95.208 E5.15112
G1 X101.533 Y95.374 E5.17911
G1 X102.075 Y95.589 E5.20349
G1 X102.612 Y95.884 E5.22908
G1 X103.107 Y96.244 E5.25467
G1 X103.533 Y96.643 E5.27905
G1 X103.959 Y97.159 E5.30704
G1 X104.272 Y97.652 E5.33142
G1 X104.532 Y98.206 E5.35701
G1 X104.721 Y98.788 E5.38260
G1 X104.831 Y99.361 E5.40698
G1 X104.875 Y100.000 E5.43377
G1 X104.831 Y100.639 E5.46056
G1 X104.721 Y101.212 E5.48494
G1 X104.532 Y101.794 E5.51053
G1 X104.272 Y102.348 E5.53612
G1 X103.959 Y102.841 E5.56050
G1 X103.544 Y103.346 E5.58783
G1 Z0.650 F7800.000
G1 X103.301 Y103.197 F7800.000
G1 F900.000
G1 X102.932 Y103.544 E5.60150
G1 X102.464 Y103.883 E5.61708
G1 X101.958 Y104.161 E5.63266
G1 X101.421 Y104.374 E5.64824
G1 X100.862 Y104.518 E5.66383
G1 X100.289 Y104.590 E5.67941
G1 X99.711 Y104.590 E5.69499
G1 X99.138 Y104.518 E5.71057
G1 X98.579 Y104.374 E5.72615
G1 X98.042 Y104.161 E5.74173
G1 X97.536 Y103.883 E5.75731
G1 X97.068 Y103.544 E5.77289
G1 X96.647 Y103.148 E5.78847
G1 X96.279 Y102.703 E5.80405
G1 X95.970 Y102.216 E5.81963
G1 X95.724 Y101.693 E5.83521
G1 X95.545 Y101.144 E5.85079
G1 X95.437 Y100.576 E5.86638
G1 X95.401 Y100.000 E5.88196
G1 X95.437 Y99.424 E5.89754
G1 X95.545 Y98.856 E5.91312
G1 X95.724 Y98.307 E5.92870
G1 X95.970 Y97.784 E5.94428
G1 X96.279 Y97.297 E5.95986
G1 X96.647 Y96.852 E5.97544
G1 X97.068 Y96.456 E5.99102
G1 X97.536 Y96.117 E6.00660
G1 X98.042 Y95.839 E6.02218
G1 X98.579 Y95.626 E6.03776
G1 X99.138 Y95.482 E6.05334
G1 X99.737 Y95.407 E6.06963
G1 X100.294 Y95.411 E6.08465
G1 X100.862 Y95.482 E6.10009
G1 X101.421 Y95.626 E6.11567
G1 X101.958 Y95.839 E6.13125
G1 X102.464 Y96.117 E6.14683
G1 X102.932 Y96.456 E6.16241
G1 X103.353 Y96.852 E6.17799
G1 X103.721 Y97.297 E6.19358
G1 X104.030 Y97.784 E6.20916
G1 X104.276 Y98.307 E6.22474
G1 X104.455 Y98.856 E6.24032
G1 X104.563 Y99.424 E6.25590
G1 X104.599 Y100.000 E6.27148
G1 X104.563 Y100.576 E6.28706
G1 X104.455 Y101.144 E6.30264
G1 X104.276 Y101.693 E6.31822
G1 X104.030 Y102.216 E6.33380
G1 X103.721 Y102.703 E6.34938
G1 X103.355 Y103.145 E6.36484
G1 X102.866 Y102.733 F7800.000
G1 F900.000
G1 X102.526 Y103.053 E6.37744
G1 X102.123 Y103.345 E6.39086
G1 X101.687 Y103.585 E6.40429
G1 X101.224 Y103.768 E6.41771
G1 X100.742 Y103.892 E6.43113
G1 X100.249 Y103.954 E6.44456
G1 X99.751 Y103.954 E6.45798
G1 X99.258 Y103.892 E6.47140
G1 X98.776 Y103.768 E6.48483
G1 X98.313 Y103.585 E6.49825
G1 X97.877 Y103.345 E6.51167
G1 X97.474 Y103.053 E6.52510
G1 X97.112 Y102.712 E6.53852
G1 X96.794 Y102.329 E6.55194
G1 X96.528 Y101.909 E6.56537
G1 X96.316 Y101.459 E6.57879
G1 X96.162 Y100.985 E6.59221
G1 X96.069 Y100.497 E6.60564
G1 X96.038 Y100.000 E6.61906
G1 X96.069 Y99.503 E6.63248
G1 X96.162 Y99.015 E6.64590
G1 X96.316 Y98.541 E6.65933
G1 X96.528 Y98.091 E6.67275
G1 X96.794 Y97.671 E6.68617
G1 X97.112 Y97.288 E6.69960
G1 X97.474 Y96.947 E6.71302
G1 X97.877 Y96.655 E6.72644
G1 X98.313 Y96.415 E6.73987
G1 X98.776 Y96.232 E6.75329
G1 X99.258 Y96.108 E6.76671
G1 X99.775 Y96.043 E6.78078
G1 X100.252 Y96.046 E6.79364
G1 X100.742 Y96.108 E6.80699
G1 X101.224 Y96.232 E6.82041
G1 X101.687 Y96.415 E6.83383
G1 X102.123 Y96.655 E6.84726
G1 X102.526 Y96.947 E6.86068
G1 X102.888 Y97.288 E6.87410
G1 X103.206 Y97.671 E6.88753
G1 X103.472 Y98.091 E6.90095
G1 X103.684 Y98.541 E6.91437
G1 X103.838 Y99.015 E6.92780
G1 X103.931 Y99.503 E6.94122
G1 X103.962 Y100.000 E6.95464
G1 X103.931 Y100.497 E6.96806
G1 X103.838 Y100.985 E6.98149
G1 X103.684 Y101.459 E6.99491
G1 X103.472 Y101.909 E7.00833
G1 X103.206 Y102.329 E7.02176
G1 X102.917 Y102.678 E7.03398
G1 X102.479 Y102.328 F7800.000
G1 F900.000
G1 X102.168 Y102.620 E7.04278
G1 X101.822 Y102.871 E7.05158
G1 X101.448 Y103.077 E7.06039
G1 X101.051 Y103.234 E7.06919
G1 X100.637 Y103.340 E7.07799
G1 X100.214 Y103.394 E7.08679
G1 X99.786 Y103.394 E7.09559
G1 X99.363 Y103.340 E7.10439
G1 X98.949 Y103.234 E7.11319
G1 X98.552 Y103.077 E7.12200
G1 X98.178 Y102.871 E7.13080
G1 X97.832 Y102.620 E7.13960
G1 X97.521 Y102.328 E7.14840
G1 X97.249 Y101.999 E7.15720
G1 X97.020 Y101.638 E7.16600
G1 X96.838 Y101.252 E7.17481
G1 X96.706 Y100.846 E7.18361
G1 X96.626 Y100.426 E7.19241
G1 X96.599 Y100.000 E7.20121
G1 X96.626 Y99.574 E7.21001
G1 X96.706 Y99.154 E7.21881
G1 X96.838 Y98.748 E7.22761
G1 X97.020 Y98.362 E7.23642
G1 X97.249 Y98.001 E7.24522
G1 X97.521 Y97.672 E7.25402
G1 X97.832 Y97.380 E7.26282
G1 X98.178 Y97.129 E7.27162
G1 X98.552 Y96.923 E7.28042
G1 X98.949 Y96.766 E7.28922
G1 X99.363 Y96.660 E7.29803
G1 X99.808 Y96.603 E7.30728
G1 X100.214 Y96.606 E7.31565
G1 X100.637 Y96.660 E7.32443
G1 X101.051 Y96.766 E7.33324
G1 X101.448 Y96.923 E7.34204
G1 X101.822 Y97.129 E7.35084
G1 X102.168 Y97.380 E7.35964
G1 X102.479 Y97.672 E7.36844
G1 X102.751 Y98.001 E7.37724
G1 X102.980 Y98.362 E7.38605
G1 X103.162 Y98.748 E7.39485
G1 X103.294 Y99.154 E7.40365
G1 X103.374 Y99.574 E7.41245
G1 X103.401 Y100.000 E7.42125
G1 X103.374 Y100.426 E7.43005
G1 X103.294 Y100.846 E7.43885
G1 X103.162 Y101.252 E7.44766
G1 X102.980 Y101.638 E7.45646
G1 X102.751 Y101.999 E7.46526
G1 X102.527 Y102.270 E7.47251
G1 X102.479 Y102.328 F7800.000
G1 X103.675 Y103.601 F7800.000
G1 F900.000
G1 X103.283 Y103.969 E7.48700
G1 X102.760 Y104.349 E7.50445
G1 X102.193 Y104.661 E7.52190
G1 X101.592 Y104.899 E7.53935
