; generated by Slic3r 1.3.1-dev (Build adea0d9) on 2019-12-16 at 00:49:01

; external perimeters extrusion width = 0.44mm (2.86mm^3/s)
; perimeters extrusion width = 0.56mm (4.14mm^3/s)
; infill extrusion width = 0.50mm (3.66mm^3/s)
; solid infill extrusion width = 0.56mm (3.10mm^3/s)
; top infill extrusion width = 0.56mm (3.10mm^3/s)

M107
G92 E0
;D3D:START:START
T0
M104 S215 T0

G21
G90
M107
T0
G28
G29
M109 T0 S215 T0
G0 F3000
M107
T0
G92 E0
G0 X0 Y149 Z0.1 F3600
G1 Y49 E6.5 F1200
G0 Z1
G92 E0
; Filament gcode

G21 ; set units to millimeters
G90 ; use absolute coordinates
M82 ; use absolute distances for extrusion
G92 E0
G1 Z0.300 F7800.000
G1 E-2.00000 F2400.00000
G92 E0
G1 X51.439 Y69.430 F7800.000
G1 E2.00000 F2400.00000
G1 F1800.000
G1 X53.383 Y68.462 E2.07194
G1 X55.545 Y68.262 E2.14387
G1 X57.634 Y68.856 E2.21580
G1 X59.366 Y70.165 E2.28773
G1 X60.509 Y72.011 E2.35967
G1 X60.908 Y74.145 E2.43160
G1 X60.509 Y76.279 E2.50354
G1 X59.366 Y78.125 E2.57547
G1 X57.634 Y79.434 E2.64741
G1 X55.545 Y80.028 E2.71934
G1 X53.383 Y79.828 E2.79127
G1 X51.439 Y78.860 E2.86321
G1 X49.977 Y77.255 E2.93514
G1 X49.192 Y75.231 E3.00707
G1 X49.192 Y73.059 E3.07901
G1 X49.977 Y71.035 E3.15094
G1 X51.399 Y69.474 E3.22089
G1 X51.602 Y69.646 F7800.000
G1 F1800.000
G1 X53.457 Y68.722 E3.28953
G1 X55.520 Y68.531 E3.35818
G1 X57.513 Y69.098 E3.42682
G1 X59.167 Y70.347 E3.49546
G1 X60.257 Y72.108 E3.56411
G1 X60.638 Y74.145 E3.63275
G1 X60.257 Y76.182 E3.70140
G1 X59.167 Y77.943 E3.77004
G1 X57.513 Y79.192 E3.83869
G1 X55.520 Y79.759 E3.90733
G1 X53.457 Y79.568 E3.97597
G1 X51.602 Y78.644 E4.04462
G1 X50.206 Y77.113 E4.11326
G1 X49.458 Y75.181 E4.18190
G1 X49.458 Y73.109 E4.25055
G1 X50.206 Y71.177 E4.31919
G1 X51.562 Y69.690 E4.38585
G1 X51.765 Y69.861 F7800.000
G1 F1800.000
G1 X53.531 Y68.982 E4.45120
G1 X55.495 Y68.800 E4.51656
G1 X57.393 Y69.340 E4.58191
G1 X58.967 Y70.529 E4.64726
G1 X60.005 Y72.206 E4.71262
G1 X60.368 Y74.145 E4.77797
G1 X60.005 Y76.084 E4.84333
G1 X58.967 Y77.761 E4.90868
G1 X57.393 Y78.950 E4.97404
G1 X55.495 Y79.490 E5.03939
G1 X53.531 Y79.308 E5.10474
G1 X51.765 Y78.429 E5.17010
G1 X50.436 Y76.971 E5.23545
G1 X49.723 Y75.131 E5.30081
G1 X49.723 Y73.159 E5.36616
G1 X50.436 Y71.319 E5.43151
G1 X51.725 Y69.906 E5.49488
G1 E3.49488 F2400.00000
G92 E0
G1 X89.192 Y73.059 F7800.000
G1 E2.00000 F2400.00000
G1 F1800.000
G1 X89.977 Y71.035 E2.07193
G1 X91.439 Y69.430 E2.14387
G1 X93.383 Y68.462 E2.21580
G1 X95.545 Y68.262 E2.28774
G1 X97.634 Y68.856 E2.35967
G1 X99.366 Y70.165 E2.43160
G1 X100.509 Y72.011 E2.50354
G1 X100.908 Y74.145 E2.57547
G1 X100.509 Y76.279 E2.64741
G1 X99.366 Y78.125 E2.71934
G1 X97.634 Y79.434 E2.79127
G1 X95.545 Y80.028 E2.86321
G1 X93.383 Y79.828 E2.93514
G1 X91.439 Y78.860 E3.00707
G1 X89.977 Y77.255 E3.07901
G1 X89.192 Y75.231 E3.15094
G1 X89.192 Y73.119 E3.22089
G1 X89.458 Y73.109 F7800.000
G1 F1800.000
G1 X90.206 Y71.177 E3.28953
G1 X91.602 Y69.646 E3.35818
G1 X93.457 Y68.722 E3.42682
G1 X95.520 Y68.531 E3.49546
G1 X97.513 Y69.098 E3.56411
G1 X99.167 Y70.347 E3.63275
G1 X100.257 Y72.108 E3.70140
G1 X100.638 Y74.145 E3.77004
G1 X100.257 Y76.182 E3.83868
G1 X99.167 Y77.943 E3.90733
G1 X97.513 Y79.192 E3.97597
G1 X95.520 Y79.759 E4.04462
G1 X93.457 Y79.568 E4.11326
G1 X91.602 Y78.644 E4.18190
G1 X90.206 Y77.113 E4.25055
G1 X89.458 Y75.181 E4.31919
G1 X89.458 Y73.169 E4.38585
G1 X89.724 Y73.159 F7800.000
G1 F1800.000
G1 X90.436 Y71.319 E4.45120
G1 X91.765 Y69.861 E4.51656
G1 X93.531 Y68.982 E4.58191
G1 X95.495 Y68.800 E4.64727
G1 X97.393 Y69.340 E4.71262
G1 X98.967 Y70.529 E4.77797
G1 X100.005 Y72.206 E4.84333
G1 X100.368 Y74.145 E4.90868
G1 X100.005 Y76.084 E4.97404
G1 X98.967 Y77.761 E5.03939
G1 X97.393 Y78.950 E5.10474
G1 X95.495 Y79.490 E5.17010
G1 X93.531 Y79.308 E5.23545
G1 X91.765 Y78.429 E5.30081
G1 X90.436 Y76.971 E5.36616
G1 X89.724 Y75.131 E5.43151
G1 X89.724 Y73.219 E5.49488
G1 E3.49488 F2400.00000
G92 E0
G1 X77.514 Y79.912 F7800.000
G1 E2.00000 F2400.00000
G1 F1800.000
G1 X72.486 Y79.912 E2.16660
G1 X71.576 Y81.589 E2.22980
G1 X54.096 Y81.589 E2.80890
G1 X52.341 Y81.156 E2.86879
G1 X50.740 Y80.316 E2.92867
G1 X49.387 Y79.117 E2.98856
G1 X48.360 Y77.630 E3.04845
G1 X47.719 Y75.939 E3.10834
G1 X47.501 Y74.145 E3.16823
G1 X47.719 Y72.350 E3.22812
G1 X48.360 Y70.660 E3.28801
G1 X49.387 Y69.172 E3.34790
G1 X50.740 Y67.974 E3.40779
G1 X52.341 Y67.134 E3.46767
G1 X54.096 Y66.701 E3.52757
G1 X95.904 Y66.701 E4.91264
G1 X97.659 Y67.134 E4.97253
G1 X99.260 Y67.974 E5.03241
G1 X100.613 Y69.172 E5.09230
G1 X101.640 Y70.660 E5.15219
G1 X102.281 Y72.350 E5.21208
G1 X102.499 Y74.145 E5.27197
G1 X102.281 Y75.939 E5.33186
G1 X101.640 Y77.630 E5.39175
G1 X100.613 Y79.117 E5.45164
G1 X99.260 Y80.316 E5.51153
G1 X97.659 Y81.156 E5.57141
G1 X95.904 Y81.589 E5.63130
G1 X78.424 Y81.589 E6.21040
G1 X77.543 Y79.965 E6.27161
G1 X77.356 Y80.178 F7800.000
G1 F1800.000
G1 X72.644 Y80.178 E6.42774
G1 X71.734 Y81.855 E6.49094
G1 X54.064 Y81.855 E7.07634
G1 X52.246 Y81.406 E7.13837
G1 X50.588 Y80.536 E7.20039
G1 X49.187 Y79.295 E7.26242
G1 X48.123 Y77.754 E7.32444
G1 X47.459 Y76.004 E7.38647
G1 X47.234 Y74.145 E7.44850
G1 X47.459 Y72.286 E7.51052
G1 X48.123 Y70.536 E7.57255
G1 X49.187 Y68.995 E7.63457
G1 X50.588 Y67.753 E7.69660
G1 X52.246 Y66.883 E7.75863
G1 X54.064 Y66.435 E7.82065
G1 X95.936 Y66.435 E9.20786
G1 X97.754 Y66.883 E9.26989
G1 X99.412 Y67.753 E9.33191
G1 X100.813 Y68.995 E9.39394
G1 X101.877 Y70.536 E9.45596
G1 X102.541 Y72.286 E9.51799
G1 X102.766 Y74.145 E9.58002
G1 X102.541 Y76.004 E9.64204
G1 X101.877 Y77.754 E9.70407
G1 X100.813 Y79.295 E9.76609
G1 X99.412 Y80.536 E9.82812
G1 X97.754 Y81.406 E9.89014
G1 X95.936 Y81.855 E9.95217
G1 X78.266 Y81.855 E10.53757
G1 X77.385 Y80.230 E10.59879
G1 X77.198 Y80.443 F7800.000
G1 F1800.000
G1 X72.802 Y80.443 E10.74444
G1 X71.892 Y82.120 E10.80764
G1 X54.032 Y82.120 E11.39935
G1 X52.151 Y81.657 E11.46351
G1 X50.436 Y80.757 E11.52767
G1 X48.987 Y79.472 E11.59184
G1 X47.886 Y77.878 E11.65600
G1 X47.200 Y76.068 E11.72016
G1 X46.966 Y74.145 E11.78432
G1 X47.200 Y72.222 E11.84849
G1 X47.886 Y70.411 E11.91265
G1 X48.987 Y68.818 E11.97681
G1 X50.436 Y67.533 E12.04098
G1 X52.151 Y66.633 E12.10514
G1 X54.032 Y66.170 E12.16930
G1 X95.968 Y66.170 E13.55865
G1 X97.849 Y66.633 E13.62281
G1 X99.564 Y67.533 E13.68697
G1 X101.013 Y68.818 E13.75113
G1 X102.114 Y70.411 E13.81530
G1 X102.800 Y72.222 E13.87946
G1 X103.034 Y74.145 E13.94362
G1 X102.800 Y76.068 E14.00779
G1 X102.114 Y77.878 E14.07195
G1 X101.013 Y79.472 E14.13611
G1 X99.564 Y80.757 E14.20028
G1 X97.849 Y81.657 E14.26444
G1 X95.968 Y82.120 E14.32860
G1 X78.108 Y82.120 E14.92031
G1 X77.227 Y80.496 E14.98152
G1 E12.98152 F2400.00000
G92 E0
G1 X71.117 Y81.427 F7800.000
G1 E2.00000 F2400.00000
G1 F1800.000
G1 X71.756 Y80.788 E2.03010
G1 X72.204 Y79.962 E2.06137
G1 X70.739 Y81.427 E2.13034
G1 X70.362 Y81.427 E2.14291
G1 E0.14291 F2400.00000
G92 E0
G1 X59.554 Y78.263 F7800.000
G1 E2.00000 F2400.00000
G1 F1800.000
G1 X70.954 Y66.863 E2.53689
G1 X70.576 Y66.863 E2.54946
G1 X60.168 Y77.272 E3.03965
G1 X60.658 Y76.480 E3.07065
G1 X60.676 Y76.386 E3.07383
G1 X70.199 Y66.863 E3.52233
G1 X69.821 Y66.863 E3.53490
G1 X60.762 Y75.922 E3.96153
G1 X60.849 Y75.458 E3.97726
G1 X69.444 Y66.863 E4.38202
G1 X69.066 Y66.863 E4.39459
G1 X60.936 Y74.993 E4.77748
G1 X61.023 Y74.529 E4.79321
G1 X68.688 Y66.863 E5.15423
G1 X68.311 Y66.863 E5.16680
G1 X61.052 Y74.122 E5.50867
G1 X60.992 Y73.804 E5.51945
G1 X67.933 Y66.863 E5.84634
G1 X67.556 Y66.863 E5.85891
G1 X60.933 Y73.486 E6.17082
G1 X60.873 Y73.168 E6.18160
G1 X67.178 Y66.863 E6.47852
G1 X66.800 Y66.863 E6.49109
G1 X60.814 Y72.850 E6.77303
G1 X60.754 Y72.532 E6.78381
G1 X66.423 Y66.863 E7.05077
G1 X66.045 Y66.863 E7.06334
G1 X60.695 Y72.214 E7.31532
G1 X60.658 Y72.016 E7.32200
G1 X60.603 Y71.928 E7.32547
G1 X65.668 Y66.863 E7.56398
G1 X65.290 Y66.863 E7.57656
G1 X60.459 Y71.695 E7.80409
G1 X60.314 Y71.461 E7.81322
G1 X64.912 Y66.863 E8.02977
G1 X64.535 Y66.863 E8.04234
G1 X60.170 Y71.228 E8.24791
G1 X60.026 Y70.995 E8.25704
G1 X64.157 Y66.863 E8.45162
G1 X63.780 Y66.863 E8.46420
G1 X59.881 Y70.762 E8.64780
G1 X59.737 Y70.529 E8.65693
G1 X63.402 Y66.863 E8.82955
G1 X63.024 Y66.863 E8.84212
G1 X59.592 Y70.295 E9.00376
G1 X59.441 Y70.069 E9.01282
G1 X62.647 Y66.863 E9.16381
G1 X62.269 Y66.863 E9.17639
G1 X59.226 Y69.907 E9.31973
G1 X59.011 Y69.744 E9.32870
G1 X61.892 Y66.863 E9.46439
G1 X61.514 Y66.863 E9.47697
G1 X58.795 Y69.582 E9.60500
G1 X58.580 Y69.419 E9.61398
G1 X61.136 Y66.863 E9.73437
G1 X60.759 Y66.863 E9.74694
G1 X58.365 Y69.257 E9.85968
G1 X58.150 Y69.095 E9.86865
G1 X60.381 Y66.863 E9.97374
G1 X60.004 Y66.863 E9.98631
G1 X57.935 Y68.932 E10.08375
G1 X57.720 Y68.770 E10.09272
G1 X59.626 Y66.863 E10.18250
G1 X59.248 Y66.863 E10.19508
G1 X57.451 Y68.661 E10.27973
G1 X57.157 Y68.577 E10.28991
G1 X58.871 Y66.863 E10.37062
G1 X58.493 Y66.863 E10.38319
G1 X56.863 Y68.493 E10.45997
G1 X56.569 Y68.410 E10.47014
G1 X58.116 Y66.863 E10.54298
G1 X57.738 Y66.863 E10.55555
G1 X56.275 Y68.326 E10.62445
G1 X55.981 Y68.242 E10.63462
G1 X57.361 Y66.863 E10.69958
G1 X56.983 Y66.863 E10.71215
G1 X55.687 Y68.159 E10.77317
G1 X55.467 Y68.096 E10.78081
G1 X55.363 Y68.106 E10.78428
G1 X56.605 Y66.863 E10.84280
G1 X56.228 Y66.863 E10.85537
G1 X54.947 Y68.144 E10.91570
G1 X54.531 Y68.183 E10.92962
G1 X55.850 Y66.863 E10.99176
G1 X55.473 Y66.863 E11.00434
G1 X54.114 Y68.221 E11.06830
G1 X53.698 Y68.260 E11.08222
G1 X55.095 Y66.863 E11.14800
G1 X54.717 Y66.863 E11.16057
G1 X53.282 Y68.299 E11.22817
G1 X53.206 Y68.306 E11.23072
G1 X52.591 Y68.612 E11.25357
G1 X54.340 Y66.863 E11.33591
G1 X54.232 Y66.863 E11.33951
G1 X53.874 Y66.951 E11.35178
G1 X51.839 Y68.986 E11.44760
G1 X51.173 Y69.318 E11.47238
G1 X49.644 Y70.996 E11.54799
G1 X49.526 Y71.299 E11.55884
G1 E9.55884 F2400.00000
G92 E0
G1 X49.693 Y69.245 F7800.000
G1 E2.00000 F2400.00000
G1 F1800.000
G1 X49.484 Y69.454 E2.00984
G1 X48.642 Y70.673 E2.05916
G1 X51.477 Y67.838 E2.19267
G1 X52.272 Y67.421 E2.22256
G1 X48.304 Y71.389 E2.40945
G1 X48.073 Y71.997 E2.43111
G1 X52.872 Y67.198 E2.65710
G1 X53.373 Y67.075 E2.67429
G1 X47.868 Y72.580 E2.93354
G1 X47.816 Y73.009 E2.94796
G1 X49.733 Y71.093 E3.03822
G1 X49.494 Y71.709 E3.06023
G1 X47.764 Y73.439 E3.14170
G1 X47.712 Y73.869 E3.15612
G1 X49.255 Y72.326 E3.22880
G1 X49.030 Y72.928 E3.25022
G1 X47.670 Y74.288 E3.31425
G1 X47.711 Y74.625 E3.32554
G1 X49.030 Y73.306 E3.38765
G1 X49.030 Y73.683 E3.40022
G1 X47.752 Y74.961 E3.46040
G1 X47.793 Y75.298 E3.47169
G1 X49.030 Y74.061 E3.52995
G1 X49.030 Y74.439 E3.54252
G1 X47.834 Y75.635 E3.59885
G1 X47.875 Y75.971 E3.61014
G1 X49.030 Y74.816 E3.66454
G1 X49.035 Y75.189 E3.67696
G1 X47.977 Y76.247 E3.72676
G1 X48.081 Y76.520 E3.73651
G1 X49.140 Y75.461 E3.78639
G1 X49.246 Y75.733 E3.79611
G1 X48.185 Y76.794 E3.84606
G1 X48.289 Y77.068 E3.85581
G1 X49.351 Y76.006 E3.90583
G1 X49.456 Y76.278 E3.91555
G1 X48.393 Y77.342 E3.96565
G1 X48.498 Y77.614 E3.97538
G1 X49.562 Y76.550 E4.02550
G1 X49.667 Y76.822 E4.03522
G1 X48.652 Y77.838 E4.08305
G1 X48.806 Y78.061 E4.09209
G1 X49.773 Y77.094 E4.13762
G1 X49.850 Y77.294 E4.14476
G1 X49.898 Y77.347 E4.14712
G1 X48.960 Y78.284 E4.19128
G1 X49.114 Y78.508 E4.20032
G1 X50.078 Y77.544 E4.24570
G1 X50.258 Y77.742 E4.25461
G1 X49.269 Y78.731 E4.30121
G1 X49.423 Y78.955 E4.31025
G1 X50.438 Y77.939 E4.35807
G1 X50.618 Y78.137 E4.36697
G1 X49.605 Y79.150 E4.41470
G1 X49.805 Y79.328 E4.42361
G1 X50.798 Y78.334 E4.47039
G1 X50.978 Y78.532 E4.47929
G1 X50.005 Y79.505 E4.52513
G1 X50.205 Y79.682 E4.53403
G1 X51.158 Y78.729 E4.57892
G1 X51.339 Y78.927 E4.58782
G1 X50.406 Y79.860 E4.63175
G1 X50.606 Y80.037 E4.64066
G1 X51.574 Y79.069 E4.68626
G1 X51.826 Y79.194 E4.69564
G1 X50.810 Y80.210 E4.74349
G1 X51.058 Y80.340 E4.75280
G1 X52.078 Y79.320 E4.80086
G1 X52.330 Y79.445 E4.81024
G1 X51.305 Y80.470 E4.85851
G1 X51.553 Y80.600 E4.86782
G1 X52.582 Y79.571 E4.91630
G1 X52.834 Y79.696 E4.92568
G1 X51.801 Y80.730 E4.97437
G1 X52.048 Y80.860 E4.98368
G1 X53.086 Y79.822 E5.03258
G1 X53.339 Y79.947 E5.04196
G1 X52.296 Y80.990 E5.09107
G1 X52.591 Y81.073 E5.10126
G1 X53.657 Y80.007 E5.15148
G1 X54.002 Y80.039 E5.16303
G1 X52.894 Y81.148 E5.21525
G1 X53.196 Y81.222 E5.22564
G1 X54.348 Y80.071 E5.27987
G1 X54.693 Y80.103 E5.29143
G1 X53.499 Y81.297 E5.34766
G1 X53.802 Y81.372 E5.35805
G1 X55.039 Y80.135 E5.41629
G1 X55.385 Y80.167 E5.42785
G1 X54.125 Y81.427 E5.48717
G1 X54.503 Y81.427 E5.49975
G1 X55.760 Y80.169 E5.55897
G1 X56.288 Y80.019 E5.57724
G1 X54.880 Y81.427 E5.64354
G1 X55.258 Y81.427 E5.65611
G1 X56.816 Y79.869 E5.72948
G1 X57.343 Y79.719 E5.74775
G1 X55.635 Y81.427 E5.82819
G1 X56.013 Y81.427 E5.84077
G1 X57.898 Y79.542 E5.92953
G1 X59.440 Y78.377 E5.99389
G1 X56.391 Y81.427 E6.13750
G1 X56.768 Y81.427 E6.15008
G1 X71.331 Y66.863 E6.83595
G1 X71.709 Y66.863 E6.84852
G1 X57.146 Y81.427 E7.53439
G1 X57.523 Y81.427 E7.54697
G1 X72.087 Y66.863 E8.23283
G1 X72.464 Y66.863 E8.24541
G1 X57.901 Y81.427 E8.93128
G1 X58.279 Y81.427 E8.94385
G1 X72.842 Y66.863 E9.62972
G1 X73.219 Y66.863 E9.64230
G1 X58.656 Y81.427 E10.32817
G1 X59.034 Y81.427 E10.34074
G1 X73.597 Y66.863 E11.02661
G1 X73.975 Y66.863 E11.03918
G1 X59.411 Y81.427 E11.72505
G1 X59.789 Y81.427 E11.73763
G1 X74.352 Y66.863 E12.42350
G1 X74.730 Y66.863 E12.43607
G1 X60.166 Y81.427 E13.12194
G1 X60.544 Y81.427 E13.13451
G1 X75.107 Y66.863 E13.82038
G1 X75.485 Y66.863 E13.83296
G1 X60.922 Y81.427 E14.51883
G1 X61.299 Y81.427 E14.53140
G1 X75.863 Y66.863 E15.21727
G1 X76.240 Y66.863 E15.22985
G1 X61.677 Y81.427 E15.91571
G1 X62.054 Y81.427 E15.92829
G1 X76.618 Y66.863 E16.61416
G1 X76.995 Y66.863 E16.62673
G1 X62.432 Y81.427 E17.31260
G1 X62.810 Y81.427 E17.32518
G1 X77.373 Y66.863 E18.01105
G1 X77.751 Y66.863 E18.02362
G1 X63.187 Y81.427 E18.70949
G1 X63.565 Y81.427 E18.72206
G1 X78.128 Y66.863 E19.40793
G1 X78.506 Y66.863 E19.42051
G1 X63.942 Y81.427 E20.10638
G1 X64.320 Y81.427 E20.11895
G1 X78.883 Y66.863 E20.80482
G1 X79.261 Y66.863 E20.81739
G1 X64.698 Y81.427 E21.50326
G1 X65.075 Y81.427 E21.51584
G1 X79.639 Y66.863 E22.20171
G1 X80.016 Y66.863 E22.21428
G1 X65.453 Y81.427 E22.90015
G1 X65.830 Y81.427 E22.91273
G1 X80.394 Y66.863 E23.59859
G1 X80.771 Y66.863 E23.61117
G1 X66.208 Y81.427 E24.29704
G1 X66.586 Y81.427 E24.30961
G1 X81.149 Y66.863 E24.99548
G1 X81.527 Y66.863 E25.00806
G1 X66.963 Y81.427 E25.69393
G1 X67.341 Y81.427 E25.70650
G1 X81.904 Y66.863 E26.39237
G1 X82.282 Y66.863 E26.40494
G1 X67.718 Y81.427 E27.09081
G1 X68.096 Y81.427 E27.10339
G1 X82.659 Y66.863 E27.78926
G1 X83.037 Y66.863 E27.80183
G1 X68.474 Y81.427 E28.48770
G1 X68.851 Y81.427 E28.50028
G1 X83.414 Y66.863 E29.18614
G1 X83.792 Y66.863 E29.19872
G1 X69.229 Y81.427 E29.88459
G1 X69.606 Y81.427 E29.89716
G1 X84.170 Y66.863 E30.58303
G1 X84.547 Y66.863 E30.59561
G1 X69.984 Y81.427 E31.28148
G1 X70.362 Y81.427 E31.29405
G1 X84.925 Y66.863 E31.97992
G1 X85.302 Y66.863 E31.99249
G1 X72.416 Y79.750 E32.59939
G1 X72.794 Y79.750 E32.61197
G1 X85.680 Y66.863 E33.21886
G1 X86.058 Y66.863 E33.23144
G1 X73.171 Y79.750 E33.83834
G1 X73.549 Y79.750 E33.85091
G1 X86.435 Y66.863 E34.45781
G1 X86.813 Y66.863 E34.47038
G1 X73.926 Y79.750 E35.07728
G1 X74.304 Y79.750 E35.08986
G1 X87.190 Y66.863 E35.69676
G1 X87.568 Y66.863 E35.70933
G1 X74.681 Y79.750 E36.31623
G1 X75.059 Y79.750 E36.32880
G1 X87.946 Y66.863 E36.93570
G1 X88.323 Y66.863 E36.94828
G1 X75.437 Y79.750 E37.55517
G1 X75.814 Y79.750 E37.56775
G1 X88.701 Y66.863 E38.17465
G1 X89.078 Y66.863 E38.18722
G1 X76.192 Y79.750 E38.79412
G1 X76.569 Y79.750 E38.80669
G1 X89.456 Y66.863 E39.41359
G1 X89.834 Y66.863 E39.42617
G1 X76.947 Y79.750 E40.03306
G1 X77.325 Y79.750 E40.04564
G1 X90.211 Y66.863 E40.65254
G1 X90.589 Y66.863 E40.66511
G1 X77.616 Y79.836 E41.27607
G1 X77.749 Y80.081 E41.28535
G1 X90.966 Y66.863 E41.90784
G1 X91.344 Y66.863 E41.92041
G1 X77.882 Y80.326 E42.55443
G1 X78.014 Y80.570 E42.56370
G1 X91.722 Y66.863 E43.20925
G1 X92.099 Y66.863 E43.22183
G1 X78.147 Y80.815 E43.87890
G1 X78.280 Y81.060 E43.88818
G1 X92.477 Y66.863 E44.55678
