; generated by Slic3r 1.3.1-dev (Build adea0d9) on 2019-12-16 at 00:49:00

; external perimeters extrusion width = 0.44mm (2.86mm^3/s)
; perimeters extrusion width = 0.56mm (4.14mm^3/s)
; infill extrusion width = 0.50mm (3.66mm^3/s)
; solid infill extrusion width = 0.56mm (3.10mm^3/s)
; top infill extrusion width = 0.56mm (3.10mm^3/s)

M107
G92 E0
;D3D:START:START
T0
M104 S215 T0

G21
G90
M107
T0
G28
G29
M109 T0 S215 T0
G0 F3000
M107
T0
G92 E0
G0 X0 Y149 Z0.1 F3600
G1 Y49 E6.5 F1200
G0 Z1
G92 E0
; Filament gcode

G21 ; set units to millimeters
G90 ; use absolute coordinates
M82 ; use absolute distances for extrusion
G92 E0
G1 Z0.300 F7800.000
G1 E-2.00000 F2400.00000
G92 E0
G1 X73.517 Y92.743 F7800.000
G1 E2.00000 F2400.00000
G1 F1800.000
G1 X73.944 Y92.457 E2.01700
G1 X74.302 Y92.309 E2.02986
G1 X74.806 Y92.209 E2.04687
G1 X75.194 Y92.209 E2.05973
G1 X75.698 Y92.309 E2.07674
G1 X76.056 Y92.457 E2.08960
G1 X76.494 Y92.750 E2.10706
G1 X76.852 Y93.137 E2.12452
G1 X77.055 Y93.468 E2.13738
G1 X77.233 Y93.950 E2.15439
G1 X77.293 Y94.333 E2.16725
G1 X77.273 Y94.846 E2.18425
G1 X77.186 Y95.210 E2.19666
G1 X77.043 Y95.556 E2.20906
G1 X76.750 Y95.994 E2.22653
G1 X76.363 Y96.352 E2.24399
G1 X76.043 Y96.548 E2.25639
G1 X75.698 Y96.691 E2.26880
G1 X75.194 Y96.791 E2.28580
G1 X74.806 Y96.791 E2.29867
G1 X74.302 Y96.691 E2.31567
G1 X73.944 Y96.543 E2.32853
G1 X73.506 Y96.250 E2.34599
G1 X73.148 Y95.863 E2.36345
G1 X72.945 Y95.532 E2.37632
G1 X72.767 Y95.050 E2.39332
G1 X72.707 Y94.667 E2.40618
G1 X72.727 Y94.154 E2.42319
G1 X72.814 Y93.790 E2.43559
G1 X72.957 Y93.444 E2.44800
G1 X73.243 Y93.017 E2.46500
G1 X73.475 Y92.785 E2.47587
G1 X73.686 Y92.949 F7800.000
G1 F1800.000
G1 X74.070 Y92.693 E2.49115
G1 X74.380 Y92.564 E2.50227
G1 X74.832 Y92.474 E2.51754
G1 X75.168 Y92.474 E2.52867
G1 X75.620 Y92.564 E2.54394
G1 X75.930 Y92.693 E2.55507
G1 X76.321 Y92.954 E2.57062
G1 X76.639 Y93.298 E2.58618
G1 X76.815 Y93.585 E2.59731
G1 X76.974 Y94.017 E2.61258
G1 X77.027 Y94.349 E2.62371
G1 X77.009 Y94.810 E2.63898
G1 X76.932 Y95.128 E2.64982
G1 X76.807 Y95.430 E2.66067
G1 X76.546 Y95.821 E2.67622
G1 X76.202 Y96.139 E2.69178
G1 X75.923 Y96.310 E2.70262
G1 X75.620 Y96.436 E2.71347
G1 X75.168 Y96.526 E2.72874
G1 X74.832 Y96.526 E2.73987
G1 X74.380 Y96.436 E2.75514
G1 X74.070 Y96.307 E2.76627
G1 X73.679 Y96.046 E2.78182
G1 X73.361 Y95.702 E2.79737
G1 X73.185 Y95.415 E2.80850
G1 X73.026 Y94.983 E2.82378
G1 X72.973 Y94.651 E2.83490
G1 X72.991 Y94.190 E2.85017
G1 X73.067 Y93.872 E2.86102
G1 X73.193 Y93.570 E2.87187
G1 X73.449 Y93.186 E2.88713
G1 X73.644 Y92.991 E2.89628
G1 X73.856 Y93.155 F7800.000
G1 F1800.000
G1 X74.195 Y92.928 E2.90981
G1 X74.457 Y92.820 E2.91921
G1 X74.858 Y92.740 E2.93275
G1 X75.142 Y92.740 E2.94214
G1 X75.543 Y92.820 E2.95568
G1 X75.805 Y92.928 E2.96507
G1 X76.147 Y93.157 E2.97872
G1 X76.427 Y93.459 E2.99236
G1 X76.575 Y93.701 E3.00176
G1 X76.716 Y94.085 E3.01530
G1 X76.761 Y94.365 E3.02469
G1 X76.745 Y94.773 E3.03823
G1 X76.679 Y95.046 E3.04751
G1 X76.572 Y95.305 E3.05680
G1 X76.343 Y95.647 E3.07045
G1 X76.041 Y95.927 E3.08409
G1 X75.802 Y96.073 E3.09338
G1 X75.543 Y96.180 E3.10267
G1 X75.142 Y96.260 E3.11620
G1 X74.858 Y96.260 E3.12560
G1 X74.457 Y96.180 E3.13914
G1 X74.195 Y96.072 E3.14853
G1 X73.853 Y95.843 E3.16218
G1 X73.573 Y95.541 E3.17582
G1 X73.425 Y95.299 E3.18522
G1 X73.284 Y94.915 E3.19876
G1 X73.239 Y94.635 E3.20815
G1 X73.255 Y94.227 E3.22169
G1 X73.321 Y93.954 E3.23097
G1 X73.428 Y93.695 E3.24026
G1 X73.655 Y93.356 E3.25380
G1 X73.813 Y93.198 E3.26120
G1 X74.375 Y91.449 F7800.000
G1 F1800.000
G1 X73.778 Y91.306 E3.28154
G1 X73.458 Y91.188 E3.29284
G1 X72.911 Y90.909 E3.31317
G1 X72.403 Y90.540 E3.33396
G1 X71.969 Y90.106 E3.35429
G1 X71.758 Y89.838 E3.36559
G1 X71.437 Y89.315 E3.38592
G1 X71.203 Y88.748 E3.40626
G1 X71.110 Y88.420 E3.41756
G1 X71.014 Y87.814 E3.43789
G1 X71.014 Y87.186 E3.45868
G1 X71.110 Y86.580 E3.47901
G1 X71.203 Y86.252 E3.49032
G1 X71.437 Y85.685 E3.51065
G1 X71.758 Y85.162 E3.53098
G1 X71.961 Y84.904 E3.54183
G1 X72.183 Y84.664 E3.55268
G1 X72.650 Y84.265 E3.57301
G1 X73.185 Y83.937 E3.59380
G1 X73.752 Y83.703 E3.61413
G1 X74.080 Y83.610 E3.62543
G1 X74.686 Y83.514 E3.64576
G1 X75.314 Y83.514 E3.66655
G1 X75.920 Y83.610 E3.68688
G1 X76.248 Y83.703 E3.69819
G1 X76.815 Y83.937 E3.71852
G1 X77.338 Y84.258 E3.73885
G1 X77.606 Y84.469 E3.75015
G1 X78.031 Y84.894 E3.77003
G1 X78.242 Y85.162 E3.78133
G1 X78.563 Y85.685 E3.80166
G1 X78.797 Y86.252 E3.82199
G1 X78.890 Y86.580 E3.83330
G1 X78.986 Y87.186 E3.85363
G1 X78.986 Y87.814 E3.87442
G1 X78.890 Y88.420 E3.89475
G1 X78.797 Y88.748 E3.90606
G1 X78.563 Y89.315 E3.92639
G1 X78.242 Y89.838 E3.94672
G1 X78.039 Y90.096 E3.95757
G1 X77.817 Y90.336 E3.96842
G1 X77.350 Y90.735 E3.98875
G1 X76.815 Y91.063 E4.00954
G1 X76.236 Y91.303 E4.03032
G1 X75.639 Y91.446 E4.05066
G1 X75.314 Y91.484 E4.06150
G1 X74.986 Y91.497 E4.07235
G1 X74.434 Y91.454 E4.09070
G1 X74.416 Y91.186 F7800.000
G1 F1800.000
G1 X73.855 Y91.051 E4.10982
G1 X73.564 Y90.944 E4.12009
G1 X73.050 Y90.682 E4.13920
G1 X72.576 Y90.338 E4.15861
G1 X72.168 Y89.930 E4.17772
G1 X71.976 Y89.686 E4.18799
G1 X71.675 Y89.194 E4.20711
G1 X71.454 Y88.661 E4.22623
G1 X71.370 Y88.363 E4.23650
G1 X71.280 Y87.793 E4.25562
G1 X71.280 Y87.207 E4.27502
G1 X71.370 Y86.637 E4.29414
G1 X71.454 Y86.339 E4.30441
G1 X71.675 Y85.806 E4.32353
G1 X71.976 Y85.314 E4.34264
G1 X72.368 Y84.856 E4.36260
G1 X72.806 Y84.481 E4.38172
G1 X73.306 Y84.175 E4.40112
G1 X73.839 Y83.954 E4.42024
G1 X74.137 Y83.870 E4.43051
G1 X74.707 Y83.780 E4.44963
G1 X75.293 Y83.780 E4.46903
G1 X75.863 Y83.870 E4.48815
G1 X76.161 Y83.954 E4.49842
G1 X76.694 Y84.175 E4.51754
G1 X77.186 Y84.476 E4.53665
G1 X77.430 Y84.668 E4.54692
G1 X77.832 Y85.070 E4.56576
G1 X78.024 Y85.314 E4.57603
G1 X78.325 Y85.806 E4.59515
G1 X78.546 Y86.339 E4.61426
G1 X78.630 Y86.637 E4.62453
G1 X78.720 Y87.207 E4.64365
G1 X78.720 Y87.793 E4.66305
G1 X78.630 Y88.363 E4.68217
G1 X78.546 Y88.661 E4.69244
G1 X78.325 Y89.194 E4.71156
G1 X78.024 Y89.686 E4.73068
G1 X77.837 Y89.923 E4.74067
G1 X77.632 Y90.144 E4.75065
G1 X77.194 Y90.519 E4.76977
G1 X76.694 Y90.825 E4.78917
G1 X76.153 Y91.049 E4.80857
G1 X75.592 Y91.184 E4.82770
G1 X75.293 Y91.219 E4.83768
G1 X74.992 Y91.231 E4.84766
G1 X74.476 Y91.191 E4.86480
G1 X74.458 Y90.923 F7800.000
G1 F1800.000
G1 X73.932 Y90.797 E4.88271
G1 X73.671 Y90.700 E4.89194
G1 X73.189 Y90.455 E4.90984
G1 X72.749 Y90.135 E4.92786
G1 X72.367 Y89.753 E4.94577
G1 X72.195 Y89.534 E4.95500
G1 X71.912 Y89.073 E4.97290
G1 X71.705 Y88.574 E4.99081
G1 X71.630 Y88.306 E5.00004
G1 X71.545 Y87.772 E5.01795
G1 X71.545 Y87.228 E5.03596
G1 X71.630 Y86.694 E5.05387
G1 X71.705 Y86.426 E5.06310
G1 X71.912 Y85.927 E5.08101
G1 X72.195 Y85.466 E5.09892
G1 X72.552 Y85.047 E5.11715
G1 X72.963 Y84.696 E5.13506
G1 X73.427 Y84.412 E5.15307
G1 X73.926 Y84.205 E5.17098
G1 X74.194 Y84.130 E5.18021
G1 X74.728 Y84.045 E5.19812
G1 X75.272 Y84.045 E5.21613
G1 X75.806 Y84.130 E5.23404
G1 X76.074 Y84.205 E5.24327
G1 X76.573 Y84.412 E5.26118
G1 X77.034 Y84.695 E5.27909
G1 X77.253 Y84.867 E5.28832
G1 X77.633 Y85.247 E5.30611
G1 X77.805 Y85.466 E5.31534
G1 X78.088 Y85.927 E5.33325
G1 X78.295 Y86.426 E5.35116
G1 X78.370 Y86.694 E5.36039
G1 X78.455 Y87.228 E5.37830
G1 X78.455 Y87.772 E5.39631
G1 X78.370 Y88.306 E5.41422
G1 X78.295 Y88.574 E5.42345
G1 X78.088 Y89.073 E5.44136
G1 X77.805 Y89.534 E5.45927
G1 X77.635 Y89.750 E5.46839
G1 X77.448 Y89.953 E5.47751
G1 X77.037 Y90.304 E5.49542
G1 X76.573 Y90.588 E5.51343
G1 X76.071 Y90.796 E5.53145
G1 X75.545 Y90.922 E5.54936
G1 X75.272 Y90.954 E5.55848
G1 X74.997 Y90.965 E5.56760
G1 X74.518 Y90.928 E5.58352
G1 E3.58352 F2400.00000
G92 E0
G1 X74.686 Y66.486 F7800.000
G1 E2.00000 F2400.00000
G1 F1800.000
G1 X74.080 Y66.390 E2.02033
G1 X73.752 Y66.297 E2.03164
G1 X73.197 Y66.068 E2.05151
G1 X72.900 Y65.901 E2.06282
G1 X72.403 Y65.540 E2.08315
G1 X71.969 Y65.106 E2.10348
G1 X71.758 Y64.838 E2.11478
G1 X71.437 Y64.315 E2.13511
G1 X71.203 Y63.748 E2.15544
G1 X71.110 Y63.420 E2.16675
G1 X71.014 Y62.814 E2.18708
G1 X71.014 Y62.186 E2.20787
G1 X71.110 Y61.580 E2.22820
G1 X71.203 Y61.252 E2.23951
G1 X71.437 Y60.685 E2.25984
G1 X71.758 Y60.162 E2.28017
G1 X71.961 Y59.904 E2.29102
G1 X72.183 Y59.664 E2.30187
G1 X72.650 Y59.265 E2.32220
G1 X73.185 Y58.937 E2.34299
G1 X73.764 Y58.697 E2.36377
G1 X74.361 Y58.554 E2.38411
G1 X74.686 Y58.516 E2.39496
G1 X75.014 Y58.503 E2.40580
G1 X75.625 Y58.551 E2.42614
G1 X76.222 Y58.694 E2.44647
G1 X76.542 Y58.812 E2.45777
G1 X77.089 Y59.091 E2.47810
G1 X77.597 Y59.460 E2.49889
G1 X78.031 Y59.893 E2.51922
G1 X78.242 Y60.162 E2.53053
G1 X78.563 Y60.685 E2.55086
G1 X78.797 Y61.252 E2.57119
G1 X78.890 Y61.580 E2.58249
G1 X78.986 Y62.186 E2.60282
G1 X78.986 Y62.814 E2.62361
G1 X78.890 Y63.420 E2.64394
G1 X78.797 Y63.748 E2.65525
G1 X78.563 Y64.315 E2.67558
G1 X78.242 Y64.838 E2.69591
G1 X78.039 Y65.096 E2.70676
G1 X77.817 Y65.336 E2.71761
G1 X77.350 Y65.735 E2.73794
G1 X76.815 Y66.063 E2.75873
G1 X76.236 Y66.303 E2.77951
G1 X75.639 Y66.446 E2.79984
G1 X75.300 Y66.486 E2.81115
G1 X74.746 Y66.486 E2.82949
G1 X74.707 Y66.220 F7800.000
G1 F1800.000
G1 X74.137 Y66.130 E2.84861
G1 X73.839 Y66.046 E2.85888
G1 X73.314 Y65.828 E2.87772
G1 X73.043 Y65.677 E2.88798
G1 X72.576 Y65.338 E2.90710
G1 X72.168 Y64.930 E2.92622
G1 X71.976 Y64.686 E2.93649
G1 X71.675 Y64.194 E2.95561
G1 X71.454 Y63.661 E2.97473
G1 X71.370 Y63.363 E2.98500
G1 X71.280 Y62.793 E3.00412
G1 X71.280 Y62.207 E3.02352
G1 X71.370 Y61.637 E3.04264
G1 X71.454 Y61.339 E3.05291
G1 X71.675 Y60.806 E3.07202
G1 X71.976 Y60.314 E3.09114
G1 X72.368 Y59.856 E3.11110
G1 X72.806 Y59.481 E3.13022
G1 X73.306 Y59.175 E3.14962
G1 X73.847 Y58.951 E3.16902
G1 X74.408 Y58.816 E3.18814
G1 X75.008 Y58.769 E3.20810
G1 X75.584 Y58.814 E3.22722
G1 X76.145 Y58.949 E3.24634
G1 X76.436 Y59.056 E3.25661
G1 X76.950 Y59.318 E3.27573
G1 X77.424 Y59.662 E3.29513
G1 X77.832 Y60.070 E3.31424
G1 X78.024 Y60.314 E3.32451
G1 X78.325 Y60.806 E3.34363
G1 X78.546 Y61.339 E3.36275
G1 X78.630 Y61.637 E3.37302
G1 X78.720 Y62.207 E3.39214
G1 X78.720 Y62.793 E3.41154
G1 X78.630 Y63.363 E3.43066
G1 X78.546 Y63.661 E3.44093
G1 X78.325 Y64.194 E3.46005
G1 X78.024 Y64.686 E3.47917
G1 X77.632 Y65.144 E3.49912
G1 X77.194 Y65.519 E3.51824
G1 X76.694 Y65.825 E3.53764
G1 X76.153 Y66.049 E3.55704
G1 X75.592 Y66.184 E3.57616
G1 X75.284 Y66.220 E3.58643
G1 X74.767 Y66.220 E3.60356
G1 X74.728 Y65.955 F7800.000
G1 F1800.000
G1 X74.194 Y65.870 E3.62147
G1 X73.926 Y65.795 E3.63070
G1 X73.430 Y65.589 E3.64850
G1 X73.187 Y65.453 E3.65773
G1 X72.749 Y65.135 E3.67564
G1 X72.367 Y64.753 E3.69354
G1 X72.195 Y64.534 E3.70277
G1 X71.912 Y64.073 E3.72068
G1 X71.705 Y63.574 E3.73859
G1 X71.630 Y63.306 E3.74782
G1 X71.545 Y62.772 E3.76573
G1 X71.545 Y62.228 E3.78374
G1 X71.630 Y61.694 E3.80165
G1 X71.705 Y61.426 E3.81088
G1 X71.912 Y60.927 E3.82879
G1 X72.195 Y60.466 E3.84670
G1 X72.552 Y60.047 E3.86493
G1 X72.963 Y59.696 E3.88283
G1 X73.427 Y59.412 E3.90085
G1 X73.929 Y59.204 E3.91887
G1 X74.455 Y59.078 E3.93677
G1 X75.003 Y59.035 E3.95500
G1 X75.542 Y59.077 E3.97291
G1 X76.068 Y59.203 E3.99082
G1 X76.329 Y59.300 E4.00005
G1 X76.811 Y59.545 E4.01796
G1 X77.251 Y59.865 E4.03597
G1 X77.633 Y60.247 E4.05388
G1 X77.805 Y60.466 E4.06311
G1 X78.088 Y60.927 E4.08102
G1 X78.295 Y61.426 E4.09892
G1 X78.370 Y61.694 E4.10815
G1 X78.455 Y62.228 E4.12606
G1 X78.455 Y62.772 E4.14408
G1 X78.370 Y63.306 E4.16199
G1 X78.295 Y63.574 E4.17122
G1 X78.088 Y64.073 E4.18912
G1 X77.805 Y64.534 E4.20703
G1 X77.448 Y64.953 E4.22526
G1 X77.037 Y65.304 E4.24317
G1 X76.573 Y65.588 E4.26118
G1 X76.071 Y65.796 E4.27920
G1 X75.545 Y65.922 E4.29711
G1 X75.269 Y65.955 E4.30634
G1 X74.788 Y65.955 E4.32226
G1 E2.32226 F2400.00000
G92 E0
G1 X74.806 Y57.791 F7800.000
G1 E2.00000 F2400.00000
G1 F1800.000
G1 X74.302 Y57.691 E2.01701
G1 X73.944 Y57.543 E2.02986
G1 X73.506 Y57.250 E2.04733
G1 X73.148 Y56.863 E2.06479
G1 X72.945 Y56.532 E2.07765
G1 X72.767 Y56.050 E2.09466
G1 X72.707 Y55.667 E2.10752
G1 X72.727 Y55.154 E2.12452
G1 X72.814 Y54.790 E2.13693
G1 X72.957 Y54.444 E2.14933
G1 X73.250 Y54.006 E2.16679
G1 X73.637 Y53.648 E2.18426
G1 X73.957 Y53.452 E2.19666
G1 X74.302 Y53.309 E2.20907
G1 X74.806 Y53.209 E2.22607
G1 X75.194 Y53.209 E2.23893
G1 X75.711 Y53.312 E2.25640
G1 X76.190 Y53.532 E2.27386
G1 X76.504 Y53.760 E2.28672
G1 X76.852 Y54.137 E2.30372
G1 X77.055 Y54.468 E2.31659
G1 X77.233 Y54.950 E2.33359
G1 X77.293 Y55.333 E2.34645
G1 X77.273 Y55.846 E2.36346
G1 X77.186 Y56.210 E2.37586
G1 X77.043 Y56.556 E2.38826
G1 X76.757 Y56.983 E2.40527
G1 X76.483 Y57.257 E2.41813
G1 X76.056 Y57.543 E2.43514
G1 X75.698 Y57.691 E2.44799
G1 X75.194 Y57.791 E2.46500
G1 X74.866 Y57.791 E2.47588
G1 X74.832 Y57.526 F7800.000
G1 F1800.000
G1 X74.380 Y57.436 E2.49115
G1 X74.070 Y57.307 E2.50227
G1 X73.679 Y57.046 E2.51783
G1 X73.361 Y56.702 E2.53338
G1 X73.185 Y56.415 E2.54451
G1 X73.026 Y55.983 E2.55978
G1 X72.973 Y55.651 E2.57091
G1 X72.991 Y55.190 E2.58618
G1 X73.067 Y54.872 E2.59703
G1 X73.193 Y54.570 E2.60787
G1 X73.454 Y54.179 E2.62343
G1 X73.798 Y53.861 E2.63898
G1 X74.077 Y53.690 E2.64982
G1 X74.380 Y53.564 E2.66067
G1 X74.832 Y53.474 E2.67594
G1 X75.168 Y53.474 E2.68707
G1 X75.628 Y53.566 E2.70263
G1 X76.055 Y53.763 E2.71818
G1 X76.327 Y53.960 E2.72931
G1 X76.639 Y54.298 E2.74458
G1 X76.815 Y54.585 E2.75571
G1 X76.974 Y55.017 E2.77098
G1 X77.027 Y55.349 E2.78211
G1 X77.009 Y55.810 E2.79738
G1 X76.932 Y56.128 E2.80822
G1 X76.807 Y56.430 E2.81907
G1 X76.551 Y56.814 E2.83434
G1 X76.314 Y57.051 E2.84547
G1 X75.930 Y57.307 E2.86074
G1 X75.620 Y57.436 E2.87186
G1 X75.168 Y57.526 E2.88714
G1 X74.892 Y57.526 E2.89628
G1 X74.858 Y57.260 F7800.000
G1 F1800.000
G1 X74.457 Y57.180 E2.90981
G1 X74.195 Y57.072 E2.91921
G1 X73.853 Y56.843 E2.93285
G1 X73.573 Y56.541 E2.94650
G1 X73.425 Y56.299 E2.95590
G1 X73.284 Y55.915 E2.96943
G1 X73.239 Y55.635 E2.97883
G1 X73.255 Y55.227 E2.99237
G1 X73.321 Y54.954 E3.00165
G1 X73.428 Y54.695 E3.01094
G1 X73.657 Y54.353 E3.02458
G1 X73.959 Y54.073 E3.03823
G1 X74.198 Y53.927 E3.04752
G1 X74.457 Y53.820 E3.05680
G1 X74.858 Y53.740 E3.07034
G1 X75.142 Y53.740 E3.07974
G1 X75.546 Y53.820 E3.09338
G1 X75.920 Y53.993 E3.10703
G1 X76.149 Y54.159 E3.11642
G1 X76.427 Y54.459 E3.12996
G1 X76.575 Y54.701 E3.13935
G1 X76.716 Y55.085 E3.15289
G1 X76.761 Y55.365 E3.16229
G1 X76.745 Y55.773 E3.17582
G1 X76.679 Y56.046 E3.18511
G1 X76.572 Y56.305 E3.19440
G1 X76.345 Y56.644 E3.20793
G1 X76.144 Y56.845 E3.21733
G1 X75.805 Y57.072 E3.23087
G1 X75.543 Y57.180 E3.24026
G1 X75.142 Y57.260 E3.25380
G1 X74.918 Y57.260 E3.26121
G1 E1.26121 F2400.00000
G92 E0
G1 X70.696 Y50.696 F7800.000
G1 E2.00000 F2400.00000
G1 F1800.000
G1 X79.304 Y50.696 E2.28516
G1 X79.304 Y99.304 E3.89551
G1 X70.696 Y99.304 E4.18067
G1 X70.696 Y50.756 E5.78903
G1 X70.431 Y50.431 F7800.000
G1 F1800.000
G1 X79.569 Y50.431 E6.09179
G1 X79.569 Y99.569 E7.71973
G1 X70.431 Y99.569 E8.02250
G1 X70.431 Y50.491 E9.64845
G1 X70.165 Y50.165 F7800.000
G1 F1800.000
G1 X79.835 Y50.165 E9.96881
G1 X79.835 Y99.835 E11.61436
G1 X70.165 Y99.835 E11.93472
G1 X70.165 Y50.225 E13.57828
G1 X70.859 Y51.065 F7800.000
G1 F1800.000
G1 X71.065 Y50.859 E13.58803
G1 X71.444 Y50.859 E13.60065
G1 X70.859 Y51.444 E13.62827
G1 X70.859 Y51.822 E13.64090
G1 X71.822 Y50.859 E13.68638
G1 X72.201 Y50.859 E13.69901
G1 X70.859 Y52.201 E13.76234
G1 X70.859 Y52.579 E13.77497
G1 X72.579 Y50.859 E13.85617
G1 X72.957 Y50.859 E13.86879
G1 X70.859 Y52.957 E13.96785
G1 X70.859 Y53.336 E13.98048
G1 X73.336 Y50.859 E14.09739
G1 X73.714 Y50.859 E14.11002
G1 X70.859 Y53.714 E14.24479
G1 X70.859 Y54.093 E14.25742
G1 X74.093 Y50.859 E14.41005
G1 X74.471 Y50.859 E14.42268
G1 X70.859 Y54.471 E14.59317
G1 X70.859 Y54.849 E14.60579
G1 X74.849 Y50.859 E14.79414
G1 X75.228 Y50.859 E14.80677
G1 X70.859 Y55.228 E15.01298
G1 X70.859 Y55.606 E15.02561
G1 X75.606 Y50.859 E15.24967
G1 X75.985 Y50.859 E15.26230
G1 X70.859 Y55.985 E15.50422
G1 X70.859 Y56.363 E15.51685
G1 X72.490 Y54.731 E15.59387
G1 X72.619 Y54.421 E15.60506
G1 X72.944 Y53.935 E15.62457
