; generated by Slic3r 1.3.1-dev (Build 2ef957d) on 2019-11-25 at 09:21:48

; external perimeters extrusion width = 0.55mm (4.37mm^3/s)
; perimeters extrusion width = 0.70mm (11.44mm^3/s)
; infill extrusion width = 0.62mm (13.45mm^3/s)
; solid infill extrusion width = 0.70mm (3.81mm^3/s)
; top infill extrusion width = 0.70mm (2.86mm^3/s)

M107
G92 E0
M104 S200 ; set temperature
G28 ; home all axes
G1 Z5 F5000 ; lift nozzle

; Filament gcode

M109 S200 ; set temperature and wait for it to be reached
G21 ; set units to millimeters
G90 ; use absolute coordinates
M82 ; use absolute distances for extrusion
G92 E0
G1 Z0.350 F7800.000
G1 E-2.00000 F2400.00000
G92 E0
G1 X81.484 Y108.990 F7800.000
G1 E2.00000 F2400.00000
G1 F1800.000
G1 X83.516 Y107.925 E2.07096
G1 X85.529 Y107.612 E2.13401
G1 X114.471 Y107.612 E3.02951
G1 X116.730 Y108.009 E3.10047
G1 X118.718 Y109.152 E3.17143
G1 X120.197 Y110.905 E3.24240
G1 X120.939 Y112.803 E3.30545
G1 X123.339 Y123.628 E3.64852
G1 X123.440 Y125.919 E3.71948
G1 X122.754 Y128.107 E3.79044
G1 X121.363 Y129.931 E3.86140
G1 X119.433 Y131.171 E3.93237
G1 X118.305 Y131.530 E3.96902
G1 X110.494 Y133.261 E4.21655
G1 X109.060 Y133.418 E4.26118
G1 X90.940 Y133.418 E4.82186
G1 X89.506 Y133.261 E4.86649
G1 X81.695 Y131.530 E5.11402
G1 X79.576 Y130.653 E5.18498
G1 X77.883 Y129.106 E5.25594
G1 X76.818 Y127.075 E5.32690
G1 X76.509 Y124.803 E5.39787
G1 X76.661 Y123.628 E5.43452
G1 X79.061 Y112.803 E5.77759
G1 X79.938 Y110.683 E5.84855
G1 X81.434 Y109.045 E5.91719
G1 E3.91719 F2400.00000
G92 E0
G1 X114.963 Y123.846 F7800.000
G1 E2.00000 F2400.00000
G1 F1800.000
G1 X110.276 Y124.885 E2.14853
G1 X109.165 Y119.872 E2.30741
G1 X109.413 Y119.773 E2.31568
G1 X111.846 Y118.431 E2.40165
G1 X113.495 Y117.228 E2.46483
G1 X114.946 Y123.773 E2.67226
G1 X115.708 Y124.321 F7800.000
G1 F1800.000
G1 X109.801 Y125.630 E2.85946
G1 X108.439 Y119.488 E3.05414
G1 X109.146 Y119.207 E3.07766
G1 X111.509 Y117.903 E3.16118
G1 X113.899 Y116.160 E3.25269
G1 X115.692 Y124.248 E3.50901
G1 X116.453 Y124.796 F7800.000
G1 F1800.000
G1 X109.326 Y126.376 E3.73488
G1 X107.714 Y119.104 E3.96535
G1 X108.878 Y118.641 E4.00412
G1 X111.173 Y117.375 E4.08521
G1 X113.291 Y115.830 E4.16633
G1 X114.263 Y114.914 E4.20763
G1 X116.437 Y124.722 E4.51849
G1 X115.971 Y124.665 F7800.000
G1 E2.51849 F2400.00000
G92 E0
G1 X113.974 Y123.614 F7800.000
G1 E2.00000 F2400.00000
G1 F1800.000
G1 X114.460 Y123.128 E2.02250
G1 X114.291 Y122.363 E2.04815
G1 X112.773 Y123.881 E2.11838
G1 X111.572 Y124.147 E2.15863
G1 X114.121 Y121.598 E2.27659
G1 X113.951 Y120.833 E2.30224
G1 X110.488 Y124.296 E2.46251
G1 X110.319 Y123.531 E2.48815
G1 X113.782 Y120.068 E2.64842
G1 X113.612 Y119.303 E2.67407
G1 X110.149 Y122.766 E2.83434
G1 X109.980 Y122.001 E2.85998
G1 X113.443 Y118.538 E3.02026
G1 X113.335 Y118.052 E3.03653
G1 X112.425 Y118.716 E3.07339
G1 X112.213 Y118.833 E3.08133
G1 X109.810 Y121.236 E3.19252
G1 X109.640 Y120.471 E3.21816
G1 X110.127 Y119.984 E3.24067
G1 E1.24067 F2400.00000
G92 E0
G1 X90.835 Y119.872 F7800.000
G1 E2.00000 F2400.00000
G1 F1800.000
G1 X89.724 Y124.885 E2.15888
G1 X85.037 Y123.846 E2.30741
G1 X86.505 Y117.228 E2.51716
G1 X88.154 Y118.431 E2.58034
G1 X90.587 Y119.773 E2.66631
G1 X90.766 Y119.844 E2.67226
G1 X91.561 Y119.488 F7800.000
G1 F1800.000
G1 X90.199 Y125.630 E2.86694
G1 X84.292 Y124.321 E3.05414
G1 X86.101 Y116.160 E3.31278
G1 X88.491 Y117.903 E3.40428
G1 X90.854 Y119.207 E3.48781
G1 X91.491 Y119.460 E3.50901
G1 X92.286 Y119.104 F7800.000
G1 F1800.000
G1 X90.674 Y126.376 E3.73948
G1 X83.547 Y124.796 E3.96535
G1 X85.737 Y114.914 E4.27853
G1 X86.709 Y115.830 E4.31983
G1 X88.827 Y117.375 E4.40096
G1 X91.122 Y118.641 E4.48205
G1 X92.216 Y119.076 E4.51849
G1 X91.919 Y119.443 F7800.000
G1 E2.51849 F2400.00000
G92 E0
G1 X86.665 Y118.538 F7800.000
G1 E2.00000 F2400.00000
G1 F1800.000
G1 X87.151 Y118.052 E2.02189
G1 X87.677 Y118.436 E2.04262
G1 X86.406 Y119.707 E2.09986
G1 X86.147 Y120.876 E2.13798
G1 X88.219 Y118.803 E2.23131
G1 X88.805 Y119.127 E2.25262
G1 X85.888 Y122.044 E2.38401
G1 X85.629 Y123.213 E2.42212
G1 X89.391 Y119.450 E2.59157
G1 X89.977 Y119.773 E2.61288
G1 X86.028 Y123.723 E2.79073
G1 X86.773 Y123.888 E2.81501
G1 X90.270 Y120.391 E2.97248
G1 X90.010 Y121.559 E3.01060
G1 X87.517 Y124.053 E3.12288
G1 X88.262 Y124.218 E3.14716
G1 X89.751 Y122.728 E3.21425
G1 X89.492 Y123.897 E3.25236
G1 X89.006 Y124.383 E3.27426
G1 Z0.650 F7800.000
G1 X90.990 Y119.767 F7800.000
G1 F900.000
G1 X89.822 Y125.038 E3.41992
G1 X84.884 Y123.944 E3.55635
G1 X86.427 Y116.984 E3.74867
G1 X88.224 Y118.294 E3.80865
G1 X90.642 Y119.628 E3.88317
G1 X90.921 Y119.739 E3.89126
G1 X91.728 Y119.376 F7800.000
G1 F900.000
G1 X90.305 Y125.796 E4.06867
G1 X84.126 Y124.427 E4.23940
G1 X86.032 Y115.830 E4.47693
G1 X86.398 Y116.176 E4.49050
G1 X88.566 Y117.757 E4.56288
G1 X90.914 Y119.052 E4.63523
G1 X91.658 Y119.348 E4.65685
G1 X92.379 Y119.031 F7800.000
G1 F900.000
G1 X90.731 Y126.465 E4.81378
G1 X83.457 Y124.853 E4.96733
G1 X85.698 Y114.745 E5.18070
G1 X86.757 Y115.743 E5.21069
G1 X88.868 Y117.283 E5.26453
G1 X91.154 Y118.545 E5.31835
G1 X92.309 Y119.004 E5.34397
G1 X92.012 Y119.371 F7800.000
G1 X90.503 Y120.389 F7800.000
G1 F1200.000
G1 X90.009 Y119.894 E5.36479
G1 X87.796 Y118.673 E5.44001
G1 X90.324 Y121.201 E5.54639
G1 X90.144 Y122.012 E5.57113
G1 X86.475 Y118.343 E5.72554
G1 X86.295 Y119.155 E5.75028
G1 X89.964 Y122.824 E5.90469
G1 X89.784 Y123.636 E5.92943
G1 X86.115 Y119.967 E6.08384
G1 X85.935 Y120.778 E6.10858
G1 X89.604 Y124.447 E6.26300
G1 X89.586 Y124.527 E6.26544
G1 X88.438 Y124.273 E6.30044
G1 X85.755 Y121.590 E6.41335
G1 X85.575 Y122.402 E6.43809
G1 X87.164 Y123.990 E6.50496
G1 X85.890 Y123.708 E6.54379
G1 X85.395 Y123.213 E6.56461
G1 E4.56461 F2400.00000
G92 E0
G1 X109.010 Y119.767 F7800.000
G1 E2.00000 F2400.00000
G1 F900.000
G1 X109.358 Y119.628 E2.01012
G1 X111.776 Y118.294 E2.08463
G1 X113.573 Y116.984 E2.14461
G1 X115.116 Y123.944 E2.33693
G1 X110.178 Y125.038 E2.47337
G1 X109.026 Y119.840 E2.61700
G1 X108.272 Y119.376 F7800.000
G1 F900.000
G1 X109.086 Y119.052 E2.64064
G1 X111.434 Y117.757 E2.71299
G1 X113.602 Y116.176 E2.78537
G1 X113.968 Y115.830 E2.79895
G1 X115.874 Y124.427 E3.03648
G1 X109.695 Y125.796 E3.20720
G1 X108.288 Y119.449 E3.38259
G1 X107.621 Y119.031 F7800.000
G1 F900.000
G1 X108.846 Y118.545 E3.40975
G1 X111.132 Y117.283 E3.46357
G1 X113.243 Y115.743 E3.51742
G1 X114.302 Y114.745 E3.54741
G1 X116.543 Y124.853 E3.76078
G1 X109.269 Y126.465 E3.91433
G1 X107.637 Y119.105 E4.06971
G1 X108.120 Y119.002 F7800.000
G1 X113.410 Y118.317 F7800.000
G1 F1200.000
G1 X112.915 Y117.822 E4.09003
G1 X112.356 Y118.231 E4.11016
G1 X113.686 Y119.561 E4.16480
G1 X113.961 Y120.804 E4.20180
G1 X111.787 Y118.630 E4.29112
G1 X111.163 Y118.974 E4.31182
G1 X114.237 Y122.048 E4.43809
G1 X114.513 Y123.292 E4.47510
G1 X110.540 Y119.319 E4.63832
G1 X109.916 Y119.663 E4.65902
G1 X114.078 Y123.825 E4.83000
G1 X113.286 Y124.000 E4.85358
G1 X109.587 Y120.302 E5.00553
G1 X109.863 Y121.545 E5.04254
G1 X112.493 Y124.176 E5.15061
G1 X111.701 Y124.352 E5.17419
G1 X110.138 Y122.789 E5.23838
G1 X110.414 Y124.033 E5.27539
G1 X110.908 Y124.527 E5.29570
G1 Z0.950 F7800.000
G1 X109.004 Y119.743 F7800.000
G1 F900.000
G1 X109.358 Y119.602 E5.30597
G1 X111.776 Y118.267 E5.38049
G1 X113.568 Y116.961 E5.44030
G1 X115.116 Y123.944 E5.63325
G1 X110.178 Y125.038 E5.76968
G1 X109.020 Y119.816 E5.91398
G1 X108.267 Y119.352 F7800.000
G1 F900.000
G1 X109.086 Y119.026 E5.93777
G1 X111.434 Y117.730 E6.01013
G1 X113.602 Y116.149 E6.08251
G1 X113.963 Y115.809 E6.09590
G1 X115.874 Y124.427 E6.33403
G1 X109.695 Y125.796 E6.50476
G1 X108.283 Y119.425 E6.68081
G1 X107.616 Y119.007 F7800.000
G1 F900.000
G1 X108.846 Y118.518 E6.70810
G1 X111.132 Y117.257 E6.76192
G1 X113.243 Y115.717 E6.81576
G1 X114.297 Y114.724 E6.84561
G1 X116.543 Y124.853 E7.05944
G1 X109.269 Y126.465 E7.21299
G1 X107.632 Y119.080 E7.36889
G1 X108.115 Y118.978 F7800.000
G1 X109.986 Y119.871 F7800.000
G1 F1200.000
G1 X109.491 Y120.365 E7.38978
G1 X109.672 Y121.180 E7.41470
G1 X112.207 Y118.645 E7.52177
G1 X112.366 Y118.557 E7.52720
G1 X113.405 Y117.800 E7.56560
G1 X113.521 Y118.326 E7.58169
G1 X109.853 Y121.995 E7.73666
G1 X110.033 Y122.809 E7.76158
G1 X113.702 Y119.140 E7.91655
G1 X113.883 Y119.955 E7.94147
G1 X110.214 Y123.624 E8.09643
G1 X110.394 Y124.439 E8.12135
G1 X114.063 Y120.770 E8.27632
G1 X114.244 Y121.584 E8.30124
G1 X111.553 Y124.275 E8.41489
G1 X112.832 Y123.991 E8.45401
G1 X114.424 Y122.399 E8.52128
G1 X114.605 Y123.213 E8.54620
G1 X114.110 Y123.708 E8.56708
G1 E6.56708 F2400.00000
G92 E0
G1 X90.996 Y119.743 F7800.000
G1 E2.00000 F2400.00000
G1 F900.000
G1 X89.822 Y125.038 E2.14633
G1 X84.884 Y123.944 E2.28276
G1 X86.432 Y116.961 E2.47570
G1 X88.224 Y118.267 E2.53552
G1 X90.642 Y119.602 E2.61003
G1 X90.926 Y119.715 E2.61828
G1 X91.733 Y119.352 F7800.000
G1 F900.000
G1 X90.305 Y125.796 E2.79635
G1 X84.126 Y124.427 E2.96708
G1 X86.037 Y115.809 E3.20521
G1 X86.398 Y116.149 E3.21861
G1 X88.566 Y117.730 E3.29099
G1 X90.914 Y119.026 E3.36334
G1 X91.664 Y119.324 E3.38511
G1 X92.384 Y119.007 F7800.000
G1 F900.000
G1 X90.731 Y126.465 E3.54255
G1 X83.457 Y124.853 E3.69610
G1 X85.703 Y114.724 E3.90993
G1 X86.757 Y115.717 E3.93978
G1 X88.868 Y117.257 E3.99363
G1 X91.154 Y118.518 E4.04745
G1 X92.314 Y118.980 E4.07319
G1 X92.018 Y119.347 F7800.000
G1 X86.595 Y118.294 F7800.000
G1 F1200.000
G1 X87.090 Y117.800 E4.09354
G1 X87.651 Y118.209 E4.11374
G1 X86.319 Y119.540 E4.16856
G1 X86.043 Y120.787 E4.20572
G1 X88.221 Y118.608 E4.29539
G1 X88.846 Y118.953 E4.31617
G1 X85.766 Y122.033 E4.44295
G1 X85.490 Y123.279 E4.48010
G1 X89.471 Y119.298 E4.64398
G1 X90.096 Y119.643 E4.66476
G1 X85.916 Y123.823 E4.83684
G1 X86.710 Y123.999 E4.86051
G1 X90.415 Y120.294 E5.01303
G1 X90.139 Y121.540 E5.05019
G1 X87.504 Y124.175 E5.15866
G1 X88.298 Y124.351 E5.18233
G1 X89.862 Y122.787 E5.24675
G1 X89.586 Y124.033 E5.28390
G1 X89.091 Y124.527 E5.30426
M106 S221.85
G1 Z1.250 F7800.000
G1 X91.001 Y119.719 F7800.000
G1 F900.000
G1 X89.822 Y125.038 E5.45125
G1 X84.884 Y123.944 E5.58769
G1 X86.437 Y116.938 E5.78126
G1 X88.224 Y118.241 E5.84090
G1 X90.642 Y119.576 E5.91542
G1 X90.931 Y119.691 E5.92382
G1 X91.739 Y119.328 F7800.000
G1 F900.000
G1 X90.305 Y125.796 E6.10256
G1 X84.126 Y124.427 E6.27329
G1 X86.041 Y115.787 E6.51202
G1 X86.398 Y116.123 E6.52523
G1 X88.566 Y117.704 E6.59762
G1 X90.914 Y119.000 E6.66997
G1 X91.669 Y119.300 E6.69189
G1 X92.389 Y118.983 F7800.000
G1 F900.000
G1 X90.731 Y126.465 E6.84984
G1 X83.457 Y124.853 E7.00339
G1 X85.708 Y114.702 E7.21768
G1 X86.757 Y115.691 E7.24739
G1 X88.868 Y117.230 E7.30124
G1 X91.154 Y118.492 E7.35506
G1 X92.320 Y118.955 E7.38092
G1 X92.023 Y119.323 F7800.000
G1 X90.514 Y120.342 F7800.000
G1 F1200.000
G1 X90.019 Y119.847 E7.40189
G1 X87.790 Y118.617 E7.47819
G1 X90.333 Y121.160 E7.58595
G1 X90.151 Y121.977 E7.61105
G1 X86.482 Y118.308 E7.76657
G1 X86.301 Y119.126 E7.79167
G1 X89.970 Y122.795 E7.94719
G1 X89.789 Y123.612 E7.97229
G1 X86.120 Y119.943 E8.12781
G1 X85.939 Y120.761 E8.15291
G1 X89.608 Y124.430 E8.30843
G1 X89.586 Y124.527 E8.31143
G1 X88.456 Y124.277 E8.34612
G1 X85.758 Y121.578 E8.46051
G1 X85.576 Y122.396 E8.48561
G1 X87.173 Y123.992 E8.55329
G1 X85.890 Y123.708 E8.59269
G1 X85.395 Y123.213 E8.61365
G1 E6.61365 F2400.00000
G92 E0
G1 X108.999 Y119.719 F7800.000
G1 E2.00000 F2400.00000
G1 F900.000
G1 X109.358 Y119.576 E2.01043
G1 X111.776 Y118.241 E2.08494
G1 X113.563 Y116.938 E2.14459
G1 X115.116 Y123.944 E2.33816
G1 X110.178 Y125.038 E2.47459
G1 X109.015 Y119.792 E2.61956
G1 X108.261 Y119.328 F7800.000
G1 F900.000
G1 X109.086 Y119.000 E2.64350
G1 X111.434 Y117.704 E2.71586
G1 X113.602 Y116.123 E2.78824
G1 X113.959 Y115.787 E2.80146
G1 X115.874 Y124.427 E3.04019
G1 X109.695 Y125.796 E3.21091
G1 X108.277 Y119.401 E3.38763
G1 X107.611 Y118.983 F7800.000
G1 F900.000
G1 X108.846 Y118.492 E3.41503
G1 X111.132 Y117.230 E3.46885
G1 X113.243 Y115.691 E3.52270
G1 X114.292 Y114.702 E3.55241
G1 X116.543 Y124.853 E3.76670
G1 X109.269 Y126.465 E3.92025
G1 X107.627 Y119.056 E4.07666
G1 X108.110 Y118.954 F7800.000
G1 X113.400 Y118.272 F7800.000
G1 F1200.000
G1 X112.905 Y117.777 E4.09705
G1 X112.343 Y118.187 E4.11734
G1 X113.677 Y119.520 E4.17234
G1 X113.953 Y120.769 E4.20965
G1 X111.771 Y118.587 E4.29967
G1 X111.145 Y118.932 E4.32054
G1 X114.230 Y122.018 E4.44781
G1 X114.507 Y123.267 E4.48512
G1 X110.518 Y119.278 E4.64964
G1 X109.892 Y119.623 E4.67051
G1 X114.091 Y123.822 E4.84369
G1 X113.295 Y123.998 E4.86745
G1 X109.583 Y120.287 E5.02055
G1 X109.860 Y121.535 E5.05786
G1 X112.500 Y124.175 E5.16672
G1 X111.704 Y124.351 E5.19049
G1 X110.137 Y122.784 E5.25512
G1 X110.414 Y124.033 E5.29243
G1 X110.908 Y124.527 E5.31282
M106 S219.3
G1 Z1.550 F7800.000
G1 E3.31282 F2400.00000
G92 E0
G1 X91.006 Y119.694 F7800.000
G1 E2.00000 F2400.00000
G1 F900.000
G1 X89.822 Y125.038 E2.14766
G1 X84.884 Y123.944 E2.28409
G1 X86.442 Y116.916 E2.47829
G1 X88.224 Y118.215 E2.53776
G1 X90.642 Y119.550 E2.61228
G1 X90.937 Y119.667 E2.62084
G1 X91.744 Y119.304 F7800.000
G1 F900.000
G1 X90.305 Y125.796 E2.80024
G1 X84.126 Y124.427 E2.97097
G1 X86.046 Y115.765 E3.21030
G1 X86.398 Y116.097 E3.22334
G1 X88.566 Y117.678 E3.29572
G1 X90.914 Y118.974 E3.36807
G1 X91.674 Y119.276 E3.39015
G1 X92.395 Y118.959 F7800.000
G1 F900.000
G1 X90.731 Y126.465 E3.54861
G1 X83.457 Y124.853 E3.70216
G1 X85.713 Y114.680 E3.91691
G1 X86.757 Y115.665 E3.94648
G1 X88.868 Y117.204 E4.00033
G1 X91.154 Y118.466 E4.05415
G1 X92.325 Y118.931 E4.08013
G1 X92.028 Y119.299 F7800.000
G1 X86.605 Y118.249 F7800.000
G1 F1200.000
G1 X87.100 Y117.755 E4.10056
G1 X87.663 Y118.165 E4.12093
G1 X86.328 Y119.500 E4.17611
G1 X86.050 Y120.752 E4.21357
G1 X88.237 Y118.565 E4.30394
G1 X88.865 Y118.911 E4.32489
G1 X85.773 Y122.003 E4.45267
G1 X85.496 Y123.254 E4.49013
G1 X89.492 Y119.257 E4.65531
G1 X90.120 Y119.604 E4.67626
G1 X85.903 Y123.821 E4.85054
G1 X86.700 Y123.997 E4.87440
G1 X90.418 Y120.279 E5.02808
G1 X90.141 Y121.530 E5.06553
G1 X87.497 Y124.174 E5.17479
G1 X88.294 Y124.351 E5.19866
G1 X89.863 Y122.782 E5.26351
G1 X89.586 Y124.033 E5.30096
G1 X89.091 Y124.527 E5.32140
G1 E3.32140 F2400.00000
G92 E0
G1 X108.994 Y119.694 F7800.000
G1 E2.00000 F2400.00000
G1 F900.000
G1 X109.358 Y119.550 E2.01058
G1 X111.776 Y118.215 E2.08510
G1 X113.558 Y116.916 E2.14458
G1 X115.116 Y123.944 E2.33877
G1 X110.178 Y125.038 E2.47520
G1 X109.010 Y119.768 E2.62084
G1 X108.256 Y119.304 F7800.000
G1 F900.000
G1 X109.086 Y118.974 E2.64494
G1 X111.434 Y117.678 E2.71729
G1 X113.602 Y116.097 E2.78967
G1 X113.954 Y115.765 E2.80271
G1 X115.874 Y124.427 E3.04204
G1 X109.695 Y125.796 E3.21277
G1 X108.272 Y119.377 E3.39015
G1 X107.605 Y118.959 F7800.000
G1 F900.000
G1 X108.846 Y118.466 E3.41767
G1 X111.132 Y117.204 E3.47149
G1 X113.243 Y115.665 E3.52534
G1 X114.288 Y114.680 E3.55492
G1 X116.543 Y124.853 E3.76966
G1 X109.269 Y126.465 E3.92321
G1 X107.621 Y119.032 E4.08013
G1 X108.104 Y118.930 F7800.000
G1 X109.976 Y119.824 F7800.000
G1 F1200.000
G1 X109.481 Y120.319 E4.10117
G1 X109.663 Y121.139 E4.12645
G1 X112.212 Y118.590 E4.23491
G1 X112.366 Y118.505 E4.24018
G1 X113.395 Y117.755 E4.27849
G1 X113.514 Y118.291 E4.29501
G1 X109.845 Y121.960 E4.45109
G1 X110.027 Y122.780 E4.47637
G1 X113.695 Y119.111 E4.63244
G1 X113.877 Y119.932 E4.65772
G1 X110.209 Y123.600 E4.81380
G1 X110.390 Y124.421 E4.83908
G1 X114.059 Y120.752 E4.99515
G1 X114.241 Y121.573 E5.02043
G1 X111.535 Y124.279 E5.13557
G1 X112.823 Y123.993 E5.17525
G1 X114.423 Y122.393 E5.24334
G1 X114.605 Y123.213 E5.26862
G1 X114.110 Y123.708 E5.28965
G1 E3.28965 F2400.00000
G92 E0
G1 X105.874 Y80.894 F7800.000
G1 E2.00000 F2400.00000
M106 S255

G1 F3600.000
G1 X94.126 Y80.894 E2.32634
G1 X94.090 Y80.643 E2.33336
G1 X95.095 Y80.352 E2.36241
G1 X96.304 Y80.081 E2.39683
G1 X97.528 Y79.888 E2.43126
G1 X98.761 Y79.771 E2.46568
G1 X100.000 Y79.732 E2.50010
G1 X101.239 Y79.771 E2.53452
G1 X102.472 Y79.888 E2.56894
G1 X103.696 Y80.081 E2.60336
G1 X104.905 Y80.352 E2.63778
G1 X105.910 Y80.643 E2.66683
G1 X105.885 Y80.820 E2.67177
