; Gcode updated with 'stl_info' on 2019-12-09 21:19:42.094217

; stl_min_x = -12.149999618530273
; stl_max_x = 12.112500190734863
; stl_min_y = -12.149999618530273
; stl_max_y = 12.149999618530273
; stl_min_z = 0.0

; generated by Slic3r 1.3.1-dev (Build adea0d9) on 2019-12-09 at 21:19:41

; external perimeters extrusion width = 0.44mm (2.86mm^3/s)
; perimeters extrusion width = 0.56mm (4.14mm^3/s)
; infill extrusion width = 0.50mm (3.66mm^3/s)
; solid infill extrusion width = 0.56mm (3.10mm^3/s)
; top infill extrusion width = 0.56mm (3.10mm^3/s)

M107
G92 E0
;D3D:START:START
T0
M104 S215 T0

G21
G90
M107
T0
G28
G29
M109 T0 S215 T0
G0 F3000
M107
T0
G92 E0
G0 X0 Y149 Z0.1 F3600
G1 Y49 E6.5 F1200
G0 Z1
G92 E0
; Filament gcode

G21 ; set units to millimeters
G90 ; use absolute coordinates
M82 ; use absolute distances for extrusion
G92 E0
G1 Z0.300 F7800.000
G1 E-2.00000 F2400.00000
G92 E0
G1 X72.924 Y73.051 F7800.000
G1 E2.00000 F2400.00000
G1 F1800.000
G1 X73.185 Y72.806 E2.01185
G1 X73.474 Y72.596 E2.02369
G1 X73.788 Y72.423 E2.03554
G1 X74.120 Y72.292 E2.04739
G1 X74.466 Y72.203 E2.05924
G1 X74.821 Y72.158 E2.07108
G1 X75.179 Y72.158 E2.08293
G1 X75.534 Y72.203 E2.09478
G1 X75.880 Y72.292 E2.10663
G1 X76.212 Y72.423 E2.11847
G1 X76.526 Y72.596 E2.13032
G1 X76.815 Y72.806 E2.14217
G1 X77.076 Y73.051 E2.15401
G1 X77.304 Y73.326 E2.16586
G1 X77.495 Y73.628 E2.17771
G1 X77.648 Y73.952 E2.18956
G1 X77.758 Y74.292 E2.20140
G1 X77.825 Y74.643 E2.21325
G1 X77.848 Y75.000 E2.22510
G1 X77.825 Y75.357 E2.23695
G1 X77.758 Y75.708 E2.24879
G1 X77.648 Y76.048 E2.26064
G1 X77.495 Y76.372 E2.27249
G1 X77.304 Y76.674 E2.28434
G1 X77.076 Y76.949 E2.29618
G1 X76.815 Y77.194 E2.30803
G1 X76.526 Y77.404 E2.31988
G1 X76.212 Y77.577 E2.33172
G1 X75.880 Y77.708 E2.34357
G1 X75.534 Y77.797 E2.35542
G1 X75.179 Y77.842 E2.36727
G1 X74.821 Y77.842 E2.37911
G1 X74.466 Y77.797 E2.39096
G1 X74.120 Y77.708 E2.40281
G1 X73.788 Y77.577 E2.41466
G1 X73.474 Y77.404 E2.42650
G1 X73.185 Y77.194 E2.43835
G1 X72.924 Y76.949 E2.45020
G1 X72.696 Y76.674 E2.46205
G1 X72.505 Y76.372 E2.47389
G1 X72.352 Y76.048 E2.48574
G1 X72.242 Y75.708 E2.49759
G1 X72.175 Y75.357 E2.50943
G1 X72.152 Y75.000 E2.52128
G1 X72.175 Y74.643 E2.53313
G1 X72.242 Y74.292 E2.54498
G1 X72.352 Y73.952 E2.55682
G1 X72.505 Y73.628 E2.56867
G1 X72.696 Y73.326 E2.58052
G1 X72.886 Y73.097 E2.59038
G1 X73.118 Y73.233 F7800.000
G1 F1800.000
G1 X73.355 Y73.011 E2.60112
G1 X73.617 Y72.820 E2.61186
G1 X73.901 Y72.664 E2.62260
G1 X74.202 Y72.545 E2.63334
G1 X74.516 Y72.464 E2.64408
G1 X74.838 Y72.424 E2.65482
G1 X75.162 Y72.424 E2.66556
G1 X75.484 Y72.464 E2.67630
G1 X75.798 Y72.545 E2.68704
G1 X76.099 Y72.664 E2.69778
G1 X76.383 Y72.820 E2.70852
G1 X76.645 Y73.011 E2.71926
G1 X76.882 Y73.233 E2.73000
G1 X77.088 Y73.483 E2.74074
G1 X77.262 Y73.756 E2.75148
G1 X77.400 Y74.050 E2.76222
G1 X77.500 Y74.358 E2.77296
G1 X77.561 Y74.676 E2.78370
G1 X77.581 Y75.000 E2.79444
G1 X77.561 Y75.324 E2.80518
G1 X77.500 Y75.642 E2.81592
G1 X77.400 Y75.950 E2.82666
G1 X77.262 Y76.244 E2.83740
G1 X77.088 Y76.517 E2.84814
G1 X76.882 Y76.767 E2.85888
G1 X76.645 Y76.989 E2.86962
G1 X76.383 Y77.180 E2.88036
G1 X76.099 Y77.336 E2.89110
G1 X75.798 Y77.455 E2.90184
G1 X75.484 Y77.536 E2.91258
G1 X75.162 Y77.576 E2.92332
G1 X74.838 Y77.576 E2.93406
G1 X74.516 Y77.536 E2.94480
G1 X74.202 Y77.455 E2.95554
G1 X73.901 Y77.336 E2.96628
G1 X73.617 Y77.180 E2.97702
G1 X73.355 Y76.989 E2.98776
G1 X73.118 Y76.767 E2.99850
G1 X72.912 Y76.517 E3.00924
G1 X72.738 Y76.244 E3.01998
G1 X72.600 Y75.950 E3.03072
G1 X72.500 Y75.642 E3.04146
G1 X72.439 Y75.324 E3.05220
G1 X72.419 Y75.000 E3.06294
G1 X72.439 Y74.676 E3.07368
G1 X72.500 Y74.358 E3.08442
G1 X72.600 Y74.050 E3.09516
G1 X72.738 Y73.756 E3.10590
G1 X72.912 Y73.483 E3.11664
G1 X73.080 Y73.279 E3.12539
G1 X73.312 Y73.415 F7800.000
G1 F1800.000
G1 X73.524 Y73.216 E3.13503
G1 X73.759 Y73.045 E3.14466
G1 X74.014 Y72.905 E3.15429
G1 X74.285 Y72.798 E3.16392
G1 X74.566 Y72.726 E3.17356
G1 X74.855 Y72.689 E3.18319
G1 X75.145 Y72.689 E3.19282
G1 X75.434 Y72.726 E3.20246
G1 X75.715 Y72.798 E3.21209
G1 X75.986 Y72.905 E3.22172
G1 X76.241 Y73.045 E3.23135
G1 X76.476 Y73.216 E3.24099
G1 X76.688 Y73.415 E3.25062
G1 X76.873 Y73.639 E3.26025
G1 X77.029 Y73.885 E3.26989
G1 X77.153 Y74.148 E3.27952
G1 X77.243 Y74.424 E3.28915
G1 X77.297 Y74.710 E3.29878
G1 X77.315 Y75.000 E3.30842
G1 X77.297 Y75.290 E3.31805
G1 X77.243 Y75.576 E3.32768
G1 X77.153 Y75.852 E3.33731
G1 X77.029 Y76.115 E3.34695
G1 X76.873 Y76.361 E3.35658
G1 X76.688 Y76.585 E3.36621
G1 X76.476 Y76.784 E3.37585
G1 X76.241 Y76.955 E3.38548
G1 X75.986 Y77.095 E3.39511
G1 X75.715 Y77.202 E3.40474
G1 X75.434 Y77.274 E3.41438
G1 X75.145 Y77.311 E3.42401
G1 X74.855 Y77.311 E3.43364
G1 X74.566 Y77.274 E3.44327
G1 X74.285 Y77.202 E3.45291
G1 X74.014 Y77.095 E3.46254
G1 X73.759 Y76.955 E3.47217
G1 X73.524 Y76.784 E3.48181
G1 X73.312 Y76.585 E3.49144
G1 X73.127 Y76.361 E3.50107
G1 X72.971 Y76.115 E3.51070
G1 X72.847 Y75.852 E3.52034
G1 X72.757 Y75.576 E3.52997
G1 X72.703 Y75.290 E3.53960
G1 X72.685 Y75.000 E3.54924
G1 X72.703 Y74.710 E3.55887
G1 X72.757 Y74.424 E3.56850
G1 X72.847 Y74.148 E3.57813
G1 X72.971 Y73.885 E3.58777
G1 X73.127 Y73.639 E3.59740
G1 X73.274 Y73.461 E3.60504
G1 E1.60504 F2400.00000
G92 E0
G1 X66.901 Y66.901 F7800.000
G1 E2.00000 F2400.00000
G1 F1800.000
G1 X67.562 Y66.291 E2.02979
G1 X68.268 Y65.734 E2.05959
G1 X69.016 Y65.235 E2.08938
G1 X69.800 Y64.795 E2.11917
G1 X70.617 Y64.419 E2.14897
G1 X71.461 Y64.107 E2.17876
G1 X72.326 Y63.863 E2.20855
G1 X73.208 Y63.688 E2.23835
G1 X74.101 Y63.582 E2.26814
G1 X75.000 Y63.547 E2.29793
G1 X75.899 Y63.582 E2.32773
G1 X76.792 Y63.688 E2.35752
G1 X77.674 Y63.863 E2.38731
G1 X78.539 Y64.107 E2.41711
G1 X79.383 Y64.419 E2.44690
G1 X80.200 Y64.795 E2.47670
G1 X80.984 Y65.235 E2.50649
G1 X81.732 Y65.734 E2.53628
G1 X82.438 Y66.291 E2.56608
G1 X83.099 Y66.901 E2.59587
G1 X83.709 Y67.562 E2.62566
G1 X84.266 Y68.268 E2.65546
G1 X84.765 Y69.016 E2.68525
G1 X85.205 Y69.800 E2.71504
G1 X85.581 Y70.617 E2.74484
G1 X85.893 Y71.461 E2.77463
G1 X86.137 Y72.326 E2.80442
G1 X86.312 Y73.208 E2.83422
G1 X86.418 Y74.101 E2.86401
G1 X86.453 Y75.000 E2.89380
G1 X86.418 Y75.899 E2.92360
G1 X86.312 Y76.792 E2.95339
G1 X86.137 Y77.674 E2.98318
G1 X85.893 Y78.539 E3.01298
G1 X85.581 Y79.383 E3.04277
G1 X85.205 Y80.200 E3.07256
G1 X84.765 Y80.984 E3.10236
G1 X84.266 Y81.732 E3.13215
G1 X83.709 Y82.438 E3.16194
G1 X83.099 Y83.099 E3.19174
G1 X82.438 Y83.709 E3.22153
G1 X81.732 Y84.266 E3.25133
G1 X80.984 Y84.765 E3.28112
G1 X80.200 Y85.205 E3.31091
G1 X79.383 Y85.581 E3.34070
G1 X78.539 Y85.893 E3.37050
G1 X77.674 Y86.137 E3.40029
G1 X76.792 Y86.312 E3.43008
G1 X75.899 Y86.418 E3.45988
G1 X75.000 Y86.453 E3.48967
G1 X74.101 Y86.418 E3.51947
G1 X73.208 Y86.312 E3.54926
G1 X72.326 Y86.137 E3.57905
G1 X71.461 Y85.893 E3.60885
G1 X70.617 Y85.581 E3.63864
G1 X69.800 Y85.205 E3.66843
G1 X69.016 Y84.765 E3.69823
G1 X68.268 Y84.266 E3.72802
G1 X67.562 Y83.709 E3.75781
G1 X66.901 Y83.099 E3.78761
G1 X66.291 Y82.438 E3.81740
G1 X65.734 Y81.732 E3.84719
G1 X65.235 Y80.984 E3.87699
G1 X64.795 Y80.200 E3.90678
G1 X64.419 Y79.383 E3.93657
G1 X64.107 Y78.539 E3.96637
G1 X63.863 Y77.674 E3.99616
G1 X63.688 Y76.792 E4.02595
G1 X63.582 Y75.899 E4.05575
G1 X63.547 Y75.000 E4.08554
G1 X63.582 Y74.101 E4.11533
G1 X63.688 Y73.208 E4.14513
G1 X63.863 Y72.326 E4.17492
G1 X64.107 Y71.461 E4.20471
G1 X64.419 Y70.617 E4.23451
G1 X64.795 Y69.800 E4.26430
G1 X65.235 Y69.016 E4.29410
G1 X65.734 Y68.268 E4.32389
G1 X66.291 Y67.562 E4.35368
G1 X66.861 Y66.945 E4.38149
G1 X66.713 Y66.713 F7800.000
G1 F1800.000
G1 X67.389 Y66.089 E4.41197
G1 X68.112 Y65.519 E4.44246
G1 X68.877 Y65.008 E4.47294
G1 X69.680 Y64.558 E4.50343
G1 X70.515 Y64.173 E4.53391
G1 X71.379 Y63.855 E4.56440
G1 X72.264 Y63.605 E4.59488
G1 X73.167 Y63.425 E4.62537
G1 X74.081 Y63.317 E4.65585
G1 X75.000 Y63.281 E4.68634
G1 X75.919 Y63.317 E4.71682
G1 X76.833 Y63.425 E4.74731
G1 X77.736 Y63.605 E4.77779
G1 X78.621 Y63.855 E4.80828
G1 X79.485 Y64.173 E4.83876
G1 X80.320 Y64.558 E4.86925
G1 X81.123 Y65.008 E4.89973
G1 X81.888 Y65.519 E4.93022
G1 X82.611 Y66.089 E4.96070
G1 X83.287 Y66.713 E4.99119
G1 X83.911 Y67.389 E5.02167
G1 X84.481 Y68.112 E5.05216
G1 X84.992 Y68.877 E5.08264
G1 X85.442 Y69.680 E5.11313
G1 X85.827 Y70.515 E5.14361
G1 X86.145 Y71.379 E5.17410
G1 X86.395 Y72.264 E5.20458
G1 X86.575 Y73.167 E5.23507
G1 X86.683 Y74.081 E5.26555
G1 X86.719 Y75.000 E5.29604
G1 X86.683 Y75.919 E5.32652
G1 X86.575 Y76.833 E5.35701
G1 X86.395 Y77.736 E5.38749
G1 X86.145 Y78.621 E5.41798
G1 X85.827 Y79.485 E5.44846
G1 X85.442 Y80.320 E5.47895
G1 X84.992 Y81.123 E5.50943
G1 X84.481 Y81.888 E5.53992
G1 X83.911 Y82.611 E5.57040
G1 X83.287 Y83.287 E5.60089
G1 X82.611 Y83.911 E5.63137
G1 X81.888 Y84.481 E5.66186
G1 X81.123 Y84.992 E5.69234
G1 X80.320 Y85.442 E5.72282
G1 X79.485 Y85.827 E5.75331
G1 X78.621 Y86.145 E5.78379
G1 X77.736 Y86.395 E5.81428
G1 X76.833 Y86.575 E5.84476
G1 X75.919 Y86.683 E5.87525
G1 X75.000 Y86.719 E5.90573
G1 X74.081 Y86.683 E5.93622
G1 X73.167 Y86.575 E5.96671
G1 X72.264 Y86.395 E5.99719
G1 X71.379 Y86.145 E6.02767
G1 X70.515 Y85.827 E6.05816
G1 X69.680 Y85.442 E6.08864
G1 X68.877 Y84.992 E6.11913
G1 X68.112 Y84.481 E6.14961
G1 X67.389 Y83.911 E6.18010
G1 X66.713 Y83.287 E6.21058
G1 X66.089 Y82.611 E6.24107
G1 X65.519 Y81.888 E6.27155
G1 X65.008 Y81.123 E6.30204
G1 X64.558 Y80.320 E6.33252
G1 X64.173 Y79.485 E6.36301
G1 X63.855 Y78.621 E6.39349
G1 X63.605 Y77.736 E6.42398
G1 X63.425 Y76.833 E6.45446
G1 X63.317 Y75.919 E6.48495
G1 X63.281 Y75.000 E6.51543
G1 X63.317 Y74.081 E6.54592
G1 X63.425 Y73.167 E6.57640
G1 X63.605 Y72.264 E6.60689
G1 X63.855 Y71.379 E6.63737
G1 X64.173 Y70.515 E6.66786
G1 X64.558 Y69.680 E6.69834
G1 X65.008 Y68.877 E6.72883
G1 X65.519 Y68.112 E6.75931
G1 X66.089 Y67.389 E6.78980
G1 X66.673 Y66.757 E6.81830
G1 X66.525 Y66.525 F7800.000
G1 F1800.000
G1 X67.216 Y65.887 E6.84947
G1 X67.955 Y65.304 E6.88065
G1 X68.738 Y64.781 E6.91182
G1 X69.559 Y64.321 E6.94300
G1 X70.414 Y63.927 E6.97418
G1 X71.296 Y63.602 E7.00535
G1 X72.202 Y63.346 E7.03653
G1 X73.125 Y63.163 E7.06771
G1 X74.060 Y63.052 E7.09888
G1 X75.000 Y63.015 E7.13006
G1 X75.940 Y63.052 E7.16124
G1 X76.875 Y63.163 E7.19241
G1 X77.798 Y63.346 E7.22359
G1 X78.704 Y63.602 E7.25477
G1 X79.586 Y63.927 E7.28594
G1 X80.441 Y64.321 E7.31712
G1 X81.262 Y64.781 E7.34829
G1 X82.045 Y65.304 E7.37947
G1 X82.784 Y65.887 E7.41065
G1 X83.475 Y66.525 E7.44182
G1 X84.113 Y67.216 E7.47300
G1 X84.696 Y67.955 E7.50418
G1 X85.219 Y68.738 E7.53535
G1 X85.679 Y69.559 E7.56653
G1 X86.073 Y70.414 E7.59771
G1 X86.398 Y71.296 E7.62888
G1 X86.654 Y72.202 E7.66006
G1 X86.837 Y73.125 E7.69123
G1 X86.948 Y74.060 E7.72241
G1 X86.985 Y75.000 E7.75359
G1 X86.948 Y75.940 E7.78476
G1 X86.837 Y76.875 E7.81594
G1 X86.654 Y77.798 E7.84712
G1 X86.398 Y78.704 E7.87829
G1 X86.073 Y79.586 E7.90947
G1 X85.679 Y80.441 E7.94065
G1 X85.219 Y81.262 E7.97182
G1 X84.696 Y82.045 E8.00300
G1 X84.113 Y82.784 E8.03418
G1 X83.475 Y83.475 E8.06535
G1 X82.784 Y84.113 E8.09653
G1 X82.045 Y84.696 E8.12771
G1 X81.262 Y85.219 E8.15888
G1 X80.441 Y85.679 E8.19006
G1 X79.586 Y86.073 E8.22123
G1 X78.704 Y86.398 E8.25241
G1 X77.798 Y86.654 E8.28359
G1 X76.875 Y86.837 E8.31476
G1 X75.940 Y86.948 E8.34594
G1 X75.000 Y86.985 E8.37712
G1 X74.060 Y86.948 E8.40829
G1 X73.125 Y86.837 E8.43947
G1 X72.202 Y86.654 E8.47065
G1 X71.296 Y86.398 E8.50182
G1 X70.414 Y86.073 E8.53300
G1 X69.559 Y85.679 E8.56418
G1 X68.738 Y85.219 E8.59535
G1 X67.955 Y84.696 E8.62653
G1 X67.216 Y84.113 E8.65770
G1 X66.525 Y83.475 E8.68888
G1 X65.887 Y82.784 E8.72006
G1 X65.304 Y82.045 E8.75123
G1 X64.781 Y81.262 E8.78241
G1 X64.321 Y80.441 E8.81359
G1 X63.927 Y79.586 E8.84476
G1 X63.602 Y78.704 E8.87594
G1 X63.346 Y77.798 E8.90712
G1 X63.163 Y76.875 E8.93829
G1 X63.052 Y75.940 E8.96947
G1 X63.015 Y75.000 E9.00065
G1 X63.052 Y74.060 E9.03182
G1 X63.163 Y73.125 E9.06300
G1 X63.346 Y72.202 E9.09417
G1 X63.602 Y71.296 E9.12535
G1 X63.927 Y70.414 E9.15653
G1 X64.321 Y69.559 E9.18770
G1 X64.781 Y68.738 E9.21888
G1 X65.304 Y67.955 E9.25006
G1 X65.887 Y67.216 E9.28123
G1 X66.485 Y66.569 E9.31042
G1 X67.196 Y66.983 F7800.000
G1 F1800.000
G1 X66.390 Y67.838 E9.34946
G1 X65.846 Y68.528 E9.37864
G1 X65.479 Y69.076 E9.40058
G1 X69.077 Y65.479 E9.56960
G1 X69.258 Y65.358 E9.57685
G1 X69.977 Y64.955 E9.60423
G1 X64.955 Y69.977 E9.84019
G1 X64.624 Y70.685 E9.86614
G1 X70.685 Y64.624 E10.15088
G1 X71.302 Y64.384 E10.17288
G1 X64.384 Y71.302 E10.49789
G1 X64.194 Y71.868 E10.51774
G1 X71.868 Y64.194 E10.87828
G1 X72.393 Y64.046 E10.89639
G1 X64.046 Y72.393 E11.28854
G1 X63.942 Y72.873 E11.30487
G1 X72.873 Y63.942 E11.72446
G1 X73.343 Y63.849 E11.74039
G1 X63.849 Y73.343 E12.18648
G1 X63.798 Y73.772 E12.20080
G1 X73.772 Y63.798 E12.66942
G1 X74.199 Y63.747 E12.68371
G1 X63.747 Y74.199 E13.17478
G1 X63.729 Y74.593 E13.18789
G1 X74.593 Y63.729 E13.69831
G1 X74.985 Y63.714 E13.71135
G1 X63.714 Y74.985 E14.24091
G1 X63.719 Y75.357 E14.25325
G1 X75.357 Y63.719 E14.80002
G1 X75.719 Y63.733 E14.81207
G1 X63.733 Y75.719 E15.37520
G1 X63.755 Y76.074 E15.38702
G1 X76.074 Y63.755 E15.96584
G1 X76.411 Y63.795 E15.97711
G1 X63.795 Y76.411 E16.56988
G1 X63.835 Y76.748 E16.58115
G1 X76.748 Y63.835 E17.18787
G1 X77.069 Y63.890 E17.19870
G1 X63.890 Y77.069 E17.81792
G1 X63.952 Y77.384 E17.82856
G1 X77.384 Y63.952 E18.45960
G1 X77.698 Y64.015 E18.47024
G1 X64.015 Y77.698 E19.11311
G1 X64.097 Y77.993 E19.12328
G1 X77.993 Y64.097 E19.77616
G1 X78.287 Y64.180 E19.78630
G1 X64.180 Y78.287 E20.44910
G1 X64.264 Y78.579 E20.45921
G1 X78.579 Y64.264 E21.13179
G1 X78.854 Y64.365 E21.14154
G1 X64.365 Y78.854 E21.82228
G1 X64.467 Y79.129 E21.83203
G1 X79.129 Y64.467 E22.52093
G1 X79.403 Y64.570 E22.53065
G1 X64.570 Y79.403 E23.22759
G1 X64.688 Y79.661 E23.23703
G1 X79.661 Y64.688 E23.94050
G1 X79.919 Y64.807 E23.94993
G1 X64.807 Y79.919 E24.65993
G1 X64.926 Y80.177 E24.66937
G1 X80.177 Y64.926 E25.38590
G1 X80.419 Y65.061 E25.39510
G1 X65.061 Y80.419 E26.11665
G1 X65.196 Y80.660 E26.12585
G1 X72.093 Y73.764 E26.44986
G1 X72.168 Y73.603 E26.45576
G1 X72.378 Y73.273 E26.46875
G1 X72.627 Y72.972 E26.48174
G1 X72.912 Y72.704 E26.49473
G1 X73.228 Y72.474 E26.50772
G1 X73.570 Y72.286 E26.52067
G1 X80.660 Y65.196 E26.85380
G1 X80.902 Y65.331 E26.86299
G1 X74.145 Y72.088 E27.18043
G1 X74.313 Y72.045 E27.18619
G1 X74.601 Y72.008 E27.19584
G1 X81.130 Y65.479 E27.50260
G1 X81.356 Y65.630 E27.51162
G1 X74.991 Y71.996 E27.81070
G1 X75.337 Y72.027 E27.82223
G1 X81.582 Y65.781 E28.11567
G1 X81.799 Y65.941 E28.12462
G1 X75.651 Y72.089 E28.41348
G1 X75.942 Y72.175 E28.42354
G1 X82.010 Y66.107 E28.70865
G1 X82.221 Y66.273 E28.71756
G1 X76.212 Y72.282 E28.99988
G1 X76.456 Y72.414 E29.00911
G1 X82.427 Y66.443 E29.28964
G1 X82.623 Y66.624 E29.29850
G1 X76.685 Y72.561 E29.57746
G1 X76.901 Y72.722 E29.58640
G1 X82.818 Y66.805 E29.86442
G1 X83.014 Y66.986 E29.87327
G1 X77.095 Y72.905 E30.15136
G1 X77.274 Y73.102 E30.16022
G1 X83.195 Y67.182 E30.43839
G1 X83.376 Y67.378 E30.44724
G1 X77.441 Y73.313 E30.72610
G1 X77.587 Y73.543 E30.73516
G1 X83.557 Y67.573 E31.01564
G1 X83.610 Y67.631 E31.01826
G1 X83.727 Y67.780 E31.02454
G1 X77.714 Y73.792 E31.30705
G1 X77.825 Y74.059 E31.31663
G1 X83.893 Y67.990 E31.60175
G1 X84.059 Y68.201 E31.61066
G1 X77.916 Y74.345 E31.89932
G1 X77.976 Y74.661 E31.91002
G1 X84.219 Y68.418 E32.20334
G1 X84.370 Y68.644 E32.21236
G1 X78.005 Y75.009 E32.51143
G1 X77.992 Y75.398 E32.52437
G1 X84.521 Y68.870 E32.83112
G1 X84.669 Y69.098 E32.84017
G1 X77.918 Y75.849 E33.15733
G1 X77.792 Y76.250 E33.17129
G1 X77.701 Y76.443 E33.17839
G1 X84.804 Y69.340 E33.51211
G1 X84.939 Y69.581 E33.52131
G1 X69.581 Y84.939 E34.24286
G1 X69.823 Y85.074 E34.25206
G1 X85.074 Y69.823 E34.96859
G1 X85.193 Y70.081 E34.97802
G1 X70.081 Y85.193 E35.68802
G1 X70.339 Y85.312 E35.69746
G1 X85.312 Y70.339 E36.40093
G1 X85.430 Y70.597 E36.41036
G1 X70.597 Y85.430 E37.10730
G1 X70.871 Y85.533 E37.11702
G1 X85.533 Y70.871 E37.80592
