; generated by Slic3r 1.3.1-dev (Build 2ef957d) on 2019-11-25 at 09:20:05

; external perimeters extrusion width = 0.55mm (4.37mm^3/s)
; perimeters extrusion width = 0.70mm (11.44mm^3/s)
; infill extrusion width = 0.62mm (13.45mm^3/s)
; solid infill extrusion width = 0.70mm (3.81mm^3/s)
; top infill extrusion width = 0.70mm (2.86mm^3/s)

M107
G92 E0
M104 S200 ; set temperature
G28 ; home all axes
G1 Z5 F5000 ; lift nozzle

; Filament gcode

M109 S200 ; set temperature and wait for it to be reached
G21 ; set units to millimeters
G90 ; use absolute coordinates
M82 ; use absolute distances for extrusion
G92 E0
G1 Z0.350 F7800.000
G1 E-2.00000 F2400.00000
G92 E0
G1 X95.104 Y88.084 F7800.000
G1 E2.00000 F2400.00000
G1 F1435.401
G1 X97.752 Y86.170 E2.10110
G1 X99.813 Y85.355 E2.16968
G1 X102.060 Y84.894 E2.24064
G1 X104.329 Y85.226 E2.31160
G1 X106.349 Y86.312 E2.38256
G1 X107.878 Y88.022 E2.45353
G1 X108.732 Y90.150 E2.52449
G1 X108.875 Y91.516 E2.56698
G1 X108.875 Y108.484 E3.09198
G1 X108.478 Y110.743 E3.16295
G1 X107.334 Y112.731 E3.23391
G1 X105.581 Y114.210 E3.30487
G1 X103.429 Y115.003 E3.37583
G1 X101.136 Y115.014 E3.44680
G1 X99.813 Y114.645 E3.48929
G1 X97.752 Y113.830 E3.55787
G1 X95.798 Y112.630 E3.62883
G1 X94.369 Y110.835 E3.69979
G1 X93.564 Y107.669 E3.80089
G1 X93.564 Y92.331 E4.27546
G1 X93.961 Y90.072 E4.34642
G1 X95.067 Y88.149 E4.41506
G1 E2.41506 F2400.00000
G92 E0
G1 X101.900 Y107.969 F7800.000
G1 E2.00000 F2400.00000
G1 F1800.000
G1 X100.539 Y107.431 E2.04529
G1 X100.539 Y92.569 E2.50513
G1 X101.900 Y92.031 E2.55042
G1 X101.900 Y107.894 E3.04124
G1 X101.532 Y107.630 F7800.000
G1 X101.219 Y107.364 F7800.000
G1 F1435.401
G1 X101.219 Y92.636 E3.52334
G1 Z0.650 F7800.000
G1 X101.564 Y106.878 F7800.000
G1 F648.646
G1 X100.490 Y106.453 E3.55450
G1 X100.490 Y93.547 E3.90267
G1 X101.564 Y93.122 E3.93383
G1 X101.564 Y106.803 E4.30289
G1 X102.200 Y107.813 F7800.000
G1 F2594.585
G1 X99.939 Y106.919 E4.36850

G1 F3600.000
G1 X99.855 Y106.885 E4.37100
G1 X99.855 Y93.115 E4.75352
G1 X99.939 Y93.081 E4.75602

G1 F2594.585
G1 X102.200 Y92.187 E4.82163
G1 X102.200 Y107.738 E5.24113
G1 X102.761 Y108.637 F7800.000

G1 F3600.000
G1 X102.500 Y108.534 E5.24893

G1 F1800.000
G1 X99.939 Y107.521 E5.30569

G1 F3600.000
G1 X99.294 Y107.267 E5.32494
G1 X99.294 Y92.733 E5.72864
G1 X99.939 Y92.479 E5.74788

G1 F1800.000
G1 X102.500 Y91.466 E5.80465

G1 F3600.000
G1 X102.761 Y91.363 E5.81244
G1 X102.761 Y108.562 E6.29022

G1 E4.29022 F2400.00000
G92 E0
G1 X101.027 Y106.324 F7800.000
G1 E2.00000 F2400.00000
G1 F864.862
G1 X101.027 Y93.676 E2.20076
G1 Z0.950 F7800.000
G1 X102.024 Y107.288 F7800.000
G1 F900.000
G1 X99.999 Y106.487 E2.25951
G1 X99.999 Y93.513 E2.60951
G1 X102.024 Y92.712 E2.66826
G1 X102.024 Y107.213 E3.05944
G1 X102.660 Y108.223 F7800.000
G1 F900.000
G1 X99.363 Y106.919 E3.15507
G1 X99.363 Y93.081 E3.52839
G1 X102.660 Y91.777 E3.62402
G1 X102.660 Y108.148 E4.06564
G1 X103.221 Y109.047 F7800.000
G1 F1800.000
G1 X98.803 Y107.300 E4.16355
G1 X98.803 Y92.700 E4.46448
G1 X103.221 Y90.953 E4.56239
G1 X103.221 Y108.972 E4.93378
G1 X102.834 Y108.730 F7800.000
G1 E2.93378 F2400.00000
G92 E0
G1 X101.141 Y106.600 F7800.000
G1 E2.00000 F2400.00000
G1 F1200.000
G1 X101.636 Y106.106 E2.01973
G1 X101.636 Y105.166 E2.04626
G1 X100.468 Y106.334 E2.09287
G1 X100.387 Y106.302 E2.09530
G1 X100.387 Y105.474 E2.11867
G1 X101.636 Y104.226 E2.16848
G1 X101.636 Y103.285 E2.19501
G1 X100.387 Y104.534 E2.24482
G1 X100.387 Y103.594 E2.27135
G1 X101.636 Y102.345 E2.32116
G1 X101.636 Y101.405 E2.34768
G1 X100.387 Y102.654 E2.39750
G1 X100.387 Y101.713 E2.42402
G1 X101.636 Y100.465 E2.47384
G1 X101.636 Y99.525 E2.50036
G1 X100.387 Y100.773 E2.55018
G1 X100.387 Y99.833 E2.57670
G1 X101.636 Y98.585 E2.62652
G1 X101.636 Y97.645 E2.65304
G1 X100.387 Y98.893 E2.70285
G1 X100.387 Y97.953 E2.72938
G1 X101.636 Y96.704 E2.77919
G1 X101.636 Y95.764 E2.80572
G1 X100.387 Y97.013 E2.85553
G1 X100.387 Y96.073 E2.88206
G1 X101.636 Y94.824 E2.93187
G1 X101.636 Y93.884 E2.95840
G1 X100.387 Y95.133 E3.00821
G1 X100.387 Y94.192 E3.03473
G1 X100.882 Y93.698 E3.05447
M106 S239.7
G1 Z1.250 F7800.000
G1 X102.425 Y107.675 F7800.000
G1 F900.000
G1 X99.508 Y106.521 E3.13911
G1 X99.508 Y93.479 E3.49093
G1 X102.426 Y92.325 E3.57560
G1 X102.425 Y107.600 E3.98766
G1 X103.061 Y108.609 F7800.000
G1 F900.000
G1 X98.872 Y106.953 E4.10917
G1 X98.872 Y93.047 E4.48431
G1 X103.062 Y91.390 E4.60585
G1 X103.061 Y108.534 E5.06835
G1 X103.621 Y109.434 F7800.000
G1 F1800.000
G1 X98.311 Y107.334 E5.18604
G1 X98.311 Y92.666 E5.48836
G1 X103.623 Y90.565 E5.60607
G1 X103.621 Y109.359 E5.99341
G1 X103.230 Y109.123 F7800.000
G1 E3.99341 F2400.00000
G92 E0
G1 X99.896 Y105.841 F7800.000
G1 E2.00000 F2400.00000
G1 F1200.000
G1 X100.391 Y106.336 E2.01899
G1 X101.887 Y106.928 E2.06269
G1 X99.896 Y104.937 E2.13915
G1 X99.896 Y104.032 E2.16371
G1 X102.037 Y106.173 E2.24592
G1 X102.037 Y105.268 E2.27049
G1 X99.896 Y103.127 E2.35270
G1 X99.896 Y102.222 E2.37726
G1 X102.037 Y104.363 E2.45947
G1 X102.037 Y103.459 E2.48404
G1 X99.896 Y101.318 E2.56625
G1 X99.896 Y100.413 E2.59082
G1 X102.037 Y102.554 E2.67303
G1 X102.037 Y101.649 E2.69760
G1 X99.896 Y99.508 E2.77982
G1 X99.896 Y98.603 E2.80438
G1 X102.037 Y100.745 E2.88661
G1 X102.037 Y99.840 E2.91117
G1 X99.896 Y97.699 E2.99339
G1 X99.896 Y96.794 E3.01796
G1 X102.037 Y98.935 E3.10019
G1 X102.038 Y98.031 E3.12475
G1 X99.896 Y95.889 E3.20698
G1 X99.896 Y94.984 E3.23155
G1 X102.038 Y97.126 E3.31378
G1 X102.038 Y96.221 E3.33834
G1 X99.896 Y94.080 E3.42058
G1 X99.896 Y93.664 E3.43186
G1 X100.247 Y93.525 E3.44209
G1 X102.038 Y95.317 E3.51087
G1 X102.038 Y94.412 E3.53543
G1 X100.895 Y93.269 E3.57932
G1 X101.543 Y93.013 E3.59825
G1 X102.038 Y93.507 E3.61724
M106 S242.25
G1 Z1.550 F7800.000
G1 X102.575 Y107.962 F7800.000
G1 F900.000
G1 X99.030 Y106.560 E3.72008
G1 X99.030 Y93.440 E4.07401
G1 X102.582 Y92.035 E4.17706
G1 X102.575 Y107.887 E4.60468
G1 X103.210 Y108.897 F7800.000
G1 F3600.000
G1 X98.394 Y106.992 E4.74439
G1 X98.394 Y93.008 E5.12164
G1 X103.218 Y91.100 E5.26158
G1 X103.210 Y108.822 E5.73964
G1 X103.770 Y109.721 F7800.000
G1 F1800.000
G1 X97.833 Y107.373 E5.87122
G1 X97.833 Y92.627 E6.17515
G1 X103.774 Y90.277 E6.30682
G1 X103.770 Y109.646 E6.70602
G1 X103.413 Y109.371 F7800.000
G1 X101.692 Y107.274 F7800.000
G1 F1200.000
G1 X102.187 Y106.780 E6.72506
G1 X102.187 Y105.872 E6.74980
G1 X101.042 Y107.017 E6.79391
G1 X100.392 Y106.760 E6.81296
G1 X102.188 Y104.964 E6.88215
G1 X102.188 Y104.056 E6.90688
G1 X99.741 Y106.503 E7.00113
G1 X99.418 Y106.375 E7.01060
G1 X99.418 Y105.918 E7.02304
G1 X102.188 Y103.148 E7.12975
G1 X102.189 Y102.240 E7.15449
G1 X99.418 Y105.011 E7.26122
G1 X99.418 Y104.103 E7.28594
G1 X102.189 Y101.332 E7.39268
G1 X102.190 Y100.424 E7.41741
G1 X99.418 Y103.196 E7.52418
G1 X99.418 Y102.288 E7.54890
G1 X102.190 Y99.516 E7.65567
G1 X102.190 Y98.608 E7.68041
G1 X99.418 Y101.380 E7.78720
G1 X99.418 Y100.473 E7.81192
G1 X102.191 Y97.700 E7.91873
G1 X102.191 Y96.792 E7.94346
G1 X99.418 Y99.565 E8.05028
G1 X99.418 Y98.658 E8.07500
G1 X102.192 Y95.884 E8.18184
G1 X102.192 Y94.976 E8.20657
G1 X99.418 Y97.750 E8.31343
G1 X99.418 Y96.842 E8.33815
G1 X102.192 Y94.068 E8.44502
G1 X102.193 Y93.160 E8.46975
G1 X99.418 Y95.935 E8.57664
G1 X99.418 Y95.027 E8.60136
G1 X101.414 Y93.031 E8.67824
G1 X99.913 Y93.625 E8.72221
G1 X99.418 Y94.119 E8.74125
M106 S239.7
G1 Z1.850 F7800.000
G1 X102.737 Y108.254 F7800.000
G1 F900.000
G1 X98.782 Y106.690 E8.85598
G1 X98.782 Y93.310 E9.21693
G1 X102.737 Y91.746 E9.33165
G1 X102.737 Y108.179 E9.77496
G1 X103.372 Y109.189 F7800.000
G1 F3600.000
G1 X98.146 Y107.122 E9.92656
G1 X98.146 Y92.878 E10.31083
G1 X103.372 Y90.811 E10.46243
G1 X103.372 Y109.114 E10.95617
G1 X103.923 Y110.010 F7800.000
G1 F1800.000
G1 X97.586 Y107.503 E11.09664
G1 X97.586 Y92.497 E11.40593
G1 X103.923 Y89.990 E11.54640
G1 X103.924 Y109.935 E11.95745
G1 X103.566 Y109.660 F7800.000
G1 X99.170 Y106.011 F7800.000
G1 F1200.000
G1 X99.665 Y106.505 E11.97642
G1 X101.159 Y107.096 E12.01998
G1 X99.170 Y105.107 E12.09623
G1 X99.170 Y104.204 E12.12072
G1 X102.348 Y107.382 E12.24256
G1 X102.348 Y106.479 E12.26705
G1 X99.170 Y103.301 E12.38889
G1 X99.170 Y102.397 E12.41338
G1 X102.348 Y105.575 E12.53522
G1 X102.348 Y104.672 E12.55971
G1 X99.170 Y101.494 E12.68155
G1 X99.170 Y100.591 E12.70604
G1 X102.348 Y103.768 E12.82788
G1 X102.348 Y102.865 E12.85237
G1 X99.170 Y99.687 E12.97421
G1 X99.170 Y98.784 E12.99870
G1 X102.348 Y101.962 E13.12054
G1 X102.348 Y101.058 E13.14503
G1 X99.170 Y97.880 E13.26687
G1 X99.170 Y96.977 E13.29136
G1 X102.348 Y100.155 E13.41320
G1 X102.348 Y99.252 E13.43769
G1 X99.170 Y96.074 E13.55953
G1 X99.170 Y95.170 E13.58402
G1 X102.348 Y98.348 E13.70586
G1 X102.348 Y97.445 E13.73035
G1 X99.170 Y94.267 E13.85219
G1 X99.170 Y93.495 E13.87313
G1 X99.264 Y93.458 E13.87587
G1 X102.348 Y96.542 E13.99410
G1 X102.348 Y95.638 E14.01859
G1 X99.912 Y93.202 E14.11201
G1 X100.559 Y92.946 E14.13088
G1 X102.348 Y94.735 E14.19948
G1 X102.348 Y93.832 E14.22397
G1 X101.206 Y92.690 E14.26775
G1 X101.854 Y92.434 E14.28662
G1 X102.348 Y92.928 E14.30558
G1 Z2.150 F7800.000
G1 X102.885 Y108.541 F7800.000
G1 F900.000
G1 X98.534 Y106.820 E14.43181
G1 X98.534 Y93.180 E14.79979
G1 X102.885 Y91.459 E14.92602
G1 X102.885 Y108.466 E15.38480
G1 X103.521 Y109.476 F7800.000
G1 F3600.000
G1 X97.898 Y107.252 E15.54791
G1 X97.898 Y92.748 E15.93920
G1 X103.521 Y90.524 E16.10231
G1 X103.521 Y109.401 E16.61153
G1 X104.072 Y110.297 F7800.000
G1 F1800.000
G1 X97.338 Y107.634 E16.76079
G1 X97.338 Y92.366 E17.07545
G1 X104.072 Y89.703 E17.22470
G1 X104.073 Y110.222 E17.64759
G1 X103.715 Y109.947 F7800.000
G1 X102.002 Y107.853 F7800.000
G1 F1200.000
G1 X102.497 Y107.359 E17.66749
G1 X102.497 Y106.410 E17.69450
G1 X101.323 Y107.584 E17.74177
G1 X100.643 Y107.316 E17.76258
G1 X102.497 Y105.462 E17.83722
G1 X102.497 Y104.513 E17.86422
G1 X99.963 Y107.047 E17.96623
G1 X99.283 Y106.778 E17.98703
G1 X102.497 Y103.565 E18.11641
G1 X102.497 Y102.616 E18.14341
G1 X98.922 Y106.191 E18.28731
G1 X98.922 Y105.242 E18.31431
G1 X102.497 Y101.667 E18.45822
G1 X102.497 Y100.719 E18.48522
G1 X98.922 Y104.293 E18.62913
G1 X98.922 Y103.345 E18.65613
G1 X102.497 Y99.770 E18.80003
G1 X102.497 Y98.822 E18.82704
G1 X98.922 Y102.396 E18.97094
G1 X98.922 Y101.448 E18.99794
G1 X102.497 Y97.873 E19.14185
G1 X102.497 Y96.925 E19.16885
G1 X98.922 Y100.499 E19.31276
G1 X98.922 Y99.551 E19.33976
G1 X102.497 Y95.976 E19.48366
G1 X102.497 Y95.027 E19.51066
G1 X98.922 Y98.602 E19.65457
G1 X98.922 Y97.653 E19.68157
G1 X102.497 Y94.079 E19.82548
G1 X102.497 Y93.130 E19.85248
G1 X98.922 Y96.705 E19.99638
G1 X98.922 Y95.756 E20.02339
G1 X102.497 Y92.182 E20.16729
G1 X102.497 Y92.147 E20.16829
G1 X100.986 Y92.744 E20.21454
G1 X98.922 Y94.808 E20.29762
G1 X98.922 Y93.859 E20.32462
G1 X99.417 Y93.365 E20.34454
M106 S242.25
G1 Z2.450 F7800.000
G1 X103.034 Y108.828 F7800.000
G1 F3600.000
G1 X98.286 Y106.950 E20.48227
G1 X98.286 Y93.050 E20.85727
G1 X103.034 Y91.172 E20.99500
G1 X103.034 Y108.753 E21.46927
G1 X103.670 Y109.763 F7800.000
G1 F3600.000
G1 X97.651 Y107.383 E21.64388
G1 X97.651 Y92.617 E22.04220
G1 X103.670 Y90.237 E22.21681
G1 X103.670 Y109.688 E22.74152
G1 X104.221 Y110.584 F7800.000
G1 F1800.000
G1 X97.090 Y107.764 E22.89956
G1 X97.090 Y92.236 E23.21959
G1 X104.221 Y89.416 E23.37763
G1 X104.222 Y110.509 E23.81234
G1 X103.863 Y110.234 F7800.000
G1 X99.169 Y106.765 F7800.000
G1 F1200.000
G1 X98.675 Y106.271 E23.83210
G1 X98.675 Y105.329 E23.85870
G1 X100.726 Y107.381 E23.94069
G1 X102.284 Y107.997 E23.98800
G1 X98.675 Y104.388 E24.13221
G1 X98.675 Y103.447 E24.15881
G1 X102.646 Y107.418 E24.31749
G1 X102.646 Y106.476 E24.34409
G1 X98.675 Y102.505 E24.50276
G1 X98.675 Y101.564 E24.52936
G1 X102.646 Y105.535 E24.68804
G1 X102.646 Y104.593 E24.71464
G1 X98.675 Y100.622 E24.87331
G1 X98.675 Y99.681 E24.89991
G1 X102.646 Y103.652 E25.05859
G1 X102.646 Y102.710 E25.08519
G1 X98.675 Y98.739 E25.24386
G1 X98.675 Y97.798 E25.27046
G1 X102.646 Y101.769 E25.42914
G1 X102.646 Y100.827 E25.45574
G1 X98.675 Y96.856 E25.61442
G1 X98.675 Y95.915 E25.64102
G1 X102.646 Y99.886 E25.79969
G1 X102.646 Y98.944 E25.82629
G1 X98.675 Y94.973 E25.98497
G1 X98.675 Y94.032 E26.01157
G1 X102.646 Y98.003 E26.17024
G1 X102.646 Y97.062 E26.19684
G1 X98.778 Y93.194 E26.35139
G1 X99.453 Y92.927 E26.37189
G1 X102.646 Y96.120 E26.49948
G1 X102.646 Y95.179 E26.52608
G1 X100.127 Y92.660 E26.62671
G1 X100.802 Y92.393 E26.64721
G1 X102.646 Y94.237 E26.72089
G1 X102.646 Y93.296 E26.74749
G1 X101.477 Y92.127 E26.79420
G1 X102.151 Y91.860 E26.81470
G1 X102.646 Y92.354 E26.83446
M106 S239.7
G1 Z2.750 F7800.000
G1 X103.183 Y109.115 F7800.000
G1 F3600.000
G1 X98.038 Y107.081 E26.98370
G1 X98.038 Y92.919 E27.36572
G1 X103.183 Y90.885 E27.51496
G1 X103.183 Y109.040 E28.00471
G1 X103.819 Y110.050 F7800.000
G1 F3600.000
G1 X97.403 Y107.513 E28.19083
G1 X97.403 Y92.487 E28.59617
G1 X103.819 Y89.950 E28.78228
G1 X103.819 Y109.975 E29.32248
G1 X104.334 Y110.856 F7800.000
G1 F1800.000
G1 X96.842 Y107.894 E29.48852
G1 X96.842 Y92.106 E29.81391
G1 X104.337 Y89.142 E29.98003
G1 X104.372 Y89.393 E29.98524
G1 X104.379 Y90.040 E29.99858
G1 X104.379 Y109.960 E30.40915
G1 X104.372 Y110.606 E30.42245
G1 X104.345 Y110.782 E30.42613
G1 X103.982 Y110.501 F7800.000
G1 X102.300 Y108.427 F7800.000
G1 F1200.000
G1 X102.795 Y107.933 E30.44576
G1 X102.795 Y106.998 E30.47200
G1 X101.630 Y108.162 E30.51822
G1 X100.960 Y107.897 E30.53844
G1 X102.795 Y106.063 E30.61125
G1 X102.795 Y105.127 E30.63749
G1 X100.290 Y107.632 E30.73690
G1 X99.620 Y107.367 E30.75712
G1 X102.795 Y104.192 E30.88312
G1 X102.795 Y103.257 E30.90936
G1 X98.950 Y107.102 E31.06195
G1 X98.427 Y106.896 E31.07773
G1 X98.427 Y106.690 E31.08350
G1 X102.795 Y102.322 E31.25684
G1 X102.795 Y101.387 E31.28308
G1 X98.427 Y105.755 E31.45642
G1 X98.427 Y104.820 E31.48266
G1 X102.795 Y100.452 E31.65600
G1 X102.795 Y99.517 E31.68224
G1 X98.427 Y103.885 E31.85558
G1 X98.427 Y102.950 E31.88182
G1 X102.795 Y98.582 E32.05516
G1 X102.795 Y97.647 E32.08140
G1 X98.427 Y102.015 E32.25474
G1 X98.427 Y101.080 E32.28098
G1 X102.795 Y96.712 E32.45432
G1 X102.795 Y95.777 E32.48056
G1 X98.427 Y100.144 E32.65390
G1 X98.427 Y99.209 E32.68014
G1 X102.795 Y94.842 E32.85348
G1 X102.795 Y93.907 E32.87972
G1 X98.427 Y98.274 E33.05306
G1 X98.427 Y97.339 E33.07930
G1 X102.795 Y92.971 E33.25264
G1 X102.795 Y92.036 E33.27888
G1 X98.427 Y96.404 E33.45222
G1 X98.427 Y95.469 E33.47846
G1 X102.015 Y91.881 E33.62085
G1 X100.468 Y92.493 E33.66752
G1 X98.427 Y94.534 E33.74853
G1 X98.427 Y93.599 E33.77477
G1 X98.921 Y93.104 E33.79441
M106 S255
G1 Z3.050 F7800.000
G1 X103.330 Y109.401 F7800.000
G1 F2560.543
G1 X97.867 Y107.241 E33.95288
G1 X97.867 Y92.759 E34.34356
G1 X103.330 Y90.599 E34.50203
G1 X103.330 Y109.326 E35.00723
G1 X103.966 Y110.336 F7800.000
G1 F2560.543
G1 X97.232 Y107.673 E35.20258
G1 X97.232 Y92.327 E35.61658
G1 X103.966 Y89.664 E35.81193
G1 X103.966 Y110.261 E36.36757
G1 X104.403 Y111.112 F7800.000
G1 F1800.000
G1 X96.671 Y108.054 E36.53894
G1 X96.671 Y91.946 E36.87095
G1 X104.403 Y88.888 E37.04232
G1 X104.526 Y89.773 E37.06074
G1 X104.526 Y110.227 E37.48229
G1 X104.414 Y111.038 E37.49916
G1 X104.047 Y110.762 F7800.000
G1 X103.050 Y103.536 F7800.000
G1 F3414.058
G1 X98.148 Y104.849 E37.61992
G1 X98.380 Y106.045 F7800.000
G1 F3414.058
G1 X102.315 Y91.359 E37.98167
G1 X103.050 Y94.830 F7800.000
G1 F3414.058
G1 X98.148 Y96.143 E38.10243
G1 X102.499 Y102.499 F7800.000
G1 F3414.058
G1 X102.499 Y91.246 E38.37019
G1 X98.233 Y92.933 E38.47935
G1 X98.233 Y98.233 E38.60546
G1 X102.965 Y102.965 E38.76468
M106 S252.45
G1 Z3.350 F7800.000
G1 X103.410 Y109.661 F7800.000
G1 F3600.000
G1 X102.594 Y109.338 E38.78834
G1 X102.157 Y108.892 E38.80520
G1 X101.281 Y108.469 E38.83145
G1 X100.323 Y108.380 E38.85740
G1 X100.226 Y108.402 E38.86006
G1 X97.775 Y107.433 E38.93118
G1 X97.775 Y92.567 E39.33219
G1 X100.226 Y91.598 E39.40331
G1 X100.323 Y91.620 E39.40597
G1 X101.281 Y91.531 E39.43193
G1 X102.157 Y91.108 E39.45817
