; generated by Slic3r 1.3.1-dev (Build 2ef957d) on 2019-11-25 at 09:21:28

; external perimeters extrusion width = 0.55mm (4.37mm^3/s)
; perimeters extrusion width = 0.70mm (11.44mm^3/s)
; infill extrusion width = 0.62mm (13.45mm^3/s)
; solid infill extrusion width = 0.70mm (3.81mm^3/s)
; top infill extrusion width = 0.70mm (2.86mm^3/s)

M107
G92 E0
M104 S200 ; set temperature
G28 ; home all axes
G1 Z5 F5000 ; lift nozzle

; Filament gcode

M109 S200 ; set temperature and wait for it to be reached
G21 ; set units to millimeters
G90 ; use absolute coordinates
M82 ; use absolute distances for extrusion
G92 E0
G1 Z0.350 F7800.000
G1 E-2.00000 F2400.00000
G92 E0
G1 X82.415 Y85.753 F7800.000
G1 E2.00000 F2400.00000
G1 F1800.000
G1 X84.168 Y84.274 E2.07096
G1 X86.320 Y83.481 E2.14192
G1 X87.500 Y83.375 E2.17858
G1 X112.500 Y83.375 E2.95211
G1 X114.759 Y83.772 E3.02307
G1 X116.747 Y84.915 E3.09403
G1 X118.226 Y86.668 E3.16500
G1 X119.019 Y88.820 E3.23596
G1 X119.125 Y90.000 E3.27261
G1 X119.125 Y110.000 E3.89144
G1 X118.728 Y112.259 E3.96240
G1 X117.585 Y114.247 E4.03336
G1 X115.832 Y115.726 E4.10432
G1 X113.680 Y116.519 E4.17528
G1 X112.500 Y116.625 E4.21194
G1 X87.500 Y116.625 E4.98547
G1 X85.241 Y116.228 E5.05643
G1 X83.253 Y115.085 E5.12739
G1 X81.774 Y113.332 E5.19836
G1 X80.981 Y111.180 E5.26932
G1 X80.875 Y110.000 E5.30597
G1 X80.875 Y90.000 E5.92479
G1 X81.272 Y87.741 E5.99576
G1 X82.378 Y85.818 E6.06440
G1 E4.06440 F2400.00000
G92 E0
G1 X99.633 Y104.590 F7800.000
G1 E2.00000 F2400.00000
G1 F1800.000
G1 X99.130 Y104.997 E2.02000
G1 X98.588 Y105.349 E2.04001
G1 X98.012 Y105.642 E2.06001
G1 X97.409 Y105.874 E2.08001
G1 X96.784 Y106.041 E2.10001
G1 X96.146 Y106.142 E2.12002
G1 X95.500 Y106.176 E2.14002
G1 X94.854 Y106.142 E2.16002
G1 X94.216 Y106.041 E2.18003
G1 X93.591 Y105.874 E2.20003
G1 X92.988 Y105.642 E2.22003
G1 X92.412 Y105.349 E2.24003
G1 X91.870 Y104.997 E2.26004
G1 X91.367 Y104.590 E2.28004
G1 X90.910 Y104.133 E2.30004
G1 X90.503 Y103.630 E2.32005
G1 X90.151 Y103.088 E2.34005
G1 X89.858 Y102.512 E2.36005
G1 X89.626 Y101.909 E2.38005
G1 X89.459 Y101.284 E2.40006
G1 X89.358 Y100.646 E2.42006
G1 X89.324 Y100.000 E2.44006
G1 X89.358 Y99.354 E2.46007
G1 X89.459 Y98.716 E2.48007
G1 X89.626 Y98.091 E2.50007
G1 X89.858 Y97.488 E2.52007
G1 X90.151 Y96.912 E2.54008
G1 X90.503 Y96.370 E2.56008
G1 X90.910 Y95.867 E2.58008
G1 X91.367 Y95.410 E2.60009
G1 X91.870 Y95.003 E2.62009
G1 X92.412 Y94.651 E2.64009
G1 X92.988 Y94.358 E2.66009
G1 X93.591 Y94.126 E2.68010
G1 X94.216 Y93.959 E2.70010
G1 X94.854 Y93.858 E2.72010
G1 X95.500 Y93.824 E2.74011
G1 X96.146 Y93.858 E2.76011
G1 X96.784 Y93.959 E2.78011
G1 X97.409 Y94.126 E2.80011
G1 X98.012 Y94.358 E2.82012
G1 X98.588 Y94.651 E2.84012
G1 X99.130 Y95.003 E2.86012
G1 X99.633 Y95.410 E2.88013
G1 X100.090 Y95.867 E2.90013
G1 X100.497 Y96.370 E2.92013
G1 X100.849 Y96.912 E2.94013
G1 X101.142 Y97.488 E2.96014
G1 X101.374 Y98.091 E2.98014
G1 X101.541 Y98.716 E3.00014
G1 X101.642 Y99.354 E3.02015
G1 X101.676 Y100.000 E3.04015
G1 X101.642 Y100.646 E3.06015
G1 X101.541 Y101.284 E3.08015
G1 X101.374 Y101.909 E3.10016
G1 X101.142 Y102.512 E3.12016
G1 X100.849 Y103.088 E3.14016
G1 X100.497 Y103.630 E3.16017
G1 X100.090 Y104.133 E3.18017
G1 X99.686 Y104.537 E3.19785
G1 X99.214 Y104.125 F7800.000
G1 F1800.000
G1 X98.762 Y104.490 E3.21583
G1 X98.275 Y104.807 E3.23380
G1 X97.758 Y105.071 E3.25178
G1 X97.215 Y105.279 E3.26976
G1 X96.654 Y105.429 E3.28773
G1 X96.080 Y105.520 E3.30571
G1 X95.500 Y105.550 E3.32368
G1 X94.920 Y105.520 E3.34166
G1 X94.346 Y105.429 E3.35964
G1 X93.785 Y105.279 E3.37761
G1 X93.242 Y105.071 E3.39559
G1 X92.725 Y104.807 E3.41357
G1 X92.238 Y104.490 E3.43154
G1 X91.786 Y104.125 E3.44952
G1 X91.375 Y103.714 E3.46749
G1 X91.010 Y103.262 E3.48547
G1 X90.693 Y102.775 E3.50345
G1 X90.429 Y102.258 E3.52142
G1 X90.221 Y101.715 E3.53940
G1 X90.071 Y101.154 E3.55738
G1 X89.980 Y100.580 E3.57535
G1 X89.950 Y100.000 E3.59333
G1 X89.980 Y99.420 E3.61131
G1 X90.071 Y98.846 E3.62928
G1 X90.221 Y98.285 E3.64726
G1 X90.429 Y97.742 E3.66523
G1 X90.693 Y97.225 E3.68321
G1 X91.010 Y96.738 E3.70119
G1 X91.375 Y96.286 E3.71916
G1 X91.786 Y95.875 E3.73714
G1 X92.238 Y95.510 E3.75512
G1 X92.725 Y95.193 E3.77309
G1 X93.242 Y94.929 E3.79107
G1 X93.785 Y94.721 E3.80904
G1 X94.346 Y94.571 E3.82702
G1 X94.920 Y94.480 E3.84500
G1 X95.500 Y94.450 E3.86297
G1 X96.080 Y94.480 E3.88095
G1 X96.654 Y94.571 E3.89893
G1 X97.215 Y94.721 E3.91690
G1 X97.758 Y94.929 E3.93488
G1 X98.275 Y95.193 E3.95285
G1 X98.762 Y95.510 E3.97083
G1 X99.214 Y95.875 E3.98881
G1 X99.625 Y96.286 E4.00678
G1 X99.990 Y96.738 E4.02476
G1 X100.307 Y97.225 E4.04274
G1 X100.571 Y97.742 E4.06071
G1 X100.779 Y98.285 E4.07869
G1 X100.929 Y98.846 E4.09666
G1 X101.020 Y99.420 E4.11464
G1 X101.050 Y100.000 E4.13262
G1 X101.020 Y100.580 E4.15059
G1 X100.929 Y101.154 E4.16857
G1 X100.779 Y101.715 E4.18655
G1 X100.571 Y102.258 E4.20452
G1 X100.307 Y102.775 E4.22250
G1 X99.990 Y103.262 E4.24047
G1 X99.625 Y103.714 E4.25845
G1 X99.267 Y104.072 E4.27411
G1 X99.214 Y104.125 F7800.000
G1 E2.27411 F2400.00000
G92 E0
G1 X89.387 Y102.965 F7800.000
G1 E2.00000 F2400.00000
G1 F1800.000
G1 X89.609 Y103.401 E2.01514
G1 X89.997 Y103.998 E2.03717
G1 X90.445 Y104.551 E2.05920
G1 X90.949 Y105.055 E2.08123
G1 X91.502 Y105.503 E2.10326
G1 X92.099 Y105.891 E2.12529
G1 X92.733 Y106.214 E2.14732
G1 X93.398 Y106.469 E2.16935
G1 X94.086 Y106.653 E2.19138
G1 X94.789 Y106.765 E2.21340
G1 X95.500 Y106.802 E2.23543
G1 X96.211 Y106.765 E2.25746
G1 X96.914 Y106.653 E2.27949
G1 X97.602 Y106.469 E2.30152
G1 X98.267 Y106.214 E2.32355
G1 X98.901 Y105.891 E2.34558
G1 X99.498 Y105.503 E2.36761
G1 X100.051 Y105.055 E2.38964
G1 X100.555 Y104.551 E2.41167
G1 X101.003 Y103.998 E2.43370
G1 X101.391 Y103.401 E2.45573
G1 X101.714 Y102.767 E2.47776
G1 X101.969 Y102.102 E2.49979
G1 X102.153 Y101.414 E2.52182
G1 X102.265 Y100.711 E2.54385
G1 X102.302 Y100.000 E2.56588
G1 X102.265 Y99.289 E2.58791
G1 X102.153 Y98.586 E2.60993
G1 X101.969 Y97.898 E2.63196
G1 X101.714 Y97.233 E2.65399
G1 X101.391 Y96.599 E2.67602
G1 X101.003 Y96.002 E2.69805
G1 X100.555 Y95.449 E2.72008
G1 X100.051 Y94.945 E2.74211
G1 X99.498 Y94.497 E2.76414
G1 X98.901 Y94.109 E2.78617
G1 X98.267 Y93.786 E2.80820
G1 X97.602 Y93.531 E2.83023
G1 X96.914 Y93.347 E2.85226
G1 X96.211 Y93.235 E2.87429
G1 X95.500 Y93.198 E2.89632
G1 X94.789 Y93.235 E2.91835
G1 X94.086 Y93.347 E2.94038
G1 X93.398 Y93.531 E2.96241
G1 X92.733 Y93.786 E2.98444
G1 X92.099 Y94.109 E3.00647
G1 X91.502 Y94.497 E3.02849
G1 X90.949 Y94.945 E3.05052
G1 X90.445 Y95.449 E3.07255
G1 X89.997 Y96.002 E3.09458
G1 X89.609 Y96.599 E3.11661
G1 X89.387 Y97.035 E3.13175
G1 X89.100 Y96.966 E3.14090
G1 X89.100 Y91.600 E3.30693
G1 X110.900 Y91.600 E3.98147
G1 X110.900 Y108.400 E4.50130
G1 X89.100 Y108.400 E5.17583
G1 X89.100 Y103.034 E5.34187
G1 X89.314 Y102.983 E5.34869
G1 E3.34869 F2400.00000
G92 E0
G1 X88.475 Y109.025 F7800.000
G1 E2.00000 F2400.00000
G1 F1800.000
G1 X88.475 Y90.975 E2.55850
G1 X111.525 Y90.975 E3.27170
G1 X111.525 Y109.025 E3.83020
G1 X88.550 Y109.025 E4.54108
G1 X87.850 Y109.650 F7800.000
G1 F1800.000
G1 X87.850 Y90.350 E5.13825
G1 X112.150 Y90.350 E5.89012
G1 X112.150 Y109.650 E6.48729
G1 X87.925 Y109.650 E7.23685
G1 X87.998 Y109.172 F7800.000
G1 E5.23685 F2400.00000
G92 E0
G1 X89.721 Y104.216 F7800.000
G1 E2.00000 F2400.00000
G1 F1800.000
G1 X89.412 Y103.835 E2.00105
G1 X89.176 Y102.694 F7800.000
G1 F1800.000
G1 X89.122 Y102.400 E2.00969
G1 F1800.000
G1 X89.063 Y102.076 E2.01758
G1 F1800.000
G1 X89.018 Y101.737 E2.02489
G1 F1800.000
G1 X88.973 Y101.397 E2.03068
G1 F1800.000
G1 X88.936 Y100.925 E2.03670
G1 F1800.000
G1 X88.899 Y100.006 E2.04516
G1 X88.918 Y99.301 E2.05163
G1 F1800.000
G1 X88.953 Y98.848 E2.05741
G1 F1800.000
G1 X88.996 Y98.433 E2.06447
G1 F1800.000
G1 X89.040 Y98.093 E2.07177
G1 F1800.000
G1 X89.067 Y97.894 E2.07659
G1 F1800.000
G1 X89.176 Y97.306 E2.09387
G1 X89.412 Y96.165 F7800.000
G1 F1800.000
G1 X89.721 Y95.784 E2.09492
G1 E0.09492 F2400.00000
G92 E0
G1 X89.968 Y91.982 F7800.000
G1 E2.00000 F2400.00000
G1 F1800.000
G1 X89.482 Y92.468 E2.02173
G1 X89.482 Y93.370 E2.05025
G1 X90.870 Y91.982 E2.11231
G1 X91.773 Y91.982 E2.14083
G1 X89.482 Y94.273 E2.24323
G1 X89.482 Y95.175 E2.27174
G1 X92.675 Y91.982 E2.41447
G1 X93.578 Y91.982 E2.44299
G1 X91.963 Y93.596 E2.51515
G1 X92.236 Y93.457 E2.52483
G1 X92.962 Y93.179 E2.54939
G1 X93.401 Y93.061 E2.56376
G1 X94.481 Y91.982 E2.61201
G1 X95.383 Y91.982 E2.64053
G1 X94.510 Y92.854 E2.67953
G1 X95.257 Y92.815 E2.70316
G1 X95.442 Y92.825 E2.70902
G1 X96.286 Y91.982 E2.74671
G1 X97.188 Y91.982 E2.77523
G1 X96.275 Y92.894 E2.81602
G1 X96.801 Y92.978 E2.83285
G1 X97.033 Y93.040 E2.84041
G1 X98.091 Y91.982 E2.88769
G1 X98.993 Y91.982 E2.91621
G1 X97.728 Y93.246 E2.97274
G1 X98.372 Y93.505 E2.99466
G1 X99.896 Y91.982 E3.06275
G1 X100.798 Y91.982 E3.09127
G1 X98.970 Y93.810 E3.17298
G1 X99.517 Y94.165 E3.19359
G1 X101.701 Y91.982 E3.29118
G1 X102.603 Y91.982 E3.31970
G1 X100.025 Y94.560 E3.43490
G1 X100.227 Y94.723 E3.44311
G1 X100.496 Y94.992 E3.45512
G1 X103.506 Y91.982 E3.58963
G1 X104.408 Y91.982 E3.61815
G1 X100.929 Y95.461 E3.77364
G1 X101.325 Y95.968 E3.79395
G1 X105.311 Y91.982 E3.97208
G1 X106.213 Y91.982 E4.00060
G1 X101.680 Y96.515 E4.20318
G1 X101.986 Y97.111 E4.22437
G1 X107.116 Y91.982 E4.45361
G1 X108.018 Y91.982 E4.48213
G1 X102.247 Y97.753 E4.74006
G1 X102.321 Y97.948 E4.74664
G1 X102.455 Y98.448 E4.76299
G1 X108.921 Y91.982 E5.05194
G1 X109.823 Y91.982 E5.08046
G1 X102.602 Y99.203 E5.40316
G1 X102.644 Y99.467 E5.41160
G1 X102.674 Y100.034 E5.42955
G1 X110.518 Y92.189 E5.78012
G1 X110.518 Y93.092 E5.80864
G1 X102.647 Y100.963 E6.16040
G1 X102.522 Y101.787 E6.18674
G1 X102.448 Y102.065 E6.19581
G1 X110.518 Y93.994 E6.55646
G1 X110.518 Y94.897 E6.58498
G1 X101.930 Y103.485 E6.96879
G1 E4.96879 F2400.00000
G92 E0
G1 X110.032 Y108.018 F7800.000
G1 E2.00000 F2400.00000
G1 F1800.000
G1 X110.518 Y107.532 E2.02173
G1 X110.518 Y106.630 E2.05025
G1 X109.130 Y108.018 E2.11231
G1 X108.227 Y108.018 E2.14083
G1 X110.518 Y105.727 E2.24322
G1 X110.518 Y104.825 E2.27174
G1 X107.325 Y108.018 E2.41446
G1 X106.422 Y108.018 E2.44298
G1 X110.518 Y103.922 E2.62604
G1 X110.518 Y103.020 E2.65456
G1 X105.520 Y108.018 E2.87795
G1 X104.617 Y108.018 E2.90647
G1 X110.518 Y102.117 E3.17019
G1 X110.518 Y101.215 E3.19871
G1 X103.714 Y108.018 E3.50277
G1 X102.812 Y108.018 E3.53129
G1 X110.518 Y100.312 E3.87567
G1 X110.518 Y99.409 E3.90419
G1 X101.909 Y108.018 E4.28891
G1 X101.007 Y108.018 E4.31743
G1 X110.518 Y98.507 E4.74249
G1 X110.518 Y97.604 E4.77100
G1 X100.104 Y108.018 E5.23639
G1 X99.202 Y108.018 E5.26491
G1 X110.518 Y96.702 E5.77063
G1 X110.518 Y95.799 E5.79915
G1 X98.299 Y108.018 E6.34520
G1 X97.397 Y108.018 E6.37372
G1 X98.985 Y106.430 E6.44471
G1 X98.764 Y106.543 E6.45256
G1 X98.038 Y106.821 E6.47713
G1 X97.565 Y106.948 E6.49262
G1 X96.494 Y108.018 E6.54045
G1 X95.592 Y108.018 E6.56897
G1 X96.463 Y107.147 E6.60792
G1 X95.743 Y107.185 E6.63071
G1 X95.534 Y107.174 E6.63732
G1 X94.689 Y108.018 E6.67507
G1 X93.787 Y108.018 E6.70359
G1 X94.703 Y107.102 E6.74453
G1 X94.199 Y107.022 E6.76066
G1 X93.948 Y106.955 E6.76888
G1 X92.884 Y108.018 E6.81640
G1 X91.982 Y108.018 E6.84492
G1 X93.253 Y106.747 E6.90175
G1 X92.611 Y106.486 E6.92365
G1 X91.079 Y108.018 E6.99212
G1 X90.177 Y108.018 E7.02064
G1 X92.015 Y106.180 E7.10279
G1 X91.468 Y105.825 E7.12341
G1 X89.482 Y107.811 E7.21216
G1 X89.482 Y106.908 E7.24067
G1 X90.961 Y105.429 E7.30678
G1 X90.773 Y105.277 E7.31442
G1 X90.492 Y104.996 E7.32699
G1 X89.482 Y106.006 E7.37213
G1 X89.482 Y105.261 E7.39567
G1 X89.659 Y105.117 E7.40289
G1 X90.006 Y105.482 E7.41879
G1 Z0.650 F7800.000
G1 X91.805 Y104.765 F7800.000
G1 F900.000
G1 X91.461 Y104.486 E7.43076
G1 X91.014 Y104.039 E7.44780
G1 X90.616 Y103.548 E7.46485
G1 X90.272 Y103.018 E7.48190
G1 X89.985 Y102.455 E7.49894
G1 X89.759 Y101.865 E7.51599
G1 X89.595 Y101.255 E7.53303
G1 X89.496 Y100.631 E7.55008
G1 X89.463 Y100.000 E7.56713
G1 X89.496 Y99.369 E7.58417
G1 X89.595 Y98.745 E7.60122
G1 X89.759 Y98.135 E7.61826
G1 X89.985 Y97.545 E7.63531
G1 X90.272 Y96.982 E7.65236
G1 X90.616 Y96.452 E7.66940
G1 X91.014 Y95.961 E7.68645
G1 X91.461 Y95.514 E7.70349
G1 X91.952 Y95.116 E7.72054
G1 X92.482 Y94.772 E7.73758
G1 X93.045 Y94.485 E7.75463
G1 X93.635 Y94.259 E7.77168
G1 X94.245 Y94.095 E7.78872
G1 X94.869 Y93.996 E7.80577
G1 X95.500 Y93.963 E7.82281
G1 X96.131 Y93.996 E7.83986
G1 X96.755 Y94.095 E7.85691
G1 X97.365 Y94.259 E7.87395
G1 X97.955 Y94.485 E7.89100
G1 X98.518 Y94.772 E7.90804
G1 X99.048 Y95.116 E7.92509
G1 X99.539 Y95.514 E7.94214
G1 X99.986 Y95.961 E7.95918
G1 X100.384 Y96.452 E7.97623
G1 X100.728 Y96.982 E7.99327
G1 X101.015 Y97.545 E8.01032
G1 X101.241 Y98.135 E8.02737
G1 X101.405 Y98.745 E8.04441
G1 X101.504 Y99.369 E8.06146
G1 X101.537 Y100.000 E8.07850
G1 X101.504 Y100.631 E8.09555
G1 X101.405 Y101.255 E8.11260
G1 X101.241 Y101.865 E8.12964
G1 X101.015 Y102.455 E8.14669
G1 X100.728 Y103.018 E8.16373
G1 X100.384 Y103.548 E8.18078
G1 X99.986 Y104.039 E8.19782
G1 X99.539 Y104.486 E8.21487
G1 X99.048 Y104.884 E8.23192
G1 X98.518 Y105.228 E8.24896
G1 X97.955 Y105.515 E8.26601
G1 X97.365 Y105.741 E8.28305
G1 X96.755 Y105.905 E8.30010
G1 X96.131 Y106.004 E8.31715
G1 X95.500 Y106.037 E8.33419
G1 X94.869 Y106.004 E8.35124
G1 X94.245 Y105.905 E8.36828
G1 X93.635 Y105.741 E8.38533
G1 X93.045 Y105.515 E8.40238
G1 X92.482 Y105.228 E8.41942
G1 X91.864 Y104.813 E8.43951
G1 X92.158 Y104.330 F7800.000
G1 F900.000
G1 X91.836 Y104.069 E8.44805
G1 X91.431 Y103.664 E8.45986
G1 X91.070 Y103.218 E8.47167
G1 X90.758 Y102.738 E8.48348
G1 X90.498 Y102.227 E8.49529
G1 X90.293 Y101.692 E8.50711
G1 X90.144 Y101.138 E8.51892
G1 X90.055 Y100.572 E8.53073
G1 X90.025 Y100.000 E8.54254
G1 X90.055 Y99.428 E8.55436
G1 X90.144 Y98.862 E8.56617
G1 X90.293 Y98.308 E8.57798
G1 X90.498 Y97.773 E8.58979
G1 X90.758 Y97.262 E8.60160
G1 X91.070 Y96.782 E8.61342
G1 X91.431 Y96.336 E8.62523
G1 X91.836 Y95.931 E8.63704
G1 X92.282 Y95.570 E8.64885
G1 X92.762 Y95.258 E8.66066
G1 X93.273 Y94.998 E8.67248
G1 X93.808 Y94.793 E8.68429
G1 X94.362 Y94.644 E8.69610
G1 X94.928 Y94.555 E8.70791
G1 X95.500 Y94.525 E8.71973
G1 X96.072 Y94.555 E8.73154
G1 X96.638 Y94.644 E8.74335
G1 X97.192 Y94.793 E8.75516
G1 X97.727 Y94.998 E8.76697
G1 X98.238 Y95.258 E8.77879
G1 X98.718 Y95.570 E8.79060
G1 X99.164 Y95.931 E8.80241
G1 X99.569 Y96.336 E8.81422
G1 X99.930 Y96.782 E8.82603
G1 X100.242 Y97.262 E8.83785
G1 X100.502 Y97.773 E8.84966
G1 X100.707 Y98.308 E8.86147
G1 X100.856 Y98.862 E8.87328
G1 X100.945 Y99.428 E8.88510
G1 X100.975 Y100.000 E8.89691
G1 X100.945 Y100.572 E8.90872
G1 X100.856 Y101.138 E8.92053
G1 X100.707 Y101.692 E8.93234
G1 X100.502 Y102.227 E8.94416
G1 X100.242 Y102.738 E8.95597
G1 X99.930 Y103.218 E8.96778
G1 X99.569 Y103.664 E8.97959
G1 X99.164 Y104.069 E8.99140
G1 X98.718 Y104.430 E9.00322
G1 X98.238 Y104.742 E9.01503
G1 X97.727 Y105.002 E9.02684
G1 X97.192 Y105.207 E9.03865
G1 X96.638 Y105.356 E9.05047
G1 X96.072 Y105.445 E9.06228
G1 X95.500 Y105.475 E9.07409
G1 X94.928 Y105.445 E9.08590
G1 X94.362 Y105.356 E9.09771
G1 X93.808 Y105.207 E9.10953
G1 X93.273 Y105.002 E9.12134
G1 X92.762 Y104.742 E9.13315
G1 X92.217 Y104.377 E9.14668
G1 X91.776 Y104.489 F7800.000
G1 X89.283 Y102.400 F7800.000
G1 F3600.000
G1 X89.404 Y102.714 E9.15576
G1 X89.721 Y103.337 E9.17460
G1 X90.101 Y103.922 E9.19344
G1 X90.541 Y104.465 E9.21229
G1 X91.035 Y104.959 E9.23113
G1 X91.578 Y105.399 E9.24997
G1 X92.163 Y105.779 E9.26882
G1 X92.786 Y106.096 E9.28766
G1 X93.438 Y106.347 E9.30650
G1 X94.113 Y106.527 E9.32535
G1 X94.802 Y106.637 E9.34419
G1 X95.500 Y106.673 E9.36303
G1 X96.198 Y106.637 E9.38187
G1 X96.887 Y106.527 E9.40072
G1 X97.562 Y106.347 E9.41956
G1 X98.214 Y106.096 E9.43840
G1 X98.837 Y105.779 E9.45725
G1 X99.422 Y105.399 E9.47609
G1 X99.965 Y104.959 E9.49493
G1 X100.459 Y104.465 E9.51378
G1 X100.899 Y103.922 E9.53262
G1 X101.279 Y103.337 E9.55146
G1 X101.596 Y102.714 E9.57031
G1 X101.847 Y102.062 E9.58915
G1 X102.027 Y101.387 E9.60799
