; generated by Slic3r 1.3.1-dev (Build adea0d9) on 2019-12-16 at 00:49:38

; external perimeters extrusion width = 0.44mm (2.86mm^3/s)
; perimeters extrusion width = 0.56mm (4.14mm^3/s)
; infill extrusion width = 0.50mm (3.66mm^3/s)
; solid infill extrusion width = 0.56mm (3.10mm^3/s)
; top infill extrusion width = 0.56mm (3.10mm^3/s)

M107
G92 E0
;D3D:START:START
T0
M104 S215 T0

G21
G90
M107
T0
G28
G29
M109 T0 S215 T0
G0 F3000
M107
T0
G92 E0
G0 X0 Y149 Z0.1 F3600
G1 Y49 E6.5 F1200
G0 Z1
G92 E0
; Filament gcode

G21 ; set units to millimeters
G90 ; use absolute coordinates
M82 ; use absolute distances for extrusion
G92 E0
G1 Z0.300 F7800.000
G1 E-2.00000 F2400.00000
G92 E0
G1 X62.704 Y82.744 F7800.000
G1 E2.00000 F2400.00000
G1 F1800.000
G1 X86.096 Y82.744 E2.77498
G1 X86.096 Y87.136 E2.92050
G1 X62.704 Y87.136 E3.69548
G1 X62.704 Y82.804 E3.83902
G1 X62.969 Y83.009 F7800.000
G1 F1800.000
G1 X85.831 Y83.009 E4.59640
G1 X85.831 Y86.871 E4.72432
G1 X62.969 Y86.871 E5.48170
G1 X62.969 Y83.069 E5.60764
G1 X63.235 Y83.275 F7800.000
G1 F1800.000
G1 X85.565 Y83.275 E6.34742
G1 X85.565 Y86.605 E6.45774
G1 X63.235 Y86.605 E7.19752
G1 X63.235 Y83.335 E7.30586
G1 E5.30586 F2400.00000
G92 E0
G1 X45.496 Y81.136 F7800.000
G1 E2.00000 F2400.00000
G1 F1800.000
G1 X104.504 Y81.136 E3.95489
G1 X104.504 Y88.744 E4.20692
G1 X45.496 Y88.744 E6.16182
G1 X45.496 Y81.196 E6.41186
G1 X45.231 Y80.871 F7800.000
G1 F1800.000
G1 X104.769 Y80.871 E8.38435
G1 X104.769 Y89.009 E8.65399
G1 X45.231 Y89.009 E10.62648
G1 X45.231 Y80.931 E10.89412
G1 X44.965 Y80.605 F7800.000
G1 F1800.000
G1 X105.035 Y80.605 E12.88421
G1 X105.035 Y89.275 E13.17145
G1 X44.965 Y89.275 E15.16154
G1 X44.965 Y80.665 E15.44678
G1 X45.865 Y81.299 F7800.000
G1 F1800.000
G1 X45.659 Y81.505 E15.45651
G1 X45.659 Y81.882 E15.46902
G1 X46.242 Y81.299 E15.49645
G1 X46.619 Y81.299 E15.50897
G1 X45.659 Y82.259 E15.55409
G1 X45.659 Y82.636 E15.56661
G1 X46.996 Y81.299 E15.62944
G1 X47.372 Y81.299 E15.64196
G1 X45.659 Y83.012 E15.72249
G1 X45.659 Y83.389 E15.73501
G1 X47.749 Y81.299 E15.83325
G1 X48.126 Y81.299 E15.84576
G1 X45.659 Y83.766 E15.96170
G1 X45.659 Y84.143 E15.97422
G1 X48.503 Y81.299 E16.10786
G1 X48.879 Y81.299 E16.12038
G1 X45.659 Y84.519 E16.27172
G1 X45.659 Y84.896 E16.28424
G1 X49.256 Y81.299 E16.45328
G1 X49.633 Y81.299 E16.46580
G1 X45.659 Y85.273 E16.65255
G1 X45.659 Y85.650 E16.66506
G1 X50.010 Y81.299 E16.86951
G1 X50.386 Y81.299 E16.88203
G1 X45.659 Y86.026 E17.10418
G1 X45.659 Y86.403 E17.11670
G1 X50.763 Y81.299 E17.35656
G1 X51.140 Y81.299 E17.36907
G1 X45.659 Y86.780 E17.62663
G1 X45.659 Y87.157 E17.63915
G1 X51.517 Y81.299 E17.91441
G1 X51.893 Y81.299 E17.92692
G1 X45.659 Y87.533 E18.21989
G1 X45.659 Y87.910 E18.23240
G1 X52.270 Y81.299 E18.54307
G1 X52.647 Y81.299 E18.55558
G1 X45.659 Y88.287 E18.88395
G1 X45.659 Y88.581 E18.89374
G1 X45.741 Y88.581 E18.89647
G1 X53.023 Y81.299 E19.23868
G1 X53.400 Y81.299 E19.25120
G1 X46.117 Y88.581 E19.59342
G1 X46.494 Y88.581 E19.60593
G1 X53.777 Y81.299 E19.94815
G1 X54.154 Y81.299 E19.96067
G1 X46.871 Y88.581 E20.30288
G1 X47.247 Y88.581 E20.31540
G1 X54.530 Y81.299 E20.65761
G1 X54.907 Y81.299 E20.67013
G1 X47.624 Y88.581 E21.01235
G1 X48.001 Y88.581 E21.02486
G1 X55.284 Y81.299 E21.36708
G1 X55.661 Y81.299 E21.37960
G1 X48.378 Y88.581 E21.72181
G1 X48.754 Y88.581 E21.73433
G1 X56.037 Y81.299 E22.07654
G1 X56.414 Y81.299 E22.08906
G1 X49.131 Y88.581 E22.43128
G1 X49.508 Y88.581 E22.44379
G1 X56.791 Y81.299 E22.78601
G1 X57.168 Y81.299 E22.79853
G1 X49.885 Y88.581 E23.14074
G1 X50.261 Y88.581 E23.15326
G1 X57.544 Y81.299 E23.49548
G1 X57.921 Y81.299 E23.50799
G1 X50.638 Y88.581 E23.85021
G1 X51.015 Y88.581 E23.86273
G1 X58.298 Y81.299 E24.20494
G1 X58.675 Y81.299 E24.21746
G1 X51.392 Y88.581 E24.55967
G1 X51.768 Y88.581 E24.57219
G1 X59.051 Y81.299 E24.91441
G1 X59.428 Y81.299 E24.92692
G1 X52.145 Y88.581 E25.26914
G1 X52.522 Y88.581 E25.28166
G1 X59.805 Y81.299 E25.62387
G1 X60.181 Y81.299 E25.63639
G1 X52.899 Y88.581 E25.97860
G1 X53.275 Y88.581 E25.99112
G1 X60.558 Y81.299 E26.33334
G1 X60.935 Y81.299 E26.34585
G1 X53.652 Y88.581 E26.68807
G1 X54.029 Y88.581 E26.70059
G1 X61.312 Y81.299 E27.04280
G1 X61.688 Y81.299 E27.05532
G1 X54.405 Y88.581 E27.39754
G1 X54.782 Y88.581 E27.41005
G1 X62.065 Y81.299 E27.75227
G1 X62.442 Y81.299 E27.76479
G1 X55.159 Y88.581 E28.10700
G1 X55.536 Y88.581 E28.11952
G1 X62.819 Y81.299 E28.46173
G1 X63.195 Y81.299 E28.47425
G1 X55.912 Y88.581 E28.81647
G1 X56.289 Y88.581 E28.82898
G1 X63.572 Y81.299 E29.17120
G1 X63.949 Y81.299 E29.18372
G1 X62.666 Y82.581 E29.24400
G1 X63.043 Y82.581 E29.25652
G1 X64.326 Y81.299 E29.31680
G1 X64.702 Y81.299 E29.32932
G1 X63.419 Y82.581 E29.38960
G1 X63.796 Y82.581 E29.40212
G1 X65.079 Y81.299 E29.46240
G1 X65.456 Y81.299 E29.47492
G1 X64.173 Y82.581 E29.53520
G1 X64.550 Y82.581 E29.54772
G1 X65.833 Y81.299 E29.60800
G1 X66.209 Y81.299 E29.62052
G1 X64.926 Y82.581 E29.68080
G1 X65.303 Y82.581 E29.69332
G1 X66.586 Y81.299 E29.75360
G1 X66.963 Y81.299 E29.76612
G1 X65.680 Y82.581 E29.82640
G1 X66.057 Y82.581 E29.83892
G1 X67.339 Y81.299 E29.89920
G1 X67.716 Y81.299 E29.91172
G1 X66.433 Y82.581 E29.97201
G1 X66.810 Y82.581 E29.98452
G1 X68.093 Y81.299 E30.04481
G1 X68.470 Y81.299 E30.05732
G1 X67.187 Y82.581 E30.11761
G1 X67.563 Y82.581 E30.13012
G1 X68.846 Y81.299 E30.19041
G1 X69.223 Y81.299 E30.20293
G1 X67.940 Y82.581 E30.26321
G1 X68.317 Y82.581 E30.27573
G1 X69.600 Y81.299 E30.33601
G1 X69.977 Y81.299 E30.34853
G1 X68.694 Y82.581 E30.40881
G1 X69.070 Y82.581 E30.42133
G1 X70.353 Y81.299 E30.48161
G1 X70.730 Y81.299 E30.49413
G1 X69.447 Y82.581 E30.55441
G1 X69.824 Y82.581 E30.56693
G1 X71.107 Y81.299 E30.62721
G1 X71.484 Y81.299 E30.63973
G1 X70.201 Y82.581 E30.70001
G1 X70.577 Y82.581 E30.71253
G1 X71.860 Y81.299 E30.77281
G1 X72.237 Y81.299 E30.78533
G1 X70.954 Y82.581 E30.84561
G1 X71.331 Y82.581 E30.85813
G1 X72.614 Y81.299 E30.91841
G1 X72.991 Y81.299 E30.93093
G1 X71.708 Y82.581 E30.99121
G1 X72.084 Y82.581 E31.00373
G1 X73.367 Y81.299 E31.06402
G1 X73.744 Y81.299 E31.07653
G1 X72.461 Y82.581 E31.13682
G1 X72.838 Y82.581 E31.14933
G1 X74.121 Y81.299 E31.20962
G1 X74.497 Y81.299 E31.22213
G1 X73.215 Y82.581 E31.28242
G1 X73.591 Y82.581 E31.29494
G1 X74.874 Y81.299 E31.35522
G1 X75.251 Y81.299 E31.36774
G1 X73.968 Y82.581 E31.42802
G1 X74.345 Y82.581 E31.44054
G1 X75.628 Y81.299 E31.50082
G1 X76.004 Y81.299 E31.51334
G1 X74.721 Y82.581 E31.57362
G1 X75.098 Y82.581 E31.58614
G1 X76.381 Y81.299 E31.64642
G1 X76.758 Y81.299 E31.65894
G1 X75.475 Y82.581 E31.71922
G1 X75.852 Y82.581 E31.73174
G1 X77.135 Y81.299 E31.79202
G1 X77.511 Y81.299 E31.80454
G1 X76.228 Y82.581 E31.86482
G1 X76.605 Y82.581 E31.87734
G1 X77.888 Y81.299 E31.93762
G1 X78.265 Y81.299 E31.95014
G1 X76.982 Y82.581 E32.01042
G1 X77.359 Y82.581 E32.02294
G1 X78.642 Y81.299 E32.08322
G1 X79.018 Y81.299 E32.09574
G1 X77.735 Y82.581 E32.15603
G1 X78.112 Y82.581 E32.16854
G1 X79.395 Y81.299 E32.22883
G1 X79.772 Y81.299 E32.24134
G1 X78.489 Y82.581 E32.30163
G1 X78.866 Y82.581 E32.31414
G1 X80.149 Y81.299 E32.37443
G1 X80.525 Y81.299 E32.38694
G1 X79.242 Y82.581 E32.44723
G1 X79.619 Y82.581 E32.45975
G1 X80.902 Y81.299 E32.52003
G1 X81.279 Y81.299 E32.53255
G1 X79.996 Y82.581 E32.59283
G1 X80.373 Y82.581 E32.60535
G1 X81.655 Y81.299 E32.66563
G1 X82.032 Y81.299 E32.67815
G1 X80.749 Y82.581 E32.73843
G1 X81.126 Y82.581 E32.75095
G1 X82.409 Y81.299 E32.81123
G1 X82.786 Y81.299 E32.82375
G1 X81.503 Y82.581 E32.88403
G1 X81.879 Y82.581 E32.89655
G1 X83.162 Y81.299 E32.95683
G1 X83.539 Y81.299 E32.96935
G1 X82.256 Y82.581 E33.02963
G1 X82.633 Y82.581 E33.04215
G1 X83.916 Y81.299 E33.10243
G1 X84.293 Y81.299 E33.11495
G1 X83.010 Y82.581 E33.17523
G1 X83.386 Y82.581 E33.18775
G1 X84.669 Y81.299 E33.24804
G1 X85.046 Y81.299 E33.26055
G1 X83.763 Y82.581 E33.32084
G1 X84.140 Y82.581 E33.33335
G1 X85.423 Y81.299 E33.39364
G1 X85.800 Y81.299 E33.40615
G1 X84.517 Y82.581 E33.46644
G1 X84.893 Y82.581 E33.47895
G1 X86.176 Y81.299 E33.53924
G1 X86.553 Y81.299 E33.55176
G1 X85.270 Y82.581 E33.61204
G1 X85.647 Y82.581 E33.62456
G1 X86.930 Y81.299 E33.68484
G1 X87.307 Y81.299 E33.69736
G1 X86.024 Y82.581 E33.75764
G1 X86.259 Y82.581 E33.76545
G1 X86.259 Y82.723 E33.77016
G1 X87.683 Y81.299 E33.83710
G1 X88.060 Y81.299 E33.84962
G1 X86.259 Y83.100 E33.93427
G1 X86.259 Y83.477 E33.94678
G1 X88.437 Y81.299 E34.04913
G1 X88.813 Y81.299 E34.06165
G1 X86.259 Y83.853 E34.18170
G1 X86.259 Y84.230 E34.19422
G1 X89.190 Y81.299 E34.33198
G1 X89.567 Y81.299 E34.34449
G1 X86.259 Y84.607 E34.49995
G1 X86.259 Y84.984 E34.51247
G1 X89.944 Y81.299 E34.68563
G1 X90.320 Y81.299 E34.69814
G1 X86.259 Y85.360 E34.88901
G1 X86.259 Y85.737 E34.90152
G1 X90.697 Y81.299 E35.11009
G1 X91.074 Y81.299 E35.12260
G1 X86.259 Y86.114 E35.34887
G1 X86.259 Y86.491 E35.36139
G1 X91.451 Y81.299 E35.60536
G1 X91.827 Y81.299 E35.61787
G1 X86.259 Y86.867 E35.87954
G1 X86.259 Y87.244 E35.89206
G1 X92.204 Y81.299 E36.17144
G1 X92.581 Y81.299 E36.18395
G1 X85.298 Y88.581 E36.52617
G1 X85.675 Y88.581 E36.53869
G1 X92.958 Y81.299 E36.88090
G1 X93.334 Y81.299 E36.89342
G1 X86.051 Y88.581 E37.23563
G1 X86.428 Y88.581 E37.24815
G1 X93.711 Y81.299 E37.59037
G1 X94.088 Y81.299 E37.60288
G1 X86.805 Y88.581 E37.94510
G1 X87.182 Y88.581 E37.95762
G1 X94.465 Y81.299 E38.29983
G1 X94.841 Y81.299 E38.31235
G1 X87.558 Y88.581 E38.65456
G1 X87.935 Y88.581 E38.66708
G1 X95.218 Y81.299 E39.00930
G1 X95.595 Y81.299 E39.02181
G1 X88.312 Y88.581 E39.36403
G1 X88.689 Y88.581 E39.37655
G1 X95.971 Y81.299 E39.71876
G1 X96.348 Y81.299 E39.73128
G1 X89.065 Y88.581 E40.07350
G1 X89.442 Y88.581 E40.08601
G1 X96.725 Y81.299 E40.42823
G1 X97.102 Y81.299 E40.44075
G1 X89.819 Y88.581 E40.78296
G1 X90.195 Y88.581 E40.79548
G1 X97.478 Y81.299 E41.13769
G1 X97.855 Y81.299 E41.15021
G1 X90.572 Y88.581 E41.49243
G1 X90.949 Y88.581 E41.50494
G1 X98.232 Y81.299 E41.84716
G1 X98.609 Y81.299 E41.85968
G1 X91.326 Y88.581 E42.20189
G1 X91.702 Y88.581 E42.21441
G1 X98.985 Y81.299 E42.55662
G1 X99.362 Y81.299 E42.56914
G1 X92.079 Y88.581 E42.91136
G1 X92.456 Y88.581 E42.92387
G1 X99.739 Y81.299 E43.26609
G1 X100.116 Y81.299 E43.27861
G1 X92.833 Y88.581 E43.62082
G1 X93.209 Y88.581 E43.63334
G1 X100.492 Y81.299 E43.97555
G1 X100.869 Y81.299 E43.98807
G1 X93.586 Y88.581 E44.33029
G1 X93.963 Y88.581 E44.34280
G1 X101.246 Y81.299 E44.68502
G1 X101.623 Y81.299 E44.69754
G1 X94.340 Y88.581 E45.03975
G1 X94.716 Y88.581 E45.05227
G1 X101.999 Y81.299 E45.39449
G1 X102.376 Y81.299 E45.40700
G1 X95.093 Y88.581 E45.74922
G1 X95.470 Y88.581 E45.76174
G1 X102.753 Y81.299 E46.10395
G1 X103.129 Y81.299 E46.11647
G1 X95.847 Y88.581 E46.45868
G1 X96.223 Y88.581 E46.47120
G1 X103.506 Y81.299 E46.81342
G1 X103.883 Y81.299 E46.82593
G1 X96.600 Y88.581 E47.16815
G1 X96.977 Y88.581 E47.18067
G1 X104.260 Y81.299 E47.52288
G1 X104.341 Y81.299 E47.52560
G1 X104.341 Y81.593 E47.53540
G1 X97.353 Y88.581 E47.86376
G1 X97.730 Y88.581 E47.87627
G1 X104.341 Y81.970 E48.18693
G1 X104.341 Y82.347 E48.19945
G1 X98.107 Y88.581 E48.49240
G1 X98.484 Y88.581 E48.50492
G1 X104.341 Y82.724 E48.78016
G1 X104.341 Y83.100 E48.79268
G1 X98.860 Y88.581 E49.05023
G1 X99.237 Y88.581 E49.06275
G1 X104.341 Y83.477 E49.30259
G1 X104.341 Y83.854 E49.31511
G1 X99.614 Y88.581 E49.53725
G1 X99.991 Y88.581 E49.54977
G1 X104.341 Y84.231 E49.75421
G1 X104.341 Y84.607 E49.76673
G1 X100.367 Y88.581 E49.95347
G1 X100.744 Y88.581 E49.96598
G1 X104.341 Y84.984 E50.13502
G1 X104.341 Y85.361 E50.14754
G1 X101.121 Y88.581 E50.29887
G1 X101.498 Y88.581 E50.31139
G1 X104.341 Y85.738 E50.44502
G1 X104.341 Y86.114 E50.45754
G1 X101.874 Y88.581 E50.57347
G1 X102.251 Y88.581 E50.58598
G1 X104.341 Y86.491 E50.68421
G1 X104.341 Y86.868 E50.69673
G1 X102.628 Y88.581 E50.77725
G1 X103.005 Y88.581 E50.78977
G1 X104.341 Y87.245 E50.85259
G1 X104.341 Y87.621 E50.86511
G1 X103.381 Y88.581 E50.91023
G1 X103.758 Y88.581 E50.92274
G1 X104.341 Y87.998 E50.95016
G1 X104.341 Y88.375 E50.96268
G1 X104.135 Y88.581 E50.97239
G1 E48.97239 F2400.00000
G92 E0
G1 X84.921 Y88.581 F7800.000
G1 E2.00000 F2400.00000
G1 F1800.000
G1 X86.204 Y87.299 E2.06028
G1 X85.827 Y87.299 E2.07280
G1 X84.544 Y88.581 E2.13308
G1 X84.168 Y88.581 E2.14560
G1 X85.451 Y87.299 E2.20588
G1 X85.074 Y87.299 E2.21840
G1 X83.791 Y88.581 E2.27869
G1 X83.414 Y88.581 E2.29120
G1 X84.697 Y87.299 E2.35149
G1 X84.320 Y87.299 E2.36400
G1 X83.037 Y88.581 E2.42429
G1 X82.661 Y88.581 E2.43680
G1 X83.944 Y87.299 E2.49709
G1 X83.567 Y87.299 E2.50960
G1 X82.284 Y88.581 E2.56989
G1 X81.907 Y88.581 E2.58241
G1 X83.190 Y87.299 E2.64269
G1 X82.813 Y87.299 E2.65521
G1 X81.531 Y88.581 E2.71549
G1 X81.154 Y88.581 E2.72801
G1 X82.437 Y87.299 E2.78829
G1 X82.060 Y87.299 E2.80081
G1 X80.777 Y88.581 E2.86109
G1 X80.400 Y88.581 E2.87361
G1 X81.683 Y87.299 E2.93389
G1 X81.307 Y87.299 E2.94641
G1 X80.024 Y88.581 E3.00669
G1 X79.647 Y88.581 E3.01921
G1 X80.930 Y87.299 E3.07949
G1 X80.553 Y87.299 E3.09201
G1 X79.270 Y88.581 E3.15229
G1 X78.893 Y88.581 E3.16481
G1 X80.176 Y87.299 E3.22509
G1 X79.800 Y87.299 E3.23761
G1 X78.517 Y88.581 E3.29789
G1 X78.140 Y88.581 E3.31041
G1 X79.423 Y87.299 E3.37070
G1 X79.046 Y87.299 E3.38321
G1 X77.763 Y88.581 E3.44350
G1 X77.386 Y88.581 E3.45601
G1 X78.669 Y87.299 E3.51630
G1 X78.293 Y87.299 E3.52881
G1 X77.010 Y88.581 E3.58910
G1 X76.633 Y88.581 E3.60161
G1 X77.916 Y87.299 E3.66190
G1 X77.539 Y87.299 E3.67442
G1 X76.256 Y88.581 E3.73470
G1 X75.879 Y88.581 E3.74722
G1 X77.162 Y87.299 E3.80750
G1 X76.786 Y87.299 E3.82002
G1 X75.503 Y88.581 E3.88030
G1 X75.126 Y88.581 E3.89282
G1 X76.409 Y87.299 E3.95310
G1 X76.032 Y87.299 E3.96562
G1 X74.749 Y88.581 E4.02590
G1 X74.373 Y88.581 E4.03842
G1 X75.655 Y87.299 E4.09870
G1 X75.279 Y87.299 E4.11122
G1 X73.996 Y88.581 E4.17150
G1 X73.619 Y88.581 E4.18402
G1 X74.902 Y87.299 E4.24430
G1 X74.525 Y87.299 E4.25682
G1 X73.242 Y88.581 E4.31710
G1 X72.866 Y88.581 E4.32962
G1 X74.149 Y87.299 E4.38990
G1 X73.772 Y87.299 E4.40242
G1 X72.489 Y88.581 E4.46271
G1 X72.112 Y88.581 E4.47522
G1 X73.395 Y87.299 E4.53551
G1 X73.018 Y87.299 E4.54802
G1 X71.735 Y88.581 E4.60831
G1 X71.359 Y88.581 E4.62082
G1 X72.642 Y87.299 E4.68111
G1 X72.265 Y87.299 E4.69362
G1 X70.982 Y88.581 E4.75391
G1 X70.605 Y88.581 E4.76643
G1 X71.888 Y87.299 E4.82671
G1 X71.511 Y87.299 E4.83923
G1 X70.228 Y88.581 E4.89951
G1 X69.852 Y88.581 E4.91203
G1 X71.135 Y87.299 E4.97231
G1 X70.758 Y87.299 E4.98483
G1 X69.475 Y88.581 E5.04511
G1 X69.098 Y88.581 E5.05763
G1 X70.381 Y87.299 E5.11791
G1 X70.004 Y87.299 E5.13043
G1 X68.721 Y88.581 E5.19071
G1 X68.345 Y88.581 E5.20323
G1 X69.628 Y87.299 E5.26351
G1 X69.251 Y87.299 E5.27603
G1 X67.968 Y88.581 E5.33631
G1 X67.591 Y88.581 E5.34883
G1 X68.874 Y87.299 E5.40911
G1 X68.497 Y87.299 E5.42163
G1 X67.215 Y88.581 E5.48191
G1 X66.838 Y88.581 E5.49443
G1 X68.121 Y87.299 E5.55472
G1 X67.744 Y87.299 E5.56723
G1 X66.461 Y88.581 E5.62752
G1 X66.084 Y88.581 E5.64003
G1 X67.367 Y87.299 E5.70032
G1 X66.991 Y87.299 E5.71283
G1 X65.708 Y88.581 E5.77312
G1 X65.331 Y88.581 E5.78563
G1 X66.614 Y87.299 E5.84592
G1 X66.237 Y87.299 E5.85844
G1 X64.954 Y88.581 E5.91872
G1 X64.577 Y88.581 E5.93124
G1 X65.860 Y87.299 E5.99152
G1 X65.484 Y87.299 E6.00404
G1 X64.201 Y88.581 E6.06432
G1 X63.824 Y88.581 E6.07684
G1 X65.107 Y87.299 E6.13712
G1 X64.730 Y87.299 E6.14964
G1 X63.447 Y88.581 E6.20992
G1 X63.070 Y88.581 E6.22244
G1 X64.353 Y87.299 E6.28272
G1 X63.977 Y87.299 E6.29524
G1 X62.694 Y88.581 E6.35552
G1 X62.317 Y88.581 E6.36804
G1 X63.600 Y87.299 E6.42832
G1 X63.223 Y87.299 E6.44084
G1 X61.940 Y88.581 E6.50112
G1 X61.563 Y88.581 E6.51364
G1 X62.846 Y87.299 E6.57392
G1 X62.541 Y87.299 E6.58406
G1 X62.541 Y87.227 E6.58644
G1 X61.187 Y88.581 E6.65010
G1 X60.810 Y88.581 E6.66262
G1 X62.541 Y86.850 E6.74397
G1 X62.541 Y86.473 E6.75649
G1 X60.433 Y88.581 E6.85555
G1 X60.057 Y88.581 E6.86807
G1 X62.541 Y86.097 E6.98483
G1 X62.541 Y85.720 E6.99735
G1 X59.680 Y88.581 E7.13182
G1 X59.303 Y88.581 E7.14434
G1 X62.541 Y85.343 E7.29650
G1 X62.541 Y84.966 E7.30902
