; generated by Slic3r 1.3.1-dev (Build 2ef957d) on 2019-11-25 at 09:20:24

; external perimeters extrusion width = 0.55mm (4.37mm^3/s)
; perimeters extrusion width = 0.70mm (11.44mm^3/s)
; infill extrusion width = 0.62mm (13.45mm^3/s)
; solid infill extrusion width = 0.70mm (3.81mm^3/s)
; top infill extrusion width = 0.70mm (2.86mm^3/s)

M107
G92 E0
M104 S200 ; set temperature
G28 ; home all axes
G1 Z5 F5000 ; lift nozzle

; Filament gcode

M109 S200 ; set temperature and wait for it to be reached
G21 ; set units to millimeters
G90 ; use absolute coordinates
M82 ; use absolute distances for extrusion
G92 E0
G1 Z0.350 F7800.000
G1 E-2.00000 F2400.00000
G92 E0
G1 X94.399 Y91.163 F7800.000
G1 E2.00000 F2400.00000
G1 F1800.000
G1 X94.856 Y90.706 E2.01999
G1 X95.372 Y90.241 E2.04149
G1 X95.874 Y89.834 E2.06148
G1 X96.435 Y89.427 E2.08291
G1 X96.975 Y89.076 E2.10284
G1 X97.576 Y88.729 E2.12433
G1 X98.152 Y88.436 E2.14432
G1 X98.785 Y88.154 E2.16575
G1 X99.386 Y87.923 E2.18569
G1 X100.046 Y87.709 E2.20714
G1 X100.668 Y87.542 E2.22708
G1 X101.346 Y87.398 E2.24852
G1 X102.511 Y87.235 E2.28491
G1 X103.403 Y87.184 E2.31257
G1 X104.097 Y87.184 E2.33402
G1 X104.745 Y87.218 E2.35410
G1 X105.434 Y87.291 E2.37556
G1 X106.075 Y87.392 E2.39564
G1 X106.779 Y87.542 E2.41790
G1 X107.402 Y87.709 E2.43784
G1 X108.061 Y87.923 E2.45929
G1 X108.663 Y88.154 E2.47923
G1 X109.296 Y88.436 E2.50070
G1 X109.871 Y88.729 E2.52064
G1 X110.471 Y89.075 E2.54209
G1 X111.012 Y89.426 E2.56203
G1 X111.573 Y89.834 E2.58350
G1 X112.074 Y90.240 E2.60345
G1 X112.589 Y90.704 E2.62489
G1 X113.045 Y91.159 E2.64483
G1 X113.509 Y91.675 E2.66629
G1 X113.899 Y92.156 E2.68546
G1 X115.012 Y94.161 E2.75642
G1 X115.375 Y96.325 E2.82431
G1 X115.375 Y103.675 E3.05171
G1 X114.978 Y105.934 E3.12267
G1 X113.899 Y107.844 E3.19056
G1 X113.509 Y108.325 E3.20973
G1 X113.045 Y108.841 E3.23119
G1 X112.589 Y109.297 E3.25114
G1 X112.074 Y109.760 E3.27258
G1 X111.573 Y110.166 E3.29252
G1 X111.012 Y110.574 E3.31399
G1 X110.471 Y110.925 E3.33393
G1 X109.871 Y111.271 E3.35538
G1 X109.296 Y111.564 E3.37532
G1 X108.663 Y111.846 E3.39679
G1 X108.061 Y112.077 E3.41673
G1 X107.402 Y112.291 E3.43818
G1 X106.460 Y112.535 E3.46829
G1 X105.434 Y112.709 E3.50046
G1 X104.745 Y112.782 E3.52192
G1 X104.097 Y112.816 E3.54200
G1 X103.403 Y112.816 E3.56345
G1 X102.755 Y112.782 E3.58353
G1 X101.984 Y112.703 E3.60751
G1 X101.346 Y112.602 E3.62750
G1 X100.668 Y112.458 E3.64895
G1 X100.046 Y112.291 E3.66889
G1 X99.386 Y112.076 E3.69036
G1 X98.782 Y111.845 E3.71036
G1 X98.150 Y111.563 E3.73179
G1 X97.576 Y111.271 E3.75172
G1 X96.974 Y110.923 E3.77321
G1 X96.432 Y110.571 E3.79320
G1 X95.872 Y110.164 E3.81462
G1 X95.372 Y109.759 E3.83456
G1 X94.856 Y109.294 E3.85603
G1 X94.399 Y108.837 E3.87603
G1 X93.935 Y108.323 E3.89746
G1 X93.530 Y107.822 E3.91739
G1 X93.123 Y107.262 E3.93883
G1 X92.771 Y106.720 E3.95882
G1 X92.424 Y106.119 E3.98029
G1 X92.131 Y105.543 E4.00029
G1 X91.849 Y104.910 E4.02173
G1 X91.502 Y103.981 E4.05241
G1 X91.234 Y103.018 E4.08333
G1 X91.115 Y102.486 E4.10021
G1 X90.939 Y101.322 E4.13664
G1 X90.880 Y100.351 E4.16672
G1 X90.880 Y99.649 E4.18846
G1 X90.938 Y98.688 E4.21824
G1 X90.988 Y98.303 E4.23024
G1 X91.179 Y97.202 E4.26483
G1 X91.401 Y96.357 E4.29187
G1 X91.617 Y95.694 E4.31344
G1 X91.849 Y95.090 E4.33344
G1 X92.131 Y94.457 E4.35489
G1 X92.424 Y93.881 E4.37488
G1 X92.771 Y93.280 E4.39635
G1 X93.123 Y92.738 E4.41634
G1 X93.530 Y92.178 E4.43778
G1 X93.935 Y91.677 E4.45771
G1 X94.349 Y91.218 E4.47683
G1 E2.47683 F2400.00000
G92 E0
G1 X99.775 Y103.058 F7800.000
G1 E2.00000 F2400.00000
G1 F1800.000
G1 X99.507 Y103.138 E2.00866
G1 X99.172 Y102.623 E2.02767
G1 X98.925 Y102.138 E2.04450
G1 X98.729 Y101.627 E2.06143
G1 X98.588 Y101.101 E2.07830
G1 X98.502 Y100.558 E2.09530
G1 X98.473 Y100.004 E2.11245
G1 X98.502 Y99.441 E2.12989
G1 X98.587 Y98.903 E2.14677
G1 X98.729 Y98.373 E2.16375
G1 X98.925 Y97.862 E2.18067
G1 X99.172 Y97.377 E2.19751
G1 X99.507 Y96.862 E2.21651
G1 X99.775 Y96.942 E2.22518
G1 X99.775 Y102.983 E2.41212
G1 X100.400 Y104.856 F7800.000
G1 F1800.000
G1 X99.775 Y104.350 E2.43699
G1 X99.344 Y103.919 E2.45584
G1 X98.962 Y103.447 E2.47464
G1 X98.630 Y102.936 E2.49350
G1 X98.353 Y102.393 E2.51236
G1 X98.134 Y101.820 E2.53132
G1 X97.976 Y101.231 E2.55021
G1 X97.880 Y100.624 E2.56922
G1 X97.847 Y100.005 E2.58841
G1 X97.880 Y99.376 E2.60788
G1 X97.975 Y98.773 E2.62678
G1 X98.134 Y98.180 E2.64578
G1 X98.353 Y97.607 E2.66474
G1 X98.630 Y97.064 E2.68360
G1 X98.962 Y96.553 E2.70246
G1 X99.344 Y96.081 E2.72126
G1 X99.775 Y95.650 E2.74011
G1 X100.400 Y95.144 E2.76498
G1 X100.400 Y104.781 E3.06314
G1 X100.111 Y104.448 F7800.000
G1 X100.400 Y104.682 F7800.000
G1 F1800.000
G1 X101.347 Y105.182 E3.11223
G1 X101.956 Y105.418 E3.14217
G1 X102.713 Y105.604 E3.17790
G1 X103.361 Y105.682 E3.20784
G1 X103.751 Y105.695 E3.22570
G1 X104.345 Y105.664 E3.25298
G1 X104.787 Y105.601 E3.27344
G1 X105.532 Y105.415 E3.30865
G1 X106.148 Y105.171 E3.33906
G1 X107.100 Y104.669 E3.38838
G1 X107.100 Y104.813 F7800.000
G1 F1800.000
G1 X107.100 Y95.187 E3.68621
G1 X107.670 Y95.649 E3.70891
G1 X108.100 Y96.078 E3.72771
G1 X108.400 Y96.449 E3.74247
G1 X108.400 Y103.551 E3.96220
G1 X108.100 Y103.922 E3.97697
G1 X107.670 Y104.351 E3.99578
G1 X107.158 Y104.766 E4.01615
G1 X107.239 Y104.333 F7800.000
G1 E2.01615 F2400.00000
G92 E0
G1 X107.100 Y95.331 F7800.000
G1 E2.00000 F2400.00000
G1 F1800.000
G1 X106.148 Y94.829 E2.04932
G1 X105.532 Y94.585 E2.07970
G1 X104.787 Y94.399 E2.11494
G1 X104.345 Y94.336 E2.13538
G1 X103.750 Y94.305 E2.16271
G1 X103.361 Y94.318 E2.18054
G1 X102.713 Y94.397 E2.21048
G1 X101.956 Y94.582 E2.24621
G1 X101.347 Y94.818 E2.27615
G1 X100.400 Y95.318 E2.32524
G1 E0.32524 F2400.00000
G92 E0
G1 X99.409 Y97.624 F7800.000
G1 E2.00000 F2400.00000
G1 F1800.000
G1 X99.366 Y97.853 E2.00269
G1 F1800.000
G1 X99.282 Y98.310 E2.01019
G1 F1800.000
G1 X99.218 Y98.701 E2.01833
G1 F1800.000
G1 X99.175 Y99.028 E2.02647
G1 F1800.000
G1 X99.137 Y99.508 E2.04022
G1 X99.124 Y100.004 E2.05437
G1 X99.156 Y100.733 E2.07518
G1 F1800.000
G1 X99.197 Y101.138 E2.08523
G1 F1800.000
G1 X99.239 Y101.461 E2.09193
G1 F1800.000
G1 X99.324 Y101.919 E2.09943
G1 F1800.000
G1 X99.409 Y102.376 E2.10481
G1 E0.10481 F2400.00000
G92 E0
G1 X107.750 Y103.829 F7800.000
G1 E2.00000 F2400.00000
G1 F1800.000
G1 X107.750 Y96.171 E2.22754
G1 Z0.650 F7800.000
G1 X107.025 Y104.375 F7800.000
G1 F900.000
G1 X106.684 Y104.623 E2.23623
G1 X106.081 Y104.954 E2.25040
G1 X105.442 Y105.208 E2.26457
G1 X104.776 Y105.379 E2.27874
G1 X104.094 Y105.465 E2.29292
G1 X103.406 Y105.465 E2.30709
G1 X102.724 Y105.379 E2.32126
G1 X102.058 Y105.208 E2.33543
G1 X101.419 Y104.954 E2.34961
G1 X100.816 Y104.623 E2.36378
G1 X100.475 Y104.375 E2.37247
G1 X100.475 Y95.625 E2.55282
G1 X100.816 Y95.377 E2.56151
G1 X101.419 Y95.046 E2.57568
G1 X102.058 Y94.792 E2.58985
G1 X102.724 Y94.621 E2.60403
G1 X103.406 Y94.535 E2.61820
G1 X104.094 Y94.535 E2.63237
G1 X104.776 Y94.621 E2.64654
G1 X105.442 Y94.792 E2.66071
G1 X106.081 Y95.046 E2.67489
G1 X106.684 Y95.377 E2.68906
G1 X107.025 Y95.625 E2.69775
G1 X107.025 Y104.300 E2.87656
G1 X107.201 Y104.758 F7800.000
G1 E0.87656 F2400.00000
G92 E0
G1 X99.279 Y100.684 F7800.000
G1 E2.00000 F2400.00000
G1 F900.000
G1 X98.927 Y100.712 E2.00951
G1 X98.897 Y100.517 E2.01482
G1 X98.870 Y100.013 E2.02845
G1 X98.898 Y99.471 E2.04309
G1 X98.927 Y99.286 E2.04814
G1 X99.279 Y99.314 E2.05765
G1 X99.279 Y100.609 E2.09260
G1 X99.914 Y103.994 F7800.000
G1 F900.000
G1 X99.253 Y103.177 E2.12097
G1 X98.951 Y102.713 E2.13590
G1 X98.700 Y102.220 E2.15083
G1 X98.498 Y101.694 E2.16601
G1 X98.354 Y101.157 E2.18101
G1 X98.264 Y100.584 E2.19666
G1 X98.233 Y100.013 E2.21209
G1 X98.265 Y99.404 E2.22853
G1 X98.354 Y98.843 E2.24385
G1 X98.498 Y98.306 E2.25886
G1 X98.700 Y97.780 E2.27404
G1 X98.951 Y97.287 E2.28897
G1 X99.253 Y96.823 E2.30390
G1 X99.914 Y96.006 E2.33227
G1 X99.914 Y103.919 E2.54574
G1 X99.555 Y104.353 F7800.000
G1 F900.000
G1 X99.180 Y103.978 E2.55667
G1 X98.798 Y103.507 E2.56917
G1 X98.465 Y102.994 E2.58179
G1 X98.187 Y102.448 E2.59441
G1 X97.964 Y101.867 E2.60722
G1 X97.805 Y101.274 E2.61989
G1 X97.705 Y100.643 E2.63306
G1 X97.672 Y100.013 E2.64605
G1 X97.707 Y99.345 E2.65984
G1 X97.805 Y98.727 E2.67275
G1 X97.964 Y98.133 E2.68542
G1 X98.187 Y97.552 E2.69824
G1 X98.465 Y97.006 E2.71086
G1 X98.798 Y96.493 E2.72347
G1 X99.180 Y96.022 E2.73597
G1 X99.613 Y95.589 E2.74858
G1 X100.084 Y95.207 E2.76109
G1 X100.597 Y94.874 E2.77370
G1 X101.138 Y94.598 E2.78621
G1 X101.709 Y94.379 E2.79882
G1 X102.296 Y94.222 E2.81134
G1 X102.904 Y94.125 E2.82403
G1 X103.750 Y94.075 E2.84150
G1 X104.369 Y94.108 E2.85428
G1 X104.982 Y94.205 E2.86707
G1 X105.641 Y94.378 E2.88111
G1 X106.208 Y94.596 E2.89362
G1 X106.749 Y94.871 E2.90614
G1 X107.259 Y95.202 E2.91867
G1 X107.731 Y95.585 E2.93120
G1 X108.161 Y96.014 E2.94371
G1 X108.475 Y96.403 E2.95401
G1 X108.475 Y103.597 E3.10230
G1 X108.161 Y103.986 E3.11259
G1 X107.731 Y104.415 E3.12512
G1 X107.259 Y104.798 E3.13764
G1 X106.749 Y105.129 E3.15016
G1 X106.208 Y105.404 E3.16268
G1 X105.641 Y105.622 E3.17520
G1 X105.053 Y105.780 E3.18774
G1 X104.368 Y105.892 E3.20204
G1 X103.751 Y105.925 E3.21479
G1 X102.901 Y105.875 E3.23232
G1 X102.296 Y105.778 E3.24496
G1 X101.709 Y105.621 E3.25748
G1 X101.138 Y105.402 E3.27009
G1 X100.597 Y105.126 E3.28260
G1 X100.088 Y104.796 E3.29512
G1 X99.608 Y104.406 E3.30785
G1 X99.670 Y103.867 F7800.000
G1 X99.455 Y102.905 F7800.000
G1 F1200.000
G1 X99.322 Y102.187 E3.32687
G1 F1200.000
G1 X99.189 Y101.470 E3.34870
G1 F1200.000
G1 X99.129 Y101.015 E3.36356
G1 X99.129 Y98.983 F7800.000
G1 F1200.000
G1 X99.255 Y98.172 E3.39011
G1 F1200.000
G1 X99.388 Y97.454 E3.41195
G1 F1200.000
G1 X99.455 Y97.095 E3.42146
G1 E1.42146 F2400.00000
G92 E0
G1 X107.750 Y96.000 F7800.000
G1 E2.00000 F2400.00000
G1 F1200.000
G1 X107.750 Y104.000 E2.28010
G1 Z0.950 F7800.000
G1 E0.28010 F2400.00000
G92 E0
G1 X100.475 Y104.375 F7800.000
G1 E2.00000 F2400.00000
G1 F900.000
G1 X100.475 Y95.625 E2.18036
G1 X100.816 Y95.377 E2.18904
G1 X101.419 Y95.046 E2.20322
G1 X102.069 Y94.788 E2.21763
G1 X102.724 Y94.621 E2.23157
G1 X103.406 Y94.535 E2.24573
G1 X104.094 Y94.535 E2.25991
G1 X104.776 Y94.621 E2.27408
G1 X105.442 Y94.792 E2.28825
G1 X106.081 Y95.046 E2.30242
G1 X106.684 Y95.377 E2.31660
G1 X107.025 Y95.625 E2.32528
G1 X107.025 Y104.375 E2.50564
G1 X106.684 Y104.623 E2.51433
G1 X106.081 Y104.954 E2.52850
G1 X105.442 Y105.208 E2.54267
G1 X104.776 Y105.379 E2.55684
G1 X104.094 Y105.465 E2.57102
G1 X103.406 Y105.465 E2.58519
G1 X102.724 Y105.379 E2.59936
G1 X102.058 Y105.208 E2.61353
G1 X101.419 Y104.954 E2.62771
G1 X100.816 Y104.623 E2.64188
G1 X100.536 Y104.419 E2.64902
G1 X99.983 Y104.284 F7800.000
G1 X99.279 Y101.230 F7800.000
G1 F900.000
G1 X98.947 Y101.274 E2.65804
G1 X98.887 Y101.049 E2.66433
G1 X98.807 Y100.550 E2.67794
G1 X98.778 Y99.980 E2.69336
G1 X98.805 Y99.468 E2.70718
G1 X98.884 Y98.966 E2.72090
G1 X98.947 Y98.730 E2.72749
G1 X99.279 Y98.773 E2.73651
G1 X99.279 Y101.155 E2.80077
G1 X99.914 Y104.028 F7800.000
G1 F900.000
G1 X99.497 Y103.611 E2.81669
G1 X99.157 Y103.191 E2.83125
G1 X98.858 Y102.731 E2.84605
G1 X98.609 Y102.242 E2.86085
G1 X98.408 Y101.716 E2.87606
G1 X98.264 Y101.182 E2.89099
G1 X98.174 Y100.617 E2.90641
G1 X98.141 Y99.979 E2.92364
G1 X98.172 Y99.402 E2.93924
G1 X98.261 Y98.834 E2.95475
G1 X98.412 Y98.271 E2.97046
G1 X98.609 Y97.758 E2.98529
G1 X98.858 Y97.269 E3.00011
G1 X99.157 Y96.809 E3.01491
G1 X99.497 Y96.389 E3.02947
G1 X99.914 Y95.972 E3.04540
G1 X99.914 Y103.953 E3.26072
G1 X99.565 Y104.461 F7800.000
G1 F900.000
G1 X99.080 Y103.986 E3.27470
G1 X98.703 Y103.521 E3.28703
G1 X98.372 Y103.012 E3.29955
G1 X98.096 Y102.471 E3.31208
G1 X97.874 Y101.889 E3.32491
G1 X97.715 Y101.299 E3.33751
G1 X97.616 Y100.676 E3.35051
G1 X97.580 Y99.979 E3.36489
G1 X97.614 Y99.343 E3.37801
G1 X97.712 Y98.718 E3.39107
G1 X97.878 Y98.098 E3.40429
G1 X98.096 Y97.529 E3.41684
G1 X98.372 Y96.988 E3.42937
G1 X98.703 Y96.479 E3.44188
G1 X99.080 Y96.014 E3.45421
G1 X99.509 Y95.584 E3.46672
G1 X99.980 Y95.203 E3.47922
G1 X100.483 Y94.877 E3.49157
G1 X101.017 Y94.605 E3.50392
G1 X101.583 Y94.387 E3.51643
G1 X102.162 Y94.232 E3.52879
G1 X102.766 Y94.136 E3.54138
G1 X103.750 Y94.075 E3.56170
G1 X104.369 Y94.108 E3.57449
G1 X104.983 Y94.205 E3.58729
G1 X105.678 Y94.386 E3.60208
G1 X106.237 Y94.600 E3.61443
G1 X106.771 Y94.873 E3.62679
G1 X107.275 Y95.200 E3.63916
G1 X107.741 Y95.578 E3.65154
G1 X108.165 Y96.002 E3.66390
G1 X108.475 Y96.384 E3.67404
G1 X108.475 Y103.616 E3.82309
G1 X108.165 Y103.998 E3.83324
G1 X107.741 Y104.423 E3.84561
G1 X107.275 Y104.800 E3.85797
G1 X106.771 Y105.127 E3.87034
G1 X106.237 Y105.400 E3.88270
G1 X105.678 Y105.614 E3.89505
G1 X104.983 Y105.795 E3.90985
G1 X104.369 Y105.892 E3.92265
G1 X103.751 Y105.925 E3.93540
G1 X102.764 Y105.864 E3.95580
G1 X102.170 Y105.770 E3.96819
G1 X101.583 Y105.613 E3.98070
G1 X101.017 Y105.395 E3.99321
G1 X100.483 Y105.123 E4.00556
G1 X99.980 Y104.797 E4.01791
G1 X99.623 Y104.508 E4.02738
G1 X99.575 Y104.390 F7800.000
G1 X99.158 Y98.437 F7800.000
G1 F1200.000
G1 X99.429 Y96.979 E4.07000
G1 E2.07000 F2400.00000
G92 E0
G1 X107.750 Y95.983 F7800.000
G1 E2.00000 F2400.00000
G1 F1200.000
G1 X107.750 Y104.017 E2.28132
M106 S247.35
G1 Z1.250 F7800.000
G1 E0.28132 F2400.00000
G92 E0
G1 X100.475 Y104.375 F7800.000
G1 E2.00000 F2400.00000
G1 F900.000
G1 X100.475 Y95.625 E2.18036
G1 X100.816 Y95.377 E2.18904
G1 X101.419 Y95.046 E2.20322
G1 X102.058 Y94.792 E2.21739
G1 X102.724 Y94.621 E2.23156
G1 X103.406 Y94.535 E2.24573
G1 X104.094 Y94.535 E2.25990
G1 X104.776 Y94.621 E2.27408
G1 X105.442 Y94.792 E2.28825
G1 X106.081 Y95.046 E2.30242
G1 X106.684 Y95.377 E2.31659
G1 X107.025 Y95.625 E2.32528
G1 X107.025 Y104.375 E2.50564
G1 X106.684 Y104.623 E2.51433
G1 X106.081 Y104.954 E2.52850
G1 X105.442 Y105.208 E2.54267
G1 X104.776 Y105.379 E2.55684
G1 X104.094 Y105.465 E2.57102
G1 X103.406 Y105.465 E2.58519
G1 X102.724 Y105.379 E2.59936
G1 X102.058 Y105.208 E2.61353
G1 X101.419 Y104.954 E2.62770
G1 X100.816 Y104.623 E2.64188
G1 X100.536 Y104.419 E2.64902
G1 X99.983 Y104.284 F7800.000
G1 X99.279 Y101.591 F7800.000
G1 F900.000
G1 X98.947 Y101.634 E2.65804
G1 X98.797 Y101.074 E2.67370
G1 X98.717 Y100.571 E2.68742
G1 X98.686 Y99.972 E2.70361
G1 X98.713 Y99.454 E2.71761
G1 X98.793 Y98.946 E2.73147
G1 X98.947 Y98.370 E2.74756
G1 X99.279 Y98.413 E2.75659
G1 X99.279 Y101.516 E2.84028
G1 X99.914 Y104.137 F7800.000
G1 F900.000
G1 X99.397 Y103.619 E2.86003
G1 X99.062 Y103.206 E2.87437
G1 X98.766 Y102.750 E2.88904
G1 X98.519 Y102.265 E2.90372
G1 X98.317 Y101.738 E2.91895
G1 X98.175 Y101.206 E2.93380
G1 X98.084 Y100.638 E2.94932
G1 X98.049 Y99.971 E2.96733
G1 X98.080 Y99.388 E2.98310
G1 X98.170 Y98.815 E2.99875
G1 X98.323 Y98.244 E3.01467
G1 X98.518 Y97.735 E3.02939
G1 X98.766 Y97.250 E3.04408
G1 X99.062 Y96.794 E3.05875
G1 X99.397 Y96.381 E3.07309
G1 X99.914 Y95.863 E3.09285
G1 X99.914 Y104.062 E3.31404
G1 X99.575 Y104.558 F7800.000
G1 F900.000
G1 X99.405 Y104.420 E3.31854
G1 X98.980 Y103.995 E3.33094
G1 X98.608 Y103.536 E3.34310
G1 X98.280 Y103.031 E3.35552
G1 X98.006 Y102.494 E3.36795
G1 X97.783 Y101.911 E3.38080
G1 X97.626 Y101.324 E3.39334
G1 X97.525 Y100.697 E3.40641
G1 X97.488 Y99.971 E3.42140
G1 X97.522 Y99.329 E3.43465
G1 X97.621 Y98.699 E3.44780
G1 X97.789 Y98.071 E3.46119
G1 X98.006 Y97.507 E3.47366
G1 X98.280 Y96.969 E3.48609
G1 X98.608 Y96.464 E3.49851
G1 X98.980 Y96.005 E3.51067
G1 X99.405 Y95.580 E3.52307
G1 X99.872 Y95.202 E3.53547
G1 X100.368 Y94.880 E3.54765
G1 X100.895 Y94.611 E3.55984
G1 X101.457 Y94.395 E3.57225
G1 X102.029 Y94.242 E3.58445
G1 X102.628 Y94.146 E3.59695
G1 X103.750 Y94.075 E3.62012
G1 X104.369 Y94.108 E3.63290
G1 X104.983 Y94.205 E3.64571
G1 X105.714 Y94.393 E3.66126
G1 X106.266 Y94.605 E3.67345
G1 X106.793 Y94.874 E3.68566
G1 X107.290 Y95.197 E3.69787
G1 X107.751 Y95.570 E3.71010
G1 X108.170 Y95.989 E3.72230
G1 X108.475 Y96.365 E3.73229
G1 X108.475 Y103.635 E3.88210
G1 X108.170 Y104.011 E3.89209
G1 X107.751 Y104.430 E3.90431
