; generated by Slic3r 1.3.1-dev (Build 2ef957d) on 2019-11-25 at 09:22:16

; external perimeters extrusion width = 0.55mm (4.37mm^3/s)
; perimeters extrusion width = 0.70mm (11.44mm^3/s)
; infill extrusion width = 0.62mm (13.45mm^3/s)
; solid infill extrusion width = 0.70mm (3.81mm^3/s)
; top infill extrusion width = 0.70mm (2.86mm^3/s)

M107
G92 E0
M104 S200 ; set temperature
G28 ; home all axes
G1 Z5 F5000 ; lift nozzle

; Filament gcode

M109 S200 ; set temperature and wait for it to be reached
G21 ; set units to millimeters
G90 ; use absolute coordinates
M82 ; use absolute distances for extrusion
G92 E0
G1 Z0.350 F7800.000
G1 E-2.00000 F2400.00000
G92 E0
G1 X81.677 Y85.837 F7800.000
G1 E2.00000 F2400.00000
G1 F653.412
G1 X83.370 Y84.290 E2.07096
G1 X85.490 Y83.414 E2.14192
G1 X87.347 Y83.270 E2.19958
G1 X87.961 Y83.316 E2.21862
G1 X90.112 Y83.546 E2.28555
G1 X92.108 Y83.883 E2.34820
G1 X92.865 Y84.063 E2.37225
G1 X93.931 Y84.384 E2.40671
G1 X95.414 Y85.036 E2.45683
G1 X97.177 Y86.503 E2.52779
G1 X98.334 Y88.483 E2.59875
G1 X98.746 Y90.739 E2.66971
G1 X98.365 Y93.001 E2.74068
G1 X97.235 Y94.997 E2.81164
G1 X95.493 Y96.488 E2.88260
G1 X93.346 Y97.296 E2.95356
G1 X92.122 Y97.410 E2.99162
G1 X86.959 Y97.410 E3.15135
G1 X84.700 Y97.013 E3.22231
G1 X82.712 Y95.869 E3.29328
G1 X81.233 Y94.117 E3.36424
G1 X80.339 Y91.044 E3.46325
G1 X80.304 Y90.141 E3.49122
G1 X80.612 Y87.868 E3.56218
G1 X81.642 Y85.903 E3.63082
G1 E1.63082 F2400.00000
G92 E0
G1 X91.727 Y90.714 F7800.000
G1 E2.00000 F2400.00000
G1 F1800.000
G1 X91.401 Y90.666 E2.00220
G1 F1800.000
G1 X91.075 Y90.618 E2.00581
G1 F1800.000
G1 X90.653 Y90.571 E2.01227
G1 F1800.000
G1 X90.136 Y90.526 E2.02251
G1 F1800.000
G1 X89.618 Y90.480 E2.03508
G1 F1800.000
G1 X88.876 Y90.432 E2.05643
G1 F1800.000
G1 X87.909 Y90.380 E2.08829
G1 F1800.000
G1 X86.941 Y90.328 E2.12423
G1 Z0.650 F7800.000
G1 E0.12423 F2400.00000
G92 E0
G1 X93.887 Y112.330 F7800.000
G1 E2.00000 F2400.00000

G1 F3600.000
G1 X93.423 Y112.399 E2.01303
G1 X91.333 Y112.580 E2.07132
G1 X88.432 Y112.719 E2.15197
G1 X87.165 Y112.748 E2.18719
G1 X87.139 Y112.060 E2.20631
G1 X93.867 Y112.060 E2.39320
G1 X93.881 Y112.255 E2.39863

G1 X93.877 Y112.195 F7800.000
G1 F1800.000
G1 X94.899 Y112.119 E2.42618
G1 F1800.000
G1 X95.453 Y112.049 E2.43946
G1 F1800.000
G1 X96.007 Y111.980 E2.45066
G1 F1800.000
G1 X96.561 Y111.910 E2.45979
G1 E0.45979 F2400.00000
G92 E0
G1 X88.777 Y112.381 F7800.000
G1 E2.00000 F2400.00000
G1 F600.000
G1 X87.432 Y112.401 E2.00198
G1 E0.00198 F2400.00000
G92 E0
G1 X97.770 Y90.293 F7800.000
G1 E2.00000 F2400.00000

G1 F3600.000
G1 X97.712 Y90.510 E2.00622
G1 X92.144 Y90.510 E2.16088

G1 F1800.000
G1 X86.698 Y90.510 E2.27313

G1 F3600.000
G1 X86.353 Y90.510 E2.28271
G1 X86.306 Y89.197 E2.31920
G1 X88.075 Y89.225 E2.36836
G1 X91.350 Y89.342 E2.45938
G1 X93.726 Y89.494 E2.52552
G1 X95.456 Y89.679 E2.57384
G1 X96.688 Y89.897 E2.60860
G1 X97.508 Y90.144 E2.63238
G1 X97.704 Y90.256 E2.63867

G1 X96.522 Y90.191 F7800.000
G1 F600.000
G1 X95.960 Y90.142 E2.64028
G1 F600.000
G1 X95.397 Y90.093 E2.64416
G1 F600.000
G1 X94.540 Y90.047 E2.65346
G1 F600.000
G1 X93.683 Y90.001 E2.66610
G1 F600.000
G1 X92.502 Y89.963 E2.68769
G1 F600.000
G1 X91.321 Y89.925 E2.71307
G1 F600.000
G1 X89.146 Y89.887 E2.76686
G1 F600.000
G1 X86.610 Y89.856 E2.83788
G1 Z0.950 F7800.000
G1 E0.83788 F2400.00000
G92 E0
G1 X86.614 Y112.060 F7800.000
G1 E2.00000 F2400.00000
G1 F1800.000
G1 X96.830 Y112.060 E2.21056

G1 F3600.000
G1 X102.060 Y112.060 E2.35585
G1 X102.020 Y112.406 E2.36551
G1 X101.865 Y112.590 E2.37222
G1 X101.426 Y112.802 E2.38575
G1 X100.645 Y113.002 E2.40814
G1 X99.482 Y113.175 E2.44082
G1 X97.843 Y113.317 E2.48651
G1 X95.568 Y113.426 E2.54978
G1 X92.375 Y113.497 E2.63850
G1 X87.754 Y113.520 E2.76687
G1 X86.474 Y113.510 E2.80241
G1 X86.424 Y112.060 E2.84272
G1 X86.539 Y112.060 E2.84590

G1 X86.730 Y112.786 F7800.000
G1 F600.000
G1 X92.365 Y112.779 E3.04554
G1 F600.000
G1 X95.544 Y112.743 E3.15039
G1 F600.000
G1 X97.048 Y112.707 E3.19546
G1 F600.000
G1 X98.339 Y112.666 E3.23018
G1 F600.000
G1 X99.416 Y112.619 E3.25489
G1 F600.000
G1 X99.984 Y112.577 E3.26579
G1 F600.000
G1 X100.551 Y112.535 E3.27467
G1 F600.000
G1 X101.077 Y112.469 E3.28094
G1 F600.000
G1 X101.602 Y112.403 E3.28510
G1 E1.28510 F2400.00000
G92 E0
G1 X86.222 Y89.949 F7800.000
G1 E2.00000 F2400.00000
G1 F1728.972
G1 X86.195 Y89.151 E2.02155
G1 X91.663 Y89.156 E2.16907
G1 X95.977 Y89.238 E2.28546

G1 F3600.000
G1 X97.830 Y89.304 E2.33697
G1 X99.674 Y89.422 E2.38829
G1 X101.208 Y89.601 E2.43118
G1 X101.177 Y89.949 E2.44089
G1 X98.225 Y89.949 E2.52289

G1 F1728.972
G1 X86.297 Y89.949 E2.84468
G1 X85.680 Y90.510 F7800.000

G1 F3600.000
G1 X85.615 Y88.590 E2.89804
G1 X91.668 Y88.595 E3.06619
G1 X95.288 Y88.653 E3.16676
G1 X97.858 Y88.744 E3.23819
G1 X99.722 Y88.863 E3.29006
G1 X101.076 Y89.009 E3.32792
G1 X102.039 Y89.179 E3.35506
G1 X102.673 Y89.369 E3.37344
G1 X103.003 Y89.559 E3.38402
G1 X103.101 Y89.712 E3.38909
G1 X103.101 Y90.510 E3.41123
G1 X98.624 Y90.510 E3.53560

G1 F1800.000
G1 X85.828 Y90.510 E3.79933

G1 F3600.000
G1 X85.755 Y90.510 E3.80136

G1 X86.526 Y89.550 F7800.000
G1 F600.000
G1 X93.462 Y89.567 E3.82892
G1 F600.000
G1 X95.772 Y89.590 E3.83247
M106 S252.45
G1 Z1.250 F7800.000
G1 E1.83247 F2400.00000
G92 E0
G1 X86.374 Y112.620 F7800.000
G1 E2.00000 F2400.00000
G1 F3600.000
G1 X102.524 Y112.620 E2.43567
M106 S255

G1 F3600.000
G1 X106.851 Y112.620 E2.55587
G1 X106.791 Y113.142 E2.57045
G1 X106.268 Y113.276 E2.58543
G1 X105.475 Y113.394 E2.60772
G1 X104.316 Y113.494 E2.64003
G1 X102.683 Y113.573 E2.68543
G1 X100.021 Y113.625 E2.75939
M106 S252.45

G1 F3600.000
G1 X95.515 Y113.640 E2.88096
G1 X91.066 Y113.603 E3.00097
G1 X86.404 Y113.519 E3.12676
G1 X86.376 Y112.695 E3.14900
G1 X85.899 Y112.060 F7800.000
G1 F1800.000
G1 X102.589 Y112.060 E3.49299
M106 S255

G1 F3600.000
G1 X107.480 Y112.060 E3.62886
G1 X107.321 Y113.436 E3.66733
G1 X107.233 Y113.540 E3.67113
G1 X106.936 Y113.683 E3.68030
G1 X106.379 Y113.826 E3.69625
G1 X105.540 Y113.951 E3.71982
G1 X104.354 Y114.054 E3.75291
G1 X102.703 Y114.133 E3.79881
G1 X100.385 Y114.185 E3.86320
G1 X95.513 Y114.201 E3.99854
G1 X91.059 Y114.163 E4.12227
G1 X85.862 Y114.070 E4.26666
G1 X85.794 Y112.060 E4.32254
G1 X85.824 Y112.060 E4.32337
M106 S252.45

G1 X86.707 Y113.073 F7800.000
G1 F1200.000
G1 X95.516 Y113.130 E4.42731
G1 X100.372 Y113.122 E4.48460
G1 X102.667 Y113.097 E4.51168
G1 F1200.000
G1 X104.286 Y113.058 E4.52637
G1 F1200.000
G1 X105.429 Y113.008 E4.53245
G1 F1200.000
G1 X105.851 Y112.977 E4.53330
G1 E2.53330 F2400.00000
G92 E0
G1 X85.622 Y89.949 F7800.000
G1 E2.00000 F2400.00000
G1 F3600.000
G1 X85.580 Y88.690 E2.03400
G1 X89.278 Y88.632 E2.13375
G1 X94.551 Y88.590 E2.27602
G1 X99.867 Y88.599 E2.41942
G1 X101.964 Y88.632 E2.47600
M106 S255

G1 F3600.000
G1 X104.338 Y88.706 E2.54197
G1 X105.669 Y88.792 E2.57902
G1 X106.618 Y88.894 E2.60554
G1 X107.259 Y89.007 E2.62362
G1 X107.542 Y89.092 E2.63183
G1 X107.542 Y89.949 E2.65565
G1 X103.626 Y89.949 E2.76444
M106 S252.45

G1 F3600.000
G1 X85.697 Y89.949 E3.24810
G1 X85.079 Y90.510 F7800.000
M106 S255

G1 F3600.000
G1 X85.001 Y88.138 E3.31403
G1 X85.074 Y88.137 E3.31605
M106 S252.45

G1 F1800.000
G1 X89.988 Y88.066 E3.41733
M106 S255

G1 F3600.000
G1 X94.549 Y88.029 E3.54405
G1 X99.872 Y88.038 E3.69190
G1 X102.500 Y88.080 E3.76492
G1 X104.366 Y88.146 E3.81676
G1 X105.717 Y88.233 E3.85437
G1 X106.697 Y88.338 E3.88176
G1 X107.389 Y88.460 E3.90128
G1 X107.837 Y88.595 E3.91427
G1 X108.053 Y88.719 E3.92120
G1 X108.103 Y88.797 E3.92376
G1 X108.103 Y90.510 E3.97134
G1 X103.626 Y90.510 E4.09571
M106 S252.45

G1 F1800.000
G1 X85.154 Y90.510 E4.47641
G1 X85.320 Y90.071 F7800.000
G1 X85.919 Y89.317 F7800.000
G1 F1200.000
G1 X94.553 Y89.269 E4.71473
G1 X102.469 Y89.295 E4.93322
G1 F1200.000
G1 X104.307 Y89.327 E4.97816
G1 F1200.000
G1 X105.620 Y89.370 E5.00611
G1 F1200.000
G1 X106.544 Y89.419 E5.02222
G1 F1200.000
G1 X107.225 Y89.479 E5.03137
M106 S247.35
G1 Z1.550 F7800.000
G1 E3.03137 F2400.00000
G92 E0
G1 X99.130 Y113.256 F7800.000
G1 E2.00000 F2400.00000
G1 F3600.000
G1 X107.870 Y113.256 E2.23578
M106 S255

G1 F3600.000
G1 X110.117 Y113.256 E2.29818
G1 X110.126 Y113.628 E2.30852
G1 X107.804 Y113.677 E2.37303
M106 S247.35

G1 F3600.000
G1 X103.481 Y113.686 E2.48965
G1 X99.127 Y113.634 E2.60712
G1 X99.130 Y113.331 E2.61529
G1 X85.840 Y113.963 F7800.000
G1 F3600.000
G1 X85.797 Y112.620 E2.65152
G1 X107.944 Y112.620 E3.24897
M106 S255

G1 F3600.000
G1 X112.271 Y112.620 E3.36917
G1 X112.102 Y114.085 E3.41013
G1 X111.533 Y114.170 E3.42609
G1 X110.826 Y114.231 E3.44580
G1 X109.819 Y114.279 E3.47382
G1 X108.389 Y114.311 E3.51355
G1 X106.586 Y114.315 E3.56362
M106 S247.35

G1 F3600.000
G1 X103.479 Y114.321 E3.64745
G1 X100.708 Y114.298 E3.72219
G1 X96.055 Y114.215 E3.84774
G1 X85.915 Y113.965 E4.12136
G1 X85.297 Y114.510 F7800.000
M106 S255

G1 F3600.000
G1 X85.218 Y112.060 E4.18946
G1 X85.269 Y112.060 E4.19087
M106 S247.35

G1 F1800.000
G1 X108.009 Y112.060 E4.65956
M106 S255

G1 F3600.000
G1 X112.900 Y112.060 E4.79543
G1 X112.620 Y114.481 E4.86313
G1 X112.445 Y114.565 E4.86853
G1 X112.114 Y114.650 E4.87804
G1 X111.599 Y114.727 E4.89250
G1 X110.864 Y114.790 E4.91298
G1 X109.838 Y114.840 E4.94150
G1 X108.396 Y114.872 E4.98158
G1 X103.477 Y114.882 E5.11821
G1 X100.701 Y114.859 E5.19533
G1 X93.268 Y114.707 E5.40185
M106 S247.35

G1 F1800.000
G1 X85.372 Y114.512 E5.56463
G1 X85.538 Y114.072 F7800.000
G1 X86.137 Y113.295 F7800.000
G1 F1200.000
G1 X90.111 Y113.344 E5.69162
G1 F1200.000
G1 X94.085 Y113.393 E5.83455
G1 F1200.000
G1 X98.811 Y113.442 E6.02201
G1 E4.02201 F2400.00000
G92 E0
G1 X86.488 Y89.314 F7800.000
G1 E2.00000 F2400.00000
G1 F3600.000
G1 X86.484 Y88.936 E2.01018
G1 X93.811 Y88.788 E2.20789
G1 X99.600 Y88.699 E2.36408
G1 X102.880 Y88.672 E2.45257
G1 X108.628 Y88.687 E2.60762
M106 S255

G1 F3600.000
G1 X110.814 Y88.744 E2.66836
G1 X111.909 Y88.827 E2.69886
G1 X111.909 Y89.314 E2.71238
G1 X108.628 Y89.314 E2.80352
M106 S247.35

G1 F3600.000
G1 X86.563 Y89.314 E3.39877
G1 X85.064 Y89.949 F7800.000
G1 F3600.000
G1 X85.012 Y88.330 E3.44247
G1 X93.800 Y88.153 E3.67957
G1 X99.593 Y88.063 E3.83587
G1 X102.878 Y88.036 E3.92450
G1 X107.820 Y88.042 E4.05783
M106 S255

G1 F3600.000
G1 X109.699 Y88.068 E4.11000
G1 X110.846 Y88.109 E4.14188
G1 X111.664 Y88.161 E4.16467
G1 X112.239 Y88.223 E4.18072
G1 X112.544 Y88.277 E4.18934
G1 X112.544 Y89.949 E4.23580
G1 X108.628 Y89.949 E4.34459
M106 S247.35

G1 F3600.000
G1 X85.139 Y89.949 E4.97823
G1 X84.522 Y90.510 F7800.000
M106 S255

G1 F3600.000
G1 X84.434 Y87.781 E5.05407
G1 X84.464 Y87.780 E5.05492
M106 S247.35

G1 F1800.000
G1 X93.790 Y87.592 E5.24716
G1 X99.018 Y87.511 E5.35493
M106 S255

G1 F3600.000
G1 X102.876 Y87.476 E5.46211
G1 X108.076 Y87.482 E5.60655
G1 X109.713 Y87.508 E5.65203
G1 X110.873 Y87.549 E5.68428
G1 X111.712 Y87.603 E5.70763
G1 X112.318 Y87.668 E5.72454
G1 X112.740 Y87.742 E5.73644
G1 X113.002 Y87.821 E5.74405
G1 X113.105 Y87.880 E5.74735
G1 X113.105 Y90.510 E5.82040
G1 X108.628 Y90.510 E5.94477
M106 S247.35

G1 F1800.000
G1 X84.597 Y90.510 E6.44006
G1 X84.584 Y90.014 F7800.000
M106 S234.6
G1 Z1.850 F7800.000
G1 E4.44006 F2400.00000
G92 E0
G1 X85.914 Y113.256 F7800.000
G1 E2.00000 F2400.00000
G1 F3600.000
G1 X113.290 Y113.256 E2.73851
M106 S255

G1 F3600.000
G1 X116.911 Y113.256 E2.83908
G1 X116.911 Y113.833 E2.85510
G1 X116.851 Y114.352 E2.86961
G1 X113.162 Y114.367 E2.97208
M106 S234.6

G1 F3600.000
G1 X111.451 Y114.367 E3.01825
G1 X108.524 Y114.325 E3.09720
G1 X94.402 Y113.946 E3.47830
G1 X85.928 Y113.696 E3.70699
G1 X85.917 Y113.331 E3.71685
G1 X85.258 Y112.620 F7800.000
G1 F3600.000
G1 X113.364 Y112.620 E4.47504
M106 S255

G1 F3600.000
G1 X117.547 Y112.620 E4.59123
G1 X117.547 Y113.870 E4.62592
G1 X117.420 Y114.964 E4.65652
G1 X115.575 Y115.003 E4.70778
G1 X112.747 Y115.003 E4.78633
M106 S234.6

G1 F3600.000
G1 X111.446 Y115.003 E4.82143
G1 X108.511 Y114.960 E4.90061
G1 X94.384 Y114.582 E5.28184
G1 X85.312 Y114.314 E5.52669
G1 X85.261 Y112.695 E5.57037
G1 X84.680 Y112.060 F7800.000
M106 S255

G1 F3600.000
G1 X84.693 Y112.060 E5.57073
M106 S234.6

G1 F1800.000
G1 X113.429 Y112.060 E6.16300
M106 S255

G1 F3600.000
G1 X118.107 Y112.060 E6.29295
G1 X118.107 Y113.902 E6.34411
G1 X117.926 Y115.465 E6.38782
G1 X117.371 Y115.527 E6.40334
G1 X116.975 Y115.546 E6.41435
G1 X111.442 Y115.563 E6.56805
G1 X108.500 Y115.521 E6.64980
G1 X104.249 Y115.407 E6.76791
M106 S234.6

G1 F1800.000
G1 X94.369 Y115.142 E6.97162
G1 X84.783 Y114.859 E7.16927
M106 S255

G1 F3600.000
G1 X84.768 Y114.859 E7.16967
G1 X84.682 Y112.135 E7.24537
M106 S234.6

G1 E5.24537 F2400.00000
G92 E0
G1 X95.467 Y113.615 F7800.000
G1 E2.00000 F2400.00000
G1 F1200.000
G1 X99.201 Y113.665 E2.01893
G1 F1200.000
G1 X102.935 Y113.715 E2.05367
G1 F1200.000
G1 X106.668 Y113.766 E2.10424
G1 F1200.000
G1 X111.455 Y113.811 E2.18577
G1 X116.360 Y113.807 E2.26932
G1 X116.593 Y113.599 E2.27465
G1 E0.27465 F2400.00000
G92 E0
G1 X85.156 Y89.314 F7800.000
G1 E2.00000 F2400.00000
G1 F3600.000
G1 X85.136 Y88.666 E2.01747
G1 X107.628 Y88.165 E2.62438
G1 X111.211 Y88.119 E2.72106
G1 X113.630 Y88.120 E2.78631
M106 S255

G1 F3600.000
G1 X116.911 Y88.137 E2.87745
G1 X116.911 Y89.314 E2.91014
G1 X113.630 Y89.314 E3.00128
M106 S234.6

G1 F3600.000
G1 X85.231 Y89.314 E3.76738
G1 X84.540 Y89.949 F7800.000
G1 F3600.000
G1 X84.480 Y88.045 E3.81878
G1 X107.616 Y87.529 E4.44307
G1 X111.207 Y87.483 E4.53994
G1 X113.470 Y87.484 E4.60099
M106 S255

G1 F3600.000
G1 X116.272 Y87.486 E4.67883
G1 X117.547 Y87.528 E4.71424
G1 X117.547 Y89.949 E4.78151
G1 X113.630 Y89.949 E4.89030
M106 S234.6

G1 F3600.000
G1 X84.615 Y89.949 E5.67302
G1 X83.997 Y90.510 F7800.000
G1 F1800.000
G1 X83.902 Y87.497 E5.73514
G1 X108.289 Y86.960 E6.23788
M106 S255

G1 F3600.000
G1 X111.204 Y86.923 E6.31887
G1 X116.279 Y86.925 E6.45985
G1 X117.380 Y86.951 E6.49045
G1 X117.935 Y86.997 E6.50590
G1 X118.107 Y87.036 E6.51081
G1 X118.107 Y90.510 E6.60730
G1 X113.630 Y90.510 E6.73167
M106 S234.6

G1 F1800.000
G1 X84.072 Y90.510 E7.34087
G1 X84.122 Y90.026 F7800.000
G1 E5.34087 F2400.00000
G92 E0
G1 X88.337 Y88.954 F7800.000
G1 E2.00000 F2400.00000
G1 F1200.000
G1 X92.626 Y88.906 E2.02094
G1 F1200.000
G1 X96.915 Y88.859 E2.05925
G1 F1200.000
G1 X101.204 Y88.811 E2.11493
G1 F1200.000
G1 X105.493 Y88.763 E2.18798
G1 F1200.000
G1 X111.215 Y88.716 E2.30757
G1 X116.593 Y88.721 E2.41999
M106 S226.95
G1 Z2.150 F7800.000
G1 E0.41999 F2400.00000
G92 E0
G1 X85.403 Y113.256 F7800.000
G1 E2.00000 F2400.00000
G1 F3600.000
G1 X118.632 Y113.256 E2.89641
M106 S255

G1 F3600.000
G1 X120.206 Y113.256 E2.94012
G1 X120.206 Y114.836 E2.98400
G1 X118.527 Y114.839 E3.03063
M106 S226.95

G1 F3600.000
G1 X116.649 Y114.843 E3.08130
G1 X112.577 Y114.767 E3.19117
G1 X85.426 Y113.979 E3.92392
G1 X85.405 Y113.331 E3.94140
G1 X84.747 Y112.620 F7800.000
G1 F3600.000
G1 X118.632 Y112.620 E4.85550
M106 S255

G1 F3600.000
G1 X120.842 Y112.620 E4.91687
G1 X120.842 Y115.470 E4.99601
G1 X118.454 Y115.475 E5.06235
M106 S226.95

G1 F3600.000
G1 X116.643 Y115.479 E5.11118
G1 X112.561 Y115.403 E5.22132
G1 X84.809 Y114.597 E5.97030
G1 X84.750 Y112.695 E6.02161
G1 X84.169 Y112.060 F7800.000
G1 F1800.000
G1 X118.632 Y112.060 E6.73191
M106 S255

G1 F3600.000
G1 X121.402 Y112.060 E6.80885
G1 X121.402 Y116.029 E6.91911
G1 X117.566 Y116.038 E7.02567
M106 S226.95

G1 F1800.000
G1 X116.639 Y116.040 E7.04478
G1 X112.548 Y115.963 E7.12911
G1 X84.265 Y115.142 E7.71228
G1 X84.171 Y112.135 E7.77428
G1 X84.668 Y112.083 F7800.000
G1 E5.77428 F2400.00000
G92 E0
G1 X85.732 Y113.622 F7800.000
G1 E2.00000 F2400.00000
G1 F1200.000
G1 X89.090 Y113.670 E2.01854
G1 F1200.000
G1 X92.448 Y113.719 E2.05095
G1 F1200.000
G1 X95.806 Y113.768 E2.09723
G1 F1200.000
G1 X99.164 Y113.817 E2.15739
G1 F1200.000
G1 X102.521 Y113.866 E2.23142
G1 F1200.000
G1 X105.879 Y113.914 E2.31933
G1 F1200.000
G1 X109.237 Y113.963 E2.42111
G1 F1200.000
G1 X112.595 Y114.012 E2.53676
G1 F1200.000
G1 X116.655 Y114.050 E2.68968
G1 X119.888 Y114.046 E2.81143
G1 E0.81143 F2400.00000
G92 E0
