; Gcode updated with 'stl_info' on 2019-12-09 21:32:11.666550

; stl_min_x = 0.0
; stl_max_x = 11.0
; stl_min_y = -5.0
; stl_max_y = 20.0
; stl_min_z = 0.0

; generated by Slic3r 1.3.1-dev (Build adea0d9) on 2019-12-09 at 21:32:10

; external perimeters extrusion width = 0.44mm (2.86mm^3/s)
; perimeters extrusion width = 0.56mm (4.14mm^3/s)
; infill extrusion width = 0.50mm (3.66mm^3/s)
; solid infill extrusion width = 0.56mm (3.10mm^3/s)
; top infill extrusion width = 0.56mm (3.10mm^3/s)

M107
G92 E0
;D3D:START:START
T0
M104 S215 T0

G21
G90
M107
T0
G28
G29
M109 T0 S215 T0
G0 F3000
M107
T0
G92 E0
G0 X0 Y149 Z0.1 F3600
G1 Y49 E6.5 F1200
G0 Z1
G92 E0
; Filament gcode

G21 ; set units to millimeters
G90 ; use absolute coordinates
M82 ; use absolute distances for extrusion
G92 E0
G1 Z0.300 F7800.000
G1 E-2.00000 F2400.00000
G92 E0
G1 X74.961 Y80.791 F7800.000
G1 E2.00000 F2400.00000
G1 F1800.000
G1 X75.350 Y80.508 E2.01593
G1 X75.789 Y80.312 E2.03186
G1 X76.260 Y80.213 E2.04779
G1 X76.740 Y80.213 E2.06372
G1 X77.211 Y80.312 E2.07965
G1 X77.650 Y80.508 E2.09558
G1 X78.039 Y80.791 E2.11151
G1 X78.361 Y81.148 E2.12744
G1 X78.601 Y81.564 E2.14337
G1 X78.750 Y82.022 E2.15930
G1 X78.800 Y82.500 E2.17523
G1 X78.750 Y82.978 E2.19116
G1 X78.601 Y83.436 E2.20709
G1 X78.361 Y83.852 E2.22302
G1 X78.039 Y84.209 E2.23895
G1 X77.650 Y84.492 E2.25488
G1 X77.211 Y84.688 E2.27081
G1 X76.740 Y84.787 E2.28674
G1 X76.260 Y84.787 E2.30267
G1 X75.789 Y84.688 E2.31860
G1 X75.350 Y84.492 E2.33453
G1 X74.961 Y84.209 E2.35046
G1 X74.639 Y83.852 E2.36639
G1 X74.399 Y83.436 E2.38232
G1 X74.250 Y82.978 E2.39825
G1 X74.200 Y82.500 E2.41418
G1 X74.250 Y82.022 E2.43011
G1 X74.399 Y81.564 E2.44604
G1 X74.639 Y81.148 E2.46198
G1 X74.921 Y80.835 E2.47592
G1 X75.140 Y80.989 F7800.000
G1 F1800.000
G1 X75.483 Y80.739 E2.49000
G1 X75.872 Y80.566 E2.50408
G1 X76.288 Y80.478 E2.51816
G1 X76.712 Y80.478 E2.53224
G1 X77.128 Y80.566 E2.54632
G1 X77.517 Y80.739 E2.56040
G1 X77.860 Y80.989 E2.57448
G1 X78.145 Y81.305 E2.58856
G1 X78.357 Y81.673 E2.60264
G1 X78.489 Y82.077 E2.61672
G1 X78.533 Y82.500 E2.63080
G1 X78.489 Y82.923 E2.64488
G1 X78.357 Y83.327 E2.65896
G1 X78.145 Y83.695 E2.67304
G1 X77.860 Y84.011 E2.68712
G1 X77.517 Y84.261 E2.70120
G1 X77.128 Y84.434 E2.71528
G1 X76.712 Y84.522 E2.72936
G1 X76.288 Y84.522 E2.74344
G1 X75.872 Y84.434 E2.75752
G1 X75.483 Y84.261 E2.77161
G1 X75.140 Y84.011 E2.78568
G1 X74.855 Y83.695 E2.79976
G1 X74.643 Y83.327 E2.81384
G1 X74.511 Y82.923 E2.82792
G1 X74.467 Y82.500 E2.84201
G1 X74.511 Y82.077 E2.85609
G1 X74.643 Y81.673 E2.87017
G1 X74.855 Y81.305 E2.88425
G1 X75.100 Y81.034 E2.89634
G1 X75.318 Y81.188 F7800.000
G1 F1800.000
G1 X75.617 Y80.971 E2.90857
G1 X75.954 Y80.821 E2.92080
G1 X76.315 Y80.744 E2.93303
G1 X76.685 Y80.744 E2.94526
G1 X77.046 Y80.821 E2.95749
G1 X77.383 Y80.971 E2.96972
G1 X77.682 Y81.188 E2.98195
G1 X77.929 Y81.462 E2.99418
G1 X78.113 Y81.782 E3.00642
G1 X78.227 Y82.133 E3.01865
G1 X78.266 Y82.500 E3.03088
G1 X78.227 Y82.867 E3.04311
G1 X78.113 Y83.218 E3.05534
G1 X77.929 Y83.538 E3.06757
G1 X77.682 Y83.812 E3.07980
G1 X77.383 Y84.029 E3.09203
G1 X77.046 Y84.179 E3.10426
G1 X76.685 Y84.256 E3.11649
G1 X76.315 Y84.256 E3.12872
G1 X75.954 Y84.179 E3.14095
G1 X75.617 Y84.029 E3.15318
G1 X75.318 Y83.812 E3.16541
G1 X75.071 Y83.538 E3.17764
G1 X74.887 Y83.218 E3.18987
G1 X74.773 Y82.867 E3.20210
G1 X74.734 Y82.500 E3.21434
G1 X74.773 Y82.133 E3.22657
G1 X74.887 Y81.782 E3.23880
G1 X75.071 Y81.462 E3.25103
G1 X75.278 Y81.232 E3.26127
G1 E1.26127 F2400.00000
G92 E0
G1 X76.260 Y74.787 F7800.000
G1 E2.00000 F2400.00000
G1 F1800.000
G1 X75.789 Y74.687 E2.01593
G1 X75.350 Y74.492 E2.03186
G1 X74.961 Y74.209 E2.04779
G1 X74.639 Y73.852 E2.06372
G1 X74.399 Y73.436 E2.07965
G1 X74.250 Y72.978 E2.09558
G1 X74.200 Y72.500 E2.11151
G1 X74.250 Y72.022 E2.12744
G1 X74.399 Y71.564 E2.14337
G1 X74.639 Y71.148 E2.15930
G1 X74.961 Y70.791 E2.17523
G1 X75.350 Y70.508 E2.19116
G1 X75.789 Y70.313 E2.20709
G1 X76.260 Y70.213 E2.22302
G1 X76.740 Y70.213 E2.23895
G1 X77.211 Y70.313 E2.25488
G1 X77.650 Y70.508 E2.27081
G1 X78.039 Y70.791 E2.28674
G1 X78.361 Y71.148 E2.30267
G1 X78.601 Y71.564 E2.31860
G1 X78.750 Y72.022 E2.33453
G1 X78.800 Y72.500 E2.35046
G1 X78.750 Y72.978 E2.36639
G1 X78.601 Y73.436 E2.38233
G1 X78.361 Y73.852 E2.39826
G1 X78.039 Y74.209 E2.41419
G1 X77.650 Y74.492 E2.43012
G1 X77.211 Y74.688 E2.44605
G1 X76.740 Y74.787 E2.46198
G1 X76.320 Y74.787 E2.47592
G1 X76.287 Y74.522 F7800.000
G1 F1800.000
G1 X75.872 Y74.433 E2.49000
G1 X75.484 Y74.261 E2.50408
G1 X75.140 Y74.011 E2.51816
G1 X74.855 Y73.695 E2.53224
G1 X74.643 Y73.327 E2.54632
G1 X74.511 Y72.923 E2.56040
G1 X74.467 Y72.500 E2.57448
G1 X74.511 Y72.077 E2.58856
G1 X74.643 Y71.673 E2.60264
G1 X74.855 Y71.305 E2.61672
G1 X75.140 Y70.989 E2.63080
G1 X75.484 Y70.739 E2.64488
G1 X75.872 Y70.567 E2.65896
G1 X76.287 Y70.478 E2.67304
G1 X76.713 Y70.478 E2.68712
G1 X77.128 Y70.567 E2.70121
G1 X77.516 Y70.739 E2.71529
G1 X77.860 Y70.989 E2.72937
G1 X78.145 Y71.305 E2.74345
G1 X78.357 Y71.673 E2.75753
G1 X78.489 Y72.077 E2.77161
G1 X78.533 Y72.500 E2.78569
G1 X78.489 Y72.923 E2.79977
G1 X78.357 Y73.327 E2.81385
G1 X78.145 Y73.695 E2.82793
G1 X77.860 Y74.011 E2.84201
G1 X77.516 Y74.261 E2.85609
G1 X77.128 Y74.433 E2.87017
G1 X76.712 Y74.522 E2.88425
G1 X76.347 Y74.522 E2.89634
G1 X76.315 Y74.256 F7800.000
G1 F1800.000
G1 X75.954 Y74.179 E2.90857
G1 X75.617 Y74.029 E2.92080
G1 X75.318 Y73.812 E2.93303
G1 X75.071 Y73.538 E2.94527
G1 X74.887 Y73.218 E2.95750
G1 X74.773 Y72.867 E2.96973
G1 X74.734 Y72.500 E2.98196
G1 X74.773 Y72.133 E2.99419
G1 X74.887 Y71.782 E3.00642
G1 X75.071 Y71.462 E3.01865
G1 X75.318 Y71.188 E3.03088
G1 X75.617 Y70.971 E3.04311
G1 X75.954 Y70.821 E3.05534
G1 X76.315 Y70.744 E3.06757
G1 X76.685 Y70.744 E3.07980
G1 X77.046 Y70.821 E3.09203
G1 X77.383 Y70.971 E3.10426
G1 X77.682 Y71.188 E3.11649
G1 X77.929 Y71.462 E3.12872
G1 X78.113 Y71.782 E3.14096
G1 X78.227 Y72.133 E3.15319
G1 X78.266 Y72.500 E3.16542
G1 X78.227 Y72.867 E3.17765
G1 X78.113 Y73.218 E3.18988
G1 X77.929 Y73.538 E3.20211
G1 X77.682 Y73.812 E3.21434
G1 X77.383 Y74.029 E3.22657
G1 X77.046 Y74.179 E3.23880
G1 X76.685 Y74.256 E3.25103
G1 X76.375 Y74.256 E3.26127
G1 E1.26127 F2400.00000
G92 E0
G1 X79.804 Y68.196 F7800.000
G1 E2.00000 F2400.00000
G1 F1800.000
G1 X79.804 Y86.804 E2.61646
G1 X70.196 Y86.804 E2.93475
G1 X70.196 Y68.171 E3.55205
G1 X79.744 Y68.196 E3.86836
G1 X80.069 Y67.931 F7800.000
G1 F1800.000
G1 X80.069 Y87.069 E4.50242
G1 X69.931 Y87.069 E4.83831
G1 X69.931 Y67.904 E5.47325
G1 X80.009 Y67.931 E5.80715
G1 X80.335 Y67.665 F7800.000
G1 F1800.000
G1 X80.335 Y87.335 E6.45881
G1 X69.665 Y87.335 E6.81230
G1 X69.665 Y67.637 E7.46487
G1 X80.275 Y67.665 E7.81638
G1 E5.81638 F2400.00000
G92 E0
G1 X78.607 Y73.881 F7800.000
G1 E2.00000 F2400.00000
G1 F1800.000
G1 X79.641 Y72.846 E2.04869
G1 X79.641 Y72.469 E2.06125
G1 X78.876 Y73.234 E2.09728
G1 X78.908 Y73.137 E2.10068
G1 X78.944 Y72.789 E2.11235
G1 X79.641 Y72.091 E2.14517
G1 X79.641 Y71.714 E2.15773
G1 X78.944 Y72.412 E2.19058
G1 X78.908 Y72.070 E2.20201
G1 X79.641 Y71.337 E2.23655
G1 X79.641 Y70.959 E2.24912
G1 X78.815 Y71.785 E2.28801
G1 X78.713 Y71.510 E2.29779
G1 X79.641 Y70.582 E2.34148
G1 X79.641 Y70.204 E2.35405
G1 X78.575 Y71.270 E2.40424
G1 X78.426 Y71.042 E2.41332
G1 X79.641 Y69.827 E2.47053
G1 X79.641 Y69.449 E2.48310
G1 X78.247 Y70.843 E2.54872
G1 X78.058 Y70.655 E2.55761
G1 X79.641 Y69.072 E2.63213
G1 X79.641 Y68.694 E2.64470
G1 X77.840 Y70.496 E2.72951
G1 X77.610 Y70.349 E2.73861
G1 X79.600 Y68.359 E2.83230
G1 X79.222 Y68.359 E2.84487
G1 X77.349 Y70.232 E2.93309
G1 X77.190 Y70.162 E2.93886
G1 X77.068 Y70.136 E2.94303
G1 X78.845 Y68.359 E3.02670
G1 X78.468 Y68.359 E3.03926
G1 X76.756 Y70.070 E3.11982
G1 X76.665 Y70.050 E3.12293
G1 X76.398 Y70.050 E3.13181
G1 X78.090 Y68.359 E3.21145
G1 X77.713 Y68.359 E3.22401
G1 X75.992 Y70.079 E3.30502
G1 X75.603 Y70.162 E3.31824
G1 X75.474 Y70.219 E3.32294
G1 X77.335 Y68.359 E3.41054
G1 X76.958 Y68.359 E3.42310
G1 X70.359 Y74.958 E3.73378
G1 X70.359 Y74.580 E3.74634
G1 X76.580 Y68.358 E4.03925
G1 X76.204 Y68.357 E4.05177
G1 X70.359 Y74.203 E4.32698
G1 X70.359 Y73.825 E4.33955
G1 X75.828 Y68.355 E4.59706
G1 X75.453 Y68.354 E4.60957
G1 X70.359 Y73.448 E4.84939
G1 X70.359 Y73.070 E4.86196
G1 X75.077 Y68.352 E5.08407
G1 X74.701 Y68.351 E5.09659
G1 X70.359 Y72.693 E5.30101
G1 X70.359 Y72.316 E5.31357
G1 X74.325 Y68.349 E5.50029
G1 X73.949 Y68.348 E5.51281
G1 X70.359 Y71.938 E5.68183
G1 X70.359 Y71.561 E5.69439
G1 X73.573 Y68.346 E5.84572
G1 X73.197 Y68.345 E5.85823
G1 X70.359 Y71.183 E5.99186
G1 X70.359 Y70.806 E6.00442
G1 X72.821 Y68.343 E6.12035
G1 X72.445 Y68.342 E6.13287
G1 X70.359 Y70.428 E6.23110
G1 X70.359 Y70.051 E6.24366
G1 X72.069 Y68.340 E6.32419
G1 X71.693 Y68.339 E6.33671
G1 X70.359 Y69.673 E6.39954
G1 X70.359 Y69.296 E6.41210
G1 X71.317 Y68.337 E6.45724
G1 X70.941 Y68.336 E6.46975
G1 X70.359 Y68.918 E6.49719
G1 X70.359 Y68.541 E6.50975
G1 X70.565 Y68.334 E6.51949
G1 E4.51949 F2400.00000
G92 E0
G1 X74.218 Y71.476 F7800.000
G1 E2.00000 F2400.00000
G1 F1800.000
G1 X70.359 Y75.335 E2.18170
G1 X70.359 Y75.713 E2.19427
G1 X74.079 Y71.993 E2.36940
G1 X74.038 Y72.411 E2.38340
G1 X70.359 Y76.090 E2.55661
G1 X70.359 Y76.468 E2.56917
G1 X74.074 Y72.752 E2.74407
G1 X74.092 Y72.930 E2.75002
G1 X74.137 Y73.067 E2.75480
G1 X70.359 Y76.845 E2.93266
G1 X70.359 Y77.222 E2.94523
G1 X74.229 Y73.352 E3.12745
G1 X74.258 Y73.441 E3.13057
G1 X74.353 Y73.605 E3.13689
G1 X70.359 Y77.600 E3.32495
G1 X70.359 Y77.977 E3.33751
G1 X74.491 Y73.845 E3.53207
G1 X74.660 Y74.054 E3.54101
G1 X70.359 Y78.355 E3.74350
G1 X70.359 Y78.732 E3.75606
G1 X74.839 Y74.252 E3.96697
G1 X75.047 Y74.422 E3.97591
G1 X70.359 Y79.110 E4.19661
G1 X70.359 Y79.487 E4.20918
G1 X75.265 Y74.580 E4.44018
G1 X75.516 Y74.707 E4.44953
G1 X70.359 Y79.865 E4.69233
G1 X70.359 Y80.242 E4.70490
G1 X75.777 Y74.824 E4.95999
G1 X76.082 Y74.896 E4.97043
G1 X70.359 Y80.620 E5.23988
G1 X70.359 Y80.997 E5.25244
G1 X76.406 Y74.950 E5.53713
G1 X76.783 Y74.950 E5.54970
G1 X70.359 Y81.374 E5.85216
G1 X70.359 Y81.752 E5.86472
G1 X77.239 Y74.872 E6.18863
G1 X77.397 Y74.838 E6.19400
G1 X77.853 Y74.635 E6.21062
G1 X70.359 Y82.129 E6.56344
G1 X70.359 Y82.507 E6.57600
G1 X79.641 Y73.224 E7.01303
G1 X79.641 Y73.601 E7.02559
G1 X70.359 Y82.884 E7.46262
G1 X70.359 Y83.262 E7.47518
G1 X79.641 Y73.979 E7.91220
G1 X79.641 Y74.356 E7.92477
G1 X70.359 Y83.639 E8.36179
G1 X70.359 Y84.017 E8.37436
G1 X79.641 Y74.734 E8.81138
G1 X79.641 Y75.111 E8.82394
G1 X70.359 Y84.394 E9.26097
G1 X70.359 Y84.771 E9.27353
G1 X79.641 Y75.489 E9.71055
G1 X79.641 Y75.866 E9.72312
G1 X75.139 Y80.369 E9.93510
G1 X75.603 Y80.162 E9.95203
G1 X75.755 Y80.129 E9.95721
G1 X79.641 Y76.243 E10.14015
G1 X79.641 Y76.621 E10.15272
G1 X76.212 Y80.050 E10.31416
G1 X76.590 Y80.050 E10.32673
G1 X79.641 Y76.998 E10.47041
G1 X79.641 Y77.376 E10.48297
G1 X76.914 Y80.103 E10.61137
G1 X77.220 Y80.175 E10.62182
G1 X79.641 Y77.753 E10.73583
G1 X79.641 Y78.131 E10.74840
G1 X77.481 Y80.291 E10.85011
G1 X77.732 Y80.418 E10.85947
G1 X79.641 Y78.508 E10.94937
G1 X79.641 Y78.886 E10.96193
G1 X77.951 Y80.577 E11.04153
G1 X78.159 Y80.745 E11.05047
G1 X79.641 Y79.263 E11.12025
G1 X79.641 Y79.641 E11.13281
G1 X78.338 Y80.944 E11.19417
G1 X78.507 Y81.152 E11.20311
G1 X79.641 Y80.018 E11.25651
G1 X79.641 Y80.395 E11.26908
G1 X78.645 Y81.392 E11.31598
G1 X78.742 Y81.559 E11.32241
G1 X78.770 Y81.645 E11.32541
G1 X79.641 Y80.773 E11.36645
G1 X79.641 Y81.150 E11.37902
G1 X78.862 Y81.930 E11.41570
G1 X78.908 Y82.070 E11.42060
G1 X78.926 Y82.243 E11.42641
G1 X79.641 Y81.528 E11.46010
G1 X79.641 Y81.905 E11.47266
G1 X78.962 Y82.585 E11.50466
G1 X78.922 Y83.002 E11.51862
G1 X79.641 Y82.283 E11.55249
G1 X79.641 Y82.660 E11.56506
G1 X78.784 Y83.518 E11.60542
G1 E9.60542 F2400.00000
G92 E0
G1 X79.435 Y86.641 F7800.000
G1 E2.00000 F2400.00000
G1 F1800.000
G1 X79.641 Y86.435 E2.00973
G1 X79.641 Y86.057 E2.02230
G1 X79.057 Y86.641 E2.04980
G1 X78.680 Y86.641 E2.06237
G1 X79.641 Y85.680 E2.10764
G1 X79.641 Y85.302 E2.12020
G1 X78.302 Y86.641 E2.18325
G1 X77.925 Y86.641 E2.19581
G1 X79.641 Y84.925 E2.27662
G1 X79.641 Y84.547 E2.28919
G1 X77.547 Y86.641 E2.38777
G1 X77.170 Y86.641 E2.40034
G1 X79.641 Y84.170 E2.51669
G1 X79.641 Y83.793 E2.52925
G1 X76.793 Y86.641 E2.66338
G1 X76.415 Y86.641 E2.67594
G1 X79.641 Y83.415 E2.82783
G1 X79.641 Y83.038 E2.84040
G1 X76.038 Y86.641 E3.01006
G1 X75.660 Y86.641 E3.02262
G1 X77.517 Y84.785 E3.11004
G1 X77.397 Y84.838 E3.11444
G1 X77.002 Y84.922 E3.12786
G1 X75.283 Y86.641 E3.20881
G1 X74.905 Y86.641 E3.22137
G1 X76.597 Y84.950 E3.30102
G1 X76.335 Y84.950 E3.30974
G1 X76.240 Y84.930 E3.31298
G1 X74.528 Y86.641 E3.39358
G1 X74.150 Y86.641 E3.40614
G1 X75.928 Y84.863 E3.48985
G1 X75.810 Y84.838 E3.49388
G1 X75.648 Y84.766 E3.49978
G1 X73.773 Y86.641 E3.58806
G1 X73.395 Y86.641 E3.60063
G1 X75.387 Y84.650 E3.69439
G1 X75.157 Y84.502 E3.70348
G1 X73.018 Y86.641 E3.80420
G1 X72.641 Y86.641 E3.81677
G1 X74.939 Y84.343 E3.92497
G1 X74.750 Y84.154 E3.93385
G1 X72.263 Y86.641 E4.05095
G1 X71.886 Y86.641 E4.06351
G1 X74.571 Y83.956 E4.18995
G1 X74.423 Y83.727 E4.19904
G1 X71.508 Y86.641 E4.33627
G1 X71.131 Y86.641 E4.34883
G1 X74.285 Y83.487 E4.49732
G1 X74.183 Y83.211 E4.50711
G1 X70.753 Y86.641 E4.66860
G1 X70.376 Y86.641 E4.68117
G1 X74.092 Y82.926 E4.85610
G1 X74.056 Y82.584 E4.86754
G1 X70.359 Y86.281 E5.04160
G1 X70.359 Y85.904 E5.05416
G1 X74.056 Y82.206 E5.22824
G1 X74.092 Y81.863 E5.23973
G1 X74.126 Y81.759 E5.24338
G1 X70.359 Y85.526 E5.42074
G1 X70.359 Y85.149 E5.43331
G1 X74.399 Y81.108 E5.62353
M106 S255
G1 Z0.500 F7800.000
G1 E3.62353 F2400.00000
G92 E0
G1 X77.205 Y80.331 F7800.000
G1 E2.00000 F2400.00000
G1 F1800.000
G1 X77.640 Y80.525 E2.02050
G1 X78.026 Y80.805 E2.04100
G1 X78.345 Y81.159 E2.06150
G1 X78.584 Y81.572 E2.08200
G1 X78.731 Y82.026 E2.10250
G1 X78.780 Y82.492 E2.12266
G1 X78.744 Y82.934 E2.14172
G1 X78.584 Y83.428 E2.16405
G1 X78.345 Y83.841 E2.18455
G1 X78.026 Y84.195 E2.20505
G1 X77.640 Y84.475 E2.22555
G1 X77.205 Y84.669 E2.24605
G1 X76.738 Y84.768 E2.26655
G1 X76.262 Y84.768 E2.28705
G1 X75.795 Y84.669 E2.30755
G1 X75.360 Y84.475 E2.32806
G1 X74.974 Y84.195 E2.34855
G1 X74.655 Y83.841 E2.36905
G1 X74.416 Y83.428 E2.38955
G1 X74.269 Y82.974 E2.41005
G1 X74.220 Y82.508 E2.43021
G1 X74.256 Y82.066 E2.44927
G1 X74.416 Y81.572 E2.47160
G1 X74.655 Y81.159 E2.49210
G1 X74.974 Y80.805 E2.51260
G1 X75.360 Y80.525 E2.53310
G1 X75.795 Y80.331 E2.55360
G1 X76.262 Y80.232 E2.57410
G1 X76.738 Y80.232 E2.59460
G1 X77.146 Y80.318 E2.61252
G1 X77.063 Y80.768 F7800.000
G1 F1800.000
G1 X77.411 Y80.923 E2.62510
G1 X77.719 Y81.147 E2.63767
G1 X77.973 Y81.429 E2.65023
G1 X78.164 Y81.759 E2.66281
G1 X78.281 Y82.121 E2.67538
G1 X78.321 Y82.497 E2.68786
G1 X78.293 Y82.843 E2.69933
G1 X78.164 Y83.241 E2.71312
G1 X77.973 Y83.571 E2.72569
G1 X77.719 Y83.853 E2.73826
G1 X77.411 Y84.077 E2.75083
G1 X77.063 Y84.232 E2.76340
G1 X76.690 Y84.311 E2.77597
G1 X76.310 Y84.311 E2.78854
G1 X75.937 Y84.232 E2.80112
G1 X75.589 Y84.077 E2.81369
G1 X75.281 Y83.853 E2.82626
G1 X75.027 Y83.571 E2.83883
G1 X74.836 Y83.241 E2.85140
G1 X74.719 Y82.879 E2.86397
G1 X74.679 Y82.503 E2.87645
G1 X74.707 Y82.157 E2.88792
G1 X74.836 Y81.759 E2.90171
G1 X75.027 Y81.429 E2.91428
G1 X75.281 Y81.147 E2.92685
G1 X75.589 Y80.923 E2.93942
G1 X75.937 Y80.768 E2.95199
G1 X76.310 Y80.689 E2.96456
G1 X76.690 Y80.689 E2.97713
G1 X77.004 Y80.755 E2.98772
G1 E0.98772 F2400.00000
G92 E0
G1 X76.738 Y74.768 F7800.000
G1 E2.00000 F2400.00000
G1 F1800.000
G1 X76.262 Y74.768 E2.02050
G1 X75.795 Y74.669 E2.04100
G1 X75.360 Y74.475 E2.06150
G1 X74.974 Y74.195 E2.08200
G1 X74.655 Y73.841 E2.10250
G1 X74.416 Y73.428 E2.12301
G1 X74.269 Y72.974 E2.14351
G1 X74.219 Y72.500 E2.16401
G1 X74.269 Y72.026 E2.18451
G1 X74.416 Y71.572 E2.20501
G1 X74.655 Y71.159 E2.22551
G1 X74.974 Y70.805 E2.24601
G1 X75.360 Y70.525 E2.26651
G1 X75.795 Y70.331 E2.28701
G1 X76.262 Y70.232 E2.30751
G1 X76.738 Y70.232 E2.32802
