; generated by Slic3r 1.3.1-dev (Build 4f5b935) on 2019-11-26 at 14:51:55

; external perimeters extrusion width = 0.55mm (1.90mm^3/s)
; perimeters extrusion width = 0.70mm (2.71mm^3/s)
; infill extrusion width = 0.62mm (2.41mm^3/s)
; solid infill extrusion width = 0.70mm (2.04mm^3/s)
; top infill extrusion width = 0.70mm (2.04mm^3/s)

M107
G92 E0
;D3D:START:START
T0
M104 S215 T0

G21
G90
M107
T0
G28
G29
M109 T0 S215 T0
G0 F3000
M107
T0
G92 E0
G0 X0 Y149 Z0.1 F3600
G1 Y49 E6.5 F1200
G0 Z1
G92 E0
; Filament gcode

G21 ; set units to millimeters
G90 ; use absolute coordinates
M82 ; use absolute distances for extrusion
G92 E0
G1 Z0.090 F7800.000
G1 E-2.00000 F2400.00000
G92 E0
G1 X62.282 Y61.944 F7800.000
G1 E2.00000 F2400.00000
G1 F1800.000
G1 X62.982 Y61.297 E2.00284
G1 X64.094 Y60.396 E2.00711
G1 X65.274 Y59.585 E2.01138
G1 X65.681 Y59.336 E2.01280
G1 X66.514 Y58.870 E2.01565
G1 X67.805 Y58.254 E2.01991
G1 X68.246 Y58.071 E2.02134
G1 X69.595 Y57.593 E2.02560
G1 X70.513 Y57.334 E2.02845
G1 X70.978 Y57.223 E2.02987
G1 X71.913 Y57.037 E2.03272
G1 X72.385 Y56.962 E2.03414
G1 X73.808 Y56.813 E2.03841
G1 X74.761 Y56.775 E2.04125
G1 X75.239 Y56.775 E2.04268
G1 X76.192 Y56.813 E2.04552
G1 X77.615 Y56.962 E2.04979
G1 X79.022 Y57.223 E2.05405
G1 X79.487 Y57.334 E2.05548
G1 X80.405 Y57.593 E2.05832
G1 X81.754 Y58.071 E2.06259
G1 X82.195 Y58.254 E2.06401
G1 X83.061 Y58.653 E2.06686
G1 X84.319 Y59.336 E2.07112
G1 X84.726 Y59.585 E2.07255
G1 X85.519 Y60.115 E2.07539
G1 X85.906 Y60.396 E2.07682
G1 X87.018 Y61.297 E2.08108
G1 X88.056 Y62.282 E2.08535
G1 X88.703 Y62.982 E2.08819
G1 X89.604 Y64.094 E2.09246
G1 X90.415 Y65.274 E2.09673
G1 X90.664 Y65.681 E2.09815
G1 X91.130 Y66.514 E2.10100
G1 X91.746 Y67.805 E2.10526
G1 X91.929 Y68.246 E2.10669
G1 X92.259 Y69.141 E2.10953
G1 X92.666 Y70.513 E2.11380
G1 X92.777 Y70.978 E2.11522
G1 X92.963 Y71.913 E2.11807
G1 X93.038 Y72.385 E2.11949
G1 X93.187 Y73.808 E2.12376
G1 X93.225 Y74.761 E2.12660
G1 X93.225 Y75.239 E2.12803
G1 X93.187 Y76.192 E2.13087
G1 X93.038 Y77.615 E2.13514
G1 X92.777 Y79.022 E2.13940
G1 X92.666 Y79.487 E2.14083
G1 X92.407 Y80.405 E2.14367
G1 X91.929 Y81.754 E2.14794
G1 X91.746 Y82.195 E2.14936
G1 X91.347 Y83.061 E2.15221
G1 X90.664 Y84.319 E2.15647
G1 X90.415 Y84.726 E2.15790
G1 X89.885 Y85.519 E2.16074
G1 X89.604 Y85.906 E2.16217
G1 X88.703 Y87.018 E2.16643
G1 X87.718 Y88.056 E2.17070
G1 X87.018 Y88.703 E2.17354
G1 X85.906 Y89.604 E2.17781
G1 X84.726 Y90.415 E2.18208
G1 X84.319 Y90.664 E2.18350
G1 X83.486 Y91.130 E2.18635
G1 X82.195 Y91.746 E2.19061
G1 X81.754 Y91.929 E2.19204
G1 X80.859 Y92.259 E2.19488
G1 X79.487 Y92.666 E2.19915
G1 X79.022 Y92.777 E2.20057
G1 X78.087 Y92.963 E2.20342
G1 X77.615 Y93.038 E2.20484
G1 X76.192 Y93.187 E2.20911
G1 X75.239 Y93.225 E2.21195
G1 X74.761 Y93.225 E2.21338
G1 X73.808 Y93.187 E2.21622
G1 X72.385 Y93.038 E2.22049
G1 X70.978 Y92.777 E2.22475
G1 X70.513 Y92.666 E2.22618
G1 X69.595 Y92.407 E2.22902
G1 X68.246 Y91.929 E2.23329
G1 X67.805 Y91.746 E2.23471
G1 X66.514 Y91.130 E2.23898
G1 X65.681 Y90.664 E2.24182
G1 X65.274 Y90.415 E2.24325
G1 X64.481 Y89.885 E2.24609
G1 X64.094 Y89.604 E2.24752
G1 X62.982 Y88.703 E2.25178
G1 X61.944 Y87.718 E2.25605
G1 X61.297 Y87.018 E2.25889
G1 X60.396 Y85.906 E2.26316
G1 X59.585 Y84.726 E2.26743
G1 X59.336 Y84.319 E2.26885
G1 X58.870 Y83.486 E2.27170
G1 X58.254 Y82.195 E2.27596
G1 X58.071 Y81.754 E2.27739
G1 X57.741 Y80.859 E2.28023
G1 X57.334 Y79.487 E2.28450
G1 X57.223 Y79.022 E2.28592
G1 X57.037 Y78.087 E2.28877
G1 X56.962 Y77.615 E2.29019
G1 X56.813 Y76.192 E2.29446
G1 X56.775 Y75.239 E2.29730
G1 X56.775 Y74.761 E2.29873
G1 X56.813 Y73.808 E2.30157
G1 X56.962 Y72.385 E2.30584
G1 X57.223 Y70.978 E2.31010
G1 X57.334 Y70.513 E2.31153
G1 X57.593 Y69.595 E2.31437
G1 X58.071 Y68.246 E2.31864
G1 X58.254 Y67.805 E2.32006
G1 X58.653 Y66.939 E2.32291
G1 X59.336 Y65.681 E2.32717
G1 X59.585 Y65.274 E2.32860
G1 X60.115 Y64.481 E2.33144
G1 X60.987 Y63.345 E2.33571
G1 X61.297 Y62.982 E2.33713
G1 X62.229 Y61.997 E2.34118
G1 E0.34118 F2400.00000
G92 E0
G1 X76.778 Y76.670 F7800.000
G1 E2.00000 F2400.00000
G1 F1800.000
G1 X76.555 Y76.879 E2.00091
G1 X76.307 Y77.059 E2.00183
G1 X76.039 Y77.207 E2.00274
G1 X75.754 Y77.320 E2.00365
G1 X75.457 Y77.396 E2.00457
G1 X75.153 Y77.434 E2.00548
G1 X74.847 Y77.434 E2.00639
G1 X74.543 Y77.396 E2.00731
G1 X74.246 Y77.320 E2.00822
G1 X73.961 Y77.207 E2.00913
G1 X73.693 Y77.059 E2.01005
G1 X73.445 Y76.879 E2.01096
G1 X73.222 Y76.670 E2.01187
G1 X73.027 Y76.434 E2.01279
G1 X72.863 Y76.175 E2.01370
G1 X72.732 Y75.898 E2.01461
G1 X72.638 Y75.607 E2.01553
G1 X72.580 Y75.306 E2.01644
G1 X72.561 Y75.000 E2.01735
G1 X72.580 Y74.694 E2.01827
G1 X72.638 Y74.393 E2.01918
G1 X72.732 Y74.102 E2.02009
G1 X72.863 Y73.825 E2.02101
G1 X73.027 Y73.566 E2.02192
G1 X73.222 Y73.330 E2.02283
G1 X73.445 Y73.121 E2.02375
G1 X73.693 Y72.941 E2.02466
G1 X73.961 Y72.793 E2.02557
G1 X74.246 Y72.680 E2.02649
G1 X74.543 Y72.604 E2.02740
G1 X74.847 Y72.566 E2.02831
G1 X75.153 Y72.566 E2.02923
G1 X75.457 Y72.604 E2.03014
G1 X75.754 Y72.680 E2.03105
G1 X76.039 Y72.793 E2.03197
G1 X76.307 Y72.941 E2.03288
G1 X76.555 Y73.121 E2.03379
G1 X76.778 Y73.330 E2.03471
G1 X76.973 Y73.566 E2.03562
G1 X77.137 Y73.825 E2.03653
G1 X77.268 Y74.102 E2.03745
G1 X77.362 Y74.393 E2.03836
G1 X77.420 Y74.694 E2.03927
G1 X77.439 Y75.000 E2.04019
G1 X77.420 Y75.306 E2.04110
G1 X77.362 Y75.607 E2.04201
G1 X77.268 Y75.898 E2.04293
G1 X77.137 Y76.175 E2.04384
G1 X76.973 Y76.434 E2.04475
G1 X76.826 Y76.612 E2.04544
G1 X76.720 Y76.615 F7800.000
G1 F1800.000
G1 X76.504 Y76.818 E2.04633
G1 X76.264 Y76.992 E2.04721
G1 X76.005 Y77.135 E2.04809
G1 X75.729 Y77.244 E2.04898
G1 X75.442 Y77.317 E2.04986
G1 X75.148 Y77.355 E2.05074
G1 X74.852 Y77.355 E2.05163
G1 X74.558 Y77.317 E2.05251
G1 X74.271 Y77.244 E2.05339
G1 X73.995 Y77.135 E2.05428
G1 X73.736 Y76.992 E2.05516
G1 X73.496 Y76.818 E2.05604
G1 X73.280 Y76.615 E2.05693
G1 X73.091 Y76.387 E2.05781
G1 X72.933 Y76.137 E2.05869
G1 X72.806 Y75.869 E2.05958
G1 X72.715 Y75.587 E2.06046
G1 X72.659 Y75.296 E2.06134
G1 X72.641 Y75.000 E2.06223
G1 X72.659 Y74.704 E2.06311
G1 X72.715 Y74.413 E2.06399
G1 X72.806 Y74.131 E2.06488
G1 X72.933 Y73.863 E2.06576
G1 X73.091 Y73.613 E2.06664
G1 X73.280 Y73.385 E2.06753
G1 X73.496 Y73.182 E2.06841
G1 X73.736 Y73.008 E2.06929
G1 X73.995 Y72.865 E2.07018
G1 X74.271 Y72.756 E2.07106
G1 X74.558 Y72.683 E2.07194
G1 X74.852 Y72.645 E2.07283
G1 X75.148 Y72.645 E2.07371
G1 X75.442 Y72.683 E2.07459
G1 X75.729 Y72.756 E2.07548
G1 X76.005 Y72.865 E2.07636
G1 X76.264 Y73.008 E2.07724
G1 X76.504 Y73.182 E2.07813
G1 X76.720 Y73.385 E2.07901
G1 X76.909 Y73.613 E2.07989
G1 X77.067 Y73.863 E2.08078
G1 X77.194 Y74.131 E2.08166
G1 X77.285 Y74.413 E2.08254
G1 X77.341 Y74.704 E2.08343
G1 X77.359 Y75.000 E2.08431
G1 X77.341 Y75.296 E2.08520
G1 X77.285 Y75.587 E2.08608
G1 X77.194 Y75.869 E2.08696
G1 X77.067 Y76.137 E2.08785
G1 X76.909 Y76.387 E2.08873
G1 X76.768 Y76.557 E2.08939
G1 X76.662 Y76.560 F7800.000
G1 F1800.000
G1 X76.453 Y76.756 E2.09024
G1 X76.221 Y76.925 E2.09110
G1 X75.971 Y77.062 E2.09195
G1 X75.704 Y77.168 E2.09280
G1 X75.427 Y77.239 E2.09366
G1 X75.143 Y77.275 E2.09451
G1 X74.857 Y77.275 E2.09536
G1 X74.573 Y77.239 E2.09622
G1 X74.296 Y77.168 E2.09707
G1 X74.029 Y77.062 E2.09792
G1 X73.779 Y76.925 E2.09878
G1 X73.547 Y76.756 E2.09963
G1 X73.338 Y76.560 E2.10048
G1 X73.156 Y76.340 E2.10134
G1 X73.003 Y76.098 E2.10219
G1 X72.881 Y75.839 E2.10304
G1 X72.792 Y75.567 E2.10390
G1 X72.739 Y75.286 E2.10475
G1 X72.721 Y75.000 E2.10561
G1 X72.739 Y74.714 E2.10646
G1 X72.792 Y74.433 E2.10731
G1 X72.881 Y74.161 E2.10817
G1 X73.003 Y73.902 E2.10902
G1 X73.156 Y73.660 E2.10987
G1 X73.338 Y73.440 E2.11073
G1 X73.547 Y73.244 E2.11158
G1 X73.779 Y73.075 E2.11243
G1 X74.029 Y72.937 E2.11329
G1 X74.296 Y72.832 E2.11414
G1 X74.573 Y72.761 E2.11499
G1 X74.857 Y72.725 E2.11585
G1 X75.143 Y72.725 E2.11670
G1 X75.427 Y72.761 E2.11755
G1 X75.704 Y72.832 E2.11841
G1 X75.971 Y72.937 E2.11926
G1 X76.221 Y73.075 E2.12011
G1 X76.453 Y73.244 E2.12097
G1 X76.662 Y73.440 E2.12182
G1 X76.844 Y73.660 E2.12268
G1 X76.997 Y73.902 E2.12353
G1 X77.119 Y74.161 E2.12438
G1 X77.208 Y74.433 E2.12524
G1 X77.261 Y74.714 E2.12609
G1 X77.279 Y75.000 E2.12694
G1 X77.261 Y75.286 E2.12780
G1 X77.208 Y75.567 E2.12865
G1 X77.119 Y75.839 E2.12950
G1 X76.997 Y76.098 E2.13036
G1 X76.844 Y76.340 E2.13121
G1 X76.709 Y76.503 E2.13184
G1 X76.603 Y76.506 F7800.000
G1 F1800.000
G1 X76.402 Y76.695 E2.13266
G1 X76.179 Y76.857 E2.13349
G1 X75.937 Y76.990 E2.13431
G1 X75.680 Y77.092 E2.13513
G1 X75.412 Y77.161 E2.13596
G1 X75.138 Y77.195 E2.13678
G1 X74.862 Y77.195 E2.13761
G1 X74.588 Y77.161 E2.13843
G1 X74.320 Y77.092 E2.13925
G1 X74.063 Y76.990 E2.14008
G1 X73.821 Y76.857 E2.14090
G1 X73.598 Y76.695 E2.14172
G1 X73.397 Y76.506 E2.14255
G1 X73.220 Y76.293 E2.14337
G1 X73.072 Y76.060 E2.14419
G1 X72.955 Y75.810 E2.14502
G1 X72.870 Y75.547 E2.14584
G1 X72.818 Y75.276 E2.14667
G1 X72.800 Y75.000 E2.14749
G1 X72.818 Y74.724 E2.14831
G1 X72.870 Y74.453 E2.14914
G1 X72.955 Y74.190 E2.14996
G1 X73.072 Y73.940 E2.15078
G1 X73.220 Y73.707 E2.15161
G1 X73.397 Y73.494 E2.15243
G1 X73.598 Y73.305 E2.15325
G1 X73.821 Y73.143 E2.15408
G1 X74.063 Y73.010 E2.15490
G1 X74.320 Y72.908 E2.15573
G1 X74.588 Y72.839 E2.15655
G1 X74.862 Y72.805 E2.15737
G1 X75.138 Y72.805 E2.15820
G1 X75.412 Y72.839 E2.15902
G1 X75.680 Y72.908 E2.15984
G1 X75.937 Y73.010 E2.16067
G1 X76.179 Y73.143 E2.16149
G1 X76.402 Y73.305 E2.16231
G1 X76.603 Y73.494 E2.16314
G1 X76.780 Y73.707 E2.16396
G1 X76.928 Y73.940 E2.16479
G1 X77.045 Y74.190 E2.16561
G1 X77.130 Y74.453 E2.16643
G1 X77.182 Y74.724 E2.16726
G1 X77.200 Y75.000 E2.16808
G1 X77.182 Y75.276 E2.16890
G1 X77.130 Y75.547 E2.16973
G1 X77.045 Y75.810 E2.17055
G1 X76.928 Y76.060 E2.17137
G1 X76.780 Y76.293 E2.17220
G1 X76.651 Y76.448 E2.17280
G1 X76.603 Y76.506 F7800.000
G1 E0.17280 F2400.00000
G92 E0
G1 X83.692 Y83.058 F7800.000
G1 E2.00000 F2400.00000
G1 F1800.000
G1 X83.387 Y83.387 E2.00134
G1 X82.703 Y84.019 E2.00411
G1 X81.972 Y84.596 E2.00689
G1 X81.197 Y85.113 E2.00967
G1 X80.385 Y85.568 E2.01244
G1 X79.539 Y85.958 E2.01522
G1 X78.665 Y86.281 E2.01800
G1 X77.769 Y86.533 E2.02078
G1 X76.856 Y86.715 E2.02355
G1 X75.931 Y86.825 E2.02633
G1 X75.000 Y86.861 E2.02911
G1 X74.069 Y86.825 E2.03188
G1 X73.144 Y86.715 E2.03466
G1 X72.231 Y86.533 E2.03744
G1 X71.335 Y86.281 E2.04021
G1 X70.461 Y85.958 E2.04299
G1 X69.615 Y85.568 E2.04577
G1 X68.803 Y85.113 E2.04854
G1 X68.028 Y84.596 E2.05132
G1 X67.297 Y84.019 E2.05410
G1 X66.613 Y83.387 E2.05688
G1 X65.981 Y82.703 E2.05965
G1 X65.404 Y81.972 E2.06243
G1 X64.887 Y81.197 E2.06521
G1 X64.432 Y80.385 E2.06798
G1 X64.042 Y79.539 E2.07076
G1 X63.719 Y78.665 E2.07354
G1 X63.466 Y77.769 E2.07631
G1 X63.285 Y76.856 E2.07909
G1 X63.175 Y75.931 E2.08187
G1 X63.139 Y75.000 E2.08465
G1 X63.175 Y74.069 E2.08742
G1 X63.285 Y73.144 E2.09020
G1 X63.466 Y72.231 E2.09298
G1 X63.719 Y71.335 E2.09575
G1 X64.042 Y70.461 E2.09853
G1 X64.432 Y69.615 E2.10131
G1 X64.887 Y68.803 E2.10408
G1 X65.404 Y68.028 E2.10686
G1 X65.981 Y67.297 E2.10964
G1 X66.613 Y66.613 E2.11241
G1 X67.297 Y65.981 E2.11519
G1 X68.028 Y65.404 E2.11797
G1 X68.803 Y64.887 E2.12075
G1 X69.615 Y64.432 E2.12352
G1 X70.461 Y64.042 E2.12630
G1 X71.335 Y63.719 E2.12908
G1 X72.231 Y63.466 E2.13185
G1 X73.144 Y63.285 E2.13463
G1 X74.069 Y63.175 E2.13741
G1 X75.000 Y63.139 E2.14018
G1 X75.931 Y63.175 E2.14296
G1 X76.856 Y63.285 E2.14574
G1 X77.769 Y63.466 E2.14851
G1 X78.665 Y63.719 E2.15129
G1 X79.539 Y64.042 E2.15407
G1 X80.385 Y64.432 E2.15685
G1 X81.197 Y64.887 E2.15962
G1 X81.972 Y65.404 E2.16240
G1 X82.703 Y65.981 E2.16518
G1 X83.387 Y66.613 E2.16795
G1 X84.019 Y67.297 E2.17073
G1 X84.596 Y68.028 E2.17351
G1 X85.113 Y68.803 E2.17628
G1 X85.568 Y69.615 E2.17906
G1 X85.958 Y70.461 E2.18184
G1 X86.281 Y71.335 E2.18461
G1 X86.533 Y72.231 E2.18739
G1 X86.715 Y73.144 E2.19017
G1 X86.825 Y74.069 E2.19295
G1 X86.861 Y75.000 E2.19572
G1 X86.825 Y75.931 E2.19850
G1 X86.715 Y76.856 E2.20128
G1 X86.533 Y77.769 E2.20405
G1 X86.281 Y78.665 E2.20683
G1 X85.958 Y79.539 E2.20961
G1 X85.568 Y80.385 E2.21238
G1 X85.113 Y81.197 E2.21516
G1 X84.596 Y81.972 E2.21794
G1 X84.019 Y82.703 E2.22071
G1 X83.742 Y83.003 E2.22193
G1 X83.750 Y83.112 F7800.000
G1 F1800.000
G1 X83.444 Y83.444 E2.22328
G1 X82.755 Y84.080 E2.22607
G1 X82.019 Y84.660 E2.22887
G1 X81.239 Y85.181 E2.23166
G1 X80.421 Y85.639 E2.23446
G1 X79.570 Y86.032 E2.23726
G1 X78.690 Y86.356 E2.24005
G1 X77.788 Y86.611 E2.24285
G1 X76.868 Y86.794 E2.24564
G1 X75.937 Y86.904 E2.24844
G1 X75.000 Y86.941 E2.25123
G1 X74.063 Y86.904 E2.25403
G1 X73.132 Y86.794 E2.25682
G1 X72.212 Y86.611 E2.25962
G1 X71.310 Y86.357 E2.26242
G1 X70.430 Y86.032 E2.26521
G1 X69.579 Y85.639 E2.26801
G1 X68.761 Y85.181 E2.27080
G1 X67.981 Y84.660 E2.27360
G1 X67.245 Y84.080 E2.27639
G1 X66.556 Y83.444 E2.27919
G1 X65.920 Y82.755 E2.28198
G1 X65.340 Y82.019 E2.28478
G1 X64.819 Y81.239 E2.28758
G1 X64.361 Y80.421 E2.29037
G1 X63.968 Y79.570 E2.29317
G1 X63.643 Y78.690 E2.29596
G1 X63.389 Y77.788 E2.29876
G1 X63.206 Y76.868 E2.30155
G1 X63.096 Y75.937 E2.30435
G1 X63.059 Y75.000 E2.30715
G1 X63.096 Y74.063 E2.30994
G1 X63.206 Y73.132 E2.31274
G1 X63.389 Y72.212 E2.31553
G1 X63.643 Y71.310 E2.31833
G1 X63.968 Y70.430 E2.32112
G1 X64.361 Y69.579 E2.32392
G1 X64.819 Y68.761 E2.32671
G1 X65.340 Y67.981 E2.32951
G1 X65.920 Y67.245 E2.33231
G1 X66.556 Y66.556 E2.33510
G1 X67.245 Y65.920 E2.33790
G1 X67.981 Y65.340 E2.34069
G1 X68.761 Y64.819 E2.34349
G1 X69.579 Y64.361 E2.34628
G1 X70.430 Y63.968 E2.34908
G1 X71.310 Y63.643 E2.35187
G1 X72.212 Y63.389 E2.35467
G1 X73.132 Y63.206 E2.35747
G1 X74.063 Y63.096 E2.36026
G1 X75.000 Y63.059 E2.36306
G1 X75.937 Y63.096 E2.36585
G1 X76.868 Y63.206 E2.36865
G1 X77.788 Y63.389 E2.37144
G1 X78.690 Y63.643 E2.37424
G1 X79.570 Y63.968 E2.37704
G1 X80.421 Y64.361 E2.37983
G1 X81.239 Y64.819 E2.38263
G1 X82.019 Y65.340 E2.38542
G1 X82.755 Y65.920 E2.38822
G1 X83.444 Y66.556 E2.39101
G1 X84.080 Y67.245 E2.39381
G1 X84.660 Y67.981 E2.39660
G1 X85.181 Y68.761 E2.39940
G1 X85.639 Y69.579 E2.40220
G1 X86.032 Y70.430 E2.40499
G1 X86.357 Y71.310 E2.40779
G1 X86.611 Y72.212 E2.41058
G1 X86.794 Y73.132 E2.41338
G1 X86.904 Y74.063 E2.41617
G1 X86.941 Y75.000 E2.41897
G1 X86.904 Y75.937 E2.42176
G1 X86.794 Y76.868 E2.42456
G1 X86.611 Y77.788 E2.42736
G1 X86.356 Y78.690 E2.43015
G1 X86.032 Y79.570 E2.43295
G1 X85.639 Y80.421 E2.43574
G1 X85.181 Y81.239 E2.43854
G1 X84.660 Y82.019 E2.44133
G1 X84.080 Y82.755 E2.44413
G1 X83.801 Y83.057 E2.44536
G1 X83.809 Y83.166 F7800.000
G1 F1800.000
G1 X83.500 Y83.500 E2.44671
G1 X82.807 Y84.141 E2.44953
G1 X82.066 Y84.725 E2.45234
G1 X81.281 Y85.249 E2.45515
G1 X80.457 Y85.711 E2.45797
G1 X79.600 Y86.106 E2.46078
G1 X78.715 Y86.432 E2.46360
G1 X77.806 Y86.689 E2.46641
G1 X76.880 Y86.873 E2.46923
G1 X75.943 Y86.984 E2.47204
G1 X75.000 Y87.021 E2.47485
G1 X74.057 Y86.984 E2.47767
G1 X73.120 Y86.873 E2.48048
G1 X72.194 Y86.689 E2.48330
G1 X71.285 Y86.432 E2.48611
G1 X70.400 Y86.106 E2.48893
G1 X69.543 Y85.711 E2.49174
G1 X68.719 Y85.249 E2.49455
G1 X67.934 Y84.725 E2.49737
G1 X67.193 Y84.141 E2.50018
G1 X66.500 Y83.500 E2.50300
G1 X65.859 Y82.807 E2.50581
G1 X65.275 Y82.066 E2.50863
G1 X64.751 Y81.281 E2.51144
G1 X64.289 Y80.457 E2.51425
G1 X63.894 Y79.600 E2.51707
G1 X63.568 Y78.715 E2.51988
G1 X63.311 Y77.806 E2.52270
G1 X63.127 Y76.880 E2.52551
G1 X63.016 Y75.943 E2.52832
G1 X62.979 Y75.000 E2.53114
G1 X63.016 Y74.057 E2.53395
G1 X63.127 Y73.120 E2.53677
G1 X63.311 Y72.194 E2.53958
G1 X63.568 Y71.285 E2.54240
G1 X63.894 Y70.400 E2.54521
G1 X64.289 Y69.543 E2.54802
G1 X64.751 Y68.719 E2.55084
G1 X65.275 Y67.934 E2.55365
G1 X65.859 Y67.193 E2.55647
G1 X66.500 Y66.500 E2.55928
G1 X67.193 Y65.859 E2.56210
G1 X67.934 Y65.275 E2.56491
G1 X68.719 Y64.751 E2.56772
G1 X69.543 Y64.289 E2.57054
G1 X70.400 Y63.894 E2.57335
G1 X71.285 Y63.568 E2.57617
G1 X72.194 Y63.311 E2.57898
G1 X73.120 Y63.127 E2.58180
G1 X74.057 Y63.016 E2.58461
G1 X75.000 Y62.979 E2.58742
