; generated by Slic3r 1.3.1-dev (Build 2ef957d) on 2019-11-25 at 09:21:09

; external perimeters extrusion width = 0.55mm (4.37mm^3/s)
; perimeters extrusion width = 0.70mm (11.44mm^3/s)
; infill extrusion width = 0.62mm (13.45mm^3/s)
; solid infill extrusion width = 0.70mm (3.81mm^3/s)
; top infill extrusion width = 0.70mm (2.86mm^3/s)

M107
G92 E0
M104 S200 ; set temperature
G28 ; home all axes
G1 Z5 F5000 ; lift nozzle

; Filament gcode

M109 S200 ; set temperature and wait for it to be reached
G21 ; set units to millimeters
G90 ; use absolute coordinates
M82 ; use absolute distances for extrusion
G92 E0
G1 Z0.350 F7800.000
G1 E-2.00000 F2400.00000
G92 E0
G1 X86.715 Y77.553 F7800.000
G1 E2.00000 F2400.00000
G1 F1800.000
G1 X88.468 Y76.074 E2.07096
G1 X90.620 Y75.281 E2.14192
G1 X91.800 Y75.175 E2.17858
G1 X108.200 Y75.175 E2.68601
G1 X110.459 Y75.572 E2.75698
G1 X112.447 Y76.715 E2.82794
G1 X113.926 Y78.468 E2.89890
G1 X114.719 Y80.620 E2.96986
G1 X114.825 Y81.800 E3.00651
G1 X114.825 Y118.200 E4.13278
G1 X114.428 Y120.459 E4.20374
G1 X113.285 Y122.447 E4.27470
G1 X111.532 Y123.926 E4.34566
G1 X109.380 Y124.719 E4.41663
G1 X108.200 Y124.825 E4.45328
G1 X91.800 Y124.825 E4.96072
G1 X89.541 Y124.428 E5.03168
G1 X87.553 Y123.285 E5.10264
G1 X86.074 Y121.532 E5.17360
G1 X85.281 Y119.380 E5.24456
G1 X85.175 Y118.200 E5.28122
G1 X85.175 Y81.800 E6.40748
G1 X85.572 Y79.541 E6.47844
G1 X86.678 Y77.618 E6.54708
G1 E4.54708 F2400.00000
G92 E0
G1 X101.852 Y116.608 F7800.000
G1 E2.00000 F2400.00000
G1 F1800.000
G1 X98.148 Y116.608 E2.11461
G1 X96.296 Y113.400 E2.22922
G1 X98.148 Y110.192 E2.34383
G1 X101.852 Y110.192 E2.45845
G1 X103.704 Y113.400 E2.57306
G1 X101.890 Y116.543 E2.68535
G1 X101.852 Y117.108 F7800.000
G1 E0.68535 F2400.00000
G92 E0
G1 X105.147 Y113.400 F7800.000
G1 E2.00000 F2400.00000
G1 F1800.000
G1 X102.574 Y108.942 E2.15926
G1 X97.426 Y108.942 E2.31853
G1 X94.853 Y113.400 E2.47779
G1 X96.700 Y116.600 E2.59213
G1 X93.400 Y116.600 E2.69425
G1 X93.400 Y97.419 E3.28775
G1 X93.694 Y97.354 E3.29708
G1 X93.940 Y97.888 E3.31525
G1 X94.201 Y98.354 E3.33178
G1 X94.498 Y98.798 E3.34830
G1 X94.828 Y99.217 E3.36482
G1 X95.191 Y99.609 E3.38135
G1 X95.583 Y99.972 E3.39787
G1 X96.002 Y100.302 E3.41439
G1 X96.446 Y100.599 E3.43092
G1 X96.912 Y100.860 E3.44744
G1 X97.397 Y101.083 E3.46396
G1 X97.898 Y101.268 E3.48048
G1 X98.412 Y101.413 E3.49701
G1 X98.936 Y101.517 E3.51353
G1 X99.466 Y101.580 E3.53005
G1 X100.000 Y101.601 E3.54658
G1 X100.534 Y101.580 E3.56310
G1 X101.064 Y101.517 E3.57962
G1 X101.588 Y101.413 E3.59615
G1 X102.102 Y101.268 E3.61267
G1 X102.603 Y101.083 E3.62919
G1 X103.088 Y100.860 E3.64572
G1 X103.554 Y100.599 E3.66224
G1 X103.998 Y100.302 E3.67876
G1 X104.417 Y99.972 E3.69528
G1 X104.809 Y99.609 E3.71181
G1 X105.172 Y99.217 E3.72833
G1 X105.502 Y98.798 E3.74485
G1 X105.799 Y98.354 E3.76138
G1 X106.060 Y97.888 E3.77790
G1 X106.306 Y97.354 E3.79607
G1 X106.600 Y97.419 E3.80541
G1 X106.600 Y116.600 E4.39890
G1 X103.300 Y116.600 E4.50103
G1 X105.110 Y113.465 E4.61304
G1 E2.61304 F2400.00000
G92 E0
G1 X106.306 Y92.246 F7800.000
G1 E2.00000 F2400.00000
G1 F1800.000
G1 X106.060 Y91.712 E2.01817
G1 X105.799 Y91.246 E2.03470
G1 X105.502 Y90.802 E2.05122
G1 X105.172 Y90.383 E2.06774
G1 X104.809 Y89.991 E2.08427
G1 X104.417 Y89.628 E2.10079
G1 X103.998 Y89.298 E2.11731
G1 X103.554 Y89.001 E2.13384
G1 X103.088 Y88.740 E2.15036
G1 X102.603 Y88.517 E2.16688
G1 X102.100 Y88.331 E2.18347
G1 X102.100 Y83.400 E2.33605
G1 X106.600 Y83.400 E2.47530
G1 X106.600 Y92.181 E2.74701
G1 X106.379 Y92.230 E2.75402
G1 E0.75402 F2400.00000
G92 E0
G1 X97.900 Y88.331 F7800.000
G1 E2.00000 F2400.00000
G1 F1800.000
G1 X97.397 Y88.517 E2.01658
G1 X96.912 Y88.740 E2.03311
G1 X96.446 Y89.001 E2.04963
G1 X96.002 Y89.298 E2.06615
G1 X95.583 Y89.628 E2.08268
G1 X95.191 Y89.991 E2.09920
G1 X94.828 Y90.383 E2.11572
G1 X94.498 Y90.802 E2.13225
G1 X94.201 Y91.246 E2.14877
G1 X93.940 Y91.712 E2.16529
G1 X93.694 Y92.246 E2.18347
G1 X93.400 Y92.181 E2.19280
G1 X93.400 Y83.400 E2.46450
G1 X97.900 Y83.400 E2.60375
G1 X97.900 Y88.256 E2.75402
G1 E0.75402 F2400.00000
G92 E0
G1 X97.787 Y109.567 F7800.000
G1 E2.00000 F2400.00000
G1 F1800.000
G1 X95.574 Y113.400 E2.13694
G1 X97.783 Y117.225 E2.27360
G1 X92.775 Y117.225 E2.42855
G1 X92.775 Y82.775 E3.49448
G1 X98.525 Y82.775 E3.67240
G1 X98.525 Y88.804 E3.85896
G1 X98.092 Y88.927 E3.87290
G1 X97.637 Y89.094 E3.88790
G1 X97.196 Y89.297 E3.90291
G1 X96.773 Y89.534 E3.91791
G1 X96.370 Y89.804 E3.93291
G1 X95.989 Y90.104 E3.94792
G1 X95.633 Y90.433 E3.96292
G1 X95.304 Y90.789 E3.97793
G1 X95.004 Y91.170 E3.99293
G1 X94.734 Y91.573 E4.00793
G1 X94.497 Y91.996 E4.02294
G1 X94.294 Y92.437 E4.03794
G1 X94.127 Y92.892 E4.05294
G1 X93.995 Y93.358 E4.06795
G1 X93.900 Y93.834 E4.08295
G1 X93.843 Y94.315 E4.09796
G1 X93.824 Y94.800 E4.11296
G1 X93.843 Y95.285 E4.12796
G1 X93.900 Y95.766 E4.14297
G1 X93.995 Y96.242 E4.15797
G1 X94.127 Y96.708 E4.17297
G1 X94.294 Y97.163 E4.18798
G1 X94.497 Y97.604 E4.20298
G1 X94.734 Y98.027 E4.21799
G1 X95.004 Y98.430 E4.23299
G1 X95.304 Y98.811 E4.24799
G1 X95.633 Y99.167 E4.26300
G1 X95.989 Y99.496 E4.27800
G1 X96.370 Y99.796 E4.29300
G1 X96.773 Y100.066 E4.30801
G1 X97.196 Y100.303 E4.32301
G1 X97.637 Y100.506 E4.33802
G1 X98.092 Y100.673 E4.35302
G1 X98.558 Y100.805 E4.36802
G1 X99.034 Y100.900 E4.38303
G1 X99.515 Y100.957 E4.39803
G1 X100.000 Y100.976 E4.41303
G1 X100.485 Y100.957 E4.42804
G1 X100.966 Y100.900 E4.44304
G1 X101.442 Y100.805 E4.45805
G1 X101.908 Y100.673 E4.47305
G1 X102.363 Y100.506 E4.48805
G1 X102.804 Y100.303 E4.50306
G1 X103.227 Y100.066 E4.51806
G1 X103.630 Y99.796 E4.53306
G1 X104.011 Y99.496 E4.54807
G1 X104.367 Y99.167 E4.56307
G1 X104.696 Y98.811 E4.57807
G1 X104.996 Y98.430 E4.59308
G1 X105.266 Y98.027 E4.60808
G1 X105.503 Y97.604 E4.62309
G1 X105.706 Y97.163 E4.63809
G1 X105.873 Y96.708 E4.65309
G1 X106.005 Y96.242 E4.66810
G1 X106.100 Y95.766 E4.68310
G1 X106.157 Y95.285 E4.69810
G1 X106.176 Y94.800 E4.71311
G1 X106.157 Y94.315 E4.72811
G1 X106.100 Y93.834 E4.74312
G1 X106.005 Y93.358 E4.75812
G1 X105.873 Y92.892 E4.77312
G1 X105.706 Y92.437 E4.78813
G1 X105.503 Y91.996 E4.80313
G1 X105.266 Y91.573 E4.81813
G1 X104.996 Y91.170 E4.83314
G1 X104.696 Y90.789 E4.84814
G1 X104.367 Y90.433 E4.86315
G1 X104.011 Y90.104 E4.87815
G1 X103.630 Y89.804 E4.89315
G1 X103.227 Y89.534 E4.90816
G1 X102.804 Y89.297 E4.92316
G1 X102.363 Y89.094 E4.93816
G1 X101.908 Y88.927 E4.95317
G1 X101.475 Y88.804 E4.96710
G1 X101.475 Y82.775 E5.15366
G1 X107.225 Y82.775 E5.33158
G1 X107.225 Y117.225 E6.39752
G1 X102.217 Y117.225 E6.55247
G1 X104.426 Y113.400 E6.68913
G1 X102.213 Y109.567 E6.82607
G1 X97.862 Y109.567 E6.96068
G1 E4.96068 F2400.00000
G92 E0
G1 X92.150 Y117.850 F7800.000
G1 E2.00000 F2400.00000
G1 F1800.000
G1 X92.150 Y82.150 E3.10460
G1 X99.150 Y82.150 E3.32119
G1 X99.150 Y89.314 E3.54287
G1 X98.704 Y89.403 E3.55693
G1 X98.285 Y89.521 E3.57042
G1 X97.876 Y89.672 E3.58390
G1 X97.480 Y89.855 E3.59738
G1 X97.100 Y90.068 E3.61087
G1 X96.738 Y90.310 E3.62435
G1 X96.395 Y90.580 E3.63784
G1 X96.075 Y90.875 E3.65132
G1 X95.780 Y91.195 E3.66481
G1 X95.510 Y91.538 E3.67829
G1 X95.268 Y91.900 E3.69178
G1 X95.055 Y92.280 E3.70526
G1 X94.872 Y92.676 E3.71874
G1 X94.721 Y93.085 E3.73223
G1 X94.603 Y93.504 E3.74571
G1 X94.518 Y93.932 E3.75920
G1 X94.467 Y94.365 E3.77268
G1 X94.450 Y94.800 E3.78617
G1 X94.467 Y95.235 E3.79965
G1 X94.518 Y95.668 E3.81313
G1 X94.603 Y96.096 E3.82662
G1 X94.721 Y96.515 E3.84010
G1 X94.872 Y96.924 E3.85359
G1 X95.055 Y97.320 E3.86707
G1 X95.268 Y97.700 E3.88056
G1 X95.510 Y98.062 E3.89404
G1 X95.780 Y98.405 E3.90753
G1 X96.075 Y98.725 E3.92101
G1 X96.395 Y99.020 E3.93449
G1 X96.738 Y99.290 E3.94798
G1 X97.100 Y99.532 E3.96146
G1 X97.480 Y99.745 E3.97495
G1 X97.876 Y99.928 E3.98843
G1 X98.285 Y100.079 E4.00192
G1 X98.704 Y100.197 E4.01540
G1 X99.132 Y100.282 E4.02888
G1 X99.565 Y100.333 E4.04237
G1 X100.000 Y100.350 E4.05585
G1 X100.435 Y100.333 E4.06934
G1 X100.868 Y100.282 E4.08282
G1 X101.296 Y100.197 E4.09631
G1 X101.715 Y100.079 E4.10979
G1 X102.124 Y99.928 E4.12328
G1 X102.520 Y99.745 E4.13676
G1 X102.900 Y99.532 E4.15024
G1 X103.262 Y99.290 E4.16373
G1 X103.605 Y99.020 E4.17721
G1 X103.925 Y98.725 E4.19070
G1 X104.220 Y98.405 E4.20418
G1 X104.490 Y98.062 E4.21767
G1 X104.732 Y97.700 E4.23115
G1 X104.945 Y97.320 E4.24463
G1 X105.128 Y96.924 E4.25812
G1 X105.279 Y96.515 E4.27160
G1 X105.397 Y96.096 E4.28509
G1 X105.482 Y95.668 E4.29857
G1 X105.533 Y95.235 E4.31206
G1 X105.550 Y94.800 E4.32554
G1 X105.533 Y94.365 E4.33903
G1 X105.482 Y93.932 E4.35251
G1 X105.397 Y93.504 E4.36599
G1 X105.279 Y93.085 E4.37948
G1 X105.128 Y92.676 E4.39296
G1 X104.945 Y92.280 E4.40645
G1 X104.732 Y91.900 E4.41993
G1 X104.490 Y91.538 E4.43342
G1 X104.220 Y91.195 E4.44690
G1 X103.925 Y90.875 E4.46038
G1 X103.605 Y90.580 E4.47387
G1 X103.262 Y90.310 E4.48735
G1 X102.900 Y90.068 E4.50084
G1 X102.520 Y89.855 E4.51432
G1 X102.124 Y89.672 E4.52781
G1 X101.715 Y89.521 E4.54129
G1 X101.296 Y89.403 E4.55478
G1 X100.850 Y89.314 E4.56884
G1 X100.850 Y82.150 E4.79051
G1 X107.850 Y82.150 E5.00710
G1 X107.850 Y117.850 E6.11171
G1 X92.225 Y117.850 E6.59517
G1 X92.219 Y117.355 F7800.000
G1 E4.59517 F2400.00000
G92 E0
G1 X98.146 Y117.229 F7800.000
G1 E2.00000 F2400.00000
G1 F1800.000
G1 X101.854 Y117.229 E2.09955
G1 E0.09955 F2400.00000
G92 E0
G1 X105.732 Y116.218 F7800.000
G1 E2.00000 F2400.00000
G1 F1800.000
G1 X106.218 Y115.732 E2.02194
G1 X106.218 Y114.821 E2.05101
G1 X104.821 Y116.218 E2.11406
G1 X104.139 Y116.218 E2.13582
G1 X104.452 Y115.676 E2.15579
G1 X106.218 Y113.910 E2.23549
G1 X106.218 Y112.999 E2.26456
G1 X105.607 Y113.610 E2.29216
G1 X105.273 Y113.032 E2.31344
G1 X106.218 Y112.087 E2.35609
G1 X106.218 Y111.176 E2.38516
G1 X104.940 Y112.455 E2.44285
G1 X104.606 Y111.877 E2.46413
G1 X106.218 Y110.265 E2.53687
G1 X106.218 Y109.354 E2.56594
G1 X104.273 Y111.299 E2.65373
G1 X103.939 Y110.722 E2.67501
G1 X106.218 Y108.442 E2.77785
G1 X106.218 Y107.531 E2.80692
G1 X103.606 Y110.144 E2.92481
G1 X103.272 Y109.566 E2.94609
G1 X106.218 Y106.620 E3.07903
G1 X106.218 Y105.709 E3.10810
G1 X102.939 Y108.989 E3.25608
G1 X102.691 Y108.560 E3.27185
G1 X102.455 Y108.560 E3.27938
G1 X106.218 Y104.798 E3.44916
G1 X106.218 Y103.886 E3.47823
G1 X101.544 Y108.560 E3.68912
G1 X100.633 Y108.560 E3.71820
G1 X106.218 Y102.975 E3.97020
G1 X106.218 Y102.064 E3.99928
G1 X99.722 Y108.560 E4.29240
G1 X98.811 Y108.560 E4.32147
G1 X106.218 Y101.153 E4.65570
G1 X106.218 Y100.241 E4.68477
G1 X97.899 Y108.560 E5.06012
G1 X96.988 Y108.560 E5.08919
G1 X106.160 Y99.389 E5.50301
G1 X105.989 Y99.254 E5.50994
G1 X105.494 Y99.808 E5.53365
G1 X105.066 Y100.204 E5.55225
G1 X104.608 Y100.565 E5.57085
G1 X104.123 Y100.889 E5.58946
G1 X103.615 Y101.174 E5.60806
G1 X103.334 Y101.303 E5.61791
G1 X93.782 Y110.856 E6.04891
G1 X93.782 Y109.945 E6.07798
G1 X101.941 Y101.785 E6.44612
G1 X101.405 Y101.892 E6.46356
G1 X100.858 Y101.957 E6.48111
G1 X93.782 Y109.033 E6.80041
G1 X93.782 Y108.122 E6.82948
G1 X99.933 Y101.971 E7.10700
G1 X99.660 Y101.960 E7.11570
G1 X99.099 Y101.894 E7.13375
G1 X93.782 Y107.211 E7.37364
G1 X93.782 Y106.300 E7.40271
G1 X98.348 Y101.733 E7.60876
G1 X97.948 Y101.620 E7.62203
G1 X97.657 Y101.513 E7.63192
G1 X93.782 Y105.388 E7.80679
G1 X93.782 Y104.477 E7.83586
G1 X97.018 Y101.241 E7.98187
G1 X96.424 Y100.923 E8.00334
G1 X93.782 Y103.566 E8.12257
G1 X93.782 Y102.655 E8.15164
G1 X95.874 Y100.562 E8.24606
G1 X95.369 Y100.157 E8.26674
G1 X93.782 Y101.744 E8.33834
G1 X93.782 Y100.832 E8.36742
G1 X94.902 Y99.712 E8.41798
G1 X94.497 Y99.254 E8.43749
G1 X94.268 Y99.434 E8.44677
G1 X93.782 Y99.920 E8.46870
G1 E6.46870 F2400.00000
G92 E0
G1 X97.083 Y108.466 F7800.000
G1 E2.00000 F2400.00000
G1 F1800.000
G1 X93.782 Y111.767 E2.14893
G1 X93.782 Y112.678 E2.17800
G1 X95.838 Y110.622 E2.27078
G1 X94.593 Y112.778 E2.35020
G1 X93.782 Y113.589 E2.38681
G1 X93.782 Y114.501 E2.41588
G1 X94.649 Y113.633 E2.45502
G1 X94.983 Y114.211 E2.47630
G1 X93.782 Y115.412 E2.53049
G1 X93.782 Y116.218 E2.55622
G1 X93.886 Y116.218 E2.55956
G1 X95.316 Y114.789 E2.62408
G1 X95.650 Y115.366 E2.64536
G1 X94.798 Y116.218 E2.68381
G1 E0.68381 F2400.00000
G92 E0
G1 X94.095 Y98.827 F7800.000
G1 E2.00000 F2400.00000
G1 F1800.000
G1 X93.712 Y98.323 E2.00178
G1 X93.489 Y97.079 F7800.000
G1 F1800.000
G1 X93.395 Y96.398 E2.02172
G1 F1800.000
G1 X93.375 Y96.204 E2.02688
G1 F1800.000
G1 X93.342 Y95.865 E2.03478
G1 F1800.000
G1 X93.310 Y95.335 E2.04530
G1 F1800.000
G1 X93.300 Y94.792 E2.05471
G1 F1800.000
G1 X93.325 Y94.010 E2.07023
G1 F1800.000
G1 X93.359 Y93.566 E2.08055
G1 F1800.000
G1 X93.395 Y93.202 E2.09032
G1 F1800.000
G1 X93.489 Y92.521 E2.11182
G1 X93.712 Y91.277 F7800.000
G1 F1800.000
G1 X94.095 Y90.773 E2.11360
G1 E0.11360 F2400.00000
G92 E0
G1 X97.032 Y88.139 F7800.000
G1 E2.00000 F2400.00000
G1 F1800.000
G1 X97.518 Y87.652 E2.02143
G1 X97.518 Y86.762 E2.04918
G1 X93.968 Y90.312 E2.20565
G1 X93.782 Y90.165 E2.21306
G1 X93.782 Y89.609 E2.23040
G1 X97.518 Y85.872 E2.39510
G1 X97.518 Y84.982 E2.42285
G1 X93.782 Y88.719 E2.58755
G1 X93.782 Y87.829 E2.61530
G1 X97.518 Y84.092 E2.78000
G1 X97.518 Y83.782 E2.78967
G1 X96.938 Y83.782 E2.80775
G1 X93.782 Y86.938 E2.94689
G1 X93.782 Y86.048 E2.97463
G1 X96.048 Y83.782 E3.07454
G1 X95.158 Y83.782 E3.10228
G1 X93.782 Y85.158 E3.16295
G1 X93.782 Y84.268 E3.19069
G1 X94.268 Y83.782 E3.21212
G1 E1.21212 F2400.00000
G92 E0
G1 X102.968 Y83.782 F7800.000
G1 E2.00000 F2400.00000
G1 F1800.000
G1 X102.482 Y84.268 E2.02202
G1 X102.482 Y85.183 E2.05132
G1 X103.883 Y83.782 E2.11478
G1 X104.797 Y83.782 E2.14408
G1 X102.482 Y86.097 E2.24897
G1 X102.482 Y87.012 E2.27827
G1 X105.712 Y83.782 E2.42460
G1 X106.218 Y83.782 E2.44081
G1 X106.218 Y84.190 E2.45390
G1 X102.482 Y87.927 E2.62315
G1 X102.482 Y88.139 E2.62994
G1 X102.970 Y88.353 E2.64703
G1 X106.218 Y85.105 E2.79415
G1 X106.218 Y86.020 E2.82345
G1 X103.567 Y88.671 E2.94356
G1 X104.120 Y89.033 E2.96473
G1 X106.218 Y86.935 E3.05979
G1 X106.218 Y87.849 E3.08909
G1 X104.628 Y89.440 E3.16114
G1 X105.096 Y89.887 E3.18187
G1 X106.218 Y88.764 E3.23271
G1 X106.218 Y89.679 E3.26201
G1 X105.732 Y90.166 E3.28406
G1 X105.905 Y90.773 F7800.000
G1 F1800.000
G1 X106.288 Y91.277 E3.28689
G1 X106.511 Y92.521 F7800.000
G1 F1800.000
G1 X106.605 Y93.202 E3.30684
G1 F1800.000
G1 X106.625 Y93.396 E3.31199
G1 F1800.000
G1 X106.658 Y93.735 E3.31989
G1 F1800.000
G1 X106.690 Y94.265 E3.33042
G1 F1800.000
G1 X106.700 Y94.808 E3.33982
G1 F1800.000
G1 X106.675 Y95.590 E3.35534
G1 F1800.000
G1 X106.641 Y96.034 E3.36566
G1 F1800.000
G1 X106.605 Y96.398 E3.37544
G1 F1800.000
G1 X106.511 Y97.079 E3.39693
G1 X106.288 Y98.323 F7800.000
G1 F1800.000
G1 X105.905 Y98.827 E3.39977
G1 Z0.650 F7800.000
G1 X96.382 Y113.400 F7800.000
G1 F900.000
G1 X98.191 Y110.267 E3.47433
G1 X101.809 Y110.267 E3.54889
G1 X103.618 Y113.400 E3.62344
G1 X101.809 Y116.533 E3.69800
G1 X98.191 Y116.533 E3.77256
G1 X96.420 Y113.465 E3.84558
G1 X95.949 Y113.150 F7800.000
G1 X95.001 Y113.400 F7800.000
G1 F3600.000
G1 X96.923 Y116.729 E3.94927
G1 X93.271 Y116.729 E4.04778
G1 X93.271 Y96.716 E4.58764
G1 X93.600 Y96.671 E4.59660
G1 X93.836 Y97.353 E4.61608
G1 X94.055 Y97.829 E4.63021
G1 X94.311 Y98.286 E4.64434
G1 X94.602 Y98.722 E4.65848
G1 X94.926 Y99.133 E4.67261
G1 X95.282 Y99.518 E4.68674
G1 X95.667 Y99.874 E4.70088
G1 X96.078 Y100.198 E4.71501
G1 X96.514 Y100.489 E4.72914
G1 X96.971 Y100.745 E4.74328
G1 X97.447 Y100.964 E4.75741
G1 X97.938 Y101.146 E4.77154
G1 X98.442 Y101.288 E4.78567
G1 X98.956 Y101.390 E4.79981
G1 X99.476 Y101.452 E4.81394
G1 X100.000 Y101.472 E4.82808
G1 X100.524 Y101.452 E4.84221
G1 X101.044 Y101.390 E4.85634
G1 X101.558 Y101.288 E4.87048
G1 X102.062 Y101.146 E4.88461
G1 X102.553 Y100.964 E4.89874
G1 X103.029 Y100.745 E4.91288
G1 X103.486 Y100.489 E4.92701
G1 X103.922 Y100.198 E4.94114
G1 X104.333 Y99.874 E4.95527
G1 X104.718 Y99.518 E4.96941
G1 X105.074 Y99.133 E4.98354
G1 X105.398 Y98.722 E4.99768
G1 X105.689 Y98.286 E5.01181
G1 X105.945 Y97.829 E5.02594
G1 X106.164 Y97.353 E5.04008
