; generated by Slic3r 1.3.1-dev (Build adea0d9) on 2019-12-16 at 00:48:59

; external perimeters extrusion width = 0.44mm (2.86mm^3/s)
; perimeters extrusion width = 0.56mm (4.14mm^3/s)
; infill extrusion width = 0.50mm (3.66mm^3/s)
; solid infill extrusion width = 0.56mm (3.10mm^3/s)
; top infill extrusion width = 0.56mm (3.10mm^3/s)

M107
G92 E0
;D3D:START:START
T0
M104 S215 T0

G21
G90
M107
T0
G28
G29
M109 T0 S215 T0
G0 F3000
M107
T0
G92 E0
G0 X0 Y149 Z0.1 F3600
G1 Y49 E6.5 F1200
G0 Z1
G92 E0
; Filament gcode

G21 ; set units to millimeters
G90 ; use absolute coordinates
M82 ; use absolute distances for extrusion
G92 E0
G1 Z0.300 F7800.000
G1 E-2.00000 F2400.00000
G92 E0
G1 X72.948 Y84.846 F7800.000
G1 E2.00000 F2400.00000
G1 F1800.000
G1 X77.052 Y84.846 E2.13596
G1 X79.104 Y88.400 E2.27192
G1 X77.052 Y91.954 E2.40789
G1 X72.948 Y91.954 E2.54385
G1 X70.896 Y88.400 E2.67981
G1 X72.918 Y84.898 E2.81378
G1 X73.101 Y85.111 F7800.000
G1 F1800.000
G1 X76.899 Y85.111 E2.93959
G1 X78.797 Y88.400 E3.06539
G1 X76.899 Y91.689 E3.19119
G1 X73.101 Y91.689 E3.31699
G1 X71.203 Y88.400 E3.44279
G1 X73.071 Y85.163 E3.56660
G1 X73.255 Y85.377 F7800.000
G1 F1800.000
G1 X76.745 Y85.377 E3.68224
G1 X78.491 Y88.400 E3.79788
G1 X76.745 Y91.423 E3.91352
G1 X73.255 Y91.423 E4.02916
G1 X71.509 Y88.400 E4.14480
G1 X73.225 Y85.429 E4.25845
G1 E2.25845 F2400.00000
G92 E0
G1 X67.496 Y92.504 F7800.000
G1 E2.00000 F2400.00000
G1 F1800.000
G1 X67.496 Y57.496 E3.15978
G1 X73.804 Y57.496 E3.36875
G1 X73.804 Y64.030 E3.58522
G1 X73.178 Y64.192 E3.60664
G1 X72.743 Y64.352 E3.62197
G1 X72.323 Y64.546 E3.63731
G1 X71.919 Y64.772 E3.65265
G1 X71.534 Y65.029 E3.66799
G1 X71.170 Y65.316 E3.68333
G1 X70.830 Y65.630 E3.69867
G1 X70.516 Y65.970 E3.71401
G1 X70.229 Y66.334 E3.72935
G1 X69.972 Y66.719 E3.74469
G1 X69.746 Y67.123 E3.76003
G1 X69.552 Y67.543 E3.77537
G1 X69.392 Y67.978 E3.79071
G1 X69.266 Y68.423 E3.80605
G1 X69.176 Y68.878 E3.82139
G1 X69.121 Y69.337 E3.83673
G1 X69.103 Y69.800 E3.85207
G1 X69.121 Y70.263 E3.86740
G1 X69.176 Y70.722 E3.88274
G1 X69.266 Y71.177 E3.89808
G1 X69.392 Y71.622 E3.91342
G1 X69.552 Y72.057 E3.92876
G1 X69.746 Y72.477 E3.94410
G1 X69.972 Y72.881 E3.95944
G1 X70.229 Y73.266 E3.97478
G1 X70.516 Y73.630 E3.99012
G1 X70.830 Y73.970 E4.00546
G1 X71.170 Y74.284 E4.02080
G1 X71.534 Y74.571 E4.03614
G1 X71.919 Y74.828 E4.05148
G1 X72.323 Y75.054 E4.06682
G1 X72.743 Y75.248 E4.08216
G1 X73.178 Y75.408 E4.09750
G1 X73.623 Y75.534 E4.11283
G1 X74.078 Y75.624 E4.12817
G1 X74.537 Y75.679 E4.14351
G1 X75.000 Y75.697 E4.15885
G1 X75.463 Y75.679 E4.17419
G1 X75.922 Y75.624 E4.18953
G1 X76.377 Y75.534 E4.20487
G1 X76.822 Y75.408 E4.22021
G1 X77.257 Y75.248 E4.23555
G1 X77.677 Y75.054 E4.25089
G1 X78.081 Y74.828 E4.26623
G1 X78.466 Y74.571 E4.28157
G1 X78.830 Y74.284 E4.29691
G1 X79.170 Y73.970 E4.31225
G1 X79.484 Y73.630 E4.32759
G1 X79.771 Y73.266 E4.34293
G1 X80.028 Y72.881 E4.35827
G1 X80.254 Y72.477 E4.37360
G1 X80.448 Y72.057 E4.38894
G1 X80.608 Y71.622 E4.40428
G1 X80.734 Y71.177 E4.41962
G1 X80.824 Y70.722 E4.43496
G1 X80.879 Y70.263 E4.45030
G1 X80.897 Y69.800 E4.46564
G1 X80.879 Y69.337 E4.48098
G1 X80.824 Y68.878 E4.49632
G1 X80.734 Y68.423 E4.51166
G1 X80.608 Y67.978 E4.52700
G1 X80.448 Y67.543 E4.54234
G1 X80.254 Y67.123 E4.55768
G1 X80.028 Y66.719 E4.57302
G1 X79.771 Y66.334 E4.58836
G1 X79.484 Y65.970 E4.60369
G1 X79.170 Y65.630 E4.61903
G1 X78.830 Y65.316 E4.63437
G1 X78.466 Y65.029 E4.64971
G1 X78.081 Y64.772 E4.66505
G1 X77.677 Y64.546 E4.68039
G1 X77.257 Y64.352 E4.69573
G1 X76.822 Y64.192 E4.71107
G1 X76.196 Y64.030 E4.73249
G1 X76.196 Y57.496 E4.94896
G1 X82.504 Y57.496 E5.15792
G1 X82.504 Y92.504 E6.31771
G1 X67.556 Y92.504 E6.81291
G1 X67.231 Y92.769 F7800.000
G1 F1800.000
G1 X67.231 Y57.231 E7.99029
G1 X74.069 Y57.231 E8.21686
G1 X74.069 Y64.248 E8.44935
G1 X73.685 Y64.325 E8.46232
G1 X73.260 Y64.445 E8.47696
G1 X72.845 Y64.598 E8.49161
G1 X72.444 Y64.783 E8.50626
G1 X72.058 Y64.999 E8.52091
G1 X71.690 Y65.244 E8.53556
G1 X71.343 Y65.518 E8.55020
G1 X71.018 Y65.818 E8.56485
G1 X70.718 Y66.143 E8.57950
G1 X70.444 Y66.490 E8.59415
G1 X70.199 Y66.858 E8.60880
G1 X69.983 Y67.244 E8.62344
G1 X69.798 Y67.645 E8.63809
G1 X69.645 Y68.060 E8.65274
G1 X69.525 Y68.485 E8.66739
G1 X69.438 Y68.919 E8.68203
G1 X69.386 Y69.358 E8.69668
G1 X69.369 Y69.800 E8.71133
G1 X69.386 Y70.242 E8.72598
G1 X69.438 Y70.681 E8.74063
G1 X69.525 Y71.115 E8.75527
G1 X69.645 Y71.540 E8.76992
G1 X69.798 Y71.955 E8.78457
G1 X69.983 Y72.356 E8.79922
G1 X70.199 Y72.742 E8.81387
G1 X70.444 Y73.110 E8.82851
G1 X70.718 Y73.457 E8.84316
G1 X71.018 Y73.782 E8.85781
G1 X71.343 Y74.082 E8.87246
G1 X71.690 Y74.356 E8.88711
G1 X72.058 Y74.601 E8.90175
G1 X72.444 Y74.817 E8.91640
G1 X72.845 Y75.002 E8.93105
G1 X73.260 Y75.155 E8.94570
G1 X73.685 Y75.275 E8.96034
G1 X74.119 Y75.362 E8.97499
G1 X74.558 Y75.414 E8.98964
G1 X75.000 Y75.431 E9.00429
G1 X75.442 Y75.414 E9.01894
G1 X75.881 Y75.362 E9.03358
G1 X76.315 Y75.275 E9.04823
G1 X76.740 Y75.155 E9.06288
G1 X77.155 Y75.002 E9.07753
G1 X77.556 Y74.817 E9.09218
G1 X77.942 Y74.601 E9.10682
G1 X78.310 Y74.356 E9.12147
G1 X78.657 Y74.082 E9.13612
G1 X78.982 Y73.782 E9.15077
G1 X79.282 Y73.457 E9.16541
G1 X79.556 Y73.110 E9.18006
G1 X79.801 Y72.742 E9.19471
G1 X80.017 Y72.356 E9.20936
G1 X80.202 Y71.955 E9.22401
G1 X80.355 Y71.540 E9.23865
G1 X80.475 Y71.115 E9.25330
G1 X80.562 Y70.681 E9.26795
G1 X80.614 Y70.242 E9.28260
G1 X80.631 Y69.800 E9.29725
G1 X80.614 Y69.358 E9.31189
G1 X80.562 Y68.919 E9.32654
G1 X80.475 Y68.485 E9.34119
G1 X80.355 Y68.060 E9.35584
G1 X80.202 Y67.645 E9.37049
G1 X80.017 Y67.244 E9.38513
G1 X79.801 Y66.858 E9.39978
G1 X79.556 Y66.490 E9.41443
G1 X79.282 Y66.143 E9.42908
G1 X78.982 Y65.818 E9.44372
G1 X78.657 Y65.518 E9.45837
G1 X78.310 Y65.244 E9.47302
G1 X77.942 Y64.999 E9.48767
G1 X77.556 Y64.783 E9.50232
G1 X77.155 Y64.598 E9.51696
G1 X76.740 Y64.445 E9.53161
G1 X76.315 Y64.325 E9.54626
G1 X75.931 Y64.248 E9.55923
G1 X75.931 Y57.231 E9.79172
G1 X82.769 Y57.231 E10.01828
G1 X82.769 Y92.769 E11.19567
G1 X67.291 Y92.769 E11.70847
G1 X66.965 Y93.035 F7800.000
G1 F1800.000
G1 X66.965 Y56.965 E12.90345
G1 X74.335 Y56.965 E13.14762
G1 X74.335 Y64.480 E13.39659
G1 X73.748 Y64.583 E13.41635
G1 X73.342 Y64.697 E13.43031
G1 X72.947 Y64.843 E13.44427
G1 X72.564 Y65.020 E13.45822
G1 X72.197 Y65.225 E13.47218
G1 X71.846 Y65.460 E13.48614
G1 X71.516 Y65.720 E13.50009
G1 X71.206 Y66.006 E13.51405
G1 X70.920 Y66.316 E13.52800
G1 X70.660 Y66.646 E13.54196
G1 X70.425 Y66.997 E13.55592
G1 X70.220 Y67.364 E13.56987
G1 X70.043 Y67.747 E13.58383
G1 X69.897 Y68.142 E13.59779
G1 X69.783 Y68.548 E13.61174
G1 X69.701 Y68.961 E13.62570
G1 X69.651 Y69.379 E13.63966
G1 X69.635 Y69.800 E13.65361
G1 X69.651 Y70.221 E13.66757
G1 X69.701 Y70.639 E13.68152
G1 X69.783 Y71.052 E13.69548
G1 X69.897 Y71.458 E13.70944
G1 X70.043 Y71.853 E13.72339
G1 X70.220 Y72.236 E13.73735
G1 X70.425 Y72.603 E13.75131
G1 X70.660 Y72.954 E13.76526
G1 X70.920 Y73.284 E13.77922
G1 X71.206 Y73.594 E13.79318
G1 X71.516 Y73.880 E13.80713
G1 X71.846 Y74.140 E13.82109
G1 X72.197 Y74.375 E13.83505
G1 X72.564 Y74.580 E13.84900
G1 X72.947 Y74.757 E13.86296
G1 X73.342 Y74.903 E13.87691
G1 X73.748 Y75.017 E13.89087
G1 X74.161 Y75.099 E13.90483
G1 X74.579 Y75.149 E13.91878
G1 X75.000 Y75.165 E13.93274
G1 X75.421 Y75.149 E13.94670
G1 X75.839 Y75.099 E13.96065
G1 X76.252 Y75.017 E13.97461
G1 X76.658 Y74.903 E13.98857
G1 X77.053 Y74.757 E14.00252
G1 X77.436 Y74.580 E14.01648
G1 X77.803 Y74.375 E14.03043
G1 X78.154 Y74.140 E14.04439
G1 X78.484 Y73.880 E14.05835
G1 X78.794 Y73.594 E14.07230
G1 X79.080 Y73.284 E14.08626
G1 X79.340 Y72.954 E14.10022
G1 X79.575 Y72.603 E14.11417
G1 X79.780 Y72.236 E14.12813
G1 X79.957 Y71.853 E14.14209
G1 X80.103 Y71.458 E14.15604
G1 X80.217 Y71.052 E14.17000
G1 X80.299 Y70.639 E14.18396
G1 X80.349 Y70.221 E14.19791
G1 X80.365 Y69.800 E14.21187
G1 X80.349 Y69.379 E14.22582
G1 X80.299 Y68.961 E14.23978
G1 X80.217 Y68.548 E14.25374
G1 X80.103 Y68.142 E14.26769
G1 X79.957 Y67.747 E14.28165
G1 X79.780 Y67.364 E14.29561
G1 X79.575 Y66.997 E14.30956
G1 X79.340 Y66.646 E14.32352
G1 X79.080 Y66.316 E14.33748
G1 X78.794 Y66.006 E14.35143
G1 X78.484 Y65.720 E14.36539
G1 X78.154 Y65.460 E14.37934
G1 X77.803 Y65.225 E14.39330
G1 X77.436 Y65.020 E14.40726
G1 X77.053 Y64.843 E14.42121
G1 X76.658 Y64.697 E14.43517
G1 X76.252 Y64.583 E14.44913
G1 X75.665 Y64.480 E14.46888
G1 X75.665 Y56.965 E14.71786
G1 X83.035 Y56.965 E14.96203
G1 X83.035 Y93.035 E16.15701
G1 X67.025 Y93.035 E16.68741
G1 E14.68741 F2400.00000
G92 E0
G1 X72.953 Y92.229 F7800.000
G1 E2.00000 F2400.00000
G1 F1800.000
G1 X77.047 Y92.229 E2.11213
G1 E0.11213 F2400.00000
G92 E0
G1 X72.344 Y92.341 F7800.000
G1 E2.00000 F2400.00000
G1 F1800.000
G1 X72.778 Y91.908 E2.02036
G1 X72.640 Y91.669 E2.02951
G1 X71.968 Y92.341 E2.06108
G1 X71.591 Y92.341 E2.07358
G1 X72.502 Y91.431 E2.11636
G1 X72.364 Y91.192 E2.12552
G1 X71.215 Y92.341 E2.17951
G1 X70.838 Y92.341 E2.19201
G1 X72.226 Y90.953 E2.25722
G1 X72.089 Y90.714 E2.26637
G1 X70.461 Y92.341 E2.34279
G1 X70.085 Y92.341 E2.35529
G1 X71.951 Y90.476 E2.44292
G1 X71.813 Y90.237 E2.45208
G1 X69.708 Y92.341 E2.55092
G1 X69.332 Y92.341 E2.56342
G1 X71.675 Y89.998 E2.67347
G1 X71.537 Y89.760 E2.68263
G1 X68.955 Y92.341 E2.80389
G1 X68.579 Y92.341 E2.81640
G1 X71.399 Y89.521 E2.94887
G1 X71.262 Y89.282 E2.95803
G1 X68.202 Y92.341 E3.10172
G1 X67.826 Y92.341 E3.11422
G1 X71.124 Y89.043 E3.26912
G1 X70.986 Y88.805 E3.27828
G1 X67.659 Y92.132 E3.43455
G1 X67.659 Y91.755 E3.44705
G1 X70.848 Y88.566 E3.59685
G1 X70.710 Y88.327 E3.60601
G1 X67.659 Y91.379 E3.74934
G1 X67.659 Y91.002 E3.76184
G1 X71.141 Y87.519 E3.92542
G1 X71.656 Y86.629 E3.95958
G1 X67.659 Y90.626 E4.14732
G1 X67.659 Y90.249 E4.15983
G1 X72.170 Y85.738 E4.37172
G1 X72.685 Y84.847 E4.40588
G1 E2.40588 F2400.00000
G92 E0
G1 X82.135 Y92.341 F7800.000
G1 E2.00000 F2400.00000
G1 F1800.000
G1 X82.341 Y92.135 E2.00971
G1 X82.341 Y91.758 E2.02222
G1 X81.758 Y92.341 E2.04961
G1 X81.382 Y92.341 E2.06212
G1 X82.341 Y91.382 E2.10720
G1 X82.341 Y91.005 E2.11970
G1 X81.005 Y92.341 E2.18247
G1 X80.628 Y92.341 E2.19497
G1 X82.341 Y90.628 E2.27542
G1 X82.341 Y90.252 E2.28793
G1 X80.252 Y92.341 E2.38607
G1 X79.875 Y92.341 E2.39857
G1 X82.341 Y89.875 E2.51439
G1 X82.341 Y89.499 E2.52690
G1 X79.499 Y92.341 E2.66041
G1 X79.122 Y92.341 E2.67291
G1 X82.341 Y89.122 E2.82411
G1 X82.341 Y88.746 E2.83661
G1 X78.746 Y92.341 E3.00549
G1 X78.369 Y92.341 E3.01799
G1 X82.341 Y88.369 E3.20456
G1 X82.341 Y87.993 E3.21706
G1 X77.993 Y92.341 E3.42131
G1 X77.616 Y92.341 E3.43382
G1 X82.341 Y87.616 E3.65575
G1 X82.341 Y87.239 E3.66826
G1 X77.239 Y92.341 E3.90788
G1 X77.209 Y92.341 E3.90889
G1 X77.209 Y92.138 E3.91565
G1 X77.403 Y91.801 E3.92857
G1 X82.341 Y86.863 E4.16049
G1 X82.341 Y86.486 E4.17300
G1 X77.918 Y90.910 E4.38076
G1 X78.432 Y90.019 E4.41492
G1 X82.341 Y86.110 E4.59853
G1 X82.341 Y85.733 E4.61103
G1 X78.947 Y89.128 E4.77048
G1 X79.307 Y88.503 E4.79444
G1 X79.266 Y88.432 E4.79718
G1 X82.341 Y85.357 E4.94161
G1 X82.341 Y84.980 E4.95412
G1 X79.128 Y88.193 E5.10503
G1 X78.991 Y87.955 E5.11418
G1 X82.341 Y84.604 E5.27156
G1 X82.341 Y84.227 E5.28407
G1 X78.853 Y87.716 E5.44792
G1 X78.715 Y87.477 E5.45708
G1 X82.341 Y83.850 E5.62740
G1 X82.341 Y83.474 E5.63991
G1 X78.577 Y87.238 E5.81671
G1 X78.439 Y87.000 E5.82586
G1 X82.341 Y83.097 E6.00914
G1 X82.341 Y82.721 E6.02164
G1 X78.301 Y86.761 E6.21139
G1 X78.164 Y86.522 E6.22055
G1 X82.341 Y82.344 E6.41677
G1 X82.341 Y81.968 E6.42927
G1 X78.026 Y86.283 E6.63197
G1 X77.888 Y86.045 E6.64112
G1 X82.341 Y81.591 E6.85029
G1 X82.341 Y81.215 E6.86279
G1 X77.750 Y85.806 E7.07843
G1 X77.612 Y85.567 E7.08759
G1 X82.341 Y80.838 E7.30970
G1 X82.341 Y80.462 E7.32221
G1 X77.474 Y85.329 E7.55079
G1 X77.337 Y85.090 E7.55995
G1 X82.341 Y80.085 E7.79501
G1 X82.341 Y79.708 E7.80751
G1 X77.199 Y84.851 E8.04905
G1 X77.102 Y84.684 E8.05547
G1 X76.990 Y84.684 E8.05920
G1 X82.341 Y79.332 E8.31055
G1 X82.341 Y78.955 E8.32306
G1 X76.613 Y84.684 E8.59209
G1 X76.237 Y84.684 E8.60460
G1 X82.341 Y78.579 E8.89132
G1 X82.341 Y78.202 E8.90382
G1 X75.860 Y84.684 E9.20823
G1 X75.484 Y84.684 E9.22073
G1 X82.341 Y77.826 E9.54283
G1 X82.341 Y77.449 E9.55533
G1 X75.107 Y84.684 E9.89511
G1 X74.730 Y84.684 E9.90761
G1 X82.341 Y77.073 E10.26507
G1 X82.341 Y76.696 E10.27758
G1 X74.354 Y84.684 E10.65273
G1 X73.977 Y84.684 E10.66523
G1 X82.341 Y76.319 E11.05807
G1 X82.341 Y75.943 E11.07057
G1 X73.601 Y84.684 E11.48109
G1 X73.224 Y84.684 E11.49359
G1 X82.341 Y75.566 E11.92180
G1 X82.341 Y75.190 E11.93430
G1 X72.848 Y84.684 E12.38019
G1 X72.691 Y84.684 E12.38538
G1 X72.478 Y85.053 E12.39956
G1 X67.659 Y89.873 E12.62591
G1 X67.659 Y89.496 E12.63841
G1 X82.341 Y74.813 E13.32801
G1 X82.341 Y74.437 E13.34052
G1 X67.659 Y89.120 E14.03012
G1 X67.659 Y88.743 E14.04262
G1 X82.341 Y74.060 E14.73222
G1 X82.341 Y73.684 E14.74473
G1 X67.659 Y88.366 E15.43433
G1 X67.659 Y87.990 E15.44683
G1 X82.341 Y73.307 E16.13643
G1 X82.341 Y72.930 E16.14894
G1 X67.659 Y87.613 E16.83854
G1 X67.659 Y87.237 E16.85104
G1 X82.341 Y72.554 E17.54064
G1 X82.341 Y72.177 E17.55315
G1 X67.659 Y86.860 E18.24275
G1 X67.659 Y86.484 E18.25525
G1 X82.341 Y71.801 E18.94485
G1 X82.341 Y71.424 E18.95736
G1 X67.659 Y86.107 E19.64696
G1 X67.659 Y85.731 E19.65946
G1 X78.669 Y74.720 E20.17657
G1 X78.323 Y74.951 E20.19038
G1 X77.760 Y75.253 E20.21160
G1 X67.659 Y85.354 E20.68602
G1 X67.659 Y84.977 E20.69852
G1 X77.120 Y75.516 E21.14287
G1 X76.582 Y75.678 E21.16153
G1 X67.659 Y84.601 E21.58061
G1 X67.659 Y84.224 E21.59312
G1 X76.107 Y75.775 E21.98993
G1 X75.677 Y75.830 E22.00435
G1 X67.659 Y83.848 E22.38093
G1 X67.659 Y83.471 E22.39343
G1 X75.277 Y75.852 E22.75126
G1 X74.902 Y75.851 E22.76373
G1 X67.659 Y83.095 E23.10391
G1 X67.659 Y82.718 E23.11642
G1 X74.545 Y75.831 E23.43986
G1 X74.208 Y75.792 E23.45112
G1 X67.659 Y82.342 E23.75874
G1 X67.659 Y81.965 E23.77125
G1 X73.890 Y75.734 E24.06391
G1 X73.581 Y75.666 E24.07439
G1 X67.659 Y81.588 E24.35257
G1 X67.659 Y81.212 E24.36507
G1 X73.288 Y75.583 E24.62945
G1 X73.007 Y75.487 E24.63930
G1 X67.659 Y80.835 E24.89050
G1 X67.659 Y80.459 E24.90301
G1 X72.733 Y75.385 E25.14132
G1 X72.475 Y75.266 E25.15075
G1 X67.659 Y80.082 E25.37696
G1 X67.659 Y79.706 E25.38947
G1 X72.223 Y75.141 E25.60384
G1 X71.982 Y75.006 E25.61302
G1 X67.659 Y79.329 E25.81606
G1 X67.659 Y78.953 E25.82856
G1 X71.749 Y74.862 E26.02069
G1 X71.524 Y74.711 E26.02971
G1 X67.659 Y78.576 E26.21124
G1 X67.659 Y78.199 E26.22375
G1 X71.310 Y74.548 E26.39525
G1 X71.100 Y74.382 E26.40416
G1 X67.659 Y77.823 E26.56578
G1 X67.659 Y77.446 E26.57829
G1 X70.904 Y74.201 E26.73072
G1 X70.711 Y74.017 E26.73956
G1 X67.659 Y77.070 E26.88294
G1 X67.659 Y76.693 E26.89544
G1 X70.530 Y73.821 E27.03032
G1 X70.355 Y73.620 E27.03919
G1 X67.659 Y76.317 E27.16583
G1 X67.659 Y75.940 E27.17834
G1 X70.189 Y73.410 E27.29719
G1 X70.032 Y73.190 E27.30615
G1 X67.659 Y75.564 E27.41761
G1 X67.659 Y75.187 E27.43011
G1 X69.881 Y72.965 E27.53449
G1 X69.742 Y72.727 E27.54363
G1 X67.659 Y74.810 E27.64151
G1 X67.659 Y74.434 E27.65401
G1 X69.608 Y72.485 E27.74556
G1 X69.489 Y72.227 E27.75499
G1 X67.659 Y74.057 E27.84096
G1 X67.659 Y73.681 E27.85346
G1 X69.376 Y71.963 E27.93413
G1 X69.275 Y71.688 E27.94386
G1 X67.659 Y73.304 E28.01976
G1 X67.659 Y72.928 E28.03226
G1 X69.186 Y71.400 E28.10399
G1 X69.105 Y71.105 E28.11417
G1 X67.659 Y72.551 E28.18210
G1 X67.659 Y72.175 E28.19461
G1 X69.042 Y70.791 E28.25961
G1 X68.993 Y70.463 E28.27060
G1 X67.659 Y71.798 E28.33328
G1 X67.659 Y71.421 E28.34579
G1 X68.957 Y70.123 E28.40679
G1 X68.943 Y69.760 E28.41884
G1 X67.659 Y71.045 E28.47917
G1 X67.659 Y70.668 E28.49168
G1 X68.953 Y69.373 E28.55249
G1 X68.990 Y68.961 E28.56625
G1 X67.659 Y70.292 E28.62877
G1 X67.659 Y69.915 E28.64127
G1 X69.060 Y68.514 E28.70710
G1 X69.179 Y68.019 E28.72400
G1 X67.659 Y69.539 E28.79539
G1 X67.659 Y69.162 E28.80789
G1 X69.367 Y67.453 E28.88816
G1 X69.612 Y66.899 E28.90828
G1 X69.698 Y66.746 E28.91410
G1 X67.659 Y68.786 E29.00989
G1 X67.659 Y68.409 E29.02239
