; generated by Slic3r Prusa Edition 1.39.0 on 2019-10-17 at 22:12:07

; 

; external perimeters extrusion width = 0.45mm
; perimeters extrusion width = 0.45mm
; infill extrusion width = 0.45mm
; solid infill extrusion width = 0.45mm
; top infill extrusion width = 0.40mm
; first layer extrusion width = 0.42mm

M107
M104 S213 ; set temperature
G28 ; home all axes
G1 Z5 F5000 ; lift nozzle
; Filament gcode
M109 S213 ; set temperature and wait for it to be reached
G21 ; set units to millimeters
G90 ; use absolute coordinates
M82 ; use absolute distances for extrusion
G92 E0
G1 Z0.350 F7800.000
G1 E-2.00000 F2400.00000
G92 E0
G1 X68.619 Y76.774 F7800.000
G1 E2.00000 F2400.00000
G1 F1800
G1 X71.969 Y74.293 E2.20921
G1 X75.393 Y72.410 E2.40531
G1 X79.258 Y70.917 E2.61325
G1 X83.011 Y70.003 E2.80713
G1 X86.421 Y69.585 E2.97953
G1 X89.856 Y69.573 E3.15194
G1 X94.002 Y70.057 E3.36141
G1 X97.770 Y71.022 E3.55660
G1 X137.916 Y84.820 E5.68705
G1 X138.982 Y85.314 E5.74600
G1 X139.939 Y85.995 E5.80494
G1 X140.841 Y86.954 E5.87103
G1 X141.529 Y88.084 E5.93743
G1 X141.968 Y89.332 E6.00383
G1 X142.138 Y90.644 E6.07023
G1 X142.125 Y109.629 E7.02300
G1 X141.975 Y110.637 E7.07416
G1 X141.663 Y111.614 E7.12564
G1 X141.200 Y112.523 E7.17680
G1 X140.598 Y113.346 E7.22796
G1 X140.027 Y113.927 E7.26885
G1 X139.382 Y114.434 E7.31004
G1 X138.676 Y114.853 E7.35124
G1 X137.922 Y115.178 E7.39244
G1 X97.807 Y128.965 E9.52125
G1 X93.739 Y129.986 E9.73173
G1 X90.224 Y130.416 E9.90944
G1 X86.428 Y130.415 E10.09994
G1 X82.656 Y129.941 E10.29076
G1 X79.258 Y129.084 E10.46660
G1 X75.027 Y127.406 E10.69504
G1 X71.969 Y125.707 E10.87058
G1 X68.810 Y123.397 E11.06699
G1 X65.854 Y120.559 E11.27267
G1 X63.688 Y117.922 E11.44390
G1 X61.841 Y115.038 E11.61577
G1 X60.025 Y111.278 E11.82534
G1 X58.820 Y107.584 E12.02036
G1 X58.095 Y103.774 E12.21499
G1 X57.872 Y99.609 E12.42433
G1 X58.100 Y96.181 E12.59674
G1 X58.734 Y92.793 E12.76969
G1 X59.985 Y88.822 E12.97868
G1 X61.652 Y85.279 E13.17517
G1 X63.920 Y81.778 E13.38452
G1 X66.101 Y79.161 E13.55547
G1 X68.576 Y76.816 E13.72658
G1 E11.72658 F2400.00000
G92 E0
G1 X86.435 Y123.127 F7800.000
G1 E2.00000 F2400.00000
G1 F1800
G1 X83.969 Y122.814 E2.12475
G1 X81.157 Y122.092 E2.27046
G1 X78.445 Y121.018 E2.41686
G1 X75.889 Y119.612 E2.56325
G1 X73.529 Y117.898 E2.70965
G1 X71.402 Y115.901 E2.85604
G1 X69.543 Y113.654 E3.00242
G1 X67.980 Y111.190 E3.14883
G1 X66.738 Y108.551 E3.29523
G1 X65.836 Y105.777 E3.44162
G1 X65.290 Y102.911 E3.58802
G1 X65.107 Y100.000 E3.73441
G1 X65.290 Y97.089 E3.88081
G1 X65.836 Y94.223 E4.02720
G1 X66.738 Y91.449 E4.17360
G1 X67.974 Y88.822 E4.31930
G1 X69.543 Y86.346 E4.46639
G1 X71.402 Y84.099 E4.61277
G1 X73.529 Y82.102 E4.75917
G1 X75.889 Y80.388 E4.90556
G1 X78.445 Y78.982 E5.05196
G1 X81.157 Y77.908 E5.19836
G1 X83.982 Y77.183 E5.34475
G1 X86.435 Y76.873 E5.46882
G1 X86.435 Y86.557 E5.95484
G1 X85.786 Y86.639 E5.98766
G1 X84.132 Y87.064 E6.07339
G1 X82.544 Y87.693 E6.15911
G1 X81.047 Y88.516 E6.24483
G1 X79.665 Y89.520 E6.33055
G1 X78.420 Y90.689 E6.41628
G1 X77.331 Y92.005 E6.50200
G1 X76.420 Y93.441 E6.58734
G1 X75.689 Y94.993 E6.67343
G1 X75.161 Y96.617 E6.75916
G1 X74.842 Y98.288 E6.84450
G1 X74.733 Y100.000 E6.93059
G1 X74.841 Y101.705 E7.01633
G1 X75.161 Y103.383 E7.10205
G1 X75.689 Y105.007 E7.18777
G1 X76.416 Y106.553 E7.27350
G1 X77.331 Y107.995 E7.35922
G1 X78.420 Y109.311 E7.44494
G1 X79.665 Y110.480 E7.53066
G1 X81.047 Y111.484 E7.61639
G1 X82.544 Y112.307 E7.70211
G1 X84.132 Y112.936 E7.78783
G1 X85.786 Y113.361 E7.87355
G1 X86.435 Y113.443 E7.90638
G1 X86.435 Y123.067 E8.38936
G1 X86.780 Y123.518 F7800.000
G1 F1800
G1 X83.904 Y123.153 E8.53484
G1 X81.050 Y122.420 E8.68273
G1 X78.298 Y121.330 E8.83130
G1 X75.703 Y119.904 E8.97987
G1 X73.308 Y118.164 E9.12844
G1 X71.150 Y116.138 E9.27702
G1 X69.263 Y113.857 E9.42558
G1 X67.677 Y111.357 E9.57417
G1 X66.416 Y108.678 E9.72274
G1 X65.502 Y105.863 E9.87131
G1 X64.947 Y102.955 E10.01988
G1 X64.761 Y100.000 E10.16846
G1 X64.947 Y97.045 E10.31703
G1 X65.502 Y94.137 E10.46560
G1 X66.416 Y91.322 E10.61417
G1 X67.671 Y88.656 E10.76206
G1 X69.263 Y86.143 E10.91132
G1 X71.150 Y83.863 E11.05989
G1 X73.308 Y81.836 E11.20846
G1 X75.703 Y80.096 E11.35703
G1 X78.298 Y78.670 E11.50560
G1 X81.050 Y77.580 E11.65418
G1 X83.918 Y76.844 E11.80275
G1 X86.780 Y76.482 E11.94755
G1 X86.780 Y86.861 E12.46845
G1 X85.851 Y86.979 E12.51545
G1 X84.239 Y87.393 E12.59899
G1 X82.691 Y88.006 E12.68254
G1 X81.232 Y88.808 E12.76608
G1 X79.885 Y89.786 E12.84963
G1 X78.672 Y90.926 E12.93317
G1 X77.611 Y92.208 E13.01671
G1 X76.723 Y93.608 E13.09988
G1 X76.010 Y95.120 E13.18379
G1 X75.495 Y96.703 E13.26735
G1 X75.185 Y98.331 E13.35052
G1 X75.079 Y100.000 E13.43442
G1 X75.183 Y101.661 E13.51798
G1 X75.495 Y103.297 E13.60152
G1 X76.010 Y104.880 E13.68507
G1 X76.719 Y106.386 E13.76861
G1 X77.611 Y107.792 E13.85216
G1 X78.672 Y109.074 E13.93570
G1 X79.885 Y110.214 E14.01924
G1 X81.232 Y111.192 E14.10279
G1 X82.691 Y111.994 E14.18633
G1 X84.239 Y112.607 E14.26988
G1 X85.851 Y113.021 E14.35342
G1 X86.780 Y113.139 E14.40042
G1 X86.780 Y123.458 E14.91831
G1 X87.125 Y123.872 F7800.000
G1 F1800
G1 X86.833 Y123.872 E14.93296
G1 X83.839 Y123.492 E15.08440
G1 X80.943 Y122.749 E15.23446
G1 X78.150 Y121.643 E15.38521
G1 X75.518 Y120.196 E15.53596
G1 X73.088 Y118.430 E15.68671
G1 X70.898 Y116.374 E15.83746
G1 X68.984 Y114.060 E15.98820
G1 X67.374 Y111.523 E16.13896
G1 X66.095 Y108.805 E16.28971
G1 X65.167 Y105.949 E16.44046
G1 X64.604 Y102.998 E16.59121
G1 X64.415 Y100.000 E16.74196
G1 X64.604 Y97.002 E16.89271
G1 X65.167 Y94.051 E17.04346
G1 X66.095 Y91.195 E17.19421
G1 X67.368 Y88.489 E17.34427
G1 X68.984 Y85.940 E17.49572
G1 X70.898 Y83.626 E17.64646
G1 X73.088 Y81.570 E17.79721
G1 X75.518 Y79.804 E17.94796
G1 X78.150 Y78.357 E18.09871
G1 X80.943 Y77.251 E18.24947
G1 X83.853 Y76.504 E18.40022
G1 X86.833 Y76.128 E18.55097
G1 X87.125 Y76.128 E18.56562
G1 X87.125 Y87.165 E19.11956
G1 X85.916 Y87.318 E19.18073
G1 X84.345 Y87.721 E19.26210
G1 X82.838 Y88.318 E19.34346
G1 X81.417 Y89.099 E19.42483
G1 X80.106 Y90.052 E19.50619
G1 X78.924 Y91.162 E19.58756
G1 X77.890 Y92.411 E19.66893
G1 X77.025 Y93.774 E19.74992
G1 X76.331 Y95.247 E19.83166
G1 X75.830 Y96.789 E19.91303
G1 X75.528 Y98.375 E19.99402
G1 X75.425 Y100.000 E20.07575
G1 X75.526 Y101.618 E20.15712
G1 X75.830 Y103.211 E20.23849
G1 X76.331 Y104.753 E20.31986
G1 X77.022 Y106.220 E20.40122
G1 X77.890 Y107.589 E20.48259
G1 X78.924 Y108.838 E20.56396
G1 X80.106 Y109.948 E20.64532
G1 X81.417 Y110.901 E20.72669
G1 X82.838 Y111.682 E20.80806
G1 X84.345 Y112.279 E20.88942
G1 X85.916 Y112.682 E20.97079
G1 X87.125 Y112.835 E21.03195
G1 X87.125 Y123.812 E21.58289
G1 X86.867 Y123.736 F7800.000
G1 E19.58289 F2400.00000
G92 E0
G1 X86.332 Y117.758 F7800.000
G1 E2.00000 F2400.00000
G1 F1800
G1 X65.571 Y96.997 E3.47632
G1 X65.527 Y97.442 E3.49879
G1 X86.177 Y118.092 E4.96719
G1 X86.177 Y118.581 E4.99176
G1 X65.498 Y97.902 E6.46221
G1 X65.469 Y98.361 E6.48538
G1 X86.177 Y119.069 E7.95789
G1 X86.177 Y119.558 E7.98246
G1 X65.440 Y98.821 E9.45703
G1 X65.411 Y99.281 E9.48019
G1 X86.177 Y120.047 E10.95681
G1 X86.177 Y120.535 E10.98139
G1 X65.382 Y99.741 E12.46007
G1 X65.366 Y100.000 E12.47313
G1 X65.380 Y100.227 E12.48459
G1 X86.177 Y121.024 E13.96341
G1 X86.177 Y121.513 E13.98799
G1 X65.413 Y100.749 E15.46448
G1 X65.446 Y101.270 E15.49075
G1 X86.177 Y122.001 E16.96491
G1 X86.177 Y122.490 E16.98948
G1 X65.478 Y101.792 E18.46131
G1 X65.511 Y102.313 E18.48758
G1 X86.010 Y122.812 E19.94521
G1 X85.450 Y122.741 E19.97358
G1 X65.544 Y102.835 E21.38908
G1 X65.652 Y103.432 E21.41958
G1 X84.890 Y122.670 E22.78758
G1 X84.331 Y122.599 E22.81595
G1 X65.768 Y104.036 E24.13596
G1 X65.883 Y104.640 E24.16687
G1 X83.728 Y122.485 E25.43582
G1 X83.070 Y122.316 E25.46995
G1 X65.998 Y105.243 E26.68395
G1 X66.087 Y105.712 E26.70795
G1 X66.140 Y105.874 E26.71651
G1 X82.413 Y122.147 E27.87366
G1 X81.755 Y121.978 E27.90779
G1 X66.375 Y106.598 E29.00147
G1 X66.610 Y107.322 E29.03974
G1 X81.066 Y121.777 E30.06765
G1 X80.257 Y121.457 E30.11140
G1 X66.846 Y108.046 E31.06506
G1 X66.979 Y108.456 E31.08672
G1 X67.167 Y108.856 E31.10898
G1 X79.448 Y121.137 E31.98225
G1 X78.639 Y120.816 E32.02599
G1 X67.601 Y109.779 E32.81085
G1 X68.036 Y110.702 E32.86215
G1 X77.975 Y120.642 E33.56895
G1 X76.890 Y120.045 F7800.000
G1 F1800
G1 X68.218 Y111.373 E34.18559
G1 X69.067 Y112.711 F7800.000
G1 F1800
G1 X75.714 Y119.358 E34.65827
G1 E32.65827 F2400.00000
G92 E0
G1 X73.927 Y118.060 F7800.000
G1 E2.00000 F2400.00000
G1 F1800
G1 X70.424 Y114.556 E2.24912
G1 E0.24912 F2400.00000
G92 E0
G1 X76.969 Y107.907 F7800.000
G1 E2.00000 F2400.00000
G1 F1800
G1 X65.649 Y96.587 E2.80498
G1 X65.727 Y96.176 E2.82598
G1 X76.154 Y106.603 E3.56741
G1 X75.719 Y105.680 E3.61871
G1 X65.805 Y95.766 E4.32368
G1 X65.884 Y95.356 E4.34469
G1 X75.360 Y104.831 E5.01851
G1 X75.124 Y104.108 E5.05678
G1 X65.962 Y94.945 E5.70831
G1 X66.040 Y94.535 E5.72932
G1 X74.900 Y103.394 E6.35931
G1 X74.784 Y102.790 E6.39022
G1 X66.135 Y94.141 E7.00527
G1 X66.255 Y93.772 E7.02477
G1 X74.669 Y102.186 E7.62311
G1 X74.584 Y101.737 E7.64610
G1 X74.575 Y101.604 E7.65283
G1 X66.375 Y93.403 E8.23596
G1 X66.495 Y93.034 E8.25546
G1 X74.542 Y101.082 E8.82773
G1 X74.510 Y100.561 E8.85400
G1 X66.614 Y92.666 E9.41541
G1 X66.734 Y92.297 E9.43491
G1 X74.477 Y100.039 E9.98548
G1 X74.501 Y99.575 E10.00885
G1 X66.854 Y91.928 E10.55263
G1 X66.974 Y91.559 E10.57213
G1 X74.530 Y99.115 E11.10946
G1 X74.560 Y98.656 E11.13261
G1 X67.129 Y91.225 E11.66100
G1 X67.285 Y90.893 E11.67947
G1 X74.595 Y98.203 E12.19926
G1 X74.673 Y97.792 E12.22026
G1 X67.442 Y90.561 E12.73450
G1 X67.598 Y90.228 E12.75297
G1 X74.752 Y97.382 E13.26165
G1 X74.830 Y96.972 E13.28266
G1 X67.754 Y89.896 E13.78580
G1 X67.911 Y89.564 E13.80426
G1 X74.908 Y96.561 E14.30185
G1 X75.027 Y96.192 E14.32137
G1 X68.067 Y89.231 E14.81630
G1 X68.201 Y88.947 E14.83212
G1 X68.228 Y88.904 E14.83467
G1 X75.147 Y95.823 E15.32666
G1 X75.267 Y95.454 E15.34616
G1 X68.418 Y88.605 E15.83319
G1 X68.607 Y88.306 E15.85100
G1 X75.387 Y95.085 E16.33307
G1 X75.525 Y94.734 E16.35202
G1 X68.797 Y88.007 E16.83042
G1 X68.987 Y87.707 E16.84822
G1 X75.681 Y94.402 E17.32427
G1 X75.838 Y94.070 E17.34273
G1 X69.176 Y87.408 E17.81642
G1 X69.366 Y87.109 E17.83423
G1 X75.994 Y93.738 E18.30557
G1 X76.151 Y93.406 E18.32404
G1 X69.555 Y86.810 E18.79303
G1 X69.745 Y86.511 E18.81084
G1 X76.331 Y93.098 E19.27921
G1 X76.521 Y92.799 E19.29701
G1 X69.965 Y86.242 E19.76323
G1 X70.186 Y85.975 E19.78069
G1 X76.711 Y92.500 E20.24467
G1 X76.901 Y92.201 E20.26247
G1 X70.407 Y85.707 E20.72421
G1 X70.628 Y85.440 E20.74166
G1 X77.090 Y91.902 E21.20116
G1 X77.306 Y91.629 E21.21865
G1 X70.850 Y85.173 E21.67778
G1 X71.071 Y84.905 E21.69523
G1 X77.528 Y91.362 E22.15436
G1 X77.749 Y91.094 E22.17181
G1 X71.292 Y84.638 E22.63094
G1 X71.513 Y84.370 E22.64840
G1 X77.970 Y90.827 E23.10752
G1 X78.191 Y90.560 E23.12498
G1 X71.755 Y84.123 E23.58268
G1 X72.007 Y83.886 E23.60007
G1 X78.438 Y90.317 E24.05738
G1 X78.690 Y90.081 E24.07477
G1 X72.259 Y83.650 E24.53208
G1 X72.511 Y83.413 E24.54946
G1 X78.942 Y89.844 E25.00678
G1 X79.194 Y89.607 E25.02416
G1 X72.763 Y83.176 E25.48148
G1 X73.015 Y82.940 E25.49886
G1 X79.446 Y89.371 E25.95618
G1 X79.722 Y89.158 E25.97370
G1 X73.267 Y82.703 E26.43275
G1 X73.519 Y82.466 E26.45014
G1 X80.005 Y88.953 E26.91139
G1 X80.288 Y88.747 E26.92898
G1 X73.780 Y82.239 E27.39177
G1 X74.063 Y82.033 E27.40936
G1 X80.571 Y88.542 E27.87215
G1 X80.855 Y88.336 E27.88974
G1 X74.346 Y81.828 E28.35253
G1 X74.629 Y81.622 E28.37012
G1 X81.164 Y88.156 E28.83477
G1 X81.479 Y87.983 E28.85286
G1 X74.912 Y81.416 E29.31981
G1 X75.196 Y81.211 E29.33740
G1 X81.794 Y87.810 E29.80664
G1 X82.110 Y87.636 E29.82473
G1 X75.479 Y81.005 E30.29627
G1 X75.762 Y80.800 E30.31386
G1 X82.425 Y87.463 E30.78769
G1 X82.774 Y87.324 E30.80660
G1 X76.047 Y80.596 E31.28499
G1 X76.362 Y80.423 E31.30309
G1 X83.124 Y87.185 E31.78395
G1 X83.474 Y87.046 E31.80289
G1 X76.677 Y80.249 E32.28623
G1 X76.993 Y80.076 E32.30432
G1 X83.824 Y86.908 E32.79013
G1 X84.188 Y86.783 E32.80946
G1 X77.308 Y79.902 E33.29871
G1 X77.623 Y79.729 E33.31681
G1 X84.577 Y86.683 E33.81128
G1 X84.966 Y86.583 E33.83147
G1 X77.939 Y79.556 E34.33117
G1 X78.254 Y79.382 E34.34927
G1 X85.355 Y86.483 E34.85420
G1 X85.744 Y86.384 E34.87441
G1 X78.571 Y79.211 E35.38451
G1 X78.921 Y79.072 E35.40344
G1 X86.177 Y86.328 E35.91939
G1 X86.177 Y85.839 E35.94397
G1 X79.271 Y78.933 E36.43503
G1 X79.621 Y78.795 E36.45396
G1 X86.177 Y85.350 E36.92012
G1 X86.177 Y84.862 E36.94470
G1 X79.971 Y78.656 E37.38597
G1 X80.321 Y78.518 E37.40490
G1 X86.177 Y84.373 E37.82128
G1 X86.177 Y83.884 E37.84585
G1 X80.671 Y78.379 E38.23733
G1 X81.021 Y78.240 E38.25627
G1 X86.177 Y83.396 E38.62286
G1 X86.177 Y82.907 E38.64743
G1 X81.386 Y78.117 E38.98807
G1 X81.775 Y78.017 E39.00825
G1 X86.177 Y82.418 E39.32124
G1 X86.177 Y81.930 E39.34582
G1 X82.164 Y77.917 E39.63116
G1 X82.553 Y77.817 E39.65134
G1 X86.177 Y81.441 E39.90903
G1 X86.177 Y80.952 E39.93360
G1 X82.942 Y77.717 E40.16364
G1 X83.330 Y77.617 E40.18383
G1 X86.177 Y80.464 E40.38622
G1 X86.177 Y79.975 E40.41079
G1 X83.719 Y77.518 E40.58553
G1 X84.117 Y77.427 E40.60605
G1 X86.177 Y79.486 E40.75250
G1 X86.177 Y78.998 E40.77707
G1 X84.551 Y77.372 E40.89267
G1 X84.985 Y77.317 E40.91466
G1 X86.177 Y78.509 E40.99941
G1 X86.177 Y78.020 E41.02399
G1 X85.419 Y77.262 E41.07788
G1 X85.852 Y77.207 E41.09987
G1 X86.332 Y77.687 E41.13396
G1 E39.13396 F2400.00000
G92 E0
G1 X80.385 Y111.323 F7800.000
G1 E2.00000 F2400.00000
G1 F1800
G1 X86.177 Y117.115 E2.41182
G1 X86.177 Y116.626 E2.43639
G1 X81.283 Y111.732 E2.78441
G1 E0.78441 F2400.00000
G92 E0
G1 X86.332 Y113.849 F7800.000
G1 E2.00000 F2400.00000
G1 F1800
G1 X86.150 Y113.667 E2.01292
G1 X85.738 Y113.615 E2.03382
G1 X85.565 Y113.571 E2.04279
G1 X86.177 Y114.182 E2.08629
G1 X86.177 Y114.671 E2.11086
G1 X84.907 Y113.402 E2.20111
G1 X84.250 Y113.233 E2.23524
G1 X86.177 Y115.160 E2.37224
G1 X86.177 Y115.648 E2.39681
G1 X83.487 Y112.959 E2.58809
G1 X82.678 Y112.638 E2.63184
G1 X86.332 Y116.292 E2.89168
G1 E0.89168 F2400.00000
G92 E0
G1 X116.936 Y102.470 F7800.000
G1 E2.00000 F2400.00000
G1 F1800
G1 X116.653 Y102.024 E2.02648
G1 X116.428 Y101.547 E2.05296
G1 X116.265 Y101.045 E2.07944
G1 X116.167 Y100.527 E2.10592
G1 X116.133 Y100.000 E2.13240
G1 X116.167 Y99.473 E2.15888
G1 X116.265 Y98.955 E2.18536
G1 X116.428 Y98.453 E2.21184
G1 X116.653 Y97.976 E2.23832
G1 X116.936 Y97.530 E2.26480
G1 X117.272 Y97.124 E2.29128
G1 X117.657 Y96.763 E2.31776
G1 X118.084 Y96.453 E2.34424
G1 X118.546 Y96.198 E2.37071
G1 X119.037 Y96.004 E2.39719
G1 X119.548 Y95.873 E2.42368
G1 X120.071 Y95.807 E2.45016
G1 X120.599 Y95.807 E2.47664
G1 X121.122 Y95.873 E2.50312
G1 X121.633 Y96.004 E2.52960
G1 X122.124 Y96.198 E2.55608
G1 X122.586 Y96.453 E2.58256
G1 X123.013 Y96.763 E2.60904
G1 X123.398 Y97.124 E2.63551
G1 X123.734 Y97.530 E2.66200
G1 X124.017 Y97.976 E2.68848
G1 X124.242 Y98.453 E2.71496
G1 X124.405 Y98.955 E2.74144
G1 X124.503 Y99.473 E2.76791
G1 X124.537 Y100.000 E2.79440
G1 X124.503 Y100.527 E2.82088
G1 X124.405 Y101.045 E2.84736
G1 X124.242 Y101.547 E2.87383
G1 X124.017 Y102.024 E2.90032
G1 X123.734 Y102.470 E2.92679
G1 X123.398 Y102.876 E2.95328
G1 X123.013 Y103.237 E2.97976
G1 X122.586 Y103.547 E3.00624
G1 X122.124 Y103.802 E3.03271
G1 X121.633 Y103.996 E3.05919
G1 X121.122 Y104.127 E3.08567
G1 X120.599 Y104.193 E3.11216
G1 X120.071 Y104.193 E3.13863
G1 X119.548 Y104.127 E3.16512
G1 X119.037 Y103.996 E3.19160
G1 X118.546 Y103.802 E3.21808
G1 X118.084 Y103.547 E3.24455
G1 X117.657 Y103.237 E3.27103
G1 X117.272 Y102.876 E3.29751
G1 X116.974 Y102.516 E3.32098
G1 X117.215 Y102.266 F7800.000
G1 F1800
G1 X116.956 Y101.858 E3.34529
G1 X116.750 Y101.419 E3.36959
G1 X116.600 Y100.959 E3.39389
G1 X116.509 Y100.483 E3.41819
G1 X116.479 Y100.000 E3.44249
G1 X116.509 Y99.517 E3.46680
G1 X116.600 Y99.041 E3.49110
G1 X116.750 Y98.581 E3.51540
G1 X116.956 Y98.142 E3.53970
G1 X117.215 Y97.734 E3.56400
G1 X117.524 Y97.360 E3.58831
G1 X117.877 Y97.029 E3.61261
