; generated by Slic3r Prusa Edition 1.39.0 on 2019-10-17 at 22:12:12

; 

; external perimeters extrusion width = 0.56mm
; perimeters extrusion width = 0.56mm
; infill extrusion width = 0.56mm
; solid infill extrusion width = 0.56mm
; top infill extrusion width = 0.50mm
; first layer extrusion width = 0.70mm

M107
M104 S200 ; set temperature
G28 ; home all axes
G1 Z5 F5000 ; lift nozzle
; Filament gcode
M109 S200 ; set temperature and wait for it to be reached
G21 ; set units to millimeters
G90 ; use absolute coordinates
M82 ; use absolute distances for extrusion
G92 E0
G1 Z0.350 F7800.000
G1 E-2.00000 F2400.00000
G92 E0
G1 X70.201 Y95.434 F7800.000
G1 E2.00000 F2400.00000
G1 F1800
G1 X71.438 Y94.513 E2.04770
G1 X72.853 Y93.902 E2.09540
G1 X90.085 Y89.338 E2.64698
G1 X91.149 Y89.152 E2.68039
G1 X125.256 Y89.125 E3.73571
G1 X126.477 Y89.240 E3.77363
G1 X127.655 Y89.577 E3.81155
G1 X128.751 Y90.125 E3.84947
G1 X129.727 Y90.866 E3.88739
G1 X130.550 Y91.775 E3.92530
G1 X131.191 Y92.819 E3.96322
G1 X131.629 Y93.963 E4.00114
G1 X131.849 Y95.169 E4.03906
G1 X131.873 Y104.409 E4.32496
G1 X131.791 Y105.301 E4.35268
G1 X131.587 Y106.180 E4.38060
G1 X131.303 Y106.942 E4.40577
G1 X130.924 Y107.669 E4.43113
G1 X129.922 Y108.947 E4.48138
G1 X128.639 Y109.942 E4.53162
G1 X127.910 Y110.317 E4.55698
G1 X127.147 Y110.598 E4.58215
G1 X126.229 Y110.802 E4.61125
G1 X125.285 Y110.875 E4.64054
G1 X74.248 Y110.856 E6.21969
G1 X73.268 Y110.707 E6.25035
G1 X72.316 Y110.411 E6.28121
G1 X71.418 Y109.976 E6.31207
G1 X70.596 Y109.411 E6.34293
G1 X69.869 Y108.729 E6.37379
G1 X69.252 Y107.945 E6.40465
G1 X68.759 Y107.078 E6.43551
G1 X68.402 Y106.147 E6.46638
G1 X68.132 Y104.558 E6.51623
G1 X68.126 Y100.155 E6.65248
G1 X68.234 Y99.055 E6.68668
G1 X68.523 Y97.988 E6.72087
G1 X69.211 Y96.615 E6.76838
G1 X70.153 Y95.491 E6.81376
G1 E4.81376 F2400.00000
G92 E0
G1 X123.650 Y102.650 F7800.000
G1 E2.00000 F2400.00000
G1 F1800
G1 X76.350 Y102.650 E3.46354
G1 X76.350 Y101.850 E3.48830
G1 X93.350 Y101.850 E4.01431
G1 X93.350 Y97.350 E4.15354
G1 X95.150 Y97.350 E4.20925
G1 X95.150 Y101.850 E4.34849
G1 X121.850 Y101.850 E5.17461
G1 X121.850 Y97.350 E5.31384
G1 X123.650 Y97.350 E5.36955
G1 X123.650 Y102.575 E5.53123
G1 E3.53123 F2400.00000
G92 E0
G1 X95.775 Y101.225 F7800.000
G1 E2.00000 F2400.00000
G1 F1800
G1 X121.225 Y101.225 E2.78745
G1 X121.225 Y96.725 E2.92669
G1 X124.275 Y96.725 E3.02106
G1 X124.275 Y103.275 E3.22374
G1 X75.725 Y103.275 E4.72594
G1 X75.725 Y101.225 E4.78938
G1 X92.725 Y101.225 E5.31538
G1 X92.725 Y96.725 E5.45462
G1 X95.775 Y96.725 E5.54900
G1 X95.775 Y101.150 E5.68591
G1 X96.400 Y100.600 F7800.000
G1 F1800
G1 X120.600 Y100.600 E6.43469
G1 X120.600 Y96.100 E6.57393
G1 X124.900 Y96.100 E6.70698
G1 X124.900 Y103.900 E6.94832
G1 X75.100 Y103.900 E8.48920
G1 X75.100 Y100.600 E8.59130
G1 X92.100 Y100.600 E9.11730
G1 X92.100 Y96.100 E9.25654
G1 X96.400 Y96.100 E9.38959
G1 X96.400 Y100.525 E9.52650
G1 X96.526 Y101.084 F7800.000
G1 E7.52650 F2400.00000
G92 E0
G1 X94.963 Y99.016 F7800.000
G1 E2.00000 F2400.00000
G1 F1800
G1 X93.818 Y97.871 E2.05821
G1 X93.818 Y98.899 E2.09516
G1 X94.682 Y99.762 E2.13906
G1 X94.682 Y100.789 E2.17601
G1 X93.818 Y99.926 E2.21991
G1 X93.818 Y100.953 E2.25686
G1 X94.802 Y101.937 E2.30691
G1 X94.838 Y102.250 F7800.000
G1 F1800
G1 X122.162 Y102.250 E2.54444
G1 X123.463 Y102.098 F7800.000
G1 F1800
G1 X122.318 Y100.953 E2.60265
G1 X122.318 Y99.926 E2.63959
G1 X123.182 Y100.789 E2.68350
G1 X123.182 Y99.762 E2.72045
G1 X122.318 Y98.899 E2.76435
G1 X122.318 Y97.871 E2.80130
G1 X123.463 Y99.016 E2.85951
G1 E0.85951 F2400.00000
G92 E0
G1 X93.662 Y102.250 F7800.000
G1 E2.00000 F2400.00000
G1 F1800
G1 X76.662 Y102.250 E2.14778
G1 Z0.650 F7800.000
G1 X95.473 Y101.527 F7800.000
G1 F3600
G1 X121.527 Y101.527 E2.69860
G1 X121.527 Y97.027 E2.79373
G1 X123.973 Y97.027 E2.84542
G1 X123.973 Y102.973 E2.97111
G1 X76.027 Y102.973 E3.98471
G1 X76.027 Y101.527 E4.01525
G1 X93.027 Y101.527 E4.37465
G1 X93.027 Y97.027 E4.46978
G1 X95.473 Y97.027 E4.52147
G1 X95.473 Y101.452 E4.61502
G1 X95.971 Y101.029 F7800.000
G1 F3600
G1 X121.029 Y101.029 E5.14478
G1 X121.029 Y96.529 E5.23992
G1 X124.471 Y96.529 E5.31267
G1 X124.471 Y103.471 E5.45941
G1 X75.529 Y103.471 E6.49407
G1 X75.529 Y101.029 E6.54568
G1 X92.529 Y101.029 E6.90508
G1 X92.529 Y96.529 E7.00021
G1 X95.971 Y96.529 E7.07296
G1 X95.971 Y100.954 E7.16651
G1 X96.469 Y100.531 F7800.000
G1 F1800
G1 X120.531 Y100.531 E7.67521
G1 X120.531 Y96.031 E7.77035
G1 X124.969 Y96.031 E7.86416
G1 X124.969 Y103.969 E8.03196
G1 X75.031 Y103.969 E9.08769
G1 X75.031 Y100.531 E9.16036
G1 X92.031 Y100.531 E9.51975
G1 X92.031 Y96.031 E9.61489
G1 X96.469 Y96.031 E9.70870
G1 X96.469 Y100.456 E9.80225
G1 X96.597 Y101.015 F7800.000
G1 X93.177 Y101.279 F7800.000
G1 F1200
G1 X95.099 Y99.357 E9.86005
G1 X95.099 Y98.648 E9.87512
G1 X93.401 Y100.346 E9.92618
G1 X93.401 Y99.637 E9.94124
G1 X95.099 Y97.939 E9.99230
G1 X95.099 Y97.401 E10.00375
G1 X94.929 Y97.401 E10.00737
G1 X93.401 Y98.929 E10.05332
G1 X93.401 Y98.220 E10.06838
G1 X94.220 Y97.401 E10.09302
G1 X93.512 Y97.401 E10.10809
G1 X93.177 Y97.736 E10.11815
G1 E8.11815 F2400.00000
G92 E0
G1 X77.190 Y101.677 F7800.000
G1 E2.00000 F2400.00000
G1 F1200
G1 X76.401 Y102.466 E2.02372
G1 X76.401 Y102.599 E2.02656
G1 X76.976 Y102.599 E2.03879
G1 X77.674 Y101.901 E2.05978
G1 X78.383 Y101.901 E2.07485
G1 X77.685 Y102.599 E2.09584
G1 X78.394 Y102.599 E2.11090
G1 X79.092 Y101.901 E2.13189
G1 X79.800 Y101.901 E2.14696
G1 X79.102 Y102.599 E2.16795
G1 X79.811 Y102.599 E2.18301
G1 X80.509 Y101.901 E2.20400
G1 X81.217 Y101.901 E2.21907
G1 X80.519 Y102.599 E2.24006
G1 X81.228 Y102.599 E2.25512
G1 X81.926 Y101.901 E2.27611
G1 X82.634 Y101.901 E2.29118
G1 X81.937 Y102.599 E2.31217
G1 X82.645 Y102.599 E2.32724
G1 X83.343 Y101.901 E2.34822
G1 X84.052 Y101.901 E2.36329
G1 X83.354 Y102.599 E2.38428
G1 X84.062 Y102.599 E2.39935
G1 X84.760 Y101.901 E2.42033
G1 X85.469 Y101.901 E2.43540
G1 X84.771 Y102.599 E2.45639
G1 X85.479 Y102.599 E2.47146
G1 X86.177 Y101.901 E2.49245
G1 X86.886 Y101.901 E2.50751
G1 X86.188 Y102.599 E2.52850
G1 X86.897 Y102.599 E2.54357
G1 X87.594 Y101.901 E2.56456
G1 X88.303 Y101.901 E2.57962
G1 X87.605 Y102.599 E2.60061
G1 X88.314 Y102.599 E2.61568
G1 X89.012 Y101.901 E2.63667
G1 X89.720 Y101.901 E2.65174
G1 X89.022 Y102.599 E2.67272
G1 X89.731 Y102.599 E2.68779
G1 X90.429 Y101.901 E2.70878
G1 X91.137 Y101.901 E2.72385
G1 X90.439 Y102.599 E2.74484
G1 X91.148 Y102.599 E2.75990
G1 X91.846 Y101.901 E2.78089
G1 X92.555 Y101.901 E2.79596
G1 X91.857 Y102.599 E2.81695
G1 X92.565 Y102.599 E2.83201
G1 X95.099 Y100.065 E2.90821
G1 X95.099 Y100.774 E2.92328
G1 X93.274 Y102.599 E2.97817
G1 X93.982 Y102.599 E2.99324
G1 X95.099 Y101.482 E3.02681
G1 X95.099 Y101.901 E3.03572
G1 X95.389 Y101.901 E3.04188
G1 X94.691 Y102.599 E3.06287
G1 X95.400 Y102.599 E3.07794
G1 X96.097 Y101.901 E3.09893
G1 X96.806 Y101.901 E3.11399
G1 X96.108 Y102.599 E3.13498
G1 X96.817 Y102.599 E3.15005
G1 X97.515 Y101.901 E3.17104
G1 X98.223 Y101.901 E3.18610
G1 X97.525 Y102.599 E3.20709
G1 X98.234 Y102.599 E3.22216
G1 X98.932 Y101.901 E3.24315
G1 X99.640 Y101.901 E3.25822
G1 X98.942 Y102.599 E3.27920
G1 X99.651 Y102.599 E3.29427
G1 X100.349 Y101.901 E3.31526
G1 X101.057 Y101.901 E3.33033
G1 X100.360 Y102.599 E3.35132
G1 X101.068 Y102.599 E3.36638
G1 X101.766 Y101.901 E3.38737
G1 X102.475 Y101.901 E3.40244
G1 X101.777 Y102.599 E3.42343
G1 X102.485 Y102.599 E3.43849
G1 X103.183 Y101.901 E3.45948
G1 X103.892 Y101.901 E3.47455
G1 X103.194 Y102.599 E3.49554
G1 X103.902 Y102.599 E3.51061
G1 X104.600 Y101.901 E3.53159
G1 X105.309 Y101.901 E3.54666
G1 X104.611 Y102.599 E3.56765
G1 X105.320 Y102.599 E3.58272
G1 X106.018 Y101.901 E3.60371
G1 X106.726 Y101.901 E3.61877
G1 X106.028 Y102.599 E3.63976
G1 X106.737 Y102.599 E3.65483
G1 X107.435 Y101.901 E3.67582
G1 X108.143 Y101.901 E3.69088
G1 X107.445 Y102.599 E3.71187
G1 X108.154 Y102.599 E3.72694
G1 X108.852 Y101.901 E3.74793
G1 X109.560 Y101.901 E3.76300
G1 X108.863 Y102.599 E3.78398
G1 X109.571 Y102.599 E3.79905
G1 X110.269 Y101.901 E3.82004
G1 X110.978 Y101.901 E3.83511
G1 X110.280 Y102.599 E3.85610
G1 X110.988 Y102.599 E3.87116
G1 X111.686 Y101.901 E3.89215
G1 X112.395 Y101.901 E3.90722
G1 X111.697 Y102.599 E3.92821
G1 X112.405 Y102.599 E3.94327
G1 X113.103 Y101.901 E3.96426
G1 X113.812 Y101.901 E3.97933
G1 X113.114 Y102.599 E4.00032
G1 X113.823 Y102.599 E4.01539
G1 X114.520 Y101.901 E4.03637
G1 X115.229 Y101.901 E4.05144
G1 X114.531 Y102.599 E4.07243
G1 X115.240 Y102.599 E4.08750
G1 X115.938 Y101.901 E4.10849
G1 X116.646 Y101.901 E4.12355
G1 X115.948 Y102.599 E4.14454
G1 X116.657 Y102.599 E4.15961
G1 X117.355 Y101.901 E4.18060
G1 X118.063 Y101.901 E4.19566
G1 X117.365 Y102.599 E4.21665
G1 X118.074 Y102.599 E4.23172
G1 X118.772 Y101.901 E4.25271
G1 X119.481 Y101.901 E4.26778
G1 X118.783 Y102.599 E4.28876
G1 X119.491 Y102.599 E4.30383
G1 X120.189 Y101.901 E4.32482
G1 X120.898 Y101.901 E4.33989
G1 X120.200 Y102.599 E4.36088
G1 X120.908 Y102.599 E4.37594
G1 X123.599 Y99.908 E4.45686
G1 X123.599 Y100.617 E4.47192
G1 X121.617 Y102.599 E4.53153
G1 X122.326 Y102.599 E4.54660
G1 X123.599 Y101.326 E4.58489
G1 X123.599 Y102.034 E4.59996
G1 X122.810 Y102.823 E4.62369
G1 X121.677 Y101.122 F7800.000
G1 F1200
G1 X123.599 Y99.200 E4.68149
G1 X123.599 Y98.491 E4.69656
G1 X121.901 Y100.189 E4.74762
G1 X121.901 Y99.481 E4.76269
G1 X123.599 Y97.783 E4.81375
G1 X123.599 Y97.401 E4.82186
G1 X123.272 Y97.401 E4.82881
G1 X121.901 Y98.772 E4.87004
G1 X121.901 Y98.063 E4.88511
G1 X122.788 Y97.177 E4.91177
G1 Z0.950 F7800.000
G1 E2.91177 F2400.00000
G92 E0
G1 X95.473 Y101.527 F7800.000
G1 E2.00000 F2400.00000
G1 F3600
G1 X121.527 Y101.527 E2.55082
G1 X121.527 Y97.027 E2.64596
G1 X123.973 Y97.027 E2.69765
G1 X123.973 Y102.973 E2.82333
G1 X76.027 Y102.973 E3.83693
G1 X76.027 Y101.527 E3.86748
G1 X93.027 Y101.527 E4.22687
G1 X93.027 Y97.027 E4.32201
G1 X95.473 Y97.027 E4.37370
G1 X95.473 Y101.452 E4.46724
G1 X95.971 Y101.029 F7800.000
G1 F3600
G1 X121.029 Y101.029 E4.99701
G1 X121.029 Y96.529 E5.09214
G1 X124.471 Y96.529 E5.16489
G1 X124.471 Y103.471 E5.31164
G1 X75.529 Y103.471 E6.34630
G1 X75.529 Y101.029 E6.39791
G1 X92.529 Y101.029 E6.75730
G1 X92.529 Y96.529 E6.85243
G1 X95.971 Y96.529 E6.92519
G1 X95.971 Y100.954 E7.01873
G1 X96.469 Y100.531 F7800.000
G1 F1800
G1 X120.531 Y100.531 E7.52744
G1 X120.531 Y96.031 E7.62257
G1 X124.969 Y96.031 E7.71638
G1 X124.969 Y103.969 E7.88419
G1 X75.031 Y103.969 E8.93991
G1 X75.031 Y100.531 E9.01258
G1 X92.031 Y100.531 E9.37197
G1 X92.031 Y96.031 E9.46711
G1 X96.469 Y96.031 E9.56092
G1 X96.469 Y100.456 E9.65447
G1 X96.597 Y101.015 F7800.000
G1 X95.960 Y102.826 F7800.000
G1 F900
G1 X93.370 Y100.236 E9.72410
G1 X93.370 Y100.870 E9.73614
G1 X95.130 Y102.630 E9.78347
G1 X94.497 Y102.630 E9.79551
G1 X93.370 Y101.503 E9.82580
G1 X93.370 Y101.870 E9.83277
G1 X93.103 Y101.870 E9.83785
G1 X93.863 Y102.630 E9.85829
G1 X93.230 Y102.630 E9.87033
G1 X92.469 Y101.870 E9.89078
G1 X91.836 Y101.870 E9.90282
G1 X92.596 Y102.630 E9.92326
G1 X91.963 Y102.630 E9.93530
G1 X91.202 Y101.870 E9.95575
G1 X90.815 Y101.870 E9.96312
G1 X90.815 Y102.116 E9.96779
G1 X91.525 Y102.826 E9.98689
G1 X90.572 Y102.694 F7800.000
G1 F1200
G1 X89.780 Y101.901 E10.01081
G1 X89.069 Y101.901 E10.02598
G1 X89.766 Y102.599 E10.04703
G1 X89.056 Y102.599 E10.06220
G1 X88.358 Y101.901 E10.08326
G1 X87.647 Y101.901 E10.09843
G1 X88.345 Y102.599 E10.11949
G1 X87.634 Y102.599 E10.13466
G1 X86.936 Y101.901 E10.15571
G1 X86.225 Y101.901 E10.17088
G1 X86.923 Y102.599 E10.19194
G1 X86.212 Y102.599 E10.20711
G1 X85.514 Y101.901 E10.22817
G1 X84.803 Y101.901 E10.24334
G1 X85.501 Y102.599 E10.26440
G1 X84.790 Y102.599 E10.27956
G1 X84.092 Y101.901 E10.30062
G1 X83.381 Y101.901 E10.31579
G1 X84.079 Y102.599 E10.33685
G1 X83.368 Y102.599 E10.35202
G1 X82.670 Y101.901 E10.37308
G1 X81.959 Y101.901 E10.38824
G1 X82.657 Y102.599 E10.40930
G1 X81.946 Y102.599 E10.42447
G1 X81.248 Y101.901 E10.44553
G1 X80.537 Y101.901 E10.46070
G1 X81.235 Y102.599 E10.48176
G1 X80.524 Y102.599 E10.49693
G1 X79.826 Y101.901 E10.51798
G1 X79.115 Y101.901 E10.53315
G1 X79.813 Y102.599 E10.55421
G1 X79.102 Y102.599 E10.56938
G1 X78.404 Y101.901 E10.59044
G1 X77.693 Y101.901 E10.60561
G1 X78.391 Y102.599 E10.62666
G1 X77.680 Y102.599 E10.64183
G1 X76.982 Y101.901 E10.66289
G1 X76.401 Y101.901 E10.67529
G1 X76.401 Y102.031 E10.67806
G1 X77.193 Y102.823 E10.70197
G1 E8.70197 F2400.00000
G92 E0
G1 X94.362 Y98.225 F7800.000
G1 E2.00000 F2400.00000
G1 F1200
G1 X93.538 Y97.401 E2.02880
G1 X94.362 Y97.401 E2.04915
G1 X95.186 Y98.225 E2.07796
G1 X94.573 Y98.272 F7800.000
G1 F900
G1 X95.130 Y98.829 E2.09295
G1 X95.130 Y99.463 E2.10499
G1 X94.135 Y98.468 E2.13174
G1 X93.502 Y98.468 E2.14379
G1 X95.130 Y100.096 E2.18757
G1 X95.130 Y100.730 E2.19961
G1 X93.370 Y98.969 E2.24694
G1 X93.370 Y99.603 E2.25898
G1 X95.130 Y101.363 E2.30631
G1 X95.130 Y101.870 E2.31594
G1 X95.637 Y101.870 E2.32557
G1 X96.397 Y102.630 E2.34601
G1 X97.031 Y102.630 E2.35805
G1 X96.270 Y101.870 E2.37850
G1 X96.904 Y101.870 E2.39054
G1 X97.664 Y102.630 E2.41098
G1 X98.297 Y102.630 E2.42303
G1 X97.537 Y101.870 E2.44347
G1 X98.171 Y101.870 E2.45551
G1 X98.881 Y102.580 E2.47462
G1 X99.970 Y102.823 F7800.000
G1 F1200
G1 X99.152 Y102.005 E2.49991
G1 X99.152 Y101.901 E2.50218
G1 X99.777 Y101.901 E2.51582
G1 X100.474 Y102.599 E2.53739
G1 X101.203 Y102.599 E2.55331
G1 X100.505 Y101.901 E2.57488
G1 X101.233 Y101.901 E2.59079
G1 X101.931 Y102.599 E2.61236
G1 X102.659 Y102.599 E2.62827
G1 X101.961 Y101.901 E2.64984
G1 X102.689 Y101.901 E2.66576
G1 X103.387 Y102.599 E2.68733
G1 X104.115 Y102.599 E2.70324
G1 X103.418 Y101.901 E2.72481
G1 X104.146 Y101.901 E2.74072
G1 X104.844 Y102.599 E2.76229
G1 X105.572 Y102.599 E2.77821
G1 X104.874 Y101.901 E2.79978
G1 X105.602 Y101.901 E2.81569
G1 X106.300 Y102.599 E2.83726
G1 X107.028 Y102.599 E2.85318
G1 X106.330 Y101.901 E2.87474
G1 X107.059 Y101.901 E2.89066
G1 X107.757 Y102.599 E2.91223
G1 X108.485 Y102.599 E2.92814
G1 X107.787 Y101.901 E2.94971
G1 X108.515 Y101.901 E2.96563
G1 X109.213 Y102.599 E2.98720
G1 X109.941 Y102.599 E3.00311
G1 X109.243 Y101.901 E3.02468
G1 X109.972 Y101.901 E3.04059
G1 X110.669 Y102.599 E3.06216
G1 X111.398 Y102.599 E3.07808
G1 X110.700 Y101.901 E3.09965
G1 X111.428 Y101.901 E3.11556
G1 X112.126 Y102.599 E3.13713
G1 X112.854 Y102.599 E3.15304
G1 X112.156 Y101.901 E3.17461
G1 X112.884 Y101.901 E3.19053
G1 X113.582 Y102.599 E3.21210
G1 X114.310 Y102.599 E3.22801
G1 X113.613 Y101.901 E3.24958
G1 X114.341 Y101.901 E3.26550
G1 X115.039 Y102.599 E3.28706
G1 X115.767 Y102.599 E3.30298
G1 X115.069 Y101.901 E3.32455
G1 X115.797 Y101.901 E3.34046
G1 X116.495 Y102.599 E3.36203
G1 X117.223 Y102.599 E3.37795
G1 X116.525 Y101.901 E3.39952
G1 X117.254 Y101.901 E3.41543
G1 X118.072 Y102.719 E3.44072
G1 X119.045 Y102.826 F7800.000
G1 F900
G1 X118.315 Y102.096 E3.46078
G1 X118.315 Y101.870 E3.46516
G1 X118.736 Y101.870 E3.47334
G1 X119.496 Y102.630 E3.49421
G1 X120.143 Y102.630 E3.50676
G1 X119.383 Y101.870 E3.52764
G1 X120.029 Y101.870 E3.54019
G1 X120.790 Y102.630 E3.56107
G1 X121.437 Y102.630 E3.57362
G1 X120.676 Y101.870 E3.59450
G1 X121.323 Y101.870 E3.60705
G1 X122.083 Y102.630 E3.62792
G1 X122.730 Y102.630 E3.64048
G1 X121.870 Y101.770 E3.66410
G1 X121.870 Y101.123 E3.67665
G1 X123.377 Y102.630 E3.71803
G1 X123.630 Y102.630 E3.72294
G1 X123.630 Y102.237 E3.73058
G1 X121.870 Y100.476 E3.77891
G1 X121.870 Y99.829 E3.79147
G1 X123.630 Y101.590 E3.83979
G1 X123.630 Y100.943 E3.85235
G1 X121.870 Y99.183 E3.90067
G1 X121.870 Y98.536 E3.91323
G1 X123.630 Y100.296 E3.96155
G1 X123.630 Y99.649 E3.97411
G1 X122.449 Y98.468 E4.00654
G1 X123.096 Y98.468 E4.01909
G1 X123.826 Y99.199 E4.03915
G1 X123.686 Y98.225 F7800.000
G1 F1200
G1 X122.862 Y97.401 E4.06796
G1 X122.038 Y97.401 E4.08831
G1 X122.862 Y98.225 E4.11711
M106 S204
G1 Z1.250 F7800.000
G1 E2.11711 F2400.00000
G92 E0
G1 X92.319 Y101.527 F7800.000
G1 E2.00000 F2400.00000
G1 F900
G1 X92.319 Y102.973 E2.03055
G1 X76.027 Y102.973 E2.37498
G1 X76.027 Y101.527 E2.40552
