; Gcode updated with 'stl_info' on 2019-12-09 21:16:29.387481

; stl_min_x = -45.0
; stl_max_x = 45.0
; stl_min_y = -29.940799713134766
; stl_max_y = 29.940799713134766
; stl_min_z = 0.0

; generated by Slic3r 1.3.1-dev (Build adea0d9) on 2019-12-09 at 21:16:28

; external perimeters extrusion width = 0.44mm (2.86mm^3/s)
; perimeters extrusion width = 0.56mm (4.14mm^3/s)
; infill extrusion width = 0.50mm (3.66mm^3/s)
; solid infill extrusion width = 0.56mm (3.10mm^3/s)
; top infill extrusion width = 0.56mm (3.10mm^3/s)

M107
G92 E0
;D3D:START:START
T0
M104 S215 T0

G21
G90
M107
T0
G28
G29
M109 T0 S215 T0
G0 F3000
M107
T0
G92 E0
G0 X0 Y149 Z0.1 F3600
G1 Y49 E6.5 F1200
G0 Z1
G92 E0
; Filament gcode

G21 ; set units to millimeters
G90 ; use absolute coordinates
M82 ; use absolute distances for extrusion
G92 E0
G1 Z0.300 F7800.000
G1 E-2.00000 F2400.00000
G92 E0
G1 X113.135 Y73.645 F7800.000
G1 E2.00000 F2400.00000
G1 F1800.000
G1 X113.645 Y73.135 E2.02389
G1 X114.288 Y72.808 E2.04778
G1 X115.000 Y72.695 E2.07167
G1 X115.712 Y72.808 E2.09556
G1 X116.355 Y73.135 E2.11946
G1 X116.865 Y73.645 E2.14335
G1 X117.192 Y74.288 E2.16724
G1 X117.305 Y75.000 E2.19113
G1 X117.192 Y75.712 E2.21502
G1 X116.865 Y76.355 E2.23891
G1 X116.355 Y76.865 E2.26280
G1 X115.712 Y77.192 E2.28669
G1 X115.000 Y77.305 E2.31058
G1 X114.288 Y77.192 E2.33447
G1 X113.645 Y76.865 E2.35837
G1 X113.135 Y76.355 E2.38225
G1 X112.808 Y75.712 E2.40615
G1 X112.695 Y75.000 E2.43004
G1 X112.808 Y74.288 E2.45393
G1 X113.108 Y73.699 E2.47583
G1 X113.353 Y73.803 F7800.000
G1 F1800.000
G1 X113.803 Y73.353 E2.49693
G1 X114.371 Y73.064 E2.51804
G1 X115.000 Y72.964 E2.53914
G1 X115.629 Y73.064 E2.56024
G1 X116.197 Y73.353 E2.58135
G1 X116.647 Y73.803 E2.60245
G1 X116.936 Y74.371 E2.62355
G1 X117.036 Y75.000 E2.64466
G1 X116.936 Y75.629 E2.66576
G1 X116.647 Y76.197 E2.68686
G1 X116.197 Y76.647 E2.70797
G1 X115.629 Y76.936 E2.72907
G1 X115.000 Y77.036 E2.75017
G1 X114.371 Y76.936 E2.77128
G1 X113.803 Y76.647 E2.79238
G1 X113.353 Y76.197 E2.81348
G1 X113.064 Y75.629 E2.83459
G1 X112.964 Y75.000 E2.85569
G1 X113.064 Y74.371 E2.87680
G1 X113.326 Y73.857 E2.89591
G1 X113.570 Y73.961 F7800.000
G1 F1800.000
G1 X113.961 Y73.570 E2.91423
G1 X114.454 Y73.319 E2.93254
G1 X115.000 Y73.233 E2.95086
G1 X115.546 Y73.319 E2.96917
G1 X116.039 Y73.570 E2.98749
G1 X116.430 Y73.961 E3.00581
G1 X116.681 Y74.454 E3.02412
G1 X116.767 Y75.000 E3.04244
G1 X116.681 Y75.546 E3.06075
G1 X116.430 Y76.039 E3.07907
G1 X116.039 Y76.430 E3.09738
G1 X115.546 Y76.681 E3.11570
G1 X115.000 Y76.767 E3.13402
G1 X114.454 Y76.681 E3.15233
G1 X113.961 Y76.430 E3.17065
G1 X113.570 Y76.039 E3.18896
G1 X113.319 Y75.546 E3.20728
G1 X113.233 Y75.000 E3.22560
G1 X113.319 Y74.454 E3.24391
G1 X113.543 Y74.015 E3.26024
G1 E1.26024 F2400.00000
G92 E0
G1 X37.305 Y75.000 F7800.000
G1 E2.00000 F2400.00000
G1 F1800.000
G1 X37.192 Y75.712 E2.02389
G1 X36.865 Y76.355 E2.04778
G1 X36.355 Y76.865 E2.07167
G1 X35.712 Y77.192 E2.09557
G1 X35.000 Y77.305 E2.11945
G1 X34.288 Y77.192 E2.14334
G1 X33.645 Y76.865 E2.16724
G1 X33.135 Y76.355 E2.19113
G1 X32.808 Y75.712 E2.21502
G1 X32.695 Y75.000 E2.23891
G1 X32.808 Y74.288 E2.26280
G1 X33.135 Y73.645 E2.28669
G1 X33.645 Y73.135 E2.31058
G1 X34.288 Y72.808 E2.33447
G1 X35.000 Y72.695 E2.35836
G1 X35.712 Y72.808 E2.38225
G1 X36.355 Y73.135 E2.40615
G1 X36.865 Y73.645 E2.43004
G1 X37.192 Y74.288 E2.45393
G1 X37.296 Y74.941 E2.47583
G1 X37.036 Y75.000 F7800.000
G1 F1800.000
G1 X36.936 Y75.629 E2.49693
G1 X36.647 Y76.197 E2.51804
G1 X36.197 Y76.647 E2.53914
G1 X35.629 Y76.936 E2.56025
G1 X35.000 Y77.036 E2.58135
G1 X34.371 Y76.936 E2.60245
G1 X33.803 Y76.647 E2.62356
G1 X33.353 Y76.197 E2.64466
G1 X33.064 Y75.629 E2.66576
G1 X32.964 Y75.000 E2.68686
G1 X33.064 Y74.371 E2.70797
G1 X33.353 Y73.803 E2.72907
G1 X33.803 Y73.353 E2.75017
G1 X34.371 Y73.064 E2.77128
G1 X35.000 Y72.964 E2.79238
G1 X35.629 Y73.064 E2.81348
G1 X36.197 Y73.353 E2.83459
G1 X36.647 Y73.803 E2.85569
G1 X36.936 Y74.371 E2.87680
G1 X37.027 Y74.941 E2.89591
G1 X36.767 Y75.000 F7800.000
G1 F1800.000
G1 X36.681 Y75.546 E2.91423
G1 X36.430 Y76.039 E2.93254
G1 X36.039 Y76.430 E2.95086
G1 X35.546 Y76.681 E2.96918
G1 X35.000 Y76.767 E2.98749
G1 X34.454 Y76.681 E3.00581
G1 X33.961 Y76.430 E3.02412
G1 X33.570 Y76.039 E3.04244
G1 X33.319 Y75.546 E3.06075
G1 X33.233 Y75.000 E3.07907
G1 X33.319 Y74.454 E3.09739
G1 X33.570 Y73.961 E3.11570
G1 X33.961 Y73.570 E3.13402
G1 X34.454 Y73.319 E3.15233
G1 X35.000 Y73.233 E3.17065
G1 X35.546 Y73.319 E3.18896
G1 X36.039 Y73.570 E3.20728
G1 X36.430 Y73.961 E3.22560
G1 X36.681 Y74.454 E3.24391
G1 X36.758 Y74.941 E3.26024
G1 E1.26024 F2400.00000
G92 E0
G1 X58.196 Y53.196 F7800.000
G1 E2.00000 F2400.00000
G1 F1800.000
G1 X58.196 Y45.755 E2.24651
G1 X62.862 Y45.755 E2.40110
G1 X63.174 Y46.363 E2.42371
G1 X63.605 Y47.089 E2.45170
G1 X64.082 Y47.787 E2.47969
G1 X64.602 Y48.453 E2.50769
G1 X65.163 Y49.086 E2.53570
G1 X65.762 Y49.682 E2.56372
G1 X66.398 Y50.240 E2.59174
G1 X67.068 Y50.757 E2.61978
G1 X67.770 Y51.231 E2.64782
G1 X68.499 Y51.660 E2.67587
G1 X69.255 Y52.043 E2.70392
G1 X70.033 Y52.377 E2.73198
G1 X70.830 Y52.663 E2.76005
G1 X71.644 Y52.898 E2.78812
G1 X72.472 Y53.082 E2.81619
G1 X73.309 Y53.214 E2.84427
G1 X74.153 Y53.293 E2.87235
G1 X75.000 Y53.320 E2.90044
G1 X75.847 Y53.293 E2.92852
G1 X76.691 Y53.214 E2.95660
G1 X77.528 Y53.082 E2.98468
G1 X78.356 Y52.898 E3.01275
G1 X79.170 Y52.663 E3.04082
G1 X79.967 Y52.377 E3.06889
G1 X80.745 Y52.043 E3.09695
G1 X81.501 Y51.660 E3.12501
G1 X82.230 Y51.231 E3.15306
G1 X82.932 Y50.757 E3.18110
G1 X83.602 Y50.240 E3.20913
G1 X84.238 Y49.682 E3.23715
G1 X84.837 Y49.086 E3.26517
G1 X85.398 Y48.453 E3.29318
G1 X85.918 Y47.787 E3.32118
G1 X86.395 Y47.089 E3.34917
G1 X86.826 Y46.363 E3.37716
G1 X87.138 Y45.755 E3.39978
G1 X91.804 Y45.755 E3.55436
G1 X91.804 Y53.196 E3.80087
G1 X119.304 Y53.196 E4.71193
G1 X119.304 Y96.804 E6.15663
G1 X91.804 Y96.804 E7.06769
G1 X91.804 Y104.245 E7.31420
G1 X87.138 Y104.245 E7.46879
G1 X86.826 Y103.637 E7.49141
G1 X86.395 Y102.911 E7.51939
G1 X85.918 Y102.213 E7.54738
G1 X85.398 Y101.547 E7.57538
G1 X84.837 Y100.914 E7.60339
G1 X84.238 Y100.318 E7.63141
G1 X83.602 Y99.760 E7.65944
G1 X82.932 Y99.243 E7.68747
G1 X82.230 Y98.769 E7.71551
G1 X81.501 Y98.340 E7.74356
G1 X80.745 Y97.957 E7.77161
G1 X79.967 Y97.623 E7.79967
G1 X79.170 Y97.337 E7.82774
G1 X78.356 Y97.102 E7.85581
G1 X77.528 Y96.918 E7.88389
G1 X76.691 Y96.786 E7.91197
G1 X75.847 Y96.707 E7.94005
G1 X75.000 Y96.680 E7.96813
G1 X74.153 Y96.707 E7.99621
G1 X73.309 Y96.786 E8.02429
G1 X72.472 Y96.918 E8.05237
G1 X71.644 Y97.102 E8.08045
G1 X70.830 Y97.337 E8.10852
G1 X70.033 Y97.623 E8.13658
G1 X69.255 Y97.957 E8.16464
G1 X68.499 Y98.340 E8.19270
G1 X67.770 Y98.769 E8.22075
G1 X67.068 Y99.243 E8.24879
G1 X66.398 Y99.760 E8.27682
G1 X65.762 Y100.318 E8.30485
G1 X65.163 Y100.914 E8.33286
G1 X64.602 Y101.547 E8.36087
G1 X64.082 Y102.213 E8.38887
G1 X63.605 Y102.911 E8.41687
G1 X63.174 Y103.637 E8.44485
G1 X62.862 Y104.245 E8.46747
G1 X58.196 Y104.245 E8.62206
G1 X58.196 Y96.804 E8.86857
G1 X30.696 Y96.804 E9.77963
G1 X30.696 Y53.196 E11.22432
G1 X58.136 Y53.196 E12.13340
G1 X57.931 Y52.931 F7800.000
G1 F1800.000
G1 X57.931 Y45.490 E12.37991
G1 X63.025 Y45.490 E12.54867
G1 X63.406 Y46.234 E12.57639
G1 X63.829 Y46.946 E12.60382
G1 X64.297 Y47.630 E12.63126
G1 X64.806 Y48.283 E12.65871
G1 X65.356 Y48.903 E12.68616
G1 X65.944 Y49.488 E12.71363
G1 X66.567 Y50.035 E12.74110
G1 X67.224 Y50.541 E12.76858
G1 X67.911 Y51.006 E12.79607
G1 X68.627 Y51.427 E12.82357
G1 X69.367 Y51.802 E12.85107
G1 X70.130 Y52.130 E12.87858
G1 X70.912 Y52.410 E12.90610
G1 X71.710 Y52.641 E12.93362
G1 X72.521 Y52.821 E12.96114
G1 X73.342 Y52.950 E12.98867
G1 X74.169 Y53.028 E13.01620
G1 X75.000 Y53.054 E13.04373
G1 X75.831 Y53.028 E13.07126
G1 X76.658 Y52.950 E13.09879
G1 X77.479 Y52.821 E13.12632
G1 X78.290 Y52.641 E13.15385
G1 X79.088 Y52.410 E13.18137
G1 X79.870 Y52.130 E13.20889
G1 X80.633 Y51.802 E13.23640
G1 X81.373 Y51.427 E13.26390
G1 X82.089 Y51.006 E13.29140
G1 X82.776 Y50.541 E13.31888
G1 X83.433 Y50.035 E13.34637
G1 X84.056 Y49.488 E13.37384
G1 X84.644 Y48.903 E13.40130
G1 X85.194 Y48.283 E13.42876
G1 X85.703 Y47.630 E13.45620
G1 X86.171 Y46.946 E13.48364
G1 X86.594 Y46.234 E13.51107
G1 X86.975 Y45.490 E13.53879
G1 X92.069 Y45.490 E13.70756
G1 X92.069 Y52.931 E13.95407
G1 X119.569 Y52.931 E14.86513
G1 X119.569 Y97.069 E16.32742
G1 X92.069 Y97.069 E17.23849
G1 X92.069 Y104.510 E17.48500
G1 X86.975 Y104.510 E17.65376
G1 X86.594 Y103.766 E17.68148
G1 X86.171 Y103.054 E17.70891
G1 X85.703 Y102.370 E17.73635
G1 X85.194 Y101.717 E17.76380
G1 X84.644 Y101.097 E17.79125
G1 X84.056 Y100.512 E17.81872
G1 X83.433 Y99.965 E17.84619
G1 X82.776 Y99.459 E17.87367
G1 X82.089 Y98.994 E17.90116
G1 X81.373 Y98.573 E17.92866
G1 X80.633 Y98.198 E17.95616
G1 X79.870 Y97.870 E17.98367
G1 X79.088 Y97.590 E18.01118
G1 X78.290 Y97.359 E18.03870
G1 X77.479 Y97.179 E18.06623
G1 X76.658 Y97.050 E18.09376
G1 X75.831 Y96.972 E18.12129
G1 X75.000 Y96.946 E18.14882
G1 X74.169 Y96.972 E18.17635
G1 X73.342 Y97.050 E18.20388
G1 X72.521 Y97.179 E18.23141
G1 X71.710 Y97.359 E18.25894
G1 X70.912 Y97.590 E18.28646
G1 X70.130 Y97.870 E18.31397
G1 X69.367 Y98.198 E18.34148
G1 X68.627 Y98.573 E18.36899
G1 X67.911 Y98.994 E18.39648
G1 X67.224 Y99.459 E18.42397
G1 X66.567 Y99.965 E18.45145
G1 X65.944 Y100.512 E18.47893
G1 X65.356 Y101.097 E18.50639
G1 X64.806 Y101.717 E18.53385
G1 X64.297 Y102.370 E18.56129
G1 X63.829 Y103.054 E18.58873
G1 X63.406 Y103.766 E18.61616
G1 X63.025 Y104.510 E18.64388
G1 X57.931 Y104.510 E18.81265
G1 X57.931 Y97.069 E19.05916
G1 X30.431 Y97.069 E19.97022
G1 X30.431 Y52.931 E21.43251
G1 X57.871 Y52.931 E22.34159
G1 X57.665 Y52.665 F7800.000
G1 F1800.000
G1 X57.665 Y45.224 E22.58810
G1 X63.199 Y45.224 E22.77145
G1 X63.639 Y46.106 E22.80409
G1 X64.053 Y46.803 E22.83096
G1 X64.511 Y47.473 E22.85785
G1 X65.011 Y48.113 E22.88474
G1 X65.549 Y48.721 E22.91164
G1 X66.125 Y49.294 E22.93855
G1 X66.736 Y49.829 E22.96547
G1 X67.380 Y50.326 E22.99240
G1 X68.053 Y50.781 E23.01934
G1 X68.754 Y51.194 E23.04628
G1 X69.480 Y51.561 E23.07324
G1 X70.228 Y51.883 E23.10019
G1 X70.994 Y52.157 E23.12716
G1 X71.776 Y52.383 E23.15413
G1 X72.571 Y52.560 E23.18111
G1 X73.375 Y52.687 E23.20808
G1 X74.186 Y52.763 E23.23506
G1 X75.000 Y52.788 E23.26205
G1 X75.814 Y52.763 E23.28903
G1 X76.625 Y52.687 E23.31601
G1 X77.429 Y52.560 E23.34299
G1 X78.224 Y52.383 E23.36996
G1 X79.006 Y52.157 E23.39693
G1 X79.772 Y51.883 E23.42390
G1 X80.520 Y51.561 E23.45086
G1 X81.246 Y51.194 E23.47781
G1 X81.947 Y50.781 E23.50475
G1 X82.620 Y50.326 E23.53169
G1 X83.264 Y49.829 E23.55862
G1 X83.875 Y49.294 E23.58554
G1 X84.451 Y48.721 E23.61245
G1 X84.989 Y48.113 E23.63935
G1 X85.489 Y47.473 E23.66624
G1 X85.947 Y46.803 E23.69313
G1 X86.361 Y46.106 E23.72001
G1 X86.801 Y45.224 E23.75264
G1 X92.335 Y45.224 E23.93599
G1 X92.335 Y52.665 E24.18250
G1 X119.835 Y52.665 E25.09357
G1 X119.835 Y97.335 E26.57346
G1 X92.335 Y97.335 E27.48452
G1 X92.335 Y104.776 E27.73103
G1 X86.801 Y104.776 E27.91439
G1 X86.361 Y103.894 E27.94702
G1 X85.947 Y103.197 E27.97390
G1 X85.489 Y102.527 E28.00078
G1 X84.989 Y101.887 E28.02768
G1 X84.451 Y101.279 E28.05458
G1 X83.875 Y100.706 E28.08149
G1 X83.264 Y100.171 E28.10841
G1 X82.620 Y99.674 E28.13534
G1 X81.947 Y99.219 E28.16227
G1 X81.246 Y98.806 E28.18922
G1 X80.520 Y98.439 E28.21617
G1 X79.772 Y98.117 E28.24313
G1 X79.006 Y97.843 E28.27010
G1 X78.224 Y97.617 E28.29707
G1 X77.429 Y97.440 E28.32404
G1 X76.625 Y97.313 E28.35102
G1 X75.814 Y97.237 E28.37800
G1 X75.000 Y97.212 E28.40498
G1 X74.186 Y97.237 E28.43196
G1 X73.375 Y97.313 E28.45894
G1 X72.571 Y97.440 E28.48592
G1 X71.776 Y97.617 E28.51290
G1 X70.994 Y97.843 E28.53987
G1 X70.228 Y98.117 E28.56683
G1 X69.480 Y98.439 E28.59379
G1 X68.754 Y98.806 E28.62074
G1 X68.053 Y99.219 E28.64769
G1 X67.380 Y99.674 E28.67463
G1 X66.736 Y100.171 E28.70156
G1 X66.125 Y100.706 E28.72847
G1 X65.549 Y101.279 E28.75538
G1 X65.011 Y101.887 E28.78229
G1 X64.511 Y102.527 E28.80918
G1 X64.053 Y103.197 E28.83606
G1 X63.639 Y103.894 E28.86294
G1 X63.199 Y104.776 E28.89558
G1 X57.665 Y104.776 E29.07893
G1 X57.665 Y97.335 E29.32544
G1 X30.165 Y97.335 E30.23650
G1 X30.165 Y52.665 E31.71640
G1 X57.605 Y52.665 E32.62547
G1 E30.62547 F2400.00000
G92 E0
G1 X58.799 Y45.918 F7800.000
G1 E2.00000 F2400.00000
G1 F1800.000
G1 X58.359 Y46.358 E2.02065
G1 X58.359 Y46.734 E2.03310
G1 X59.175 Y45.918 E2.07136
G1 X59.551 Y45.918 E2.08381
G1 X58.359 Y47.110 E2.13969
G1 X58.359 Y47.486 E2.15214
G1 X59.926 Y45.918 E2.22563
G1 X60.302 Y45.918 E2.23809
G1 X58.359 Y47.861 E2.32919
G1 X58.359 Y48.237 E2.34164
G1 X60.678 Y45.918 E2.45036
G1 X61.054 Y45.918 E2.46281
G1 X58.359 Y48.613 E2.58914
G1 X58.359 Y48.989 E2.60160
G1 X61.430 Y45.918 E2.74554
G1 X61.805 Y45.918 E2.75799
G1 X58.359 Y49.365 E2.91955
G1 X58.359 Y49.740 E2.93201
G1 X62.181 Y45.918 E3.11118
G1 X62.557 Y45.918 E3.12363
G1 X58.359 Y50.116 E3.32042
G1 X58.359 Y50.492 E3.33287
G1 X62.847 Y46.003 E3.54326
G1 X62.974 Y46.252 E3.55251
G1 X58.359 Y50.868 E3.76887
G1 X58.359 Y51.244 E3.78132
G1 X63.108 Y46.495 E4.00391
G1 X63.248 Y46.730 E4.01300
G1 X58.359 Y51.619 E4.24216
G1 X58.359 Y51.995 E4.25462
G1 X63.388 Y46.966 E4.49035
G1 X63.532 Y47.198 E4.49939
G1 X58.359 Y52.371 E4.74187
G1 X58.359 Y52.747 E4.75432
G1 X63.684 Y47.421 E5.00395
G1 X63.837 Y47.644 E5.01291
G1 X58.359 Y53.123 E5.26969
G1 X58.359 Y53.498 E5.28214
G1 X63.991 Y47.866 E5.54614
G1 X64.156 Y48.077 E5.55501
G1 X37.424 Y74.809 E6.80796
G1 X37.464 Y75.144 E6.81916
G1 X64.320 Y48.288 E8.07795
G1 X64.485 Y48.499 E8.08682
G1 X37.393 Y75.591 E9.35664
G1 X37.345 Y75.899 E9.36697
G1 X37.223 Y76.137 E9.37583
G1 X64.660 Y48.700 E10.66184
G1 X64.837 Y48.899 E10.67066
G1 X30.859 Y82.877 E12.26327
G1 X30.859 Y83.253 E12.27572
G1 X65.014 Y49.098 E13.87661
G1 X65.198 Y49.289 E13.88542
G1 X30.859 Y83.629 E15.49495
G1 X30.859 Y84.005 E15.50740
G1 X65.386 Y49.477 E17.12576
G1 X65.575 Y49.664 E17.13457
G1 X30.859 Y84.380 E18.76176
G1 X30.859 Y84.756 E18.77422
G1 X65.768 Y49.847 E20.41047
G1 X65.968 Y50.022 E20.41930
G1 X30.859 Y85.132 E22.06494
G1 X30.859 Y85.508 E22.07739
G1 X66.169 Y50.198 E23.73242
G1 X66.371 Y50.371 E23.74125
G1 X30.859 Y85.884 E25.40577
G1 X30.859 Y86.259 E25.41822
G1 X66.583 Y50.535 E27.09268
G1 X66.795 Y50.698 E27.10156
G1 X30.859 Y86.635 E28.78595
G1 X30.859 Y87.011 E28.79841
G1 X67.007 Y50.862 E30.49275
G1 X67.231 Y51.014 E30.50172
G1 X30.859 Y87.387 E32.20654
G1 X30.859 Y87.763 E32.21900
G1 X67.455 Y51.166 E33.93434
G1 X67.680 Y51.317 E33.94331
G1 X30.859 Y88.138 E35.66916
G1 X30.859 Y88.514 E35.68161
G1 X67.913 Y51.459 E37.41842
G1 X68.150 Y51.598 E37.42752
G1 X30.859 Y88.890 E39.17541
G1 X30.859 Y89.266 E39.18787
G1 X68.387 Y51.738 E40.94686
G1 X68.631 Y51.869 E40.95606
G1 X30.859 Y89.642 E42.72651
G1 X30.859 Y90.017 E42.73896
G1 X68.881 Y51.995 E44.52111
G1 X69.130 Y52.122 E44.53038
G1 X30.859 Y90.393 E46.32421
G1 X30.859 Y90.769 E46.33667
G1 X69.387 Y52.241 E48.14253
G1 X69.649 Y52.354 E48.15201
G1 X30.859 Y91.145 E49.97019
G1 X30.859 Y91.521 E49.98264
G1 X69.912 Y52.467 E51.81313
G1 X70.182 Y52.573 E51.82274
G1 X30.859 Y91.896 E53.66589
G1 X30.859 Y92.272 E53.67834
G1 X70.459 Y52.672 E55.53445
G1 X70.736 Y52.771 E55.54420
G1 X30.859 Y92.648 E57.41328
G1 X30.859 Y93.024 E57.42574
G1 X71.021 Y52.861 E59.30819
G1 X71.312 Y52.946 E59.31825
G1 X30.859 Y93.400 E61.21437
G1 X30.859 Y93.775 E61.22683
G1 X71.604 Y53.030 E63.13662
G1 X71.907 Y53.102 E63.14695
G1 X30.859 Y94.151 E65.07095
G1 X30.859 Y94.527 E65.08340
G1 X72.215 Y53.171 E67.02181
G1 X72.522 Y53.239 E67.03225
G1 X30.859 Y94.903 E68.98507
G1 X30.859 Y95.278 E68.99753
G1 X72.847 Y53.291 E70.96555
G1 X73.171 Y53.342 E70.97644
G1 X30.859 Y95.654 E72.95969
G1 X30.859 Y96.030 E72.97214
G1 X73.503 Y53.386 E74.97092
G1 X73.846 Y53.418 E74.98236
G1 X30.859 Y96.406 E76.99724
G1 X30.859 Y96.641 E77.00505
G1 X30.999 Y96.641 E77.00969
G1 X74.190 Y53.451 E79.03410
G1 X74.551 Y53.465 E79.04609
G1 X31.375 Y96.641 E81.06982
