; generated by Slic3r 1.3.1-dev (Build 2ef957d) on 2019-11-25 at 09:19:54

; external perimeters extrusion width = 0.55mm (4.37mm^3/s)
; perimeters extrusion width = 0.70mm (11.44mm^3/s)
; infill extrusion width = 0.62mm (13.45mm^3/s)
; solid infill extrusion width = 0.70mm (3.81mm^3/s)
; top infill extrusion width = 0.70mm (2.86mm^3/s)

M107
G92 E0
M104 S200 ; set temperature
G28 ; home all axes
G1 Z5 F5000 ; lift nozzle

; Filament gcode

M109 S200 ; set temperature and wait for it to be reached
G21 ; set units to millimeters
G90 ; use absolute coordinates
M82 ; use absolute distances for extrusion
G92 E0
G1 Z0.350 F7800.000
G1 E-2.00000 F2400.00000
G92 E0
G1 X89.415 Y88.220 F7800.000
G1 E2.00000 F2400.00000
G1 F1800.000
G1 X91.168 Y86.741 E2.07096
G1 X93.320 Y85.948 E2.14192
G1 X94.500 Y85.842 E2.17858
G1 X101.493 Y85.842 E2.39496
G1 X105.555 Y85.875 E2.52062
G1 X107.810 Y86.291 E2.59158
G1 X109.789 Y87.451 E2.66255
G1 X111.253 Y89.215 E2.73351
G1 X112.125 Y92.500 E2.83865
G1 X112.125 Y112.500 E3.45748
G1 X111.728 Y114.759 E3.52844
G1 X110.585 Y116.747 E3.59941
G1 X108.832 Y118.226 E3.67037
G1 X106.680 Y119.019 E3.74133
G1 X105.500 Y119.125 E3.77798
G1 X94.500 Y119.125 E4.11834
G1 X92.241 Y118.728 E4.18930
G1 X90.253 Y117.585 E4.26026
G1 X88.774 Y115.832 E4.33122
G1 X87.981 Y113.680 E4.40218
G1 X87.875 Y112.500 E4.43884
G1 X87.875 Y92.467 E5.05868
G1 X88.272 Y90.208 E5.12964
G1 X89.378 Y88.285 E5.19829
G1 E3.19829 F2400.00000
G92 E0
G1 X103.587 Y109.017 F7800.000
G1 E2.00000 F2400.00000
G1 F1800.000
G1 X103.226 Y109.418 E2.01669
G1 X102.790 Y109.734 E2.03338
G1 X102.297 Y109.954 E2.05007
G1 X101.770 Y110.066 E2.06676
G1 X101.230 Y110.066 E2.08345
G1 X100.703 Y109.954 E2.10014
G1 X100.210 Y109.734 E2.11683
G1 X99.774 Y109.418 E2.13352
G1 X99.413 Y109.017 E2.15021
G1 X99.143 Y108.549 E2.16690
G1 X98.976 Y108.037 E2.18359
G1 X98.920 Y107.500 E2.20028
G1 X98.976 Y106.963 E2.21697
G1 X99.143 Y106.451 E2.23366
G1 X99.413 Y105.983 E2.25036
G1 X99.774 Y105.582 E2.26705
G1 X100.210 Y105.266 E2.28373
G1 X100.703 Y105.046 E2.30042
G1 X101.230 Y104.934 E2.31712
G1 X101.770 Y104.934 E2.33380
G1 X102.297 Y105.046 E2.35049
G1 X102.790 Y105.266 E2.36719
G1 X103.226 Y105.582 E2.38387
G1 X103.587 Y105.983 E2.40056
G1 X103.857 Y106.451 E2.41726
G1 X104.024 Y106.963 E2.43394
G1 X104.080 Y107.500 E2.45064
G1 X104.024 Y108.037 E2.46733
G1 X103.857 Y108.549 E2.48402
G1 X103.625 Y108.952 E2.49839
G1 X103.079 Y108.647 F7800.000
G1 F1800.000
G1 X102.806 Y108.951 E2.51101
G1 X102.476 Y109.190 E2.52364
G1 X102.103 Y109.356 E2.53627
G1 X101.704 Y109.441 E2.54889
G1 X101.296 Y109.441 E2.56152
G1 X100.897 Y109.356 E2.57414
G1 X100.524 Y109.190 E2.58677
G1 X100.194 Y108.951 E2.59940
G1 X99.921 Y108.647 E2.61202
G1 X99.717 Y108.294 E2.62465
G1 X99.591 Y107.906 E2.63727
G1 X99.548 Y107.500 E2.64990
G1 X99.591 Y107.094 E2.66253
G1 X99.717 Y106.706 E2.67515
G1 X99.921 Y106.353 E2.68778
G1 X100.194 Y106.049 E2.70040
G1 X100.524 Y105.810 E2.71303
G1 X100.897 Y105.644 E2.72566
G1 X101.296 Y105.559 E2.73828
G1 X101.704 Y105.559 E2.75091
G1 X102.103 Y105.644 E2.76353
G1 X102.476 Y105.810 E2.77616
G1 X102.806 Y106.049 E2.78879
G1 X103.079 Y106.353 E2.80141
G1 X103.283 Y106.706 E2.81404
G1 X103.409 Y107.094 E2.82666
G1 X103.452 Y107.500 E2.83929
G1 X103.409 Y107.906 E2.85192
G1 X103.283 Y108.294 E2.86454
G1 X103.117 Y108.582 E2.87485
G1 X103.079 Y108.647 F7800.000
G1 X103.900 Y109.700 F7800.000
G1 F1800.000
G1 X103.900 Y110.900 E2.91197
G1 X102.439 Y110.900 E2.95720
G1 X102.375 Y110.603 E2.96659
G1 X103.104 Y110.279 E2.99128
G1 X103.840 Y109.745 E3.01940
G1 E1.01940 F2400.00000
G92 E0
G1 X103.900 Y95.300 F7800.000
G1 E2.00000 F2400.00000
G1 F1800.000
G1 X103.115 Y94.729 E2.03001
G1 X102.395 Y94.394 E2.05462
G1 X102.460 Y94.100 E2.06393
G1 X103.900 Y94.100 E2.10850
G1 X103.900 Y95.225 E2.14330
G1 X103.387 Y95.761 F7800.000
G1 F1800.000
G1 X103.587 Y95.983 E2.15255
G1 X103.857 Y96.451 E2.16924
G1 X104.024 Y96.964 E2.18593
G1 X104.080 Y97.500 E2.20262
G1 X104.024 Y98.036 E2.21931
G1 X103.857 Y98.549 E2.23600
G1 X103.587 Y99.017 E2.25269
G1 X103.227 Y99.418 E2.26938
G1 X102.790 Y99.735 E2.28607
G1 X102.297 Y99.954 E2.30276
G1 X101.770 Y100.066 E2.31945
G1 X101.230 Y100.066 E2.33614
G1 X100.703 Y99.954 E2.35283
G1 X100.210 Y99.735 E2.36952
G1 X99.773 Y99.418 E2.38621
G1 X99.413 Y99.017 E2.40291
G1 X99.143 Y98.549 E2.41960
G1 X98.976 Y98.036 E2.43629
G1 X98.920 Y97.500 E2.45298
G1 X98.976 Y96.964 E2.46967
G1 X99.143 Y96.451 E2.48636
G1 X99.413 Y95.983 E2.50305
G1 X99.773 Y95.582 E2.51974
G1 X100.210 Y95.265 E2.53643
G1 X100.703 Y95.046 E2.55312
G1 X101.230 Y94.934 E2.56981
G1 X101.770 Y94.934 E2.58650
G1 X102.330 Y95.053 E2.60424
G1 X102.797 Y95.270 E2.62016
G1 X103.227 Y95.582 E2.63659
G1 X103.337 Y95.706 E2.64171
G1 X102.923 Y96.179 F7800.000
G1 F1800.000
G1 X103.079 Y96.353 E2.64893
G1 X103.283 Y96.706 E2.66155
G1 X103.409 Y97.094 E2.67418
G1 X103.452 Y97.500 E2.68681
G1 X103.409 Y97.906 E2.69943
G1 X103.283 Y98.294 E2.71206
G1 X103.079 Y98.647 E2.72468
G1 X102.806 Y98.951 E2.73731
G1 X102.476 Y99.190 E2.74994
G1 X102.103 Y99.356 E2.76256
G1 X101.704 Y99.441 E2.77519
G1 X101.296 Y99.441 E2.78781
G1 X100.897 Y99.356 E2.80044
G1 X100.524 Y99.190 E2.81307
G1 X100.194 Y98.951 E2.82569
G1 X99.921 Y98.647 E2.83832
G1 X99.717 Y98.294 E2.85094
G1 X99.591 Y97.906 E2.86357
G1 X99.548 Y97.500 E2.87620
G1 X99.591 Y97.094 E2.88882
G1 X99.717 Y96.706 E2.90145
G1 X99.921 Y96.353 E2.91407
G1 X100.194 Y96.049 E2.92670
G1 X100.524 Y95.810 E2.93933
G1 X100.897 Y95.644 E2.95195
G1 X101.296 Y95.559 E2.96458
G1 X101.704 Y95.559 E2.97720
G1 X102.131 Y95.650 E2.99071
G1 X102.478 Y95.811 E3.00257
G1 X102.806 Y96.049 E3.01510
G1 X102.873 Y96.124 E3.01819
G1 X103.149 Y96.120 F7800.000
G1 E1.01819 F2400.00000
G92 E0
G1 X100.625 Y94.397 F7800.000
G1 E2.00000 F2400.00000
G1 F1800.000
G1 X99.896 Y94.721 E2.02469
G1 X99.353 Y95.116 E2.04544
G1 X98.904 Y95.614 E2.06620
G1 X98.569 Y96.195 E2.08695
G1 X98.362 Y96.833 E2.10771
G1 X98.291 Y97.500 E2.12846
G1 X98.362 Y98.167 E2.14922
G1 X98.569 Y98.805 E2.16997
G1 X98.904 Y99.386 E2.19073
G1 X99.353 Y99.884 E2.21148
G1 X99.896 Y100.279 E2.23223
G1 X100.508 Y100.552 E2.25299
G1 X101.165 Y100.691 E2.27374
G1 X101.835 Y100.691 E2.29450
G1 X102.492 Y100.552 E2.31525
G1 X103.104 Y100.279 E2.33601
G1 X103.900 Y99.700 E2.36645
G1 X103.900 Y105.300 E2.53969
G1 X103.104 Y104.721 E2.57013
G1 X102.492 Y104.448 E2.59089
G1 X101.835 Y104.309 E2.61165
G1 X101.165 Y104.309 E2.63240
G1 X100.508 Y104.448 E2.65315
G1 X99.896 Y104.721 E2.67391
G1 X99.353 Y105.115 E2.69466
G1 X98.904 Y105.614 E2.71541
G1 X98.569 Y106.195 E2.73617
G1 X98.362 Y106.833 E2.75693
G1 X98.291 Y107.500 E2.77768
G1 X98.362 Y108.167 E2.79844
G1 X98.569 Y108.805 E2.81919
G1 X98.904 Y109.386 E2.83995
G1 X99.353 Y109.885 E2.86071
G1 X99.896 Y110.279 E2.88145
G1 X100.625 Y110.603 E2.90614
G1 X100.561 Y110.900 E2.91553
G1 X96.100 Y110.900 E3.05358
G1 X96.100 Y94.067 E3.57443
G1 X100.283 Y94.067 E3.70386
G1 X100.292 Y94.100 E3.70492
G1 X100.561 Y94.100 E3.71325
G1 X100.609 Y94.323 E3.72033
G1 E1.72033 F2400.00000
G92 E0
G1 X104.525 Y93.475 F7800.000
G1 E2.00000 F2400.00000
G1 F1800.000
G1 X104.525 Y111.525 E2.55850
G1 X95.475 Y111.525 E2.83852
G1 X95.475 Y93.442 E3.39804
G1 X100.756 Y93.442 E3.56144
G1 X100.765 Y93.475 E3.56250
G1 X104.450 Y93.475 E3.67652
G1 X105.150 Y92.850 F7800.000
G1 F1800.000
G1 X105.150 Y112.150 E4.27369
G1 X94.850 Y112.150 E4.59238
G1 X94.850 Y92.817 E5.19057
G1 X101.228 Y92.817 E5.38793
G1 X101.238 Y92.850 E5.38899
G1 X105.075 Y92.850 E5.50772
G1 X104.899 Y93.282 F7800.000
G1 E3.50772 F2400.00000
G92 E0
G1 X103.704 Y95.590 F7800.000
G1 E2.00000 F2400.00000
G1 F1800.000
G1 X104.213 Y96.080 E2.00197
G1 E0.00197 F2400.00000
G92 E0
G1 X104.213 Y98.920 F7800.000
G1 E2.00000 F2400.00000
G1 F1800.000
G1 X103.704 Y99.410 E2.00197
G1 E0.00197 F2400.00000
G92 E0
G1 X103.704 Y105.590 F7800.000
G1 E2.00000 F2400.00000
G1 F1800.000
G1 X104.213 Y106.080 E2.00197
G1 E0.00197 F2400.00000
G92 E0
G1 X104.213 Y108.920 F7800.000
G1 E2.00000 F2400.00000
G1 F1800.000
G1 X103.704 Y109.410 E2.00197
G1 E0.00197 F2400.00000
G92 E0
G1 X99.700 Y110.559 F7800.000
G1 E2.00000 F2400.00000
G1 F1800.000
G1 X99.594 Y110.524 E2.00029
G1 X99.411 Y110.359 E2.00092
G1 X98.402 Y110.518 F7800.000
G1 F1800.000
G1 X98.998 Y109.911 E2.02837
G1 X98.639 Y109.512 E2.04566
G1 X98.583 Y109.416 E2.04925
G1 X97.481 Y110.518 E2.09955
G1 X96.559 Y110.518 E2.12926
G1 X98.246 Y108.832 E2.20620
G1 X98.017 Y108.139 E2.22973
G1 X96.482 Y109.675 E2.29978
G1 X96.482 Y108.754 E2.32950
G1 X97.913 Y107.322 E2.39479
G1 X97.906 Y107.257 E2.39691
G1 X97.990 Y106.459 E2.42278
G1 X98.055 Y106.259 E2.42957
G1 X96.482 Y107.832 E2.50134
G1 X96.482 Y106.911 E2.53106
G1 X102.367 Y101.025 E2.79954
G1 X102.144 Y101.073 E2.80690
G1 X101.399 Y101.073 E2.83095
G1 X96.482 Y105.990 E3.05524
G1 X96.482 Y105.069 E3.08495
G1 X100.629 Y100.921 E3.27414
G1 X100.557 Y100.906 E3.27650
G1 X99.980 Y100.649 E3.29688
G1 X96.482 Y104.147 E3.45646
G1 X96.482 Y103.226 E3.48618
G1 X99.421 Y100.287 E3.62026
G1 X99.176 Y100.108 E3.63005
G1 X98.940 Y99.847 E3.64141
G1 X96.482 Y102.305 E3.75355
G1 X96.482 Y101.384 E3.78326
G1 X98.534 Y99.331 E3.87689
G1 X98.238 Y98.818 E3.89602
G1 X98.211 Y98.733 E3.89887
G1 X96.482 Y100.462 E3.97773
G1 X96.482 Y99.541 E4.00745
G1 X97.988 Y98.035 E4.07616
G1 X97.906 Y97.257 E4.10139
G1 X97.913 Y97.188 E4.10362
G1 X96.482 Y98.620 E4.16893
G1 X96.482 Y97.699 E4.19864
G1 X98.119 Y96.061 E4.27335
G1 X98.238 Y95.696 E4.28571
G1 X98.639 Y95.002 E4.31159
G1 X98.997 Y94.604 E4.32886
G1 X98.858 Y94.449 E4.33559
G1 X98.810 Y94.449 E4.33712
G1 X96.482 Y96.777 E4.44335
G1 X96.482 Y95.856 E4.47306
G1 X97.889 Y94.449 E4.53726
G1 X96.968 Y94.449 E4.56698
G1 X96.482 Y94.935 E4.58915
G1 E2.58915 F2400.00000
G92 E0
G1 X102.817 Y104.261 F7800.000
G1 E2.00000 F2400.00000
G1 F1800.000
G1 X103.518 Y103.559 E2.03199
G1 X103.518 Y102.638 E2.06170
G1 X102.129 Y104.027 E2.12507
G1 X101.658 Y103.927 E2.14061
G1 X101.308 Y103.927 E2.15190
G1 X103.518 Y101.717 E2.25272
G1 X103.518 Y100.796 E2.28244
G1 X100.260 Y104.054 E2.43106
G1 X100.071 Y104.094 E2.43729
G1 X99.338 Y104.420 E2.46317
G1 X98.690 Y104.892 E2.48903
G1 X98.153 Y105.488 E2.51490
G1 X97.752 Y106.182 E2.54078
G1 X97.569 Y106.745 E2.55986
G1 E0.55986 F2400.00000
G92 E0
G1 X99.410 Y94.641 F7800.000
G1 E2.00000 F2400.00000
G1 F1800.000
G1 X99.626 Y94.447 E2.00050
G1 X99.746 Y94.408 E2.00072
G1 Z0.650 F7800.000
G1 E0.00072 F2400.00000
G92 E0
G1 X102.254 Y105.179 F7800.000
G1 E2.00000 F2400.00000
G1 F900.000
G1 X102.720 Y105.387 E2.01376
G1 X103.133 Y105.687 E2.02752
G1 X103.474 Y106.066 E2.04128
G1 X103.729 Y106.507 E2.05505
G1 X103.887 Y106.993 E2.06881
G1 X103.940 Y107.500 E2.08257
G1 X103.887 Y108.007 E2.09633
G1 X103.729 Y108.493 E2.11010
G1 X103.474 Y108.934 E2.12386
G1 X103.133 Y109.313 E2.13762
G1 X102.720 Y109.613 E2.15138
G1 X102.254 Y109.821 E2.16514
G1 X101.755 Y109.927 E2.17891
G1 X101.245 Y109.927 E2.19267
G1 X100.746 Y109.821 E2.20643
G1 X100.280 Y109.613 E2.22019
G1 X99.867 Y109.313 E2.23395
G1 X99.526 Y108.934 E2.24771
G1 X99.271 Y108.493 E2.26148
G1 X99.113 Y108.007 E2.27524
G1 X99.060 Y107.500 E2.28900
G1 X99.113 Y106.993 E2.30276
G1 X99.271 Y106.507 E2.31652
G1 X99.526 Y106.066 E2.33029
G1 X99.867 Y105.687 E2.34405
G1 X100.280 Y105.387 E2.35781
G1 X100.746 Y105.179 E2.37157
G1 X101.245 Y105.073 E2.38534
G1 X101.755 Y105.073 E2.39909
G1 X102.181 Y105.164 E2.41083
G1 X102.080 Y105.715 F7800.000
G1 F900.000
G1 X102.438 Y105.875 E2.41892
G1 X102.756 Y106.105 E2.42700
G1 X103.018 Y106.397 E2.43509
G1 X103.214 Y106.737 E2.44318
G1 X103.336 Y107.110 E2.45126
G1 X103.377 Y107.500 E2.45935
G1 X103.336 Y107.890 E2.46743
G1 X103.214 Y108.263 E2.47552
G1 X103.018 Y108.603 E2.48360
G1 X102.756 Y108.895 E2.49169
G1 X102.438 Y109.125 E2.49977
G1 X102.080 Y109.285 E2.50786
G1 X101.696 Y109.366 E2.51594
G1 X101.304 Y109.366 E2.52403
G1 X100.920 Y109.285 E2.53212
G1 X100.562 Y109.125 E2.54020
G1 X100.244 Y108.895 E2.54829
G1 X99.982 Y108.603 E2.55637
G1 X99.786 Y108.263 E2.56446
G1 X99.664 Y107.890 E2.57254
G1 X99.623 Y107.500 E2.58063
G1 X99.664 Y107.110 E2.58871
G1 X99.786 Y106.737 E2.59680
G1 X99.982 Y106.397 E2.60488
G1 X100.244 Y106.105 E2.61297
G1 X100.562 Y105.875 E2.62105
G1 X100.920 Y105.715 E2.62914
G1 X101.304 Y105.634 E2.63723
G1 X101.696 Y105.634 E2.64531
G1 X102.007 Y105.700 E2.65185
G1 X102.080 Y105.715 F7800.000
G1 X101.755 Y99.927 F7800.000
G1 F900.000
G1 X101.245 Y99.927 E2.66561
G1 X100.746 Y99.821 E2.67937
G1 X100.280 Y99.613 E2.69314
G1 X99.867 Y99.313 E2.70690
G1 X99.526 Y98.934 E2.72066
G1 X99.271 Y98.493 E2.73442
G1 X99.113 Y98.007 E2.74818
G1 X99.060 Y97.500 E2.76195
G1 X99.113 Y96.993 E2.77571
G1 X99.271 Y96.507 E2.78947
G1 X99.526 Y96.066 E2.80323
G1 X99.867 Y95.687 E2.81699
G1 X100.280 Y95.387 E2.83075
G1 X100.746 Y95.179 E2.84452
G1 X101.245 Y95.073 E2.85828
G1 X101.755 Y95.073 E2.87204
G1 X102.254 Y95.179 E2.88580
G1 X102.720 Y95.387 E2.89956
G1 X103.133 Y95.687 E2.91333
G1 X103.474 Y96.066 E2.92709
G1 X103.729 Y96.507 E2.94085
G1 X103.887 Y96.993 E2.95461
G1 X103.940 Y97.500 E2.96837
G1 X103.887 Y98.007 E2.98214
G1 X103.729 Y98.493 E2.99590
G1 X103.474 Y98.934 E3.00966
G1 X103.133 Y99.313 E3.02342
G1 X102.720 Y99.613 E3.03718
G1 X102.254 Y99.821 E3.05095
G1 X101.828 Y99.911 E3.06269
G1 X101.696 Y99.366 F7800.000
G1 F900.000
G1 X101.304 Y99.366 E3.07077
G1 X100.920 Y99.285 E3.07886
G1 X100.562 Y99.125 E3.08694
G1 X100.244 Y98.895 E3.09503
G1 X99.982 Y98.603 E3.10311
G1 X99.786 Y98.263 E3.11120
G1 X99.664 Y97.890 E3.11928
G1 X99.623 Y97.500 E3.12737
G1 X99.664 Y97.110 E3.13545
G1 X99.786 Y96.737 E3.14354
G1 X99.982 Y96.397 E3.15162
G1 X100.244 Y96.105 E3.15971
G1 X100.562 Y95.875 E3.16780
G1 X100.920 Y95.715 E3.17588
G1 X101.304 Y95.634 E3.18397
G1 X101.696 Y95.634 E3.19205
G1 X102.080 Y95.715 E3.20014
G1 X102.438 Y95.875 E3.20822
G1 X102.756 Y96.105 E3.21631
G1 X103.018 Y96.397 E3.22439
G1 X103.214 Y96.737 E3.23248
G1 X103.336 Y97.110 E3.24056
G1 X103.377 Y97.500 E3.24865
G1 X103.336 Y97.890 E3.25673
G1 X103.214 Y98.263 E3.26482
G1 X103.018 Y98.603 E3.27291
G1 X102.756 Y98.895 E3.28099
G1 X102.438 Y99.125 E3.28908
G1 X102.080 Y99.285 E3.29716
G1 X101.770 Y99.351 E3.30370
G1 X101.696 Y99.366 F7800.000
G1 X104.029 Y99.268 F7800.000
G1 F3600.000
G1 X104.029 Y105.732 E3.47806
G1 X103.560 Y105.212 E3.49694
G1 X103.040 Y104.833 E3.51430
G1 X102.452 Y104.571 E3.53167
G1 X101.822 Y104.438 E3.54904
G1 X101.178 Y104.438 E3.56640
G1 X100.548 Y104.571 E3.58377
G1 X99.960 Y104.833 E3.60114
G1 X99.440 Y105.212 E3.61850
G1 X99.009 Y105.690 E3.63586
G1 X98.687 Y106.248 E3.65323
G1 X98.488 Y106.860 E3.67060
G1 X98.421 Y107.500 E3.68796
G1 X98.488 Y108.140 E3.70533
G1 X98.687 Y108.752 E3.72270
G1 X99.009 Y109.310 E3.74007
G1 X99.440 Y109.788 E3.75743
G1 X99.960 Y110.167 E3.77479
G1 X100.548 Y110.429 E3.79216
G1 X101.178 Y110.562 E3.80953
G1 X101.822 Y110.562 E3.82689
G1 X102.452 Y110.429 E3.84426
G1 X103.040 Y110.167 E3.86163
G1 X103.560 Y109.788 E3.87899
G1 X104.029 Y109.268 E3.89787
G1 X104.029 Y111.029 E3.94536
G1 X95.971 Y111.029 E4.16272
G1 X95.971 Y93.877 E4.62541
G1 X100.276 Y93.877 E4.74155
G1 X100.295 Y93.971 E4.74414
G1 X104.029 Y93.971 E4.84485
G1 X104.029 Y95.732 E4.89234
G1 X103.560 Y95.212 E4.91122
G1 X103.040 Y94.833 E4.92859
G1 X102.452 Y94.571 E4.94596
G1 X101.822 Y94.438 E4.96332
G1 X101.178 Y94.438 E4.98069
G1 X100.548 Y94.571 E4.99806
G1 X99.960 Y94.833 E5.01542
G1 X99.440 Y95.212 E5.03279
G1 X99.009 Y95.690 E5.05015
G1 X98.687 Y96.248 E5.06752
G1 X98.488 Y96.860 E5.08489
G1 X98.421 Y97.500 E5.10225
G1 X98.488 Y98.140 E5.11962
G1 X98.687 Y98.752 E5.13699
G1 X99.009 Y99.310 E5.15435
G1 X99.440 Y99.788 E5.17172
G1 X99.960 Y100.167 E5.18909
G1 X100.548 Y100.429 E5.20645
G1 X101.178 Y100.562 E5.22382
G1 X101.822 Y100.562 E5.24118
G1 X102.452 Y100.429 E5.25855
G1 X103.040 Y100.167 E5.27592
G1 X103.560 Y99.788 E5.29328
G1 X103.979 Y99.324 E5.31014
G1 X104.664 Y93.336 F7800.000
G1 F3600.000
G1 X104.664 Y111.664 E5.80459
G1 X95.336 Y111.664 E6.05624
