; generated by Slic3r 1.3.1-dev (Build adea0d9) on 2019-12-16 at 00:49:58

; external perimeters extrusion width = 0.44mm (2.86mm^3/s)
; perimeters extrusion width = 0.56mm (4.14mm^3/s)
; infill extrusion width = 0.50mm (3.66mm^3/s)
; solid infill extrusion width = 0.56mm (3.10mm^3/s)
; top infill extrusion width = 0.56mm (3.10mm^3/s)

M107
G92 E0
;D3D:START:START
T0
M104 S215 T0

G21
G90
M107
T0
G28
G29
M109 T0 S215 T0
G0 F3000
M107
T0
G92 E0
G0 X0 Y149 Z0.1 F3600
G1 Y49 E6.5 F1200
G0 Z1
G92 E0
; Filament gcode

G21 ; set units to millimeters
G90 ; use absolute coordinates
M82 ; use absolute distances for extrusion
G92 E0
G1 Z0.300 F7800.000
G1 E-2.00000 F2400.00000
G92 E0
G1 X65.696 Y43.404 F7800.000
G1 E2.00000 F2400.00000
G1 F1800.000
G1 X84.304 Y43.404 E2.61646
G1 X84.304 Y106.596 E4.70999
G1 X65.696 Y106.596 E5.32645
G1 X65.696 Y43.464 E7.41799
G1 X65.431 Y43.138 F7800.000
G1 F1800.000
G1 X84.569 Y43.138 E8.05205
G1 X84.569 Y106.862 E10.16318
G1 X65.431 Y106.862 E10.79724
G1 X65.431 Y43.198 E12.90638
G1 X65.165 Y42.873 F7800.000
G1 F1800.000
G1 X84.835 Y42.873 E13.55804
G1 X84.835 Y107.127 E15.68677
G1 X65.165 Y107.127 E16.33843
G1 X65.165 Y42.933 E18.46517
G1 X66.066 Y43.566 F7800.000
G1 F1800.000
G1 X65.859 Y43.773 E18.47491
G1 X65.859 Y44.150 E18.48746
G1 X66.443 Y43.566 E18.51496
G1 X66.820 Y43.566 E18.52751
G1 X65.859 Y44.528 E18.57276
G1 X65.859 Y44.905 E18.58531
G1 X67.197 Y43.566 E18.64831
G1 X67.575 Y43.566 E18.66086
G1 X65.859 Y45.282 E18.74161
G1 X65.859 Y45.659 E18.75417
G1 X67.952 Y43.566 E18.85267
G1 X68.329 Y43.566 E18.86522
G1 X65.859 Y46.037 E18.98148
G1 X65.859 Y46.414 E18.99403
G1 X68.706 Y43.566 E19.12805
G1 X69.084 Y43.566 E19.14060
G1 X65.859 Y46.791 E19.29236
G1 X65.859 Y47.169 E19.30492
G1 X69.461 Y43.566 E19.47443
G1 X69.838 Y43.566 E19.48699
G1 X65.859 Y47.546 E19.67426
G1 X65.859 Y47.923 E19.68681
G1 X70.216 Y43.566 E19.89183
G1 X70.593 Y43.566 E19.90439
G1 X65.859 Y48.300 E20.12716
G1 X65.859 Y48.678 E20.13971
G1 X70.970 Y43.566 E20.38024
G1 X71.347 Y43.566 E20.39280
G1 X65.859 Y49.055 E20.65108
G1 X65.859 Y49.432 E20.66363
G1 X71.725 Y43.566 E20.93967
G1 X72.102 Y43.566 E20.95222
G1 X65.859 Y49.810 E21.24601
G1 X65.859 Y50.187 E21.25856
G1 X72.479 Y43.566 E21.57010
G1 X72.856 Y43.566 E21.58266
G1 X65.859 Y50.564 E21.91195
G1 X65.859 Y50.941 E21.92450
G1 X73.234 Y43.566 E22.27155
G1 X73.611 Y43.566 E22.28410
G1 X65.859 Y51.319 E22.64890
G1 X65.859 Y51.696 E22.66146
G1 X73.988 Y43.566 E23.04401
G1 X74.366 Y43.566 E23.05656
G1 X65.859 Y52.073 E23.45687
G1 X65.859 Y52.450 E23.46942
G1 X74.743 Y43.566 E23.88748
G1 X75.120 Y43.566 E23.90003
G1 X65.859 Y52.828 E24.33585
G1 X65.859 Y53.205 E24.34840
G1 X75.497 Y43.566 E24.80197
G1 X75.875 Y43.566 E24.81452
G1 X65.859 Y53.582 E25.28584
G1 X65.859 Y53.960 E25.29839
G1 X76.252 Y43.566 E25.78746
G1 X76.629 Y43.566 E25.80001
G1 X65.859 Y54.337 E26.30684
G1 X65.859 Y54.714 E26.31939
G1 X77.007 Y43.566 E26.84397
G1 X77.384 Y43.566 E26.85652
G1 X65.859 Y55.091 E27.39885
G1 X65.859 Y55.469 E27.41141
G1 X77.761 Y43.566 E27.97149
G1 X78.138 Y43.566 E27.98404
G1 X65.859 Y55.846 E28.56188
G1 X65.859 Y56.223 E28.57443
G1 X78.516 Y43.566 E29.17002
G1 X78.893 Y43.566 E29.18257
G1 X65.859 Y56.600 E29.79592
G1 X65.859 Y56.978 E29.80847
G1 X79.270 Y43.566 E30.43957
G1 X79.647 Y43.566 E30.45212
G1 X65.859 Y57.355 E31.10097
G1 X65.859 Y57.732 E31.11352
G1 X80.025 Y43.566 E31.78012
G1 X80.402 Y43.566 E31.79268
G1 X65.859 Y58.110 E32.47703
G1 X65.859 Y58.487 E32.48958
G1 X80.779 Y43.566 E33.19169
G1 X81.157 Y43.566 E33.20424
G1 X65.859 Y58.864 E33.92410
G1 X65.859 Y59.241 E33.93666
G1 X81.534 Y43.566 E34.67427
G1 X81.911 Y43.566 E34.68682
G1 X65.859 Y59.619 E35.44219
G1 X65.859 Y59.996 E35.45474
G1 X82.288 Y43.566 E36.22786
G1 X82.666 Y43.566 E36.24042
G1 X65.859 Y60.373 E37.03129
G1 X65.859 Y60.751 E37.04384
G1 X83.043 Y43.566 E37.85247
G1 X83.420 Y43.566 E37.86502
G1 X65.859 Y61.128 E38.69140
G1 X65.859 Y61.505 E38.70395
G1 X83.797 Y43.566 E39.54808
G1 X84.141 Y43.566 E39.55953
G1 X84.141 Y43.599 E39.56064
G1 X65.859 Y61.882 E40.42096
G1 X65.859 Y62.260 E40.43351
G1 X84.141 Y43.977 E41.29383
G1 X84.141 Y44.354 E41.30638
G1 X65.859 Y62.637 E42.16670
G1 X65.859 Y63.014 E42.17926
G1 X84.141 Y44.731 E43.03957
G1 X84.141 Y45.109 E43.05213
G1 X65.859 Y63.391 E43.91245
G1 X65.859 Y63.769 E43.92500
G1 X84.141 Y45.486 E44.78532
G1 X84.141 Y45.863 E44.79787
G1 X65.859 Y64.146 E45.65819
G1 X65.859 Y64.523 E45.67074
G1 X84.141 Y46.240 E46.53106
G1 X84.141 Y46.618 E46.54362
G1 X65.859 Y64.901 E47.40394
G1 X65.859 Y65.278 E47.41649
G1 X84.141 Y46.995 E48.27681
G1 X84.141 Y47.372 E48.28936
G1 X65.859 Y65.655 E49.14968
G1 X65.859 Y66.032 E49.16223
G1 X84.141 Y47.749 E50.02255
G1 X84.141 Y48.127 E50.03511
G1 X65.859 Y66.410 E50.89542
G1 X65.859 Y66.787 E50.90798
G1 X84.141 Y48.504 E51.76830
G1 X84.141 Y48.881 E51.78085
G1 X65.859 Y67.164 E52.64117
G1 X65.859 Y67.541 E52.65372
G1 X84.141 Y49.259 E53.51404
G1 X84.141 Y49.636 E53.52659
G1 X65.859 Y67.919 E54.38691
G1 X65.859 Y68.296 E54.39947
G1 X84.141 Y50.013 E55.25979
G1 X84.141 Y50.390 E55.27234
G1 X65.859 Y68.673 E56.13266
G1 X65.859 Y69.051 E56.14521
G1 X84.141 Y50.768 E57.00553
G1 X84.141 Y51.145 E57.01808
G1 X65.859 Y69.428 E57.87840
G1 X65.859 Y69.805 E57.89096
G1 X84.141 Y51.522 E58.75127
G1 X84.141 Y51.899 E58.76383
G1 X65.859 Y70.182 E59.62415
G1 X65.859 Y70.560 E59.63670
G1 X84.141 Y52.277 E60.49702
G1 X84.141 Y52.654 E60.50957
G1 X65.859 Y70.937 E61.36989
G1 X65.859 Y71.314 E61.38244
G1 X84.141 Y53.031 E62.24276
G1 X84.141 Y53.409 E62.25532
G1 X65.859 Y71.691 E63.11564
G1 X65.859 Y72.069 E63.12819
G1 X84.141 Y53.786 E63.98851
G1 X84.141 Y54.163 E64.00106
G1 X65.859 Y72.446 E64.86138
G1 X65.859 Y72.823 E64.87393
G1 X84.141 Y54.540 E65.73425
G1 X84.141 Y54.918 E65.74681
G1 X65.859 Y73.201 E66.60713
G1 X65.859 Y73.578 E66.61968
G1 X84.141 Y55.295 E67.48000
G1 X84.141 Y55.672 E67.49255
G1 X65.859 Y73.955 E68.35287
G1 X65.859 Y74.332 E68.36542
G1 X84.141 Y56.049 E69.22574
G1 X84.141 Y56.427 E69.23830
G1 X65.859 Y74.710 E70.09861
G1 X65.859 Y75.087 E70.11117
G1 X84.141 Y56.804 E70.97149
G1 X84.141 Y57.181 E70.98404
G1 X65.859 Y75.464 E71.84436
G1 X65.859 Y75.842 E71.85691
G1 X84.141 Y57.559 E72.71723
G1 X84.141 Y57.936 E72.72978
G1 X65.859 Y76.219 E73.59010
G1 X65.859 Y76.596 E73.60266
G1 X84.141 Y58.313 E74.46298
G1 X84.141 Y58.690 E74.47553
G1 X65.859 Y76.973 E75.33585
G1 X65.859 Y77.351 E75.34840
G1 X84.141 Y59.068 E76.20872
G1 X84.141 Y59.445 E76.22127
G1 X65.859 Y77.728 E77.08159
G1 X65.859 Y78.105 E77.09415
G1 X84.141 Y59.822 E77.95447
G1 X84.141 Y60.200 E77.96702
G1 X65.859 Y78.482 E78.82734
G1 X65.859 Y78.860 E78.83989
G1 X84.141 Y60.577 E79.70021
G1 X84.141 Y60.954 E79.71276
G1 X65.859 Y79.237 E80.57308
G1 X65.859 Y79.614 E80.58564
G1 X84.141 Y61.331 E81.44595
G1 X84.141 Y61.709 E81.45851
G1 X65.859 Y79.992 E82.31883
G1 X65.859 Y80.369 E82.33138
G1 X84.141 Y62.086 E83.19170
G1 X84.141 Y62.463 E83.20425
G1 X65.859 Y80.746 E84.06457
G1 X65.859 Y81.123 E84.07712
G1 X84.141 Y62.840 E84.93744
G1 X84.141 Y63.218 E84.95000
G1 X65.859 Y81.501 E85.81032
G1 X65.859 Y81.878 E85.82287
G1 X84.141 Y63.595 E86.68319
G1 X84.141 Y63.972 E86.69574
G1 X65.859 Y82.255 E87.55606
G1 X65.859 Y82.632 E87.56861
G1 X84.141 Y64.350 E88.42893
G1 X84.141 Y64.727 E88.44149
G1 X65.859 Y83.010 E89.30181
G1 X65.859 Y83.387 E89.31436
G1 X84.141 Y65.104 E90.17468
G1 X84.141 Y65.481 E90.18723
G1 X65.859 Y83.764 E91.04755
G1 X65.859 Y84.142 E91.06010
G1 X84.141 Y65.859 E91.92042
G1 X84.141 Y66.236 E91.93298
G1 X65.859 Y84.519 E92.79329
G1 X65.859 Y84.896 E92.80585
G1 X84.141 Y66.613 E93.66617
G1 X84.141 Y66.990 E93.67872
G1 X65.859 Y85.273 E94.53904
G1 X65.859 Y85.651 E94.55159
G1 X84.141 Y67.368 E95.41191
G1 X84.141 Y67.745 E95.42446
G1 X65.859 Y86.028 E96.28478
G1 X65.859 Y86.405 E96.29734
G1 X84.141 Y68.122 E97.15766
G1 X84.141 Y68.500 E97.17021
G1 X65.859 Y86.782 E98.03053
G1 X65.859 Y87.160 E98.04308
G1 X84.141 Y68.877 E98.90340
G1 X84.141 Y69.254 E98.91595
G1 X65.859 Y87.537 E99.77627
G1 X65.859 Y87.914 E99.78883
G1 X84.141 Y69.631 E100.64915
G1 X84.141 Y70.009 E100.66170
G1 X65.859 Y88.292 E101.52202
G1 X65.859 Y88.669 E101.53457
G1 X84.141 Y70.386 E102.39489
G1 X84.141 Y70.763 E102.40744
G1 X65.859 Y89.046 E103.26776
G1 X65.859 Y89.423 E103.28032
G1 X84.141 Y71.141 E104.14063
G1 X84.141 Y71.518 E104.15319
G1 X65.859 Y89.801 E105.01351
G1 X65.859 Y90.178 E105.02606
G1 X84.141 Y71.895 E105.88638
G1 X84.141 Y72.272 E105.89893
G1 X65.859 Y90.555 E106.75925
G1 X65.859 Y90.933 E106.77180
G1 X84.141 Y72.650 E107.63212
G1 X84.141 Y73.027 E107.64468
G1 X65.859 Y91.310 E108.50500
G1 X65.859 Y91.687 E108.51755
G1 X84.141 Y73.404 E109.37787
G1 X84.141 Y73.781 E109.39042
G1 X65.859 Y92.064 E110.25074
G1 X65.859 Y92.442 E110.26329
G1 X84.141 Y74.159 E111.12361
G1 X84.141 Y74.536 E111.13617
G1 X65.859 Y92.819 E111.99648
G1 X65.859 Y93.196 E112.00904
G1 X84.141 Y74.913 E112.86936
G1 X84.141 Y75.291 E112.88191
G1 X65.859 Y93.573 E113.74223
G1 X65.859 Y93.951 E113.75478
G1 X84.141 Y75.668 E114.61510
G1 X84.141 Y76.045 E114.62765
G1 X65.859 Y94.328 E115.48797
G1 X65.859 Y94.705 E115.50053
G1 X84.141 Y76.422 E116.36085
G1 X84.141 Y76.800 E116.37340
G1 X65.859 Y95.083 E117.23372
G1 X65.859 Y95.460 E117.24627
G1 X84.141 Y77.177 E118.10659
G1 X84.141 Y77.554 E118.11914
G1 X65.859 Y95.837 E118.97946
G1 X65.859 Y96.214 E118.99202
G1 X84.141 Y77.931 E119.85234
G1 X84.141 Y78.309 E119.86489
G1 X65.859 Y96.592 E120.72521
G1 X65.859 Y96.969 E120.73776
G1 X84.141 Y78.686 E121.59808
G1 X84.141 Y79.063 E121.61063
G1 X65.859 Y97.346 E122.47095
G1 X65.859 Y97.723 E122.48351
G1 X84.141 Y79.441 E123.34382
G1 X84.141 Y79.818 E123.35638
G1 X65.859 Y98.101 E124.21670
G1 X65.859 Y98.478 E124.22925
G1 X84.141 Y80.195 E125.08957
G1 X84.141 Y80.572 E125.10212
G1 X65.859 Y98.855 E125.96244
G1 X65.859 Y99.233 E125.97499
G1 X84.141 Y80.950 E126.83531
G1 X84.141 Y81.327 E126.84787
G1 X65.859 Y99.610 E127.70819
G1 X65.859 Y99.987 E127.72074
G1 X84.141 Y81.704 E128.58106
G1 X84.141 Y82.081 E128.59361
G1 X65.859 Y100.364 E129.45393
G1 X65.859 Y100.742 E129.46648
G1 X84.141 Y82.459 E130.32680
G1 X84.141 Y82.836 E130.33936
G1 X65.859 Y101.119 E131.19967
G1 X65.859 Y101.496 E131.21223
G1 X84.141 Y83.213 E132.07255
G1 X84.141 Y83.591 E132.08510
G1 X65.859 Y101.874 E132.94542
G1 X65.859 Y102.251 E132.95797
G1 X84.141 Y83.968 E133.81829
G1 X84.141 Y84.345 E133.83085
G1 X65.859 Y102.628 E134.69116
G1 X65.859 Y103.005 E134.70372
G1 X84.141 Y84.722 E135.56404
G1 X84.141 Y85.100 E135.57659
G1 X65.859 Y103.383 E136.43691
G1 X65.859 Y103.760 E136.44946
G1 X84.141 Y85.477 E137.30978
G1 X84.141 Y85.854 E137.32233
G1 X65.859 Y104.137 E138.18265
G1 X65.859 Y104.514 E138.19521
G1 X84.141 Y86.232 E139.05553
G1 X84.141 Y86.609 E139.06808
G1 X65.859 Y104.892 E139.92840
G1 X65.859 Y105.269 E139.94095
G1 X84.141 Y86.986 E140.80127
G1 X84.141 Y87.363 E140.81382
G1 X65.859 Y105.646 E141.67414
G1 X65.859 Y106.024 E141.68670
G1 X84.141 Y87.741 E142.54701
G1 X84.141 Y88.118 E142.55957
G1 X65.859 Y106.401 E143.41989
G1 X65.859 Y106.434 E143.42099
G1 X66.203 Y106.434 E143.43244
G1 X84.141 Y88.495 E144.27656
G1 X84.141 Y88.872 E144.28911
G1 X66.580 Y106.434 E145.11548
G1 X66.957 Y106.434 E145.12803
G1 X84.141 Y89.250 E145.93665
G1 X84.141 Y89.627 E145.94920
G1 X67.335 Y106.434 E146.74006
G1 X67.712 Y106.434 E146.75262
G1 X84.141 Y90.004 E147.52573
G1 X84.141 Y90.382 E147.53828
G1 X68.089 Y106.434 E148.29363
G1 X68.466 Y106.434 E148.30619
G1 X84.141 Y90.759 E149.04379
G1 X84.141 Y91.136 E149.05634
G1 X68.844 Y106.434 E149.77619
G1 X69.221 Y106.434 E149.78875
G1 X84.141 Y91.513 E150.49084
G1 X84.141 Y91.891 E150.50340
G1 X69.598 Y106.434 E151.18774
G1 X69.976 Y106.434 E151.20029
G1 X84.141 Y92.268 E151.86688
G1 X84.141 Y92.645 E151.87944
G1 X70.353 Y106.434 E152.52827
G1 X70.730 Y106.434 E152.54083
G1 X84.141 Y93.022 E153.17191
G1 X84.141 Y93.400 E153.18446
G1 X71.107 Y106.434 E153.79779
G1 X71.485 Y106.434 E153.81035
G1 X84.141 Y93.777 E154.40593
G1 X84.141 Y94.154 E154.41848
G1 X71.862 Y106.434 E154.99630
G1 X72.239 Y106.434 E155.00886
G1 X84.141 Y94.532 E155.56893
G1 X84.141 Y94.909 E155.58148
G1 X72.616 Y106.434 E156.12380
G1 X72.994 Y106.434 E156.13636
G1 X84.141 Y95.286 E156.66092
G1 X84.141 Y95.663 E156.67348
G1 X73.371 Y106.434 E157.18029
G1 X73.748 Y106.434 E157.19284
G1 X84.141 Y96.041 E157.68190
G1 X84.141 Y96.418 E157.69446
G1 X74.126 Y106.434 E158.16576
G1 X74.503 Y106.434 E158.17832
G1 X84.141 Y96.795 E158.63187
G1 X84.141 Y97.173 E158.64442
G1 X74.880 Y106.434 E159.08022
G1 X75.257 Y106.434 E159.09278
G1 X84.141 Y97.550 E159.51083
G1 X84.141 Y97.927 E159.52338
G1 X75.635 Y106.434 E159.92367
G1 X76.012 Y106.434 E159.93623
G1 X84.141 Y98.304 E160.31877
G1 X84.141 Y98.682 E160.33132
G1 X76.389 Y106.434 E160.69611
G1 X76.766 Y106.434 E160.70866
G1 X84.141 Y99.059 E161.05570
G1 X84.141 Y99.436 E161.06825
G1 X77.144 Y106.434 E161.39754
G1 X77.521 Y106.434 E161.41009
G1 X84.141 Y99.813 E161.72162
G1 X84.141 Y100.191 E161.73417
G1 X77.898 Y106.434 E162.02795
G1 X78.276 Y106.434 E162.04050
G1 X84.141 Y100.568 E162.31653
G1 X84.141 Y100.945 E162.32908
G1 X78.653 Y106.434 E162.58735
G1 X79.030 Y106.434 E162.59990
G1 X84.141 Y101.323 E162.84042
G1 X84.141 Y101.700 E162.85298
G1 X79.407 Y106.434 E163.07574
G1 X79.785 Y106.434 E163.08829
G1 X84.141 Y102.077 E163.29331
G1 X84.141 Y102.454 E163.30586
G1 X80.162 Y106.434 E163.49312
G1 X80.539 Y106.434 E163.50567
G1 X84.141 Y102.832 E163.67518
G1 X84.141 Y103.209 E163.68773
G1 X80.917 Y106.434 E163.83948
G1 X81.294 Y106.434 E163.85204
G1 X84.141 Y103.586 E163.98604
G1 X84.141 Y103.963 E163.99859
G1 X81.671 Y106.434 E164.11484
G1 X82.048 Y106.434 E164.12739
G1 X84.141 Y104.341 E164.22588
G1 X84.141 Y104.718 E164.23844
G1 X82.426 Y106.434 E164.31918
G1 X82.803 Y106.434 E164.33173
G1 X84.141 Y105.095 E164.39472
G1 X84.141 Y105.473 E164.40727
G1 X83.180 Y106.434 E164.45250
G1 X83.557 Y106.434 E164.46506
G1 X84.141 Y105.850 E164.49254
G1 X84.141 Y106.227 E164.50509
G1 X83.935 Y106.434 E164.51482
M106 S255
G1 Z0.500 F7800.000
G1 E162.51482 F2400.00000
G92 E0
G1 X65.677 Y43.240 F7800.000
G1 E2.00000 F2400.00000
G1 F2400.000
G1 X84.323 Y43.240 E2.80168
G1 X84.323 Y106.760 E5.53272
G1 X65.677 Y106.760 E6.33440
G1 X65.677 Y43.300 E9.06286
G1 X65.220 Y42.783 F7800.000
G1 F2160.000
G1 X84.780 Y42.783 E9.70868
G1 X84.780 Y107.217 E11.83610
G1 X65.220 Y107.217 E12.48192
G1 X65.220 Y42.843 E14.60735
G1 E12.60735 F2400.00000
G92 E0
G1 X84.007 Y43.959 F7800.000
G1 E2.00000 F2400.00000
G1 F1800.000
G1 X83.605 Y43.556 E2.02458
G1 X82.870 Y43.556 E2.05633
G1 X84.007 Y44.693 E2.12581
G1 X84.007 Y45.428 E2.15756
G1 X82.135 Y43.556 E2.27194
G1 X81.400 Y43.556 E2.30369
G1 X84.007 Y46.163 E2.46297
G1 X84.007 Y46.898 E2.49472
G1 X80.665 Y43.556 E2.69890
G1 X79.930 Y43.556 E2.73065
G1 X84.007 Y47.633 E2.97973
G1 X84.007 Y48.368 E3.01148
G1 X79.196 Y43.556 E3.30546
G1 X78.461 Y43.556 E3.33721
G1 X84.007 Y49.102 E3.67608
G1 X84.007 Y49.837 E3.70783
G1 X77.726 Y43.556 E4.09161
G1 X76.991 Y43.556 E4.12336
G1 X84.007 Y50.572 E4.55203
G1 X84.007 Y51.307 E4.58378
G1 X76.256 Y43.556 E5.05736
G1 X75.521 Y43.556 E5.08911
G1 X84.007 Y52.042 E5.60758
G1 X84.007 Y52.777 E5.63933
G1 X74.787 Y43.556 E6.20270
G1 X74.052 Y43.556 E6.23445
G1 X84.007 Y53.511 E6.84273
G1 X84.007 Y54.246 E6.87447
G1 X73.317 Y43.556 E7.52765
G1 X72.582 Y43.556 E7.55940
G1 X84.007 Y54.981 E8.25747
G1 X84.007 Y55.716 E8.28922
G1 X71.847 Y43.556 E9.03219
G1 X71.112 Y43.556 E9.06394
G1 X84.007 Y56.451 E9.85181
G1 X84.007 Y57.186 E9.88355
G1 X70.378 Y43.556 E10.71632
G1 X69.643 Y43.556 E10.74807
G1 X84.007 Y57.920 E11.62574
G1 X84.007 Y58.655 E11.65749
G1 X68.908 Y43.556 E12.58006
G1 X68.173 Y43.556 E12.61181
G1 X84.007 Y59.390 E13.57927
G1 X84.007 Y60.125 E13.61102
G1 X67.438 Y43.556 E14.62339
G1 X66.704 Y43.556 E14.65514
G1 X84.007 Y60.860 E15.71240
G1 X84.007 Y61.595 E15.74415
G1 X65.993 Y43.581 E16.84483
G1 X65.993 Y44.315 E16.87658
G1 X84.007 Y62.329 E17.97725
G1 X84.007 Y63.064 E18.00900
