; generated by Slic3r 1.3.1-dev (Build adea0d9) on 2019-12-16 at 00:49:54

; external perimeters extrusion width = 0.44mm (2.86mm^3/s)
; perimeters extrusion width = 0.56mm (4.14mm^3/s)
; infill extrusion width = 0.50mm (3.66mm^3/s)
; solid infill extrusion width = 0.56mm (3.10mm^3/s)
; top infill extrusion width = 0.56mm (3.10mm^3/s)

M107
G92 E0
;D3D:START:START
T0
M104 S215 T0

G21
G90
M107
T0
G28
G29
M109 T0 S215 T0
G0 F3000
M107
T0
G92 E0
G0 X0 Y149 Z0.1 F3600
G1 Y49 E6.5 F1200
G0 Z1
G92 E0
; Filament gcode

G21 ; set units to millimeters
G90 ; use absolute coordinates
M82 ; use absolute distances for extrusion
G92 E0
G1 Z0.300 F7800.000
G1 E-2.00000 F2400.00000
G92 E0
G1 X72.924 Y73.051 F7800.000
G1 E2.00000 F2400.00000
G1 F1553.584
G1 X73.185 Y72.806 E2.01185
G1 X73.474 Y72.596 E2.02369
G1 X73.788 Y72.423 E2.03554
G1 X74.120 Y72.292 E2.04739
G1 X74.466 Y72.203 E2.05924
G1 X74.821 Y72.158 E2.07108
G1 X75.179 Y72.158 E2.08293
G1 X75.534 Y72.203 E2.09478
G1 X75.880 Y72.292 E2.10663
G1 X76.212 Y72.423 E2.11847
G1 X76.526 Y72.596 E2.13032
G1 X76.815 Y72.806 E2.14217
G1 X77.076 Y73.051 E2.15401
G1 X77.304 Y73.326 E2.16586
G1 X77.495 Y73.628 E2.17771
G1 X77.648 Y73.952 E2.18956
G1 X77.758 Y74.292 E2.20140
G1 X77.825 Y74.643 E2.21325
G1 X77.848 Y75.000 E2.22510
G1 X77.825 Y75.357 E2.23695
G1 X77.758 Y75.708 E2.24879
G1 X77.648 Y76.048 E2.26064
G1 X77.495 Y76.372 E2.27249
G1 X77.304 Y76.674 E2.28434
G1 X77.076 Y76.949 E2.29618
G1 X76.815 Y77.194 E2.30803
G1 X76.526 Y77.404 E2.31988
G1 X76.212 Y77.577 E2.33172
G1 X75.880 Y77.708 E2.34357
G1 X75.534 Y77.797 E2.35542
G1 X75.179 Y77.842 E2.36727
G1 X74.821 Y77.842 E2.37911
G1 X74.466 Y77.797 E2.39096
G1 X74.120 Y77.708 E2.40281
G1 X73.788 Y77.577 E2.41466
G1 X73.474 Y77.404 E2.42650
G1 X73.185 Y77.194 E2.43835
G1 X72.924 Y76.949 E2.45020
G1 X72.696 Y76.674 E2.46205
G1 X72.505 Y76.372 E2.47389
G1 X72.352 Y76.048 E2.48574
G1 X72.242 Y75.708 E2.49759
G1 X72.175 Y75.357 E2.50943
G1 X72.152 Y75.000 E2.52128
G1 X72.175 Y74.643 E2.53313
G1 X72.242 Y74.292 E2.54498
G1 X72.352 Y73.952 E2.55682
G1 X72.505 Y73.628 E2.56867
G1 X72.696 Y73.326 E2.58052
G1 X72.886 Y73.097 E2.59038
G1 X73.118 Y73.233 F7800.000
G1 F1553.584
G1 X73.355 Y73.011 E2.60112
G1 X73.617 Y72.820 E2.61186
G1 X73.901 Y72.664 E2.62260
G1 X74.202 Y72.545 E2.63334
G1 X74.516 Y72.464 E2.64408
G1 X74.838 Y72.424 E2.65482
G1 X75.162 Y72.424 E2.66556
G1 X75.484 Y72.464 E2.67630
G1 X75.798 Y72.545 E2.68704
G1 X76.099 Y72.664 E2.69778
G1 X76.383 Y72.820 E2.70852
G1 X76.645 Y73.011 E2.71926
G1 X76.882 Y73.233 E2.73000
G1 X77.088 Y73.483 E2.74074
G1 X77.262 Y73.756 E2.75148
G1 X77.400 Y74.050 E2.76222
G1 X77.500 Y74.358 E2.77296
G1 X77.561 Y74.676 E2.78370
G1 X77.581 Y75.000 E2.79444
G1 X77.561 Y75.324 E2.80518
G1 X77.500 Y75.642 E2.81592
G1 X77.400 Y75.950 E2.82666
G1 X77.262 Y76.244 E2.83740
G1 X77.088 Y76.517 E2.84814
G1 X76.882 Y76.767 E2.85888
G1 X76.645 Y76.989 E2.86962
G1 X76.383 Y77.180 E2.88036
G1 X76.099 Y77.336 E2.89110
G1 X75.798 Y77.455 E2.90184
G1 X75.484 Y77.536 E2.91258
G1 X75.162 Y77.576 E2.92332
G1 X74.838 Y77.576 E2.93406
G1 X74.516 Y77.536 E2.94480
G1 X74.202 Y77.455 E2.95554
G1 X73.901 Y77.336 E2.96628
G1 X73.617 Y77.180 E2.97702
G1 X73.355 Y76.989 E2.98776
G1 X73.118 Y76.767 E2.99850
G1 X72.912 Y76.517 E3.00924
G1 X72.738 Y76.244 E3.01998
G1 X72.600 Y75.950 E3.03072
G1 X72.500 Y75.642 E3.04146
G1 X72.439 Y75.324 E3.05220
G1 X72.419 Y75.000 E3.06294
G1 X72.439 Y74.676 E3.07368
G1 X72.500 Y74.358 E3.08442
G1 X72.600 Y74.050 E3.09516
G1 X72.738 Y73.756 E3.10590
G1 X72.912 Y73.483 E3.11664
G1 X73.080 Y73.279 E3.12539
G1 X73.312 Y73.415 F7800.000
G1 F1800.000
G1 X73.524 Y73.216 E3.13503
G1 X73.759 Y73.045 E3.14466
G1 X74.014 Y72.905 E3.15429
G1 X74.285 Y72.798 E3.16392
G1 X74.566 Y72.726 E3.17356
G1 X74.855 Y72.689 E3.18319
G1 X75.145 Y72.689 E3.19282
G1 X75.434 Y72.726 E3.20246
G1 X75.715 Y72.798 E3.21209
G1 X75.986 Y72.905 E3.22172
G1 X76.241 Y73.045 E3.23135
G1 X76.476 Y73.216 E3.24099
G1 X76.688 Y73.415 E3.25062
G1 X76.873 Y73.639 E3.26025
G1 X77.029 Y73.885 E3.26989
G1 X77.153 Y74.148 E3.27952
G1 X77.243 Y74.424 E3.28915
G1 X77.297 Y74.710 E3.29878
G1 X77.315 Y75.000 E3.30842
G1 X77.297 Y75.290 E3.31805
G1 X77.243 Y75.576 E3.32768
G1 X77.153 Y75.852 E3.33731
G1 X77.029 Y76.115 E3.34695
G1 X76.873 Y76.361 E3.35658
G1 X76.688 Y76.585 E3.36621
G1 X76.476 Y76.784 E3.37585
G1 X76.241 Y76.955 E3.38548
G1 X75.986 Y77.095 E3.39511
G1 X75.715 Y77.202 E3.40474
G1 X75.434 Y77.274 E3.41438
G1 X75.145 Y77.311 E3.42401
G1 X74.855 Y77.311 E3.43364
G1 X74.566 Y77.274 E3.44328
G1 X74.285 Y77.202 E3.45291
G1 X74.014 Y77.095 E3.46254
G1 X73.759 Y76.955 E3.47217
G1 X73.524 Y76.784 E3.48181
G1 X73.312 Y76.585 E3.49144
G1 X73.127 Y76.361 E3.50107
G1 X72.971 Y76.115 E3.51070
G1 X72.847 Y75.852 E3.52034
G1 X72.757 Y75.576 E3.52997
G1 X72.703 Y75.290 E3.53960
G1 X72.685 Y75.000 E3.54924
G1 X72.703 Y74.710 E3.55887
G1 X72.757 Y74.424 E3.56850
G1 X72.847 Y74.148 E3.57813
G1 X72.971 Y73.885 E3.58777
G1 X73.127 Y73.639 E3.59740
G1 X73.274 Y73.461 E3.60504
G1 X72.593 Y72.739 F7800.000
G1 F1553.584
G1 X72.895 Y72.455 E3.61878
G1 X73.230 Y72.212 E3.63252
G1 X73.594 Y72.012 E3.64626
G1 X73.980 Y71.859 E3.66000
G1 X74.381 Y71.756 E3.67374
G1 X74.793 Y71.704 E3.68748
G1 X75.207 Y71.704 E3.70122
G1 X75.619 Y71.756 E3.71496
G1 X76.020 Y71.859 E3.72870
G1 X76.406 Y72.012 E3.74244
G1 X76.770 Y72.212 E3.75618
G1 X77.105 Y72.455 E3.76992
G1 X77.407 Y72.739 E3.78366
G1 X77.672 Y73.059 E3.79740
G1 X77.894 Y73.409 E3.81114
G1 X78.070 Y73.784 E3.82487
G1 X78.199 Y74.179 E3.83861
G1 X78.276 Y74.586 E3.85235
G1 X78.302 Y75.000 E3.86609
G1 X78.276 Y75.414 E3.87983
G1 X78.199 Y75.821 E3.89357
G1 X78.070 Y76.216 E3.90731
G1 X77.894 Y76.591 E3.92105
G1 X77.672 Y76.941 E3.93479
G1 X77.407 Y77.261 E3.94853
G1 X77.105 Y77.545 E3.96227
G1 X76.770 Y77.788 E3.97601
G1 X76.406 Y77.988 E3.98975
G1 X76.020 Y78.141 E4.00349
G1 X75.619 Y78.244 E4.01723
G1 X75.207 Y78.296 E4.03097
G1 X74.793 Y78.296 E4.04470
G1 X74.381 Y78.244 E4.05844
G1 X73.980 Y78.141 E4.07218
G1 X73.594 Y77.988 E4.08592
G1 X73.230 Y77.788 E4.09966
G1 X72.895 Y77.545 E4.11340
G1 X72.593 Y77.261 E4.12714
G1 X72.328 Y76.941 E4.14088
G1 X72.106 Y76.591 E4.15462
G1 X71.930 Y76.216 E4.16836
G1 X71.801 Y75.821 E4.18210
G1 X71.724 Y75.414 E4.19584
G1 X71.698 Y75.000 E4.20958
G1 X71.724 Y74.586 E4.22332
G1 X71.801 Y74.179 E4.23706
G1 X71.930 Y73.784 E4.25080
G1 X72.106 Y73.409 E4.26453
G1 X72.328 Y73.059 E4.27827
G1 X72.554 Y72.786 E4.29003
G1 X72.399 Y72.557 F7800.000
G1 F1553.584
G1 X72.725 Y72.250 E4.30487
G1 X73.088 Y71.987 E4.31972
G1 X73.481 Y71.771 E4.33457
G1 X73.897 Y71.606 E4.34941
G1 X74.331 Y71.495 E4.36426
G1 X74.776 Y71.439 E4.37911
G1 X75.224 Y71.439 E4.39395
G1 X75.669 Y71.495 E4.40880
G1 X76.103 Y71.606 E4.42365
G1 X76.519 Y71.771 E4.43849
G1 X76.912 Y71.987 E4.45334
G1 X77.275 Y72.250 E4.46819
G1 X77.601 Y72.557 E4.48303
G1 X77.887 Y72.902 E4.49788
G1 X78.127 Y73.281 E4.51273
G1 X78.318 Y73.686 E4.52757
G1 X78.456 Y74.113 E4.54242
G1 X78.540 Y74.553 E4.55727
G1 X78.569 Y75.000 E4.57211
G1 X78.540 Y75.447 E4.58696
G1 X78.456 Y75.887 E4.60181
G1 X78.318 Y76.314 E4.61665
G1 X78.127 Y76.719 E4.63150
G1 X77.887 Y77.098 E4.64635
G1 X77.601 Y77.443 E4.66119
G1 X77.275 Y77.750 E4.67604
G1 X76.912 Y78.013 E4.69089
G1 X76.519 Y78.229 E4.70573
G1 X76.103 Y78.394 E4.72058
G1 X75.669 Y78.505 E4.73543
G1 X75.224 Y78.561 E4.75027
G1 X74.776 Y78.561 E4.76512
G1 X74.331 Y78.505 E4.77997
G1 X73.897 Y78.394 E4.79481
G1 X73.481 Y78.229 E4.80966
G1 X73.088 Y78.013 E4.82451
G1 X72.725 Y77.750 E4.83935
G1 X72.399 Y77.443 E4.85420
G1 X72.113 Y77.098 E4.86905
G1 X71.873 Y76.719 E4.88389
G1 X71.682 Y76.314 E4.89874
G1 X71.544 Y75.887 E4.91359
G1 X71.460 Y75.447 E4.92843
G1 X71.431 Y75.000 E4.94328
G1 X71.460 Y74.553 E4.95813
G1 X71.544 Y74.113 E4.97297
G1 X71.682 Y73.686 E4.98782
G1 X71.873 Y73.281 E5.00267
G1 X72.113 Y72.902 E5.01751
G1 X72.360 Y72.603 E5.03037
G1 X72.205 Y72.375 F7800.000
G1 F1800.000
G1 X72.556 Y72.045 E5.04632
G1 X72.945 Y71.762 E5.06228
G1 X73.367 Y71.530 E5.07823
G1 X73.815 Y71.353 E5.09419
G1 X74.281 Y71.233 E5.11014
G1 X74.759 Y71.173 E5.12609
G1 X75.241 Y71.173 E5.14205
G1 X75.719 Y71.233 E5.15800
G1 X76.185 Y71.353 E5.17396
G1 X76.633 Y71.530 E5.18991
G1 X77.055 Y71.762 E5.20586
G1 X77.444 Y72.045 E5.22182
G1 X77.795 Y72.375 E5.23777
G1 X78.102 Y72.746 E5.25373
G1 X78.360 Y73.153 E5.26968
G1 X78.565 Y73.588 E5.28563
G1 X78.714 Y74.046 E5.30159
G1 X78.804 Y74.519 E5.31754
G1 X78.835 Y75.000 E5.33350
G1 X78.804 Y75.481 E5.34945
G1 X78.714 Y75.954 E5.36540
G1 X78.565 Y76.412 E5.38136
G1 X78.360 Y76.847 E5.39731
G1 X78.102 Y77.254 E5.41327
G1 X77.795 Y77.625 E5.42922
G1 X77.444 Y77.955 E5.44517
G1 X77.055 Y78.238 E5.46113
G1 X76.633 Y78.470 E5.47708
G1 X76.185 Y78.647 E5.49304
G1 X75.719 Y78.767 E5.50899
G1 X75.241 Y78.827 E5.52494
G1 X74.759 Y78.827 E5.54090
G1 X74.281 Y78.767 E5.55685
G1 X73.815 Y78.647 E5.57280
G1 X73.367 Y78.470 E5.58876
G1 X72.945 Y78.238 E5.60471
G1 X72.556 Y77.955 E5.62067
G1 X72.205 Y77.625 E5.63662
G1 X71.898 Y77.254 E5.65257
G1 X71.640 Y76.847 E5.66853
G1 X71.435 Y76.412 E5.68448
G1 X71.286 Y75.954 E5.70044
G1 X71.196 Y75.481 E5.71639
G1 X71.165 Y75.000 E5.73234
G1 X71.196 Y74.519 E5.74830
G1 X71.286 Y74.046 E5.76425
G1 X71.435 Y73.588 E5.78021
G1 X71.640 Y73.153 E5.79616
G1 X71.898 Y72.746 E5.81211
G1 X72.166 Y72.421 E5.82608
G1 X72.758 Y72.895 F7800.000
G1 F1553.584
G1 X73.045 Y72.627 E5.83215
G1 X73.352 Y72.404 E5.83803
G1 X73.691 Y72.218 E5.84400
G1 X74.050 Y72.076 E5.84998
G1 X74.418 Y71.981 E5.85586
G1 X74.813 Y71.931 E5.86202
G1 X75.193 Y71.931 E5.86790
G1 X75.576 Y71.980 E5.87388
G1 X75.950 Y72.076 E5.87985
G1 X76.304 Y72.215 E5.88574
G1 X76.652 Y72.407 E5.89189
G1 X76.960 Y72.631 E5.89778
G1 X77.237 Y72.891 E5.90366
G1 X77.491 Y73.198 E5.90982
G1 X77.695 Y73.519 E5.91570
G1 X77.859 Y73.868 E5.92167
G1 X77.978 Y74.235 E5.92765
G1 X78.050 Y74.609 E5.93353
G1 X78.075 Y75.000 E5.93960
G1 X78.050 Y75.391 E5.94566
G1 X77.978 Y75.765 E5.95155
G1 X77.859 Y76.132 E5.95752
G1 X77.695 Y76.481 E5.96350
G1 X77.491 Y76.802 E5.96938
G1 X77.242 Y77.105 E5.97545
G1 X76.955 Y77.373 E5.98151
G1 X76.648 Y77.596 E5.98740
G1 X76.309 Y77.782 E5.99337
G1 X75.950 Y77.924 E5.99935
G1 X75.582 Y78.019 E6.00523
G1 X75.193 Y78.069 E6.01130
G1 X74.801 Y78.068 E6.01736
G1 X74.424 Y78.020 E6.02324
G1 X74.050 Y77.924 E6.02922
G1 X73.691 Y77.782 E6.03519
G1 X73.358 Y77.599 E6.04108
G1 X73.036 Y77.365 E6.04723
G1 X72.758 Y77.105 E6.05312
G1 X72.516 Y76.812 E6.05900
G1 X72.305 Y76.481 E6.06507
G1 X72.141 Y76.132 E6.07104
G1 X72.023 Y75.770 E6.07693
G1 X71.949 Y75.379 E6.08308
G1 X71.925 Y75.000 E6.08897
G1 X71.949 Y74.620 E6.09485
G1 X72.023 Y74.230 E6.10101
G1 X72.141 Y73.868 E6.10689
G1 X72.305 Y73.519 E6.11286
G1 X72.512 Y73.193 E6.11884
G1 X72.720 Y72.941 E6.12389
M106 S255
G1 Z0.500 F7800.000
G1 X72.938 Y73.064 F7800.000
G1 F621.453
G1 X73.197 Y72.821 E6.13916
G1 X73.484 Y72.612 E6.15443
G1 X73.796 Y72.441 E6.16970
G1 X74.126 Y72.310 E6.18497
G1 X74.470 Y72.222 E6.20024
G1 X74.822 Y72.177 E6.21552
G1 X75.178 Y72.177 E6.23079
G1 X75.530 Y72.222 E6.24606
G1 X75.874 Y72.310 E6.26133
G1 X76.204 Y72.441 E6.27660
G1 X76.516 Y72.612 E6.29188
G1 X76.803 Y72.821 E6.30715
G1 X77.062 Y73.064 E6.32242
G1 X77.288 Y73.337 E6.33769
G1 X77.479 Y73.637 E6.35296
G1 X77.630 Y73.959 E6.36823
G1 X77.762 Y74.364 E6.38657
G1 X77.807 Y74.657 E6.39932
G1 X77.828 Y75.000 E6.41408
G1 X77.806 Y75.354 E6.42935
G1 X77.740 Y75.703 E6.44462
G1 X77.630 Y76.041 E6.45989
G1 X77.479 Y76.363 E6.47516
G1 X77.288 Y76.663 E6.49044
G1 X77.062 Y76.936 E6.50571
G1 X76.803 Y77.179 E6.52098
G1 X76.516 Y77.388 E6.53625
G1 X76.204 Y77.559 E6.55152
G1 X75.874 Y77.690 E6.56679
G1 X75.530 Y77.778 E6.58207
G1 X75.178 Y77.823 E6.59734
G1 X74.822 Y77.823 E6.61261
G1 X74.470 Y77.778 E6.62788
G1 X74.126 Y77.690 E6.64315
G1 X73.796 Y77.559 E6.65843
G1 X73.484 Y77.388 E6.67370
G1 X73.197 Y77.179 E6.68897
G1 X72.938 Y76.936 E6.70424
G1 X72.712 Y76.663 E6.71951
G1 X72.521 Y76.363 E6.73478
G1 X72.370 Y76.041 E6.75006
G1 X72.260 Y75.703 E6.76533
G1 X72.194 Y75.354 E6.78060
G1 X72.172 Y75.000 E6.79587
G1 X72.194 Y74.645 E6.81114
G1 X72.260 Y74.297 E6.82641
G1 X72.370 Y73.959 E6.84169
G1 X72.521 Y73.637 E6.85696
G1 X72.712 Y73.337 E6.87223
G1 X72.900 Y73.110 E6.88492
G1 X73.272 Y73.377 F7800.000
G1 F1800.000
G1 X73.489 Y73.174 E6.89475
G1 X73.730 Y72.999 E6.90458
G1 X73.991 Y72.855 E6.91441
G1 X74.267 Y72.746 E6.92424
G1 X74.556 Y72.672 E6.93407
G1 X74.851 Y72.634 E6.94389
G1 X75.149 Y72.634 E6.95372
G1 X75.444 Y72.672 E6.96355
G1 X75.733 Y72.746 E6.97338
G1 X76.009 Y72.855 E6.98321
G1 X76.270 Y72.999 E6.99304
G1 X76.511 Y73.174 E7.00287
G1 X76.728 Y73.377 E7.01269
G1 X76.918 Y73.607 E7.02252
G1 X77.077 Y73.858 E7.03235
G1 X77.204 Y74.127 E7.04218
G1 X77.315 Y74.471 E7.05409
G1 X77.370 Y75.000 E7.07167
G1 X77.352 Y75.297 E7.08150
G1 X77.296 Y75.590 E7.09133
G1 X77.204 Y75.873 E7.10115
G1 X77.077 Y76.142 E7.11098
G1 X76.918 Y76.393 E7.12081
G1 X76.728 Y76.623 E7.13064
G1 X76.511 Y76.826 E7.14047
G1 X76.270 Y77.001 E7.15030
G1 X76.009 Y77.145 E7.16013
G1 X75.733 Y77.254 E7.16996
G1 X75.444 Y77.328 E7.17978
G1 X75.149 Y77.366 E7.18961
G1 X74.851 Y77.366 E7.19944
G1 X74.556 Y77.328 E7.20927
G1 X74.267 Y77.254 E7.21910
G1 X73.991 Y77.145 E7.22893
G1 X73.730 Y77.001 E7.23876
G1 X73.489 Y76.826 E7.24858
G1 X73.272 Y76.623 E7.25841
G1 X73.082 Y76.393 E7.26824
G1 X72.923 Y76.142 E7.27807
G1 X72.796 Y75.873 E7.28790
G1 X72.704 Y75.590 E7.29773
G1 X72.648 Y75.297 E7.30756
G1 X72.630 Y75.000 E7.31738
G1 X72.648 Y74.703 E7.32721
G1 X72.704 Y74.410 E7.33704
G1 X72.796 Y74.127 E7.34687
G1 X72.923 Y73.858 E7.35670
G1 X73.082 Y73.607 E7.36653
G1 X73.234 Y73.424 E7.37438
G1 X72.579 Y72.726 F7800.000
G1 F621.453
G1 X72.883 Y72.441 E7.39231
G1 X73.220 Y72.195 E7.41024
G1 X73.586 Y71.995 E7.42818
G1 X73.974 Y71.841 E7.44611
G1 X74.378 Y71.737 E7.46405
G1 X74.791 Y71.685 E7.48198
G1 X75.209 Y71.685 E7.49992
G1 X75.622 Y71.737 E7.51785
G1 X76.026 Y71.841 E7.53579
G1 X76.414 Y71.995 E7.55372
G1 X76.780 Y72.195 E7.57166
G1 X77.117 Y72.441 E7.58959
G1 X77.421 Y72.726 E7.60752
G1 X77.687 Y73.048 E7.62546
G1 X77.911 Y73.400 E7.64339
G1 X78.088 Y73.777 E7.66133
G1 X78.217 Y74.174 E7.67926
G1 X78.295 Y74.584 E7.69720
G1 X78.322 Y75.000 E7.71513
G1 X78.295 Y75.416 E7.73307
G1 X78.217 Y75.826 E7.75100
G1 X78.088 Y76.223 E7.76894
G1 X77.911 Y76.600 E7.78687
G1 X77.687 Y76.952 E7.80481
G1 X77.421 Y77.274 E7.82274
G1 X77.117 Y77.559 E7.84067
G1 X76.780 Y77.805 E7.85861
G1 X76.414 Y78.005 E7.87654
G1 X76.026 Y78.159 E7.89448
G1 X75.622 Y78.263 E7.91241
G1 X75.209 Y78.315 E7.93035
G1 X74.791 Y78.315 E7.94828
G1 X74.378 Y78.263 E7.96622
G1 X73.974 Y78.159 E7.98415
G1 X73.586 Y78.005 E8.00209
G1 X73.220 Y77.805 E8.02002
G1 X72.883 Y77.559 E8.03795
G1 X72.579 Y77.274 E8.05589
G1 X72.313 Y76.952 E8.07382
G1 X72.089 Y76.600 E8.09176
G1 X71.912 Y76.223 E8.10969
G1 X71.783 Y75.826 E8.12763
G1 X71.705 Y75.416 E8.14556
G1 X71.678 Y75.000 E8.16350
G1 X71.705 Y74.584 E8.18143
G1 X71.783 Y74.174 E8.19937
G1 X71.912 Y73.777 E8.21730
G1 X72.089 Y73.400 E8.23523
G1 X72.313 Y73.048 E8.25317
G1 X72.540 Y72.772 E8.26852
G1 X72.245 Y72.413 F7800.000
G1 F1800.000
G1 X72.591 Y72.088 E8.28420
G1 X72.975 Y71.809 E8.29987
G1 X73.391 Y71.580 E8.31554
G1 X73.832 Y71.405 E8.33121
G1 X74.292 Y71.287 E8.34688
G1 X74.763 Y71.228 E8.36255
G1 X75.237 Y71.228 E8.37822
G1 X75.708 Y71.287 E8.39390
G1 X76.168 Y71.405 E8.40957
G1 X76.609 Y71.580 E8.42524
G1 X77.025 Y71.809 E8.44091
G1 X77.409 Y72.088 E8.45658
G1 X77.755 Y72.413 E8.47225
G1 X78.058 Y72.778 E8.48792
G1 X78.312 Y73.179 E8.50360
G1 X78.514 Y73.609 E8.51927
G1 X78.661 Y74.060 E8.53494
G1 X78.750 Y74.526 E8.55061
G1 X78.780 Y75.000 E8.56628
G1 X78.750 Y75.474 E8.58195
G1 X78.661 Y75.940 E8.59762
G1 X78.514 Y76.391 E8.61330
G1 X78.312 Y76.821 E8.62897
G1 X78.058 Y77.222 E8.64464
G1 X77.755 Y77.587 E8.66031
G1 X77.409 Y77.912 E8.67598
G1 X77.025 Y78.191 E8.69165
G1 X76.609 Y78.420 E8.70732
G1 X76.168 Y78.595 E8.72299
