; Gcode updated with 'stl_info' on 2019-12-09 21:19:34.081748

; stl_min_x = -7.574999809265137
; stl_max_x = 7.515270233154297
; stl_min_y = -7.560050010681152
; stl_max_y = 7.560050010681152
; stl_min_z = 0.0

; generated by Slic3r 1.3.1-dev (Build adea0d9) on 2019-12-09 at 21:19:33

; external perimeters extrusion width = 0.44mm (2.86mm^3/s)
; perimeters extrusion width = 0.56mm (4.14mm^3/s)
; infill extrusion width = 0.50mm (3.66mm^3/s)
; solid infill extrusion width = 0.56mm (3.10mm^3/s)
; top infill extrusion width = 0.56mm (3.10mm^3/s)

M107
G92 E0
;D3D:START:START
T0
M104 S215 T0

G21
G90
M107
T0
G28
G29
M109 T0 S215 T0
G0 F3000
M107
T0
G92 E0
G0 X0 Y149 Z0.1 F3600
G1 Y49 E6.5 F1200
G0 Z1
G92 E0
; Filament gcode

G21 ; set units to millimeters
G90 ; use absolute coordinates
M82 ; use absolute distances for extrusion
G92 E0
G1 Z0.300 F7800.000
G1 E-2.00000 F2400.00000
G92 E0
G1 X72.195 Y72.366 F7800.000
G1 E2.00000 F2400.00000
G1 F1800.000
G1 X72.547 Y72.035 E2.01601
G1 X72.938 Y71.751 E2.03202
G1 X73.362 Y71.519 E2.04802
G1 X73.811 Y71.341 E2.06403
G1 X74.279 Y71.221 E2.08004
G1 X74.758 Y71.160 E2.09605
G1 X75.242 Y71.160 E2.11205
G1 X75.721 Y71.221 E2.12806
G1 X76.189 Y71.341 E2.14407
G1 X76.638 Y71.519 E2.16008
G1 X77.062 Y71.751 E2.17609
G1 X77.453 Y72.035 E2.19209
G1 X77.805 Y72.366 E2.20810
G1 X78.113 Y72.738 E2.22411
G1 X78.372 Y73.146 E2.24012
G1 X78.577 Y73.584 E2.25612
G1 X78.727 Y74.043 E2.27213
G1 X78.817 Y74.518 E2.28814
G1 X78.848 Y75.000 E2.30415
G1 X78.817 Y75.482 E2.32016
G1 X78.727 Y75.957 E2.33616
G1 X78.577 Y76.416 E2.35217
G1 X78.372 Y76.854 E2.36818
G1 X78.113 Y77.262 E2.38419
G1 X77.805 Y77.634 E2.40019
G1 X77.453 Y77.965 E2.41620
G1 X77.062 Y78.249 E2.43221
G1 X76.638 Y78.481 E2.44822
G1 X76.189 Y78.659 E2.46423
G1 X75.721 Y78.779 E2.48023
G1 X75.242 Y78.840 E2.49624
G1 X74.758 Y78.840 E2.51225
G1 X74.279 Y78.779 E2.52826
G1 X73.811 Y78.659 E2.54426
G1 X73.362 Y78.481 E2.56027
G1 X72.938 Y78.249 E2.57628
G1 X72.547 Y77.965 E2.59229
G1 X72.195 Y77.634 E2.60830
G1 X71.887 Y77.262 E2.62430
G1 X71.628 Y76.854 E2.64031
G1 X71.423 Y76.416 E2.65632
G1 X71.273 Y75.957 E2.67233
G1 X71.183 Y75.482 E2.68833
G1 X71.152 Y75.000 E2.70434
G1 X71.183 Y74.518 E2.72035
G1 X71.273 Y74.043 E2.73636
G1 X71.423 Y73.584 E2.75236
G1 X71.628 Y73.146 E2.76837
G1 X71.887 Y72.738 E2.78438
G1 X72.157 Y72.412 E2.79840
G1 X72.389 Y72.548 F7800.000
G1 F1800.000
G1 X72.717 Y72.240 E2.81330
G1 X73.081 Y71.976 E2.82820
G1 X73.475 Y71.759 E2.84310
G1 X73.893 Y71.594 E2.85800
G1 X74.329 Y71.482 E2.87290
G1 X74.775 Y71.426 E2.88780
G1 X75.225 Y71.426 E2.90270
G1 X75.671 Y71.482 E2.91760
G1 X76.107 Y71.594 E2.93250
G1 X76.525 Y71.759 E2.94741
G1 X76.919 Y71.976 E2.96231
G1 X77.283 Y72.240 E2.97721
G1 X77.611 Y72.548 E2.99211
G1 X77.897 Y72.895 E3.00701
G1 X78.138 Y73.275 E3.02191
G1 X78.330 Y73.682 E3.03681
G1 X78.469 Y74.109 E3.05171
G1 X78.553 Y74.551 E3.06661
G1 X78.581 Y75.000 E3.08151
G1 X78.553 Y75.449 E3.09641
G1 X78.469 Y75.891 E3.11131
G1 X78.330 Y76.318 E3.12621
G1 X78.138 Y76.725 E3.14111
G1 X77.897 Y77.105 E3.15601
G1 X77.611 Y77.452 E3.17091
G1 X77.283 Y77.760 E3.18581
G1 X76.919 Y78.024 E3.20071
G1 X76.525 Y78.241 E3.21561
G1 X76.107 Y78.406 E3.23051
G1 X75.671 Y78.518 E3.24542
G1 X75.225 Y78.574 E3.26032
G1 X74.775 Y78.574 E3.27522
G1 X74.329 Y78.518 E3.29012
G1 X73.893 Y78.406 E3.30502
G1 X73.475 Y78.241 E3.31992
G1 X73.081 Y78.024 E3.33482
G1 X72.717 Y77.760 E3.34972
G1 X72.389 Y77.452 E3.36462
G1 X72.103 Y77.105 E3.37952
G1 X71.862 Y76.725 E3.39442
G1 X71.670 Y76.318 E3.40932
G1 X71.531 Y75.891 E3.42422
G1 X71.447 Y75.449 E3.43912
G1 X71.419 Y75.000 E3.45402
G1 X71.447 Y74.551 E3.46892
G1 X71.531 Y74.109 E3.48382
G1 X71.670 Y73.682 E3.49872
G1 X71.862 Y73.275 E3.51362
G1 X72.103 Y72.895 E3.52852
G1 X72.351 Y72.595 E3.54144
G1 X72.583 Y72.731 F7800.000
G1 F1800.000
G1 X72.887 Y72.445 E3.55523
G1 X73.224 Y72.201 E3.56902
G1 X73.588 Y72.000 E3.58282
G1 X73.976 Y71.847 E3.59661
G1 X74.379 Y71.743 E3.61040
G1 X74.792 Y71.691 E3.62420
G1 X75.208 Y71.691 E3.63799
G1 X75.621 Y71.743 E3.65178
G1 X76.024 Y71.847 E3.66558
G1 X76.412 Y72.000 E3.67937
G1 X76.776 Y72.201 E3.69316
G1 X77.113 Y72.445 E3.70696
G1 X77.417 Y72.731 E3.72075
G1 X77.682 Y73.051 E3.73454
G1 X77.905 Y73.403 E3.74834
G1 X78.083 Y73.780 E3.76213
G1 X78.211 Y74.176 E3.77592
G1 X78.289 Y74.584 E3.78971
G1 X78.315 Y75.000 E3.80351
G1 X78.289 Y75.416 E3.81730
G1 X78.211 Y75.824 E3.83109
G1 X78.083 Y76.220 E3.84489
G1 X77.905 Y76.597 E3.85868
G1 X77.682 Y76.949 E3.87247
G1 X77.417 Y77.269 E3.88627
G1 X77.113 Y77.555 E3.90006
G1 X76.776 Y77.799 E3.91385
G1 X76.412 Y78.000 E3.92765
G1 X76.024 Y78.153 E3.94144
G1 X75.621 Y78.257 E3.95523
G1 X75.208 Y78.309 E3.96903
G1 X74.792 Y78.309 E3.98282
G1 X74.379 Y78.257 E3.99661
G1 X73.976 Y78.153 E4.01041
G1 X73.588 Y78.000 E4.02420
G1 X73.224 Y77.799 E4.03799
G1 X72.887 Y77.555 E4.05179
G1 X72.583 Y77.269 E4.06558
G1 X72.318 Y76.949 E4.07937
G1 X72.095 Y76.597 E4.09317
G1 X71.917 Y76.220 E4.10696
G1 X71.789 Y75.824 E4.12075
G1 X71.711 Y75.416 E4.13454
G1 X71.685 Y75.000 E4.14834
G1 X71.711 Y74.584 E4.16213
G1 X71.789 Y74.176 E4.17592
G1 X71.917 Y73.780 E4.18972
G1 X72.095 Y73.403 E4.20351
G1 X72.318 Y73.051 E4.21730
G1 X72.545 Y72.777 E4.22911
G1 E2.22911 F2400.00000
G92 E0
G1 X69.987 Y70.292 F7800.000
G1 E2.00000 F2400.00000
G1 F1800.000
G1 X70.616 Y69.701 E2.02861
G1 X71.315 Y69.193 E2.05723
G1 X72.072 Y68.777 E2.08584
G1 X72.875 Y68.459 E2.11445
G1 X73.711 Y68.244 E2.14306
G1 X74.568 Y68.136 E2.17168
G1 X75.432 Y68.136 E2.20029
G1 X76.289 Y68.244 E2.22890
G1 X77.125 Y68.459 E2.25752
G1 X77.928 Y68.777 E2.28613
G1 X78.685 Y69.193 E2.31474
G1 X79.384 Y69.701 E2.34336
G1 X80.013 Y70.292 E2.37197
G1 X80.564 Y70.958 E2.40058
G1 X81.027 Y71.687 E2.42919
G1 X81.394 Y72.468 E2.45781
G1 X81.661 Y73.290 E2.48642
G1 X81.823 Y74.138 E2.51503
G1 X81.877 Y75.000 E2.54365
G1 X81.823 Y75.862 E2.57226
G1 X81.661 Y76.710 E2.60087
G1 X81.394 Y77.532 E2.62948
G1 X81.027 Y78.313 E2.65810
G1 X80.564 Y79.042 E2.68671
G1 X80.013 Y79.708 E2.71532
G1 X79.384 Y80.299 E2.74394
G1 X78.685 Y80.807 E2.77255
G1 X77.928 Y81.223 E2.80116
G1 X77.125 Y81.541 E2.82978
G1 X76.289 Y81.756 E2.85839
G1 X75.432 Y81.864 E2.88700
G1 X74.568 Y81.864 E2.91561
G1 X73.711 Y81.756 E2.94423
G1 X72.875 Y81.541 E2.97284
G1 X72.072 Y81.223 E3.00145
G1 X71.315 Y80.807 E3.03007
G1 X70.616 Y80.299 E3.05868
G1 X69.987 Y79.708 E3.08729
G1 X69.436 Y79.042 E3.11590
G1 X68.973 Y78.313 E3.14452
G1 X68.606 Y77.532 E3.17313
G1 X68.339 Y76.710 E3.20174
G1 X68.177 Y75.862 E3.23036
G1 X68.123 Y75.000 E3.25897
G1 X68.177 Y74.138 E3.28758
G1 X68.339 Y73.290 E3.31620
G1 X68.606 Y72.468 E3.34481
G1 X68.973 Y71.687 E3.37342
G1 X69.436 Y70.958 E3.40203
G1 X69.948 Y70.338 E3.42866
G1 X69.793 Y70.110 F7800.000
G1 F1800.000
G1 X70.447 Y69.496 E3.45838
G1 X71.172 Y68.969 E3.48810
G1 X71.958 Y68.536 E3.51782
G1 X72.793 Y68.206 E3.54754
G1 X73.661 Y67.983 E3.57726
G1 X74.551 Y67.871 E3.60698
G1 X75.449 Y67.871 E3.63670
G1 X76.339 Y67.983 E3.66642
G1 X77.207 Y68.206 E3.69614
G1 X78.042 Y68.536 E3.72586
G1 X78.828 Y68.969 E3.75558
G1 X79.553 Y69.496 E3.78530
G1 X80.207 Y70.110 E3.81502
G1 X80.779 Y70.801 E3.84474
G1 X81.260 Y71.559 E3.87446
G1 X81.642 Y72.370 E3.90418
G1 X81.919 Y73.223 E3.93390
G1 X82.087 Y74.105 E3.96362
G1 X82.144 Y75.000 E3.99334
G1 X82.087 Y75.895 E4.02306
G1 X81.919 Y76.777 E4.05278
G1 X81.642 Y77.630 E4.08250
G1 X81.260 Y78.441 E4.11222
G1 X80.779 Y79.199 E4.14194
G1 X80.207 Y79.890 E4.17167
G1 X79.553 Y80.504 E4.20139
G1 X78.828 Y81.031 E4.23111
G1 X78.042 Y81.464 E4.26083
G1 X77.207 Y81.794 E4.29055
G1 X76.339 Y82.017 E4.32027
G1 X75.449 Y82.129 E4.34999
G1 X74.551 Y82.129 E4.37971
G1 X73.661 Y82.017 E4.40943
G1 X72.793 Y81.794 E4.43915
G1 X71.958 Y81.464 E4.46887
G1 X71.172 Y81.031 E4.49859
G1 X70.447 Y80.504 E4.52831
G1 X69.793 Y79.890 E4.55803
G1 X69.221 Y79.199 E4.58775
G1 X68.740 Y78.441 E4.61747
G1 X68.358 Y77.630 E4.64719
G1 X68.081 Y76.777 E4.67691
G1 X67.913 Y75.895 E4.70663
G1 X67.856 Y75.000 E4.73635
G1 X67.913 Y74.105 E4.76607
G1 X68.081 Y73.223 E4.79579
G1 X68.358 Y72.370 E4.82551
G1 X68.740 Y71.559 E4.85523
G1 X69.221 Y70.801 E4.88495
G1 X69.754 Y70.156 E4.91268
G1 X69.599 Y69.928 F7800.000
G1 F1800.000
G1 X70.277 Y69.291 E4.94351
G1 X71.030 Y68.744 E4.97434
G1 X71.845 Y68.296 E5.00517
G1 X72.710 Y67.953 E5.03599
G1 X73.612 Y67.722 E5.06682
G1 X74.535 Y67.605 E5.09765
G1 X75.465 Y67.605 E5.12848
G1 X76.388 Y67.722 E5.15930
G1 X77.290 Y67.953 E5.19013
G1 X78.155 Y68.296 E5.22096
G1 X78.970 Y68.744 E5.25179
G1 X79.723 Y69.291 E5.28261
G1 X80.401 Y69.928 E5.31344
G1 X80.995 Y70.645 E5.34427
G1 X81.493 Y71.430 E5.37510
G1 X81.889 Y72.272 E5.40592
G1 X82.177 Y73.157 E5.43675
G1 X82.351 Y74.071 E5.46758
G1 X82.410 Y75.000 E5.49841
G1 X82.351 Y75.929 E5.52923
G1 X82.177 Y76.843 E5.56006
G1 X81.889 Y77.728 E5.59089
G1 X81.493 Y78.570 E5.62172
G1 X80.995 Y79.355 E5.65254
G1 X80.401 Y80.072 E5.68337
G1 X79.723 Y80.709 E5.71420
G1 X78.970 Y81.256 E5.74503
G1 X78.155 Y81.704 E5.77585
G1 X77.290 Y82.047 E5.80668
G1 X76.388 Y82.278 E5.83751
G1 X75.465 Y82.395 E5.86834
G1 X74.535 Y82.395 E5.89916
G1 X73.612 Y82.278 E5.92999
G1 X72.710 Y82.047 E5.96082
G1 X71.845 Y81.704 E5.99165
G1 X71.030 Y81.256 E6.02247
G1 X70.277 Y80.709 E6.05330
G1 X69.599 Y80.072 E6.08413
G1 X69.005 Y79.355 E6.11496
G1 X68.507 Y78.570 E6.14578
G1 X68.111 Y77.728 E6.17661
G1 X67.823 Y76.843 E6.20744
G1 X67.649 Y75.929 E6.23827
G1 X67.590 Y75.000 E6.26909
G1 X67.649 Y74.071 E6.29992
G1 X67.823 Y73.157 E6.33075
G1 X68.111 Y72.272 E6.36158
G1 X68.507 Y71.430 E6.39240
G1 X69.005 Y70.645 E6.42323
G1 X69.560 Y69.974 E6.45207
G1 X70.080 Y70.575 F7800.000
G1 F1800.000
G1 X70.889 Y69.803 E6.48971
G1 X71.561 Y69.315 E6.51764
G1 X71.918 Y69.118 E6.53137
G1 X69.090 Y71.947 E6.66593
G1 X68.751 Y72.667 E6.69272
G1 X72.644 Y68.774 E6.87793
G1 X73.060 Y68.609 E6.89299
G1 X73.235 Y68.564 E6.89906
G1 X68.567 Y73.233 E7.12116
G1 X68.493 Y73.459 E7.12917
G1 X68.439 Y73.741 E7.13884
G1 X73.748 Y68.432 E7.39142
G1 X74.202 Y68.360 E7.40688
G1 X68.349 Y74.213 E7.68532
G1 X68.315 Y74.628 E7.69935
G1 X74.639 Y68.305 E8.00018
G1 X75.027 Y68.298 E8.01322
G1 X68.290 Y75.035 E8.33372
G1 X68.304 Y75.402 E8.34607
G1 X75.408 Y68.298 E8.68402
G1 X75.759 Y68.329 E8.69588
G1 X68.327 Y75.761 E9.04945
G1 X68.370 Y76.100 E9.06094
G1 X71.449 Y73.021 E9.20742
G1 X71.278 Y73.382 E9.22086
G1 X71.187 Y73.664 E9.23082
G1 X68.431 Y76.420 E9.36194
G1 X68.492 Y76.740 E9.37291
G1 X71.062 Y74.170 E9.49520
G1 X71.022 Y74.381 E9.50244
G1 X71.008 Y74.606 E9.51001
G1 X68.585 Y77.029 E9.62529
G1 X68.678 Y77.317 E9.63548
G1 X70.996 Y74.999 E9.74574
G1 X71.019 Y75.358 E9.75784
G1 X68.778 Y77.598 E9.86441
G1 X68.900 Y77.857 E9.87406
G1 X71.074 Y75.684 E9.97745
G1 X71.144 Y75.996 E9.98820
G1 X69.022 Y78.117 E10.08910
G1 X69.153 Y78.367 E10.09861
G1 X71.237 Y76.284 E10.19774
G1 X71.346 Y76.556 E10.20760
G1 X69.301 Y78.601 E10.30489
G1 X69.450 Y78.834 E10.31419
G1 X71.469 Y76.815 E10.41024
G1 X71.610 Y77.055 E10.41961
G1 X69.606 Y79.059 E10.51496
G1 X69.779 Y79.268 E10.52408
G1 X71.758 Y77.288 E10.61826
G1 X71.928 Y77.500 E10.62739
G1 X69.951 Y79.477 E10.72144
G1 X70.077 Y79.629 E10.72810
G1 X70.130 Y79.679 E10.73055
G1 X72.101 Y77.708 E10.82429
G1 X72.297 Y77.894 E10.83337
G1 X70.327 Y79.864 E10.92709
G1 X70.524 Y80.048 E10.93617
G1 X72.495 Y78.077 E11.02996
G1 X72.716 Y78.237 E11.03915
G1 X70.725 Y80.228 E11.13387
G1 X70.946 Y80.389 E11.14306
G1 X72.942 Y78.393 E11.23799
G1 X73.188 Y78.529 E11.24744
G1 X71.167 Y80.549 E11.34357
G1 X71.354 Y80.685 E11.35135
G1 X71.392 Y80.706 E11.35279
G1 X73.443 Y78.655 E11.45037
G1 X73.716 Y78.763 E11.46026
G1 X71.638 Y80.841 E11.55912
G1 X71.884 Y80.977 E11.56857
G1 X74.007 Y78.854 E11.66956
G1 X74.310 Y78.932 E11.68010
G1 X72.136 Y81.107 E11.78356
G1 X72.409 Y81.215 E11.79345
G1 X74.646 Y78.977 E11.89990
G1 X75.003 Y79.002 E11.91191
G1 X72.682 Y81.323 E12.02232
G1 X72.966 Y81.420 E12.03243
G1 X75.387 Y78.999 E12.14760
G1 X75.824 Y78.944 E12.16240
G1 X73.270 Y81.498 E12.28390
G1 X73.573 Y81.576 E12.29444
G1 X76.328 Y78.821 E12.42550
G1 X76.855 Y78.619 E12.44447
G1 X76.981 Y78.549 E12.44933
G1 X73.902 Y81.628 E12.59580
G1 X74.241 Y81.671 E12.60729
G1 X81.673 Y74.239 E12.96086
G1 X81.696 Y74.598 E12.97296
G1 X74.592 Y81.702 E13.31091
G1 X74.973 Y81.702 E13.32374
G1 X81.710 Y74.965 E13.64424
G1 X81.685 Y75.372 E13.65796
G1 X75.361 Y81.695 E13.95879
G1 X75.798 Y81.640 E13.97359
G1 X81.651 Y75.787 E14.25204
G1 X81.561 Y76.259 E14.26818
G1 X76.252 Y81.568 E14.52076
G1 X76.765 Y81.436 E14.53858
G1 X81.433 Y76.767 E14.76067
G1 X81.249 Y77.333 E14.78068
G1 X77.356 Y81.226 E14.96589
G1 X77.712 Y81.085 E14.97876
G1 X78.082 Y80.882 E14.99296
G1 X80.910 Y78.053 E15.12752
G1 X80.452 Y78.783 E15.15649
G1 X79.923 Y79.422 E15.18439
G1 X79.714 Y79.631 E15.19436
G1 E13.19436 F2400.00000
G92 E0
G1 X78.551 Y76.979 F7800.000
G1 E2.00000 F2400.00000
G1 F1800.000
G1 X81.630 Y73.900 E2.14648
G1 X81.569 Y73.580 E2.15745
G1 X78.813 Y76.336 E2.28858
G1 X78.881 Y76.126 E2.29601
G1 X78.938 Y75.830 E2.30615
G1 X81.508 Y73.260 E2.42844
G1 X81.415 Y72.971 E2.43864
G1 X78.992 Y75.394 E2.55392
G1 X79.004 Y75.001 E2.56716
G1 X81.322 Y72.683 E2.67743
G1 X81.222 Y72.402 E2.68747
G1 X78.981 Y74.642 E2.79404
G1 X78.926 Y74.316 E2.80517
G1 X81.100 Y72.143 E2.90857
G1 X80.977 Y71.883 E2.91821
G1 X78.856 Y74.004 E3.01912
G1 X78.763 Y73.716 E3.02930
G1 X80.847 Y71.633 E3.12843
G1 X80.699 Y71.399 E3.13772
G1 X78.654 Y73.444 E3.23501
G1 X78.531 Y73.185 E3.24466
G1 X80.550 Y71.166 E3.34071
G1 X80.394 Y70.941 E3.34993
G1 X78.390 Y72.945 E3.44528
G1 X78.242 Y72.712 E3.45458
G1 X80.221 Y70.732 E3.54877
G1 X80.049 Y70.523 E3.55788
G1 X78.072 Y72.500 E3.65193
G1 X77.899 Y72.292 E3.66105
G1 X79.870 Y70.321 E3.75479
G1 X79.673 Y70.136 E3.76387
G1 X77.703 Y72.106 E3.85759
G1 X77.505 Y71.923 E3.86667
G1 X79.476 Y69.952 E3.96046
G1 X79.275 Y69.772 E3.96955
G1 X77.284 Y71.763 E4.06427
G1 X77.058 Y71.607 E4.07350
G1 X79.054 Y69.611 E4.16843
G1 X78.833 Y69.451 E4.17761
G1 X76.812 Y71.471 E4.27374
G1 X76.557 Y71.345 E4.28332
G1 X78.608 Y69.294 E4.38090
G1 X78.362 Y69.159 E4.39035
G1 X76.284 Y71.237 E4.48921
G1 X75.993 Y71.146 E4.49946
G1 X78.116 Y69.023 E4.60044
G1 X77.918 Y68.915 E4.60803
G1 X77.864 Y68.893 E4.60998
G1 X75.690 Y71.068 E4.71344
G1 X75.354 Y71.023 E4.72484
G1 X77.591 Y68.785 E4.83130
G1 X77.318 Y68.677 E4.84118
G1 X74.997 Y70.998 E4.95159
G1 X74.613 Y71.001 E4.96453
G1 X77.034 Y68.580 E5.07970
G1 X76.730 Y68.502 E5.09024
G1 X74.176 Y71.056 E5.21174
G1 X73.672 Y71.179 E5.22920
G1 X76.427 Y68.424 E5.36026
G1 X76.098 Y68.372 E5.37146
G1 X73.019 Y71.451 E5.51794
G1 X72.692 Y71.630 E5.53046
G1 X72.275 Y71.934 E5.54784
G1 X71.898 Y72.287 E5.56522
G1 X71.569 Y72.685 E5.58260
G1 X71.242 Y73.227 E5.60389
M106 S255
G1 Z0.500 F7800.000
G1 X72.209 Y72.379 F7800.000
G1 F1800.000
G1 X72.560 Y72.050 E5.62456
G1 X72.949 Y71.768 E5.64523
G1 X73.370 Y71.536 E5.66590
G1 X73.817 Y71.359 E5.68657
G1 X74.283 Y71.239 E5.70724
G1 X74.760 Y71.179 E5.72791
G1 X75.240 Y71.179 E5.74858
G1 X75.717 Y71.239 E5.76926
G1 X76.183 Y71.359 E5.78993
G1 X76.630 Y71.536 E5.81060
G1 X77.051 Y71.768 E5.83127
G1 X77.440 Y72.050 E5.85194
G1 X77.791 Y72.379 E5.87261
G1 X78.097 Y72.750 E5.89328
G1 X78.355 Y73.156 E5.91395
G1 X78.560 Y73.591 E5.93463
G1 X78.708 Y74.048 E5.95530
G1 X78.798 Y74.520 E5.97597
G1 X78.828 Y75.000 E5.99664
G1 X78.798 Y75.480 E6.01731
G1 X78.708 Y75.952 E6.03798
G1 X78.560 Y76.409 E6.05865
G1 X78.355 Y76.844 E6.07932
G1 X78.097 Y77.250 E6.09999
G1 X77.791 Y77.621 E6.12067
G1 X77.440 Y77.950 E6.14134
G1 X77.051 Y78.232 E6.16201
G1 X76.630 Y78.464 E6.18268
G1 X76.183 Y78.641 E6.20335
G1 X75.717 Y78.761 E6.22402
G1 X75.240 Y78.821 E6.24469
G1 X74.760 Y78.821 E6.26536
G1 X74.283 Y78.761 E6.28603
G1 X73.817 Y78.641 E6.30671
G1 X73.370 Y78.464 E6.32738
G1 X72.949 Y78.232 E6.34805
G1 X72.560 Y77.950 E6.36872
G1 X72.209 Y77.621 E6.38939
G1 X71.903 Y77.250 E6.41006
G1 X71.645 Y76.844 E6.43073
G1 X71.440 Y76.409 E6.45140
G1 X71.292 Y75.952 E6.47208
