; generated by Slic3r 1.3.1-dev (Build adea0d9) on 2019-12-16 at 00:48:39

; external perimeters extrusion width = 0.44mm (2.86mm^3/s)
; perimeters extrusion width = 0.56mm (4.14mm^3/s)
; infill extrusion width = 0.50mm (3.66mm^3/s)
; solid infill extrusion width = 0.56mm (3.10mm^3/s)
; top infill extrusion width = 0.56mm (3.10mm^3/s)

M107
G92 E0
;D3D:START:START
T0
M104 S215 T0

G21
G90
M107
T0
G28
G29
M109 T0 S215 T0
G0 F3000
M107
T0
G92 E0
G0 X0 Y149 Z0.1 F3600
G1 Y49 E6.5 F1200
G0 Z1
G92 E0
; Filament gcode

G21 ; set units to millimeters
G90 ; use absolute coordinates
M82 ; use absolute distances for extrusion
G92 E0
G1 Z0.300 F7800.000
G1 E-2.00000 F2400.00000
G92 E0
G1 X227.222 Y74.473 F7800.000
G1 E2.00000 F2400.00000
G1 F1800.000
G1 X262.778 Y74.473 E3.17797
G1 X262.695 Y75.000 E3.19564
G1 X262.778 Y75.527 E3.21331
G1 X227.222 Y75.527 E4.39128
G1 X227.305 Y75.000 E4.40896
G1 X227.231 Y74.532 E4.42464
G1 X226.853 Y74.207 F7800.000
G1 F1800.000
G1 X263.147 Y74.207 E5.62702
G1 X263.063 Y74.371 E5.63310
G1 X262.964 Y75.000 E5.65420
G1 X263.063 Y75.629 E5.67531
G1 X263.147 Y75.793 E5.68138
G1 X226.853 Y75.793 E6.88377
G1 X226.937 Y75.629 E6.88984
G1 X227.036 Y75.000 E6.91094
G1 X226.937 Y74.371 E6.93205
G1 X226.881 Y74.261 E6.93614
G1 X226.419 Y73.942 F7800.000
G1 F1800.000
G1 X263.581 Y73.942 E8.16728
G1 X263.319 Y74.454 E8.18633
G1 X263.233 Y75.000 E8.20465
G1 X263.319 Y75.546 E8.22296
G1 X263.581 Y76.058 E8.24201
G1 X226.419 Y76.058 E9.47316
G1 X226.681 Y75.546 E9.49221
G1 X226.767 Y75.000 E9.51052
G1 X226.681 Y74.454 E9.52884
G1 X226.447 Y73.995 E9.54590
G1 X227.429 Y74.842 F7800.000
G1 F1800.000
G1 X227.636 Y74.635 E9.55562
G1 X228.013 Y74.635 E9.56817
G1 X227.456 Y75.192 E9.59436
G1 X227.429 Y75.365 E9.60017
G1 X227.661 Y75.365 E9.60789
G1 X228.390 Y74.635 E9.64219
G1 X228.768 Y74.635 E9.65474
G1 X228.038 Y75.365 E9.68904
G1 X228.416 Y75.365 E9.70159
G1 X229.145 Y74.635 E9.73590
G1 X229.522 Y74.635 E9.74845
G1 X228.793 Y75.365 E9.78275
G1 X229.170 Y75.365 E9.79530
G1 X229.899 Y74.635 E9.82960
G1 X230.276 Y74.635 E9.84215
G1 X229.547 Y75.365 E9.87646
G1 X229.924 Y75.365 E9.88901
G1 X230.654 Y74.635 E9.92331
G1 X231.031 Y74.635 E9.93586
G1 X230.302 Y75.365 E9.97017
G1 X230.679 Y75.365 E9.98271
G1 X231.408 Y74.635 E10.01702
G1 X231.785 Y74.635 E10.02957
G1 X231.056 Y75.365 E10.06387
G1 X231.433 Y75.365 E10.07642
G1 X232.162 Y74.635 E10.11072
G1 X232.540 Y74.635 E10.12327
G1 X231.810 Y75.365 E10.15758
G1 X232.188 Y75.365 E10.17013
G1 X232.917 Y74.635 E10.20443
G1 X233.294 Y74.635 E10.21698
G1 X232.565 Y75.365 E10.25128
G1 X232.942 Y75.365 E10.26383
G1 X233.671 Y74.635 E10.29814
G1 X234.048 Y74.635 E10.31069
G1 X233.319 Y75.365 E10.34499
G1 X233.696 Y75.365 E10.35754
G1 X234.426 Y74.635 E10.39185
G1 X234.803 Y74.635 E10.40439
G1 X234.074 Y75.365 E10.43870
G1 X234.451 Y75.365 E10.45125
G1 X235.180 Y74.635 E10.48555
G1 X235.557 Y74.635 E10.49810
G1 X234.828 Y75.365 E10.53240
G1 X235.205 Y75.365 E10.54495
G1 X235.934 Y74.635 E10.57926
G1 X236.312 Y74.635 E10.59181
G1 X235.583 Y75.365 E10.62611
G1 X235.960 Y75.365 E10.63866
G1 X236.689 Y74.635 E10.67296
G1 X237.066 Y74.635 E10.68551
G1 X236.337 Y75.365 E10.71982
G1 X236.714 Y75.365 E10.73237
G1 X237.443 Y74.635 E10.76667
G1 X237.820 Y74.635 E10.77922
G1 X237.091 Y75.365 E10.81352
G1 X237.469 Y75.365 E10.82607
G1 X238.198 Y74.635 E10.86038
G1 X238.575 Y74.635 E10.87293
G1 X237.846 Y75.365 E10.90723
G1 X238.223 Y75.365 E10.91978
G1 X238.952 Y74.635 E10.95408
G1 X239.329 Y74.635 E10.96663
G1 X238.600 Y75.365 E11.00094
G1 X238.977 Y75.365 E11.01349
G1 X239.707 Y74.635 E11.04779
G1 X240.084 Y74.635 E11.06034
G1 X239.355 Y75.365 E11.09464
G1 X239.732 Y75.365 E11.10719
G1 X240.461 Y74.635 E11.14150
G1 X240.838 Y74.635 E11.15405
G1 X240.109 Y75.365 E11.18835
G1 X240.486 Y75.365 E11.20090
G1 X241.215 Y74.635 E11.23520
G1 X241.593 Y74.635 E11.24775
G1 X240.863 Y75.365 E11.28206
G1 X241.241 Y75.365 E11.29461
G1 X241.970 Y74.635 E11.32891
G1 X242.347 Y74.635 E11.34146
G1 X241.618 Y75.365 E11.37577
G1 X241.995 Y75.365 E11.38831
G1 X242.724 Y74.635 E11.42262
G1 X243.101 Y74.635 E11.43517
G1 X242.372 Y75.365 E11.46947
G1 X242.749 Y75.365 E11.48202
G1 X243.479 Y74.635 E11.51633
G1 X243.856 Y74.635 E11.52888
G1 X243.127 Y75.365 E11.56318
G1 X243.504 Y75.365 E11.57573
G1 X244.233 Y74.635 E11.61003
G1 X244.610 Y74.635 E11.62258
G1 X243.881 Y75.365 E11.65689
G1 X244.258 Y75.365 E11.66944
G1 X244.987 Y74.635 E11.70374
G1 X245.365 Y74.635 E11.71629
G1 X244.635 Y75.365 E11.75059
G1 X245.013 Y75.365 E11.76314
G1 X245.742 Y74.635 E11.79745
G1 X246.119 Y74.635 E11.81000
G1 X245.390 Y75.365 E11.84430
G1 X245.767 Y75.365 E11.85685
G1 X246.496 Y74.635 E11.89115
G1 X246.873 Y74.635 E11.90370
G1 X246.144 Y75.365 E11.93801
G1 X246.521 Y75.365 E11.95056
G1 X247.251 Y74.635 E11.98486
G1 X247.628 Y74.635 E11.99741
G1 X246.899 Y75.365 E12.03171
G1 X247.276 Y75.365 E12.04426
G1 X248.005 Y74.635 E12.07857
G1 X248.382 Y74.635 E12.09112
G1 X247.653 Y75.365 E12.12542
G1 X248.030 Y75.365 E12.13797
G1 X248.759 Y74.635 E12.17228
G1 X249.137 Y74.635 E12.18482
G1 X248.407 Y75.365 E12.21913
G1 X248.785 Y75.365 E12.23168
G1 X249.514 Y74.635 E12.26598
G1 X249.891 Y74.635 E12.27853
G1 X249.162 Y75.365 E12.31284
G1 X249.539 Y75.365 E12.32538
G1 X250.268 Y74.635 E12.35969
G1 X250.645 Y74.635 E12.37224
G1 X249.916 Y75.365 E12.40654
G1 X250.293 Y75.365 E12.41909
G1 X251.023 Y74.635 E12.45340
G1 X251.400 Y74.635 E12.46595
G1 X250.671 Y75.365 E12.50025
G1 X251.048 Y75.365 E12.51280
G1 X251.777 Y74.635 E12.54710
G1 X252.154 Y74.635 E12.55965
G1 X251.425 Y75.365 E12.59396
G1 X251.802 Y75.365 E12.60651
G1 X252.531 Y74.635 E12.64081
G1 X252.909 Y74.635 E12.65336
G1 X252.180 Y75.365 E12.68766
G1 X252.557 Y75.365 E12.70021
G1 X253.286 Y74.635 E12.73452
G1 X253.663 Y74.635 E12.74707
G1 X252.934 Y75.365 E12.78137
G1 X253.311 Y75.365 E12.79392
G1 X254.040 Y74.635 E12.82822
G1 X254.418 Y74.635 E12.84077
G1 X253.688 Y75.365 E12.87508
G1 X254.066 Y75.365 E12.88763
G1 X254.795 Y74.635 E12.92193
G1 X255.172 Y74.635 E12.93448
G1 X254.443 Y75.365 E12.96879
G1 X254.820 Y75.365 E12.98133
G1 X255.549 Y74.635 E13.01564
G1 X255.926 Y74.635 E13.02819
G1 X255.197 Y75.365 E13.06249
G1 X255.574 Y75.365 E13.07504
G1 X256.304 Y74.635 E13.10935
G1 X256.681 Y74.635 E13.12189
G1 X255.952 Y75.365 E13.15620
G1 X256.329 Y75.365 E13.16875
G1 X257.058 Y74.635 E13.20305
G1 X257.435 Y74.635 E13.21560
G1 X256.706 Y75.365 E13.24991
G1 X257.083 Y75.365 E13.26245
G1 X257.812 Y74.635 E13.29676
G1 X258.190 Y74.635 E13.30931
G1 X257.460 Y75.365 E13.34361
G1 X257.838 Y75.365 E13.35616
G1 X258.567 Y74.635 E13.39047
G1 X258.944 Y74.635 E13.40302
G1 X258.215 Y75.365 E13.43732
G1 X258.592 Y75.365 E13.44987
G1 X259.321 Y74.635 E13.48417
G1 X259.698 Y74.635 E13.49672
G1 X258.969 Y75.365 E13.53103
G1 X259.346 Y75.365 E13.54358
G1 X260.076 Y74.635 E13.57788
G1 X260.453 Y74.635 E13.59043
G1 X259.724 Y75.365 E13.62473
G1 X260.101 Y75.365 E13.63728
G1 X260.830 Y74.635 E13.67159
G1 X261.207 Y74.635 E13.68414
G1 X260.478 Y75.365 E13.71844
G1 X260.855 Y75.365 E13.73099
G1 X261.584 Y74.635 E13.76530
G1 X261.962 Y74.635 E13.77784
G1 X261.232 Y75.365 E13.81215
G1 X261.610 Y75.365 E13.82470
G1 X262.339 Y74.635 E13.85900
G1 X262.571 Y74.635 E13.86672
G1 X262.544 Y74.808 E13.87253
G1 X261.987 Y75.365 E13.89872
G1 X262.364 Y75.365 F7800.000
G1 F1800.000
G1 X262.571 Y75.158 E13.90844
G1 E11.90844 F2400.00000
G92 E0
G1 X222.778 Y74.473 F7800.000
G1 E2.00000 F2400.00000
G1 F1800.000
G1 X222.695 Y75.000 E2.01767
G1 X222.778 Y75.527 E2.03534
G1 X187.222 Y75.527 E3.21331
G1 X187.305 Y75.000 E3.23098
G1 X187.222 Y74.473 E3.24866
G1 X222.718 Y74.473 E4.42464
G1 X223.063 Y74.371 F7800.000
G1 F1800.000
G1 X222.964 Y75.000 E4.44574
G1 X223.063 Y75.629 E4.46685
G1 X223.147 Y75.793 E4.47292
G1 X186.853 Y75.793 E5.67531
G1 X186.937 Y75.629 E5.68138
G1 X187.036 Y75.000 E5.70249
G1 X186.937 Y74.371 E5.72359
G1 X186.853 Y74.207 E5.72966
G1 X223.147 Y74.207 E6.93205
G1 X223.091 Y74.317 E6.93614
G1 X223.581 Y73.942 F7800.000
G1 F1800.000
G1 X223.319 Y74.454 E6.95519
G1 X223.233 Y75.000 E6.97350
G1 X223.319 Y75.546 E6.99182
G1 X223.581 Y76.058 E7.01087
G1 X186.419 Y76.058 E8.24201
G1 X186.681 Y75.546 E8.26106
G1 X186.767 Y75.000 E8.27938
G1 X186.681 Y74.454 E8.29769
G1 X186.419 Y73.942 E8.31674
G1 X223.521 Y73.942 E9.54590
G1 X222.571 Y75.158 F7800.000
G1 F1800.000
G1 X222.364 Y75.365 E9.55562
G1 X221.987 Y75.365 F7800.000
G1 F1800.000
G1 X222.544 Y74.808 E9.58181
G1 X222.571 Y74.635 E9.58762
G1 X222.339 Y74.635 E9.59534
G1 X221.610 Y75.365 E9.62964
G1 X221.232 Y75.365 E9.64219
G1 X221.962 Y74.635 E9.67650
G1 X221.584 Y74.635 E9.68904
G1 X220.855 Y75.365 E9.72335
G1 X220.478 Y75.365 E9.73590
G1 X221.207 Y74.635 E9.77020
G1 X220.830 Y74.635 E9.78275
G1 X220.101 Y75.365 E9.81706
G1 X219.724 Y75.365 E9.82961
G1 X220.453 Y74.635 E9.86391
G1 X220.076 Y74.635 E9.87646
G1 X219.346 Y75.365 E9.91076
G1 X218.969 Y75.365 E9.92331
G1 X219.698 Y74.635 E9.95762
G1 X219.321 Y74.635 E9.97017
G1 X218.592 Y75.365 E10.00447
G1 X218.215 Y75.365 E10.01702
G1 X218.944 Y74.635 E10.05132
G1 X218.567 Y74.635 E10.06387
G1 X217.838 Y75.365 E10.09818
G1 X217.460 Y75.365 E10.11073
G1 X218.190 Y74.635 E10.14503
G1 X217.812 Y74.635 E10.15758
G1 X217.083 Y75.365 E10.19188
G1 X216.706 Y75.365 E10.20443
G1 X217.435 Y74.635 E10.23874
G1 X217.058 Y74.635 E10.25129
G1 X216.329 Y75.365 E10.28559
G1 X215.952 Y75.365 E10.29814
G1 X216.681 Y74.635 E10.33244
G1 X216.304 Y74.635 E10.34499
G1 X215.574 Y75.365 E10.37930
G1 X215.197 Y75.365 E10.39185
G1 X215.926 Y74.635 E10.42615
G1 X215.549 Y74.635 E10.43870
G1 X214.820 Y75.365 E10.47301
G1 X214.443 Y75.365 E10.48555
G1 X215.172 Y74.635 E10.51986
G1 X214.795 Y74.635 E10.53241
G1 X214.066 Y75.365 E10.56671
G1 X213.688 Y75.365 E10.57926
G1 X214.417 Y74.635 E10.61356
G1 X214.040 Y74.635 E10.62611
G1 X213.311 Y75.365 E10.66042
G1 X212.934 Y75.365 E10.67297
G1 X213.663 Y74.635 E10.70727
G1 X213.286 Y74.635 E10.71982
G1 X212.557 Y75.365 E10.75413
G1 X212.180 Y75.365 E10.76667
G1 X212.909 Y74.635 E10.80098
G1 X212.531 Y74.635 E10.81353
G1 X211.802 Y75.365 E10.84783
G1 X211.425 Y75.365 E10.86038
G1 X212.154 Y74.635 E10.89469
G1 X211.777 Y74.635 E10.90723
G1 X211.048 Y75.365 E10.94154
G1 X210.671 Y75.365 E10.95409
G1 X211.400 Y74.635 E10.98839
G1 X211.023 Y74.635 E11.00094
G1 X210.293 Y75.365 E11.03525
G1 X209.916 Y75.365 E11.04779
G1 X210.645 Y74.635 E11.08210
G1 X210.268 Y74.635 E11.09465
G1 X209.539 Y75.365 E11.12895
G1 X209.162 Y75.365 E11.14150
G1 X209.891 Y74.635 E11.17581
G1 X209.514 Y74.635 E11.18836
G1 X208.785 Y75.365 E11.22266
G1 X208.407 Y75.365 E11.23521
G1 X209.137 Y74.635 E11.26951
G1 X208.759 Y74.635 E11.28206
G1 X208.030 Y75.365 E11.31637
G1 X207.653 Y75.365 E11.32891
G1 X208.382 Y74.635 E11.36322
G1 X208.005 Y74.635 E11.37577
G1 X207.276 Y75.365 E11.41007
G1 X206.899 Y75.365 E11.42262
G1 X207.628 Y74.635 E11.45693
G1 X207.251 Y74.635 E11.46947
G1 X206.521 Y75.365 E11.50378
G1 X206.144 Y75.365 E11.51633
G1 X206.873 Y74.635 E11.55063
G1 X206.496 Y74.635 E11.56318
G1 X205.767 Y75.365 E11.59749
G1 X205.390 Y75.365 E11.61004
G1 X206.119 Y74.635 E11.64434
G1 X205.742 Y74.635 E11.65689
G1 X205.013 Y75.365 E11.69119
G1 X204.635 Y75.365 E11.70374
G1 X205.365 Y74.635 E11.73805
G1 X204.987 Y74.635 E11.75060
G1 X204.258 Y75.365 E11.78490
G1 X203.881 Y75.365 E11.79745
G1 X204.610 Y74.635 E11.83175
G1 X204.233 Y74.635 E11.84430
G1 X203.504 Y75.365 E11.87861
G1 X203.127 Y75.365 E11.89116
G1 X203.856 Y74.635 E11.92546
G1 X203.479 Y74.635 E11.93801
G1 X202.749 Y75.365 E11.97232
G1 X202.372 Y75.365 E11.98486
G1 X203.101 Y74.635 E12.01917
G1 X202.724 Y74.635 E12.03172
G1 X201.995 Y75.365 E12.06602
G1 X201.618 Y75.365 E12.07857
G1 X202.347 Y74.635 E12.11288
G1 X201.970 Y74.635 E12.12542
G1 X201.241 Y75.365 E12.15973
G1 X200.863 Y75.365 E12.17228
G1 X201.593 Y74.635 E12.20658
G1 X201.215 Y74.635 E12.21913
G1 X200.486 Y75.365 E12.25344
G1 X200.109 Y75.365 E12.26599
G1 X200.838 Y74.635 E12.30029
G1 X200.461 Y74.635 E12.31284
G1 X199.732 Y75.365 E12.34714
G1 X199.355 Y75.365 E12.35969
G1 X200.084 Y74.635 E12.39400
G1 X199.707 Y74.635 E12.40654
G1 X198.977 Y75.365 E12.44085
G1 X198.600 Y75.365 E12.45340
G1 X199.329 Y74.635 E12.48770
G1 X198.952 Y74.635 E12.50025
G1 X198.223 Y75.365 E12.53456
G1 X197.846 Y75.365 E12.54711
G1 X198.575 Y74.635 E12.58141
G1 X198.198 Y74.635 E12.59396
G1 X197.469 Y75.365 E12.62826
G1 X197.091 Y75.365 E12.64081
G1 X197.820 Y74.635 E12.67512
G1 X197.443 Y74.635 E12.68767
G1 X196.714 Y75.365 E12.72197
G1 X196.337 Y75.365 E12.73452
G1 X197.066 Y74.635 E12.76882
G1 X196.689 Y74.635 E12.78137
G1 X195.960 Y75.365 E12.81568
G1 X195.582 Y75.365 E12.82823
G1 X196.312 Y74.635 E12.86253
G1 X195.934 Y74.635 E12.87508
G1 X195.205 Y75.365 E12.90939
G1 X194.828 Y75.365 E12.92193
G1 X195.557 Y74.635 E12.95624
G1 X195.180 Y74.635 E12.96879
G1 X194.451 Y75.365 E13.00309
G1 X194.074 Y75.365 E13.01564
G1 X194.803 Y74.635 E13.04995
G1 X194.426 Y74.635 E13.06250
G1 X193.696 Y75.365 E13.09680
G1 X193.319 Y75.365 E13.10935
G1 X194.048 Y74.635 E13.14365
G1 X193.671 Y74.635 E13.15620
G1 X192.942 Y75.365 E13.19051
G1 X192.565 Y75.365 E13.20305
G1 X193.294 Y74.635 E13.23736
G1 X192.917 Y74.635 E13.24991
G1 X192.188 Y75.365 E13.28421
G1 X191.810 Y75.365 E13.29676
G1 X192.540 Y74.635 E13.33107
G1 X192.162 Y74.635 E13.34362
G1 X191.433 Y75.365 E13.37792
G1 X191.056 Y75.365 E13.39047
G1 X191.785 Y74.635 E13.42477
G1 X191.408 Y74.635 E13.43732
G1 X190.679 Y75.365 E13.47163
G1 X190.302 Y75.365 E13.48418
G1 X191.031 Y74.635 E13.51848
G1 X190.654 Y74.635 E13.53103
G1 X189.924 Y75.365 E13.56533
G1 X189.547 Y75.365 E13.57788
G1 X190.276 Y74.635 E13.61219
G1 X189.899 Y74.635 E13.62474
G1 X189.170 Y75.365 E13.65904
G1 X188.793 Y75.365 E13.67159
G1 X189.522 Y74.635 E13.70590
G1 X189.145 Y74.635 E13.71844
G1 X188.416 Y75.365 E13.75275
G1 X188.038 Y75.365 E13.76530
G1 X188.768 Y74.635 E13.79960
G1 X188.390 Y74.635 E13.81215
G1 X187.661 Y75.365 E13.84646
G1 X187.429 Y75.365 E13.85417
G1 X187.456 Y75.192 E13.85998
G1 X188.013 Y74.635 E13.88617
G1 X187.636 Y74.635 E13.89872
G1 X187.429 Y74.842 E13.90844
G1 E11.90844 F2400.00000
G92 E0
G1 X182.778 Y74.473 F7800.000
G1 E2.00000 F2400.00000
G1 F1800.000
G1 X182.695 Y75.000 E2.01767
G1 X182.778 Y75.527 E2.03534
G1 X147.222 Y75.527 E3.21331
G1 X147.305 Y75.000 E3.23098
G1 X147.222 Y74.473 E3.24866
G1 X182.718 Y74.473 E4.42464
G1 X183.063 Y74.371 F7800.000
G1 F1800.000
G1 X182.964 Y75.000 E4.44574
G1 X183.063 Y75.629 E4.46685
G1 X183.147 Y75.793 E4.47292
G1 X146.853 Y75.793 E5.67531
G1 X146.937 Y75.629 E5.68138
G1 X147.036 Y75.000 E5.70249
G1 X146.937 Y74.371 E5.72359
G1 X146.853 Y74.207 E5.72966
G1 X183.147 Y74.207 E6.93205
G1 X183.091 Y74.317 E6.93614
G1 X183.581 Y73.942 F7800.000
G1 F1800.000
G1 X183.319 Y74.454 E6.95519
G1 X183.233 Y75.000 E6.97350
G1 X183.319 Y75.546 E6.99182
G1 X183.581 Y76.058 E7.01087
G1 X146.419 Y76.058 E8.24201
G1 X146.681 Y75.546 E8.26106
G1 X146.767 Y75.000 E8.27938
G1 X146.681 Y74.454 E8.29769
G1 X146.419 Y73.942 E8.31674
G1 X183.521 Y73.942 E9.54590
G1 X182.571 Y75.158 F7800.000
G1 F1800.000
G1 X182.364 Y75.365 E9.55562
G1 X181.987 Y75.365 F7800.000
G1 F1800.000
G1 X182.544 Y74.808 E9.58181
G1 X182.571 Y74.635 E9.58762
G1 X182.339 Y74.635 E9.59534
G1 X181.610 Y75.365 E9.62964
G1 X181.232 Y75.365 E9.64219
G1 X181.962 Y74.635 E9.67649
G1 X181.584 Y74.635 E9.68904
G1 X180.855 Y75.365 E9.72335
G1 X180.478 Y75.365 E9.73590
G1 X181.207 Y74.635 E9.77020
G1 X180.830 Y74.635 E9.78275
G1 X180.101 Y75.365 E9.81706
G1 X179.724 Y75.365 E9.82960
G1 X180.453 Y74.635 E9.86391
G1 X180.076 Y74.635 E9.87646
G1 X179.346 Y75.365 E9.91076
G1 X178.969 Y75.365 E9.92331
G1 X179.698 Y74.635 E9.95762
G1 X179.321 Y74.635 E9.97016
G1 X178.592 Y75.365 E10.00447
G1 X178.215 Y75.365 E10.01702
G1 X178.944 Y74.635 E10.05132
G1 X178.567 Y74.635 E10.06387
G1 X177.838 Y75.365 E10.09818
G1 X177.460 Y75.365 E10.11072
G1 X178.190 Y74.635 E10.14503
G1 X177.812 Y74.635 E10.15758
G1 X177.083 Y75.365 E10.19188
G1 X176.706 Y75.365 E10.20443
G1 X177.435 Y74.635 E10.23874
