; generated by Slic3r 1.3.1-dev (Build 4f5b935) on 2019-11-26 at 14:51:52

; external perimeters extrusion width = 0.55mm (1.90mm^3/s)
; perimeters extrusion width = 0.70mm (2.71mm^3/s)
; infill extrusion width = 0.62mm (2.41mm^3/s)
; solid infill extrusion width = 0.70mm (2.04mm^3/s)
; top infill extrusion width = 0.70mm (2.04mm^3/s)

M107
G92 E0
;D3D:START:START
T0
M104 S215 T0

G21
G90
M107
T0
G28
G29
M109 T0 S215 T0
G0 F3000
M107
T0
G92 E0
G0 X0 Y149 Z0.1 F3600
G1 Y49 E6.5 F1200
G0 Z1
G92 E0
; Filament gcode

G21 ; set units to millimeters
G90 ; use absolute coordinates
M82 ; use absolute distances for extrusion
G92 E0
G1 Z0.090 F7800.000
G1 E-2.00000 F2400.00000
G92 E0
G1 X66.009 Y66.033 F7800.000
G1 E2.00000 F2400.00000
G1 F1800.000
G1 X66.615 Y65.463 E2.00248
G1 X67.204 Y64.977 E2.00476
G1 X67.877 Y64.488 E2.00724
G1 X68.521 Y64.079 E2.00951
G1 X69.250 Y63.678 E2.01199
G1 X69.941 Y63.353 E2.01427
G1 X70.715 Y63.046 E2.01675
G1 X71.441 Y62.811 E2.01903
G1 X72.247 Y62.604 E2.02151
G1 X72.997 Y62.461 E2.02379
G1 X73.822 Y62.356 E2.02627
G1 X74.584 Y62.308 E2.02854
G1 X75.416 Y62.308 E2.03102
G1 X76.178 Y62.356 E2.03330
G1 X77.003 Y62.461 E2.03578
G1 X77.753 Y62.604 E2.03806
G1 X78.559 Y62.811 E2.04054
G1 X79.285 Y63.046 E2.04281
G1 X80.059 Y63.353 E2.04529
G1 X80.750 Y63.678 E2.04757
G1 X81.479 Y64.079 E2.05005
G1 X82.123 Y64.488 E2.05233
G1 X82.796 Y64.977 E2.05481
G1 X83.385 Y65.463 E2.05709
G1 X83.991 Y66.033 E2.05957
G1 X84.514 Y66.590 E2.06184
G1 X85.044 Y67.231 E2.06432
G1 X85.493 Y67.848 E2.06660
G1 X85.939 Y68.551 E2.06908
G1 X86.307 Y69.220 E2.07136
G1 X86.661 Y69.973 E2.07384
G1 X86.942 Y70.682 E2.07611
G1 X87.199 Y71.474 E2.07859
G1 X87.389 Y72.213 E2.08087
G1 X87.545 Y73.030 E2.08335
G1 X87.640 Y73.788 E2.08563
G1 X87.693 Y74.618 E2.08811
G1 X87.693 Y75.382 E2.09039
G1 X87.640 Y76.212 E2.09287
G1 X87.545 Y76.970 E2.09514
G1 X87.389 Y77.787 E2.09762
G1 X87.199 Y78.526 E2.09990
G1 X86.942 Y79.318 E2.10238
G1 X86.661 Y80.027 E2.10466
G1 X86.307 Y80.780 E2.10714
G1 X85.939 Y81.449 E2.10941
G1 X85.493 Y82.152 E2.11189
G1 X85.044 Y82.769 E2.11417
G1 X84.514 Y83.410 E2.11665
G1 X83.991 Y83.967 E2.11893
G1 X83.385 Y84.537 E2.12141
G1 X82.796 Y85.023 E2.12369
G1 X82.123 Y85.512 E2.12617
G1 X81.479 Y85.921 E2.12844
G1 X80.750 Y86.322 E2.13092
G1 X80.059 Y86.647 E2.13320
G1 X79.285 Y86.953 E2.13568
G1 X78.559 Y87.189 E2.13796
G1 X77.753 Y87.396 E2.14044
G1 X77.003 Y87.539 E2.14271
G1 X76.178 Y87.644 E2.14519
G1 X75.416 Y87.692 E2.14747
G1 X74.584 Y87.692 E2.14995
G1 X73.822 Y87.644 E2.15223
G1 X72.997 Y87.539 E2.15471
G1 X72.247 Y87.396 E2.15699
G1 X71.441 Y87.189 E2.15947
G1 X70.715 Y86.953 E2.16174
G1 X69.941 Y86.647 E2.16422
G1 X69.250 Y86.322 E2.16650
G1 X68.521 Y85.921 E2.16898
G1 X67.877 Y85.512 E2.17126
G1 X67.204 Y85.023 E2.17374
G1 X66.615 Y84.537 E2.17601
G1 X66.009 Y83.967 E2.17849
G1 X65.486 Y83.410 E2.18077
G1 X64.956 Y82.769 E2.18325
G1 X64.507 Y82.152 E2.18553
G1 X64.061 Y81.449 E2.18801
G1 X63.693 Y80.780 E2.19029
G1 X63.339 Y80.027 E2.19277
G1 X63.058 Y79.318 E2.19504
G1 X62.801 Y78.526 E2.19752
G1 X62.611 Y77.787 E2.19980
G1 X62.455 Y76.970 E2.20228
G1 X62.360 Y76.212 E2.20456
G1 X62.307 Y75.382 E2.20704
G1 X62.307 Y74.618 E2.20931
G1 X62.360 Y73.788 E2.21179
G1 X62.455 Y73.030 E2.21407
G1 X62.611 Y72.213 E2.21655
G1 X62.801 Y71.474 E2.21883
G1 X63.058 Y70.682 E2.22131
G1 X63.339 Y69.973 E2.22359
G1 X63.693 Y69.220 E2.22607
G1 X64.061 Y68.551 E2.22834
G1 X64.507 Y67.848 E2.23082
G1 X64.956 Y67.231 E2.23310
G1 X65.486 Y66.590 E2.23558
G1 X65.957 Y66.088 E2.23763
G1 E0.23763 F2400.00000
G92 E0
G1 X77.489 Y77.337 F7800.000
G1 E2.00000 F2400.00000
G1 F1800.000
G1 X77.176 Y77.631 E2.00128
G1 X76.829 Y77.883 E2.00256
G1 X76.454 Y78.089 E2.00384
G1 X76.055 Y78.247 E2.00511
G1 X75.640 Y78.354 E2.00639
G1 X75.214 Y78.407 E2.00767
G1 X74.786 Y78.407 E2.00895
G1 X74.360 Y78.354 E2.01023
G1 X73.945 Y78.247 E2.01151
G1 X73.546 Y78.089 E2.01278
G1 X73.171 Y77.883 E2.01406
G1 X72.824 Y77.631 E2.01534
G1 X72.511 Y77.337 E2.01662
G1 X72.238 Y77.007 E2.01790
G1 X72.008 Y76.645 E2.01918
G1 X71.826 Y76.257 E2.02045
G1 X71.693 Y75.849 E2.02173
G1 X71.613 Y75.428 E2.02301
G1 X71.586 Y75.000 E2.02429
G1 X71.613 Y74.572 E2.02557
G1 X71.693 Y74.151 E2.02685
G1 X71.826 Y73.743 E2.02812
G1 X72.008 Y73.355 E2.02940
G1 X72.238 Y72.993 E2.03068
G1 X72.511 Y72.663 E2.03196
G1 X72.824 Y72.369 E2.03324
G1 X73.171 Y72.117 E2.03452
G1 X73.546 Y71.911 E2.03579
G1 X73.945 Y71.753 E2.03707
G1 X74.360 Y71.646 E2.03835
G1 X74.786 Y71.593 E2.03963
G1 X75.214 Y71.593 E2.04091
G1 X75.640 Y71.646 E2.04219
G1 X76.055 Y71.753 E2.04347
G1 X76.454 Y71.911 E2.04474
G1 X76.829 Y72.117 E2.04602
G1 X77.176 Y72.369 E2.04730
G1 X77.489 Y72.663 E2.04858
G1 X77.762 Y72.993 E2.04986
G1 X77.992 Y73.355 E2.05114
G1 X78.174 Y73.743 E2.05241
G1 X78.307 Y74.151 E2.05369
G1 X78.387 Y74.572 E2.05497
G1 X78.414 Y75.000 E2.05625
G1 X78.387 Y75.428 E2.05753
G1 X78.307 Y75.849 E2.05881
G1 X78.174 Y76.257 E2.06008
G1 X77.992 Y76.645 E2.06136
G1 X77.762 Y77.007 E2.06264
G1 X77.537 Y77.279 E2.06370
G1 X77.431 Y77.282 F7800.000
G1 F1800.000
G1 X77.125 Y77.569 E2.06494
G1 X76.787 Y77.815 E2.06619
G1 X76.420 Y78.017 E2.06744
G1 X76.030 Y78.171 E2.06869
G1 X75.625 Y78.275 E2.06994
G1 X75.209 Y78.328 E2.07119
G1 X74.791 Y78.328 E2.07243
G1 X74.375 Y78.275 E2.07368
G1 X73.970 Y78.171 E2.07493
G1 X73.580 Y78.017 E2.07618
G1 X73.213 Y77.815 E2.07743
G1 X72.875 Y77.569 E2.07868
G1 X72.569 Y77.282 E2.07993
G1 X72.303 Y76.960 E2.08117
G1 X72.078 Y76.606 E2.08242
G1 X71.900 Y76.227 E2.08367
G1 X71.770 Y75.829 E2.08492
G1 X71.692 Y75.418 E2.08617
G1 X71.666 Y75.000 E2.08742
G1 X71.692 Y74.582 E2.08867
G1 X71.770 Y74.171 E2.08991
G1 X71.900 Y73.773 E2.09116
G1 X72.078 Y73.394 E2.09241
G1 X72.303 Y73.040 E2.09366
G1 X72.569 Y72.718 E2.09491
G1 X72.875 Y72.431 E2.09616
G1 X73.213 Y72.185 E2.09740
G1 X73.580 Y71.983 E2.09865
G1 X73.970 Y71.829 E2.09990
G1 X74.375 Y71.725 E2.10115
G1 X74.791 Y71.672 E2.10240
G1 X75.209 Y71.672 E2.10365
G1 X75.625 Y71.725 E2.10490
G1 X76.030 Y71.829 E2.10614
G1 X76.420 Y71.983 E2.10739
G1 X76.787 Y72.185 E2.10864
G1 X77.125 Y72.431 E2.10989
G1 X77.431 Y72.718 E2.11114
G1 X77.697 Y73.040 E2.11239
G1 X77.922 Y73.394 E2.11364
G1 X78.100 Y73.773 E2.11488
G1 X78.230 Y74.171 E2.11613
G1 X78.308 Y74.582 E2.11738
G1 X78.334 Y75.000 E2.11863
G1 X78.308 Y75.418 E2.11988
G1 X78.230 Y75.829 E2.12113
G1 X78.100 Y76.227 E2.12237
G1 X77.922 Y76.606 E2.12362
G1 X77.697 Y76.960 E2.12487
G1 X77.478 Y77.225 E2.12590
G1 X77.372 Y77.228 F7800.000
G1 F1800.000
G1 X77.074 Y77.508 E2.12711
G1 X76.744 Y77.748 E2.12833
G1 X76.386 Y77.945 E2.12955
G1 X76.006 Y78.095 E2.13077
G1 X75.610 Y78.197 E2.13199
G1 X75.204 Y78.248 E2.13321
G1 X74.796 Y78.248 E2.13443
G1 X74.390 Y78.197 E2.13565
G1 X73.994 Y78.095 E2.13686
G1 X73.614 Y77.945 E2.13808
G1 X73.256 Y77.748 E2.13930
G1 X72.926 Y77.508 E2.14052
G1 X72.628 Y77.228 E2.14174
G1 X72.367 Y76.913 E2.14296
G1 X72.148 Y76.568 E2.14418
G1 X71.974 Y76.198 E2.14539
G1 X71.848 Y75.809 E2.14661
G1 X71.771 Y75.408 E2.14783
G1 X71.746 Y75.000 E2.14905
G1 X71.771 Y74.592 E2.15027
G1 X71.848 Y74.191 E2.15149
G1 X71.974 Y73.802 E2.15271
G1 X72.148 Y73.432 E2.15392
G1 X72.367 Y73.087 E2.15514
G1 X72.628 Y72.772 E2.15636
G1 X72.926 Y72.492 E2.15758
G1 X73.256 Y72.252 E2.15880
G1 X73.614 Y72.055 E2.16002
G1 X73.994 Y71.905 E2.16124
G1 X74.390 Y71.803 E2.16245
G1 X74.796 Y71.752 E2.16367
G1 X75.204 Y71.752 E2.16489
G1 X75.610 Y71.803 E2.16611
G1 X76.006 Y71.905 E2.16733
G1 X76.386 Y72.055 E2.16855
G1 X76.744 Y72.252 E2.16977
G1 X77.074 Y72.492 E2.17098
G1 X77.372 Y72.772 E2.17220
G1 X77.633 Y73.087 E2.17342
G1 X77.852 Y73.432 E2.17464
G1 X78.026 Y73.802 E2.17586
G1 X78.152 Y74.191 E2.17708
G1 X78.229 Y74.592 E2.17830
G1 X78.254 Y75.000 E2.17951
G1 X78.229 Y75.408 E2.18073
G1 X78.152 Y75.809 E2.18195
G1 X78.026 Y76.198 E2.18317
G1 X77.852 Y76.568 E2.18439
G1 X77.633 Y76.913 E2.18561
G1 X77.420 Y77.170 E2.18660
G1 X77.314 Y77.173 F7800.000
G1 F1800.000
G1 X77.024 Y77.446 E2.18779
G1 X76.701 Y77.680 E2.18898
G1 X76.352 Y77.872 E2.19017
G1 X75.981 Y78.019 E2.19136
G1 X75.595 Y78.118 E2.19255
G1 X75.199 Y78.168 E2.19373
G1 X74.801 Y78.168 E2.19492
G1 X74.405 Y78.118 E2.19611
G1 X74.019 Y78.019 E2.19730
G1 X73.648 Y77.872 E2.19849
G1 X73.299 Y77.680 E2.19968
G1 X72.976 Y77.446 E2.20087
G1 X72.686 Y77.173 E2.20206
G1 X72.432 Y76.866 E2.20324
G1 X72.218 Y76.529 E2.20443
G1 X72.048 Y76.169 E2.20562
G1 X71.925 Y75.789 E2.20681
G1 X71.850 Y75.398 E2.20800
G1 X71.825 Y75.000 E2.20919
G1 X71.850 Y74.602 E2.21038
G1 X71.925 Y74.211 E2.21156
G1 X72.048 Y73.831 E2.21275
G1 X72.218 Y73.471 E2.21394
G1 X72.432 Y73.134 E2.21513
G1 X72.686 Y72.827 E2.21632
G1 X72.976 Y72.554 E2.21751
G1 X73.299 Y72.320 E2.21870
G1 X73.648 Y72.128 E2.21989
G1 X74.019 Y71.981 E2.22107
G1 X74.405 Y71.882 E2.22226
G1 X74.801 Y71.832 E2.22345
G1 X75.199 Y71.832 E2.22464
G1 X75.595 Y71.882 E2.22583
G1 X75.981 Y71.981 E2.22702
G1 X76.352 Y72.128 E2.22821
G1 X76.701 Y72.320 E2.22940
G1 X77.024 Y72.554 E2.23058
G1 X77.314 Y72.827 E2.23177
G1 X77.568 Y73.134 E2.23296
G1 X77.782 Y73.471 E2.23415
G1 X77.952 Y73.831 E2.23534
G1 X78.075 Y74.211 E2.23653
G1 X78.150 Y74.602 E2.23772
G1 X78.175 Y75.000 E2.23890
G1 X78.150 Y75.398 E2.24009
G1 X78.075 Y75.789 E2.24128
G1 X77.952 Y76.169 E2.24247
G1 X77.782 Y76.529 E2.24366
G1 X77.568 Y76.866 E2.24485
G1 X77.362 Y77.115 E2.24581
G1 X77.314 Y77.173 F7800.000
G1 E0.24581 F2400.00000
G92 E0
G1 X79.474 Y79.473 F7800.000
G1 E2.00000 F2400.00000
G1 F1800.000
G1 X79.039 Y79.882 E2.00178
G1 X78.395 Y80.350 E2.00415
G1 X77.698 Y80.733 E2.00653
G1 X76.958 Y81.026 E2.00890
G1 X76.187 Y81.224 E2.01127
G1 X75.398 Y81.323 E2.01364
G1 X74.602 Y81.323 E2.01601
G1 X73.813 Y81.224 E2.01839
G1 X73.042 Y81.026 E2.02076
G1 X72.302 Y80.733 E2.02313
G1 X71.605 Y80.350 E2.02550
G1 X70.961 Y79.882 E2.02788
G1 X70.381 Y79.337 E2.03025
G1 X69.874 Y78.724 E2.03262
G1 X69.448 Y78.052 E2.03499
G1 X69.109 Y77.332 E2.03737
G1 X68.863 Y76.576 E2.03974
G1 X68.714 Y75.794 E2.04211
G1 X68.664 Y75.000 E2.04448
G1 X68.714 Y74.206 E2.04686
G1 X68.863 Y73.424 E2.04923
G1 X69.109 Y72.668 E2.05160
G1 X69.448 Y71.948 E2.05397
G1 X69.874 Y71.276 E2.05635
G1 X70.381 Y70.663 E2.05872
G1 X70.961 Y70.118 E2.06109
G1 X71.605 Y69.650 E2.06346
G1 X72.302 Y69.267 E2.06584
G1 X73.042 Y68.974 E2.06821
G1 X73.813 Y68.776 E2.07058
G1 X74.602 Y68.677 E2.07295
G1 X75.398 Y68.677 E2.07533
G1 X76.187 Y68.776 E2.07770
G1 X76.958 Y68.974 E2.08007
G1 X77.698 Y69.267 E2.08244
G1 X78.395 Y69.650 E2.08481
G1 X79.039 Y70.118 E2.08719
G1 X79.619 Y70.663 E2.08956
G1 X80.126 Y71.276 E2.09193
G1 X80.552 Y71.948 E2.09430
G1 X80.891 Y72.668 E2.09668
G1 X81.137 Y73.424 E2.09905
G1 X81.286 Y74.206 E2.10142
G1 X81.336 Y75.000 E2.10379
G1 X81.286 Y75.794 E2.10617
G1 X81.137 Y76.576 E2.10854
G1 X80.891 Y77.332 E2.11091
G1 X80.552 Y78.052 E2.11328
G1 X80.126 Y78.724 E2.11566
G1 X79.619 Y79.337 E2.11803
G1 X79.529 Y79.422 E2.11840
G1 X79.529 Y79.531 F7800.000
G1 F1800.000
G1 X79.090 Y79.943 E2.12019
G1 X78.438 Y80.417 E2.12259
G1 X77.732 Y80.805 E2.12500
G1 X76.983 Y81.102 E2.12740
G1 X76.202 Y81.302 E2.12980
G1 X75.403 Y81.403 E2.13220
G1 X74.597 Y81.403 E2.13461
G1 X73.798 Y81.302 E2.13701
G1 X73.017 Y81.102 E2.13941
G1 X72.268 Y80.805 E2.14181
G1 X71.562 Y80.417 E2.14422
G1 X70.910 Y79.943 E2.14662
G1 X70.323 Y79.392 E2.14902
G1 X69.810 Y78.771 E2.15142
G1 X69.378 Y78.091 E2.15382
G1 X69.035 Y77.362 E2.15623
G1 X68.786 Y76.596 E2.15863
G1 X68.635 Y75.804 E2.16103
G1 X68.584 Y75.000 E2.16343
G1 X68.635 Y74.196 E2.16584
G1 X68.786 Y73.404 E2.16824
G1 X69.035 Y72.638 E2.17064
G1 X69.378 Y71.909 E2.17304
G1 X69.810 Y71.229 E2.17544
G1 X70.323 Y70.608 E2.17785
G1 X70.910 Y70.057 E2.18025
G1 X71.562 Y69.583 E2.18265
G1 X72.268 Y69.195 E2.18505
G1 X73.017 Y68.898 E2.18746
G1 X73.798 Y68.698 E2.18986
G1 X74.597 Y68.597 E2.19226
G1 X75.403 Y68.597 E2.19466
G1 X76.202 Y68.698 E2.19707
G1 X76.983 Y68.898 E2.19947
G1 X77.732 Y69.195 E2.20187
G1 X78.438 Y69.583 E2.20427
G1 X79.090 Y70.057 E2.20667
G1 X79.677 Y70.608 E2.20908
G1 X80.190 Y71.229 E2.21148
G1 X80.622 Y71.909 E2.21388
G1 X80.965 Y72.638 E2.21628
G1 X81.214 Y73.404 E2.21869
G1 X81.365 Y74.196 E2.22109
G1 X81.416 Y75.000 E2.22349
G1 X81.365 Y75.804 E2.22589
G1 X81.214 Y76.596 E2.22830
G1 X80.965 Y77.362 E2.23070
G1 X80.622 Y78.091 E2.23310
G1 X80.190 Y78.771 E2.23550
G1 X79.677 Y79.392 E2.23790
G1 X79.583 Y79.480 E2.23829
G1 X79.583 Y79.589 F7800.000
G1 F1800.000
G1 X79.140 Y80.005 E2.24010
G1 X78.480 Y80.484 E2.24253
G1 X77.766 Y80.877 E2.24496
G1 X77.007 Y81.178 E2.24739
G1 X76.217 Y81.381 E2.24983
G1 X75.408 Y81.483 E2.25226
G1 X74.592 Y81.483 E2.25469
G1 X73.783 Y81.381 E2.25712
G1 X72.993 Y81.178 E2.25956
G1 X72.234 Y80.877 E2.26199
G1 X71.520 Y80.484 E2.26442
G1 X70.860 Y80.005 E2.26685
G1 X70.265 Y79.447 E2.26928
G1 X69.745 Y78.818 E2.27172
G1 X69.308 Y78.129 E2.27415
G1 X68.961 Y77.391 E2.27658
G1 X68.709 Y76.615 E2.27901
G1 X68.556 Y75.814 E2.28145
G1 X68.504 Y75.000 E2.28388
G1 X68.556 Y74.186 E2.28631
G1 X68.709 Y73.385 E2.28874
G1 X68.961 Y72.609 E2.29117
G1 X69.308 Y71.871 E2.29361
G1 X69.745 Y71.182 E2.29604
G1 X70.265 Y70.553 E2.29847
G1 X70.860 Y69.995 E2.30090
G1 X71.520 Y69.516 E2.30334
G1 X72.234 Y69.123 E2.30577
G1 X72.993 Y68.822 E2.30820
G1 X73.783 Y68.619 E2.31063
G1 X74.592 Y68.517 E2.31306
G1 X75.408 Y68.517 E2.31550
G1 X76.217 Y68.619 E2.31793
G1 X77.007 Y68.822 E2.32036
G1 X77.766 Y69.123 E2.32279
G1 X78.480 Y69.516 E2.32523
G1 X79.140 Y69.995 E2.32766
G1 X79.735 Y70.553 E2.33009
G1 X80.255 Y71.182 E2.33252
G1 X80.692 Y71.871 E2.33495
G1 X81.039 Y72.609 E2.33739
G1 X81.291 Y73.385 E2.33982
G1 X81.444 Y74.186 E2.34225
G1 X81.496 Y75.000 E2.34468
G1 X81.444 Y75.814 E2.34711
G1 X81.291 Y76.615 E2.34955
G1 X81.039 Y77.391 E2.35198
G1 X80.692 Y78.129 E2.35441
G1 X80.255 Y78.818 E2.35684
G1 X79.735 Y79.447 E2.35928
G1 X79.638 Y79.538 E2.35967
G1 X79.638 Y79.647 F7800.000
G1 F1800.000
G1 X79.191 Y80.066 E2.36150
G1 X78.523 Y80.552 E2.36396
G1 X77.800 Y80.950 E2.36642
G1 X77.032 Y81.254 E2.36889
G1 X76.232 Y81.459 E2.37135
G1 X75.413 Y81.562 E2.37381
G1 X74.587 Y81.562 E2.37627
G1 X73.768 Y81.459 E2.37873
G1 X72.968 Y81.254 E2.38120
G1 X72.200 Y80.950 E2.38366
G1 X71.477 Y80.552 E2.38612
G1 X70.809 Y80.066 E2.38858
G1 X70.207 Y79.501 E2.39104
G1 X69.680 Y78.865 E2.39351
G1 X69.238 Y78.168 E2.39597
G1 X68.886 Y77.421 E2.39843
G1 X68.631 Y76.635 E2.40089
G1 X68.476 Y75.824 E2.40335
G1 X68.425 Y75.000 E2.40582
G1 X68.476 Y74.176 E2.40828
G1 X68.631 Y73.365 E2.41074
G1 X68.886 Y72.579 E2.41320
G1 X69.238 Y71.832 E2.41567
G1 X69.680 Y71.135 E2.41813
G1 X70.207 Y70.499 E2.42059
G1 X70.809 Y69.934 E2.42305
G1 X71.477 Y69.448 E2.42551
G1 X72.200 Y69.050 E2.42798
G1 X72.968 Y68.746 E2.43044
G1 X73.768 Y68.541 E2.43290
G1 X74.587 Y68.438 E2.43536
G1 X75.413 Y68.438 E2.43782
G1 X76.232 Y68.541 E2.44029
G1 X77.032 Y68.746 E2.44275
G1 X77.800 Y69.050 E2.44521
G1 X78.523 Y69.448 E2.44767
G1 X79.191 Y69.934 E2.45013
G1 X79.793 Y70.499 E2.45260
G1 X80.320 Y71.135 E2.45506
G1 X80.762 Y71.832 E2.45752
G1 X81.114 Y72.579 E2.45998
G1 X81.369 Y73.365 E2.46245
G1 X81.524 Y74.176 E2.46491
G1 X81.575 Y75.000 E2.46737
G1 X81.524 Y75.824 E2.46983
G1 X81.369 Y76.635 E2.47229
G1 X81.114 Y77.421 E2.47476
G1 X80.762 Y78.168 E2.47722
G1 X80.320 Y78.865 E2.47968
G1 X79.793 Y79.501 E2.48214
G1 X79.692 Y79.596 E2.48255
G1 X79.154 Y79.519 F7800.000
G1 X79.527 Y79.316 F7800.000
G1 F1800.000
G1 X80.108 Y78.622 E2.48527
G1 X78.669 Y80.060 E2.49137
G1 X78.281 Y80.335 E2.49280
G1 X80.305 Y78.311 E2.50138
G1 X80.502 Y78.001 E2.50249
G1 X78.029 Y80.474 E2.51298
G1 X77.777 Y80.612 E2.51384
G1 X80.608 Y77.781 E2.52585
G1 X80.709 Y77.567 E2.52656
G1 X77.553 Y80.723 E2.53994
G1 X77.365 Y80.798 E2.54055
G1 X80.810 Y77.353 E2.55516
G1 X80.882 Y77.168 E2.55576
G1 X77.177 Y80.872 E2.57147
G1 X76.990 Y80.946 E2.57208
G1 X80.936 Y77.000 E2.58882
G1 X80.991 Y76.832 E2.58935
G1 X76.821 Y81.002 E2.60704
G1 X76.668 Y81.041 E2.60751
G1 X81.045 Y76.664 E2.62608
G1 X81.095 Y76.501 E2.62659
