; generated by Slic3r Prusa Edition 1.39.0 on 2019-10-17 at 22:12:14

; 

; external perimeters extrusion width = 0.45mm
; perimeters extrusion width = 0.45mm
; infill extrusion width = 0.45mm
; solid infill extrusion width = 0.45mm
; top infill extrusion width = 0.40mm
; first layer extrusion width = 0.42mm

M107
M104 S213 ; set temperature
G28 ; home all axes
G1 Z5 F5000 ; lift nozzle
; Filament gcode
M109 S213 ; set temperature and wait for it to be reached
G21 ; set units to millimeters
G90 ; use absolute coordinates
M82 ; use absolute distances for extrusion
G92 E0
G1 Z0.350 F7800.000
G1 E-2.00000 F2400.00000
G92 E0
G1 X86.922 Y86.922 F7800.000
G1 E2.00000 F2400.00000
G1 F1800
G1 X88.152 Y85.802 E2.08349
G1 X90.127 Y84.365 E2.20606
G1 X91.559 Y83.544 E2.28894
G1 X92.922 Y82.913 E2.36430
G1 X94.487 Y82.348 E2.44778
G1 X96.862 Y81.777 E2.57037
G1 X98.499 Y81.566 E2.65323
G1 X100.006 Y81.505 E2.72890
G1 X101.662 Y81.582 E2.81210
G1 X104.074 Y81.963 E2.93466
G1 X105.668 Y82.395 E3.01754
G1 X107.077 Y82.913 E3.09290
G1 X108.441 Y83.544 E3.16828
G1 X109.873 Y84.365 E3.25116
G1 X111.848 Y85.802 E3.37372
G1 X113.078 Y86.922 E3.45720
G1 X114.198 Y88.152 E3.54069
G1 X115.635 Y90.127 E3.66326
G1 X116.456 Y91.559 E3.74614
G1 X117.087 Y92.922 E3.82150
G1 X117.605 Y94.332 E3.89688
G1 X118.037 Y95.926 E3.97976
G1 X118.418 Y98.338 E4.10233
G1 X118.495 Y99.999 E4.18578
G1 X118.420 Y101.643 E4.26837
G1 X118.064 Y103.938 E4.38488
G1 X117.614 Y105.638 E4.47317
G1 X117.087 Y107.077 E4.55009
G1 X116.456 Y108.441 E4.62547
G1 X115.635 Y109.873 E4.70835
G1 X114.198 Y111.848 E4.83091
G1 X113.078 Y113.078 E4.91439
G1 X111.848 Y114.198 E4.99788
G1 X109.873 Y115.635 E5.12045
G1 X108.441 Y116.456 E5.20333
G1 X107.078 Y117.087 E5.27869
G1 X105.668 Y117.605 E5.35406
G1 X104.074 Y118.037 E5.43695
G1 X101.662 Y118.418 E5.55952
G1 X100.001 Y118.495 E5.64297
G1 X98.338 Y118.418 E5.72649
G1 X95.926 Y118.037 E5.84905
G1 X94.332 Y117.605 E5.93192
G1 X92.923 Y117.087 E6.00729
G1 X91.559 Y116.456 E6.08266
G1 X90.127 Y115.635 E6.16555
G1 X88.152 Y114.198 E6.28811
G1 X86.922 Y113.078 E6.37159
G1 X85.802 Y111.848 E6.45507
G1 X84.365 Y109.873 E6.57765
G1 X83.544 Y108.441 E6.66053
G1 X82.913 Y107.078 E6.73589
G1 X82.395 Y105.668 E6.81126
G1 X81.963 Y104.074 E6.89415
G1 X81.582 Y101.662 E7.01671
G1 X81.505 Y100.000 E7.10018
G1 X81.580 Y98.357 E7.18275
G1 X81.936 Y96.062 E7.29927
G1 X82.386 Y94.362 E7.38755
G1 X82.913 Y92.922 E7.46448
G1 X83.544 Y91.559 E7.53985
G1 X84.365 Y90.127 E7.62274
G1 X85.802 Y88.152 E7.74530
G1 X86.882 Y86.967 E7.82576
G1 E5.82576 F2400.00000
G92 E0
G1 X102.224 Y102.089 F7800.000
G1 E2.00000 F2400.00000
G1 F1800
G1 X101.945 Y102.351 E2.01923
G1 X101.635 Y102.577 E2.03846
G1 X101.299 Y102.761 E2.05770
G1 X100.943 Y102.902 E2.07693
G1 X100.572 Y102.998 E2.09616
G1 X100.192 Y103.046 E2.11539
G1 X99.808 Y103.046 E2.13462
G1 X99.428 Y102.998 E2.15386
G1 X99.057 Y102.902 E2.17309
G1 X98.701 Y102.761 E2.19232
G1 X98.365 Y102.577 E2.21155
G1 X98.055 Y102.351 E2.23078
G1 X97.776 Y102.089 E2.25002
G1 X97.531 Y101.794 E2.26925
G1 X97.326 Y101.470 E2.28848
G1 X97.163 Y101.123 E2.30771
G1 X97.044 Y100.759 E2.32694
G1 X96.973 Y100.382 E2.34618
G1 X96.948 Y100.000 E2.36541
G1 X96.973 Y99.618 E2.38464
G1 X97.044 Y99.241 E2.40387
G1 X97.163 Y98.877 E2.42311
G1 X97.326 Y98.530 E2.44234
G1 X97.531 Y98.206 E2.46157
G1 X97.776 Y97.911 E2.48080
G1 X98.055 Y97.649 E2.50003
G1 X98.365 Y97.423 E2.51927
G1 X98.701 Y97.239 E2.53850
G1 X99.057 Y97.098 E2.55773
G1 X99.428 Y97.002 E2.57696
G1 X99.808 Y96.954 E2.59619
G1 X100.192 Y96.954 E2.61543
G1 X100.572 Y97.002 E2.63466
G1 X100.943 Y97.098 E2.65389
G1 X101.299 Y97.239 E2.67312
G1 X101.635 Y97.423 E2.69236
G1 X101.945 Y97.649 E2.71159
G1 X102.224 Y97.911 E2.73082
G1 X102.469 Y98.206 E2.75005
G1 X102.674 Y98.530 E2.76928
G1 X102.837 Y98.877 E2.78852
G1 X102.956 Y99.241 E2.80775
G1 X103.027 Y99.618 E2.82698
G1 X103.052 Y100.000 E2.84621
G1 X103.027 Y100.382 E2.86545
G1 X102.956 Y100.759 E2.88468
G1 X102.837 Y101.123 E2.90391
G1 X102.674 Y101.470 E2.92314
G1 X102.469 Y101.794 E2.94237
G1 X102.263 Y102.043 E2.95860
G1 X101.973 Y101.852 F7800.000
G1 F1800
G1 X101.725 Y102.085 E2.97565
G1 X101.450 Y102.285 E2.99270
G1 X101.152 Y102.448 E3.00976
G1 X100.836 Y102.574 E3.02681
G1 X100.507 Y102.658 E3.04387
G1 X100.170 Y102.701 E3.06092
G1 X99.830 Y102.701 E3.07797
G1 X99.493 Y102.658 E3.09503
G1 X99.164 Y102.574 E3.11208
G1 X98.848 Y102.448 E3.12914
G1 X98.550 Y102.285 E3.14619
G1 X98.275 Y102.085 E3.16324
G1 X98.027 Y101.852 E3.18030
G1 X97.811 Y101.591 E3.19735
G1 X97.629 Y101.304 E3.21441
G1 X97.484 Y100.996 E3.23146
G1 X97.379 Y100.673 E3.24852
G1 X97.315 Y100.339 E3.26557
G1 X97.294 Y100.000 E3.28262
G1 X97.315 Y99.661 E3.29968
G1 X97.379 Y99.327 E3.31673
G1 X97.484 Y99.004 E3.33379
G1 X97.629 Y98.696 E3.35084
G1 X97.811 Y98.409 E3.36790
G1 X98.027 Y98.148 E3.38495
G1 X98.275 Y97.915 E3.40200
G1 X98.550 Y97.715 E3.41906
G1 X98.848 Y97.552 E3.43611
G1 X99.164 Y97.426 E3.45317
G1 X99.493 Y97.342 E3.47022
G1 X99.830 Y97.299 E3.48727
G1 X100.170 Y97.299 E3.50433
G1 X100.507 Y97.342 E3.52138
G1 X100.836 Y97.426 E3.53844
G1 X101.152 Y97.552 E3.55549
G1 X101.450 Y97.715 E3.57255
G1 X101.725 Y97.915 E3.58960
G1 X101.973 Y98.148 E3.60665
G1 X102.189 Y98.409 E3.62371
G1 X102.371 Y98.696 E3.64076
G1 X102.516 Y99.004 E3.65782
G1 X102.621 Y99.327 E3.67487
G1 X102.685 Y99.661 E3.69192
G1 X102.706 Y100.000 E3.70898
G1 X102.685 Y100.339 E3.72603
G1 X102.621 Y100.673 E3.74309
G1 X102.516 Y100.996 E3.76014
G1 X102.371 Y101.304 E3.77720
G1 X102.189 Y101.591 E3.79425
G1 X102.011 Y101.806 E3.80829
G1 X101.721 Y101.616 F7800.000
G1 F1800
G1 X101.505 Y101.819 E3.82317
G1 X101.265 Y101.993 E3.83805
G1 X101.005 Y102.136 E3.85292
G1 X100.729 Y102.245 E3.86780
G1 X100.442 Y102.319 E3.88267
G1 X100.148 Y102.356 E3.89755
G1 X99.852 Y102.356 E3.91243
G1 X99.558 Y102.319 E3.92730
G1 X99.271 Y102.245 E3.94218
G1 X98.995 Y102.136 E3.95706
G1 X98.735 Y101.993 E3.97193
G1 X98.495 Y101.819 E3.98681
G1 X98.279 Y101.616 E4.00168
G1 X98.090 Y101.387 E4.01656
G1 X97.932 Y101.137 E4.03144
G1 X97.805 Y100.869 E4.04631
G1 X97.714 Y100.587 E4.06119
G1 X97.658 Y100.296 E4.07607
G1 X97.640 Y100.000 E4.09094
G1 X97.658 Y99.704 E4.10582
G1 X97.714 Y99.413 E4.12070
G1 X97.805 Y99.131 E4.13557
G1 X97.932 Y98.863 E4.15045
G1 X98.090 Y98.613 E4.16532
G1 X98.279 Y98.384 E4.18020
G1 X98.495 Y98.181 E4.19508
G1 X98.735 Y98.007 E4.20995
G1 X98.995 Y97.864 E4.22483
G1 X99.271 Y97.755 E4.23971
G1 X99.558 Y97.681 E4.25458
G1 X99.852 Y97.644 E4.26946
G1 X100.148 Y97.644 E4.28433
G1 X100.442 Y97.681 E4.29921
G1 X100.729 Y97.755 E4.31409
G1 X101.005 Y97.864 E4.32896
G1 X101.265 Y98.007 E4.34384
G1 X101.505 Y98.181 E4.35872
G1 X101.721 Y98.384 E4.37359
G1 X101.910 Y98.613 E4.38847
G1 X102.068 Y98.863 E4.40334
G1 X102.195 Y99.131 E4.41822
G1 X102.286 Y99.413 E4.43310
G1 X102.342 Y99.704 E4.44797
G1 X102.360 Y100.000 E4.46285
G1 X102.342 Y100.296 E4.47773
G1 X102.286 Y100.587 E4.49260
G1 X102.195 Y100.869 E4.50748
G1 X102.068 Y101.137 E4.52235
G1 X101.910 Y101.387 E4.53723
G1 X101.759 Y101.570 E4.54910
G1 X101.806 Y101.900 F7800.000
G1 E2.54910 F2400.00000
G92 E0
G1 X108.242 Y107.644 F7800.000
G1 E2.00000 F2400.00000
G1 F1800
G1 X107.955 Y107.955 E2.02124
G1 X107.306 Y108.554 E2.06557
G1 X106.612 Y109.101 E2.10990
G1 X105.878 Y109.592 E2.15423
G1 X105.107 Y110.023 E2.19855
G1 X104.305 Y110.393 E2.24289
G1 X103.476 Y110.699 E2.28722
G1 X102.626 Y110.939 E2.33155
G1 X101.760 Y111.111 E2.37587
G1 X100.883 Y111.215 E2.42020
G1 X100.000 Y111.250 E2.46453
G1 X99.117 Y111.215 E2.50886
G1 X98.240 Y111.111 E2.55319
G1 X97.374 Y110.939 E2.59752
G1 X96.524 Y110.699 E2.64185
G1 X95.695 Y110.393 E2.68618
G1 X94.893 Y110.023 E2.73051
G1 X94.122 Y109.592 E2.77484
G1 X93.388 Y109.101 E2.81917
G1 X92.694 Y108.554 E2.86350
G1 X92.045 Y107.955 E2.90783
G1 X91.446 Y107.306 E2.95216
G1 X90.899 Y106.612 E2.99649
G1 X90.408 Y105.878 E3.04082
G1 X89.977 Y105.107 E3.08515
G1 X89.607 Y104.305 E3.12948
G1 X89.301 Y103.476 E3.17381
G1 X89.061 Y102.626 E3.21814
G1 X88.889 Y101.760 E3.26247
G1 X88.785 Y100.883 E3.30680
G1 X88.750 Y100.000 E3.35113
G1 X88.785 Y99.117 E3.39546
G1 X88.889 Y98.240 E3.43979
G1 X89.061 Y97.374 E3.48411
G1 X89.301 Y96.524 E3.52844
G1 X89.607 Y95.695 E3.57277
G1 X89.977 Y94.893 E3.61711
G1 X90.408 Y94.122 E3.66143
G1 X90.899 Y93.388 E3.70576
G1 X91.446 Y92.694 E3.75009
G1 X92.045 Y92.045 E3.79442
G1 X92.694 Y91.446 E3.83875
G1 X93.388 Y90.899 E3.88308
G1 X94.122 Y90.408 E3.92741
G1 X94.893 Y89.977 E3.97174
G1 X95.695 Y89.607 E4.01607
G1 X96.524 Y89.301 E4.06040
G1 X97.374 Y89.061 E4.10473
G1 X98.240 Y88.889 E4.14906
G1 X99.113 Y88.786 E4.19316
G1 X100.135 Y88.756 E4.24446
G1 X100.883 Y88.785 E4.28203
G1 X101.760 Y88.889 E4.32636
G1 X102.626 Y89.061 E4.37069
G1 X103.476 Y89.301 E4.41502
G1 X104.305 Y89.607 E4.45935
G1 X105.107 Y89.977 E4.50368
G1 X105.878 Y90.408 E4.54801
G1 X106.612 Y90.899 E4.59234
G1 X107.306 Y91.446 E4.63667
G1 X107.955 Y92.045 E4.68100
G1 X108.554 Y92.694 E4.72532
G1 X109.101 Y93.388 E4.76966
G1 X109.592 Y94.122 E4.81398
G1 X110.023 Y94.893 E4.85831
G1 X110.393 Y95.695 E4.90264
G1 X110.699 Y96.524 E4.94697
G1 X110.939 Y97.374 E4.99130
G1 X111.111 Y98.240 E5.03563
G1 X111.215 Y99.117 E5.07996
G1 X111.250 Y100.000 E5.12429
G1 X111.215 Y100.883 E5.16862
G1 X111.111 Y101.760 E5.21295
G1 X110.939 Y102.626 E5.25728
G1 X110.699 Y103.476 E5.30161
G1 X110.393 Y104.305 E5.34594
G1 X110.023 Y105.107 E5.39027
G1 X109.592 Y105.878 E5.43460
G1 X109.101 Y106.612 E5.47893
G1 X108.554 Y107.306 E5.52326
G1 X108.283 Y107.600 E5.54334
G1 X108.495 Y107.878 F7800.000
G1 F1800
G1 X108.199 Y108.199 E5.56526
G1 X107.530 Y108.817 E5.61095
G1 X106.815 Y109.380 E5.65664
G1 X106.058 Y109.886 E5.70233
G1 X105.264 Y110.331 E5.74801
G1 X104.437 Y110.712 E5.79370
G1 X103.583 Y111.027 E5.83939
G1 X102.707 Y111.274 E5.88508
G1 X101.814 Y111.452 E5.93077
G1 X100.910 Y111.559 E5.97646
G1 X100.000 Y111.595 E6.02215
G1 X99.090 Y111.559 E6.06784
G1 X98.186 Y111.452 E6.11353
G1 X97.293 Y111.274 E6.15922
G1 X96.417 Y111.027 E6.20491
G1 X95.563 Y110.712 E6.25060
G1 X94.736 Y110.331 E6.29629
G1 X93.942 Y109.886 E6.34198
G1 X93.185 Y109.380 E6.38767
G1 X92.470 Y108.817 E6.43336
G1 X91.801 Y108.199 E6.47905
G1 X91.183 Y107.530 E6.52474
G1 X90.620 Y106.815 E6.57043
G1 X90.114 Y106.058 E6.61612
G1 X89.669 Y105.264 E6.66181
G1 X89.288 Y104.437 E6.70750
G1 X88.973 Y103.583 E6.75319
G1 X88.726 Y102.707 E6.79888
G1 X88.548 Y101.814 E6.84457
G1 X88.441 Y100.910 E6.89026
G1 X88.405 Y100.000 E6.93595
G1 X88.441 Y99.090 E6.98164
G1 X88.548 Y98.186 E7.02733
G1 X88.726 Y97.293 E7.07302
G1 X88.973 Y96.417 E7.11871
G1 X89.288 Y95.563 E7.16440
G1 X89.669 Y94.736 E7.21009
G1 X90.114 Y93.942 E7.25578
G1 X90.620 Y93.185 E7.30147
G1 X91.183 Y92.470 E7.34716
G1 X91.801 Y91.801 E7.39285
G1 X92.470 Y91.183 E7.43854
G1 X93.185 Y90.620 E7.48423
G1 X93.942 Y90.114 E7.52991
G1 X94.736 Y89.669 E7.57560
G1 X95.563 Y89.288 E7.62129
G1 X96.417 Y88.973 E7.66698
G1 X97.293 Y88.726 E7.71267
G1 X98.186 Y88.548 E7.75836
G1 X99.088 Y88.441 E7.80391
G1 X100.136 Y88.411 E7.85657
G1 X100.910 Y88.441 E7.89541
G1 X101.814 Y88.548 E7.94110
G1 X102.707 Y88.726 E7.98679
G1 X103.583 Y88.973 E8.03248
G1 X104.437 Y89.288 E8.07817
G1 X105.264 Y89.669 E8.12386
G1 X106.058 Y90.114 E8.16955
G1 X106.815 Y90.620 E8.21524
G1 X107.530 Y91.183 E8.26093
G1 X108.199 Y91.801 E8.30662
G1 X108.817 Y92.470 E8.35231
G1 X109.380 Y93.185 E8.39800
G1 X109.886 Y93.942 E8.44369
G1 X110.331 Y94.736 E8.48938
G1 X110.712 Y95.563 E8.53507
G1 X111.027 Y96.417 E8.58076
G1 X111.274 Y97.293 E8.62645
G1 X111.452 Y98.186 E8.67214
G1 X111.559 Y99.090 E8.71783
G1 X111.595 Y100.000 E8.76352
G1 X111.559 Y100.910 E8.80921
G1 X111.452 Y101.814 E8.85490
G1 X111.274 Y102.707 E8.90059
G1 X111.027 Y103.583 E8.94628
G1 X110.712 Y104.437 E8.99197
G1 X110.331 Y105.264 E9.03766
G1 X109.886 Y106.058 E9.08335
G1 X109.380 Y106.815 E9.12904
G1 X108.817 Y107.530 E9.17473
G1 X108.536 Y107.834 E9.19549
G1 X108.748 Y108.112 F7800.000
G1 F1800
G1 X108.443 Y108.443 E9.21808
G1 X107.754 Y109.079 E9.26513
G1 X107.018 Y109.660 E9.31218
G1 X106.239 Y110.180 E9.35923
G1 X105.421 Y110.638 E9.40628
G1 X104.569 Y111.031 E9.45333
G1 X103.690 Y111.355 E9.50038
G1 X102.787 Y111.610 E9.54743
G1 X101.868 Y111.793 E9.59448
G1 X100.937 Y111.903 E9.64153
G1 X100.000 Y111.940 E9.68858
G1 X99.063 Y111.903 E9.73563
G1 X98.132 Y111.793 E9.78268
G1 X97.213 Y111.610 E9.82973
G1 X96.310 Y111.355 E9.87678
G1 X95.431 Y111.031 E9.92383
G1 X94.579 Y110.638 E9.97088
G1 X93.761 Y110.180 E10.01793
G1 X92.982 Y109.660 E10.06498
G1 X92.246 Y109.079 E10.11203
G1 X91.557 Y108.443 E10.15908
G1 X90.921 Y107.754 E10.20613
G1 X90.340 Y107.018 E10.25318
G1 X89.820 Y106.239 E10.30023
G1 X89.362 Y105.421 E10.34728
G1 X88.969 Y104.569 E10.39433
G1 X88.645 Y103.690 E10.44138
G1 X88.390 Y102.787 E10.48843
G1 X88.207 Y101.868 E10.53548
G1 X88.097 Y100.937 E10.58253
G1 X88.060 Y100.000 E10.62958
G1 X88.097 Y99.063 E10.67663
G1 X88.207 Y98.132 E10.72368
G1 X88.390 Y97.213 E10.77073
G1 X88.645 Y96.310 E10.81778
G1 X88.969 Y95.431 E10.86483
G1 X89.362 Y94.579 E10.91188
G1 X89.820 Y93.761 E10.95893
G1 X90.340 Y92.982 E11.00598
G1 X90.921 Y92.246 E11.05303
G1 X91.557 Y91.557 E11.10008
G1 X92.246 Y90.921 E11.14713
G1 X92.982 Y90.340 E11.19418
G1 X93.761 Y89.820 E11.24123
G1 X94.579 Y89.362 E11.28828
G1 X95.431 Y88.969 E11.33533
G1 X96.310 Y88.645 E11.38238
G1 X97.213 Y88.390 E11.42943
G1 X98.132 Y88.207 E11.47648
G1 X99.062 Y88.097 E11.52347
G1 X100.138 Y88.066 E11.57749
G1 X100.937 Y88.097 E11.61761
G1 X101.868 Y88.207 E11.66466
G1 X102.787 Y88.390 E11.71171
G1 X103.690 Y88.645 E11.75876
G1 X104.569 Y88.969 E11.80581
G1 X105.421 Y89.362 E11.85286
G1 X106.239 Y89.820 E11.89991
G1 X107.018 Y90.340 E11.94696
G1 X107.754 Y90.921 E11.99401
G1 X108.443 Y91.557 E12.04106
G1 X109.079 Y92.246 E12.08811
G1 X109.660 Y92.982 E12.13516
G1 X110.180 Y93.761 E12.18221
G1 X110.638 Y94.579 E12.22925
G1 X111.031 Y95.431 E12.27630
G1 X111.355 Y96.310 E12.32335
G1 X111.610 Y97.213 E12.37040
G1 X111.793 Y98.132 E12.41745
G1 X111.903 Y99.063 E12.46450
G1 X111.940 Y100.000 E12.51155
G1 X111.903 Y100.937 E12.55860
G1 X111.793 Y101.868 E12.60565
G1 X111.610 Y102.787 E12.65270
G1 X111.355 Y103.690 E12.69975
G1 X111.031 Y104.569 E12.74680
G1 X110.638 Y105.421 E12.79385
G1 X110.180 Y106.239 E12.84090
G1 X109.660 Y107.018 E12.88795
G1 X109.079 Y107.754 E12.93500
G1 X108.789 Y108.068 E12.95644
G1 X108.357 Y108.031 F7800.000
G1 E10.95644 F2400.00000
G92 E0
G1 X109.688 Y105.494 F7800.000
G1 E2.00000 F2400.00000
G1 F1800
G1 X103.128 Y98.935 E2.47093
G1 X103.207 Y99.177 E2.48385
G1 X103.284 Y99.584 E2.50492
G1 X109.397 Y105.697 E2.94371
G1 X109.202 Y105.995 E2.96181
G1 X103.305 Y100.098 E3.38520
G1 X103.260 Y100.546 E3.40807
G1 X109.005 Y106.291 E3.82050
G1 X108.798 Y106.578 E3.83844
G1 X103.167 Y100.947 E4.24274
G1 X103.036 Y101.309 E4.26230
G1 X108.581 Y106.854 E4.66039
G1 X108.363 Y107.130 E4.67822
G1 X102.873 Y101.640 E5.07238
G1 X102.681 Y101.941 E5.09053
G1 X108.127 Y107.387 E5.48147
G1 X107.890 Y107.643 E5.49919
G1 X102.458 Y102.212 E5.88912
G1 X102.210 Y102.457 E5.90683
G1 X107.643 Y107.890 E6.29686
G1 X107.387 Y108.127 E6.31458
G1 X101.937 Y102.677 E6.70584
G1 X101.637 Y102.871 E6.72395
G1 X107.130 Y108.364 E7.11829
G1 X106.854 Y108.581 E7.13612
G1 X101.309 Y103.036 E7.53422
G1 X100.948 Y103.168 E7.55374
G1 X106.578 Y108.798 E7.95794
G1 X106.291 Y109.005 E7.97589
G1 X100.548 Y103.261 E8.38820
G1 X100.097 Y103.304 E8.41116
G1 X105.995 Y109.202 E8.83458
G1 X105.697 Y109.397 E8.85267
G1 X99.577 Y103.277 E9.29201
G1 X99.380 Y103.252 E9.30210
G1 X98.941 Y103.134 E9.32516
G1 X105.380 Y109.574 E9.78745
G1 X105.064 Y109.751 E9.80585
G1 X90.249 Y94.936 E10.86941
G1 X90.426 Y94.620 E10.88781
G1 X96.872 Y101.065 E11.35055
G1 X96.793 Y100.823 E11.36348
G1 X96.716 Y100.416 E11.38455
G1 X90.603 Y94.303 E11.82335
G1 X90.798 Y94.005 E11.84144
G1 X96.695 Y99.902 E12.26483
G1 X96.740 Y99.454 E12.28770
G1 X90.995 Y93.709 E12.70013
G1 X91.202 Y93.422 E12.71808
