; Gcode updated with 'stl_info' on 2019-12-05 11:50:11.610393

; stl_min_x = 420.0
; stl_max_x = 460.0
; stl_min_y = -55.650001525878906
; stl_max_y = -25.399999618530273
; stl_min_z = -53.70000076293945

; generated by Slic3r 1.3.1-dev (Build adea0d9) on 2019-12-05 at 11:50:10

; external perimeters extrusion width = 0.55mm (1.90mm^3/s)
; perimeters extrusion width = 0.70mm (2.71mm^3/s)
; infill extrusion width = 0.62mm (2.41mm^3/s)
; solid infill extrusion width = 0.70mm (2.04mm^3/s)
; top infill extrusion width = 0.70mm (2.04mm^3/s)

M107
G92 E0
;D3D:START:START
T0
M104 S215 T0

G21
G90
M107
T0
G28
G29
M109 T0 S215 T0
G0 F3000
M107
T0
G92 E0
G0 X0 Y149 Z0.1 F3600
G1 Y49 E6.5 F1200
G0 Z1
G92 E0
; Filament gcode

G21 ; set units to millimeters
G90 ; use absolute coordinates
M82 ; use absolute distances for extrusion
G92 E0
G1 Z0.090 F7800.000
G1 E-2.00000 F2400.00000
G92 E0
G1 X64.205 Y55.847 F7800.000
G1 E2.00000 F2400.00000
G1 F1800.000
G1 X65.937 Y54.495 E2.00655
G1 X68.750 Y53.805 E2.01519
G1 X81.250 Y53.805 E2.05246
G1 X83.410 Y54.202 E2.05900
G1 X85.288 Y55.340 E2.06555
G1 X86.640 Y57.072 E2.07210
G1 X87.330 Y59.885 E2.08074
G1 X87.330 Y85.285 E2.15647
G1 X86.933 Y87.445 E2.16302
G1 X85.795 Y89.323 E2.16957
G1 X84.063 Y90.675 E2.17612
G1 X81.250 Y91.365 E2.18475
G1 X68.750 Y91.365 E2.22203
G1 X66.590 Y90.968 E2.22857
G1 X64.712 Y89.830 E2.23512
G1 X63.360 Y88.098 E2.24167
G1 X62.670 Y85.285 E2.25031
G1 X62.670 Y59.885 E2.32604
G1 X63.067 Y57.725 E2.33259
G1 X64.167 Y55.911 E2.33892
G1 E0.33892 F2400.00000
G92 E0
G1 X80.961 Y84.996 F7800.000
G1 E2.00000 F2400.00000
G1 F1800.000
G1 X69.039 Y84.996 E2.03555
G1 X69.039 Y60.174 E2.10956
G1 X80.961 Y60.174 E2.14511
G1 X80.961 Y84.921 E2.21890
G1 X81.041 Y85.076 F7800.000
G1 F1800.000
G1 X68.959 Y85.076 E2.25493
G1 X68.959 Y60.094 E2.32942
G1 X81.041 Y60.094 E2.36544
G1 X81.041 Y85.001 E2.43971
G1 X81.121 Y85.156 F7800.000
G1 F1800.000
G1 X68.879 Y85.156 E2.47621
G1 X68.879 Y60.014 E2.55117
G1 X81.121 Y60.014 E2.58767
G1 X81.121 Y85.081 E2.66241
G1 X81.201 Y85.236 F7800.000
G1 F1800.000
G1 X68.799 Y85.236 E2.69939
G1 X68.799 Y59.934 E2.77483
G1 X81.201 Y59.934 E2.81180
G1 X81.201 Y85.161 E2.88702
G1 X80.735 Y85.054 F7800.000
G1 X80.851 Y84.948 F7800.000
G1 F1800.000
G1 X80.913 Y84.886 E2.88728
G1 X80.913 Y84.773 E2.88762
G1 X80.738 Y84.948 E2.88835
G1 X80.625 Y84.948 E2.88869
G1 X80.913 Y84.660 E2.88990
G1 X80.913 Y84.547 E2.89024
G1 X80.512 Y84.948 E2.89193
G1 X80.400 Y84.948 E2.89227
G1 X80.913 Y84.435 E2.89443
G1 X80.913 Y84.322 E2.89477
G1 X80.287 Y84.948 E2.89741
G1 X80.174 Y84.948 E2.89775
G1 X80.913 Y84.209 E2.90086
G1 X80.913 Y84.096 E2.90120
G1 X80.061 Y84.948 E2.90479
G1 X79.948 Y84.948 E2.90513
G1 X80.913 Y83.983 E2.90920
G1 X80.913 Y83.871 E2.90954
G1 X79.836 Y84.948 E2.91408
G1 X79.723 Y84.948 E2.91442
G1 X80.913 Y83.758 E2.91944
G1 X80.913 Y83.645 E2.91978
G1 X79.610 Y84.948 E2.92527
G1 X79.497 Y84.948 E2.92561
G1 X80.913 Y83.532 E2.93158
G1 X80.913 Y83.420 E2.93192
G1 X79.385 Y84.948 E2.93837
G1 X79.272 Y84.948 E2.93870
G1 X80.913 Y83.307 E2.94563
G1 X80.913 Y83.194 E2.94597
G1 X79.159 Y84.948 E2.95337
G1 X79.046 Y84.948 E2.95370
G1 X80.913 Y83.081 E2.96158
G1 X80.913 Y82.968 E2.96192
G1 X78.933 Y84.948 E2.97027
G1 X78.821 Y84.948 E2.97060
G1 X80.913 Y82.856 E2.97943
G1 X80.913 Y82.743 E2.97977
G1 X78.708 Y84.948 E2.98907
G1 X78.595 Y84.948 E2.98941
G1 X80.913 Y82.630 E2.99919
G1 X80.913 Y82.517 E2.99953
G1 X78.482 Y84.948 E3.00978
G1 X78.370 Y84.948 E3.01012
G1 X80.913 Y82.405 E3.02085
G1 X80.913 Y82.292 E3.02119
G1 X78.257 Y84.948 E3.03240
G1 X78.144 Y84.948 E3.03273
G1 X80.913 Y82.179 E3.04442
G1 X80.913 Y82.066 E3.04475
G1 X78.031 Y84.948 E3.05691
G1 X77.918 Y84.948 E3.05725
G1 X80.913 Y81.953 E3.06988
G1 X80.913 Y81.841 E3.07022
G1 X77.806 Y84.948 E3.08333
G1 X77.693 Y84.948 E3.08367
G1 X80.913 Y81.728 E3.09726
G1 X80.913 Y81.615 E3.09759
G1 X77.580 Y84.948 E3.11165
G1 X77.467 Y84.948 E3.11199
G1 X80.913 Y81.502 E3.12653
G1 X80.913 Y81.390 E3.12687
G1 X77.355 Y84.948 E3.14188
G1 X77.242 Y84.948 E3.14222
G1 X80.913 Y81.277 E3.15771
G1 X80.913 Y81.164 E3.15805
G1 X77.129 Y84.948 E3.17401
G1 X77.016 Y84.948 E3.17435
G1 X80.913 Y81.051 E3.19079
G1 X80.913 Y80.938 E3.19113
G1 X76.903 Y84.948 E3.20805
G1 X76.791 Y84.948 E3.20838
G1 X80.913 Y80.826 E3.22578
G1 X80.913 Y80.713 E3.22611
G1 X76.678 Y84.948 E3.24398
G1 X76.565 Y84.948 E3.24432
G1 X80.913 Y80.600 E3.26267
G1 X80.913 Y80.487 E3.26300
G1 X76.452 Y84.948 E3.28183
G1 X76.340 Y84.948 E3.28216
G1 X80.913 Y80.375 E3.30146
G1 X80.913 Y80.262 E3.30180
G1 X76.227 Y84.948 E3.32157
G1 X76.114 Y84.948 E3.32191
G1 X80.913 Y80.149 E3.34216
G1 X80.913 Y80.036 E3.34249
G1 X76.001 Y84.948 E3.36322
G1 X75.888 Y84.948 E3.36356
G1 X80.913 Y79.923 E3.38476
G1 X80.913 Y79.811 E3.38509
G1 X75.776 Y84.948 E3.40677
G1 X75.663 Y84.948 E3.40711
G1 X80.913 Y79.698 E3.42926
G1 X80.913 Y79.585 E3.42960
G1 X75.550 Y84.948 E3.45223
G1 X75.437 Y84.948 E3.45256
G1 X80.913 Y79.472 E3.47567
G1 X80.913 Y79.360 E3.47601
G1 X75.325 Y84.948 E3.49959
G1 X75.212 Y84.948 E3.49992
G1 X80.913 Y79.247 E3.52398
G1 X80.913 Y79.134 E3.52432
G1 X75.099 Y84.948 E3.54885
G1 X74.986 Y84.948 E3.54919
G1 X80.913 Y79.021 E3.57420
G1 X80.913 Y78.908 E3.57453
G1 X74.873 Y84.948 E3.60002
G1 X74.761 Y84.948 E3.60035
G1 X80.913 Y78.796 E3.62631
G1 X80.913 Y78.683 E3.62665
G1 X74.648 Y84.948 E3.65309
G1 X74.535 Y84.948 E3.65342
G1 X80.913 Y78.570 E3.68034
G1 X80.913 Y78.457 E3.68067
G1 X74.422 Y84.948 E3.70806
G1 X74.310 Y84.948 E3.70840
G1 X80.913 Y78.345 E3.73626
G1 X80.913 Y78.232 E3.73660
G1 X74.197 Y84.948 E3.76494
G1 X74.084 Y84.948 E3.76527
G1 X80.913 Y78.119 E3.79409
G1 X80.913 Y78.006 E3.79443
G1 X73.971 Y84.948 E3.82372
G1 X73.859 Y84.948 E3.82406
G1 X80.913 Y77.894 E3.85382
G1 X80.913 Y77.781 E3.85416
G1 X73.746 Y84.948 E3.88440
G1 X73.633 Y84.948 E3.88474
G1 X80.913 Y77.668 E3.91546
G1 X80.913 Y77.555 E3.91580
G1 X73.520 Y84.948 E3.94699
G1 X73.407 Y84.948 E3.94733
G1 X80.913 Y77.442 E3.97900
G1 X80.913 Y77.330 E3.97934
G1 X73.295 Y84.948 E4.01148
G1 X73.182 Y84.948 E4.01182
G1 X80.913 Y77.217 E4.04444
G1 X80.913 Y77.104 E4.04478
G1 X73.069 Y84.948 E4.07788
G1 X72.956 Y84.948 E4.07821
G1 X80.913 Y76.991 E4.11179
G1 X80.913 Y76.879 E4.11213
G1 X72.844 Y84.948 E4.14618
G1 X72.731 Y84.948 E4.14651
G1 X80.913 Y76.766 E4.18104
G1 X80.913 Y76.653 E4.18138
G1 X72.618 Y84.948 E4.21638
G1 X72.505 Y84.948 E4.21672
G1 X80.913 Y76.540 E4.25219
G1 X80.913 Y76.427 E4.25253
G1 X72.392 Y84.948 E4.28849
G1 X72.280 Y84.948 E4.28882
G1 X80.913 Y76.315 E4.32525
G1 X80.913 Y76.202 E4.32559
G1 X72.167 Y84.948 E4.36249
G1 X72.054 Y84.948 E4.36283
G1 X80.913 Y76.089 E4.40021
G1 X80.913 Y75.976 E4.40055
G1 X71.941 Y84.948 E4.43841
G1 X71.829 Y84.948 E4.43874
G1 X80.913 Y75.864 E4.47708
G1 X80.913 Y75.751 E4.47742
G1 X71.716 Y84.948 E4.51623
G1 X71.603 Y84.948 E4.51656
G1 X80.913 Y75.638 E4.55585
G1 X80.913 Y75.525 E4.55618
G1 X71.490 Y84.948 E4.59595
G1 X71.377 Y84.948 E4.59628
G1 X80.913 Y75.412 E4.63652
G1 X80.913 Y75.300 E4.63686
G1 X71.265 Y84.948 E4.67757
G1 X71.152 Y84.948 E4.67791
G1 X80.913 Y75.187 E4.71910
G1 X80.913 Y75.074 E4.71943
G1 X71.039 Y84.948 E4.76110
G1 X70.926 Y84.948 E4.76143
G1 X80.913 Y74.961 E4.80357
G1 X80.913 Y74.849 E4.80391
G1 X70.814 Y84.948 E4.84653
G1 X70.701 Y84.948 E4.84686
G1 X80.913 Y74.736 E4.88996
G1 X80.913 Y74.623 E4.89029
G1 X70.588 Y84.948 E4.93386
G1 X70.475 Y84.948 E4.93420
G1 X80.913 Y74.510 E4.97824
G1 X80.913 Y74.397 E4.97858
G1 X70.362 Y84.948 E5.02310
G1 X70.250 Y84.948 E5.02344
G1 X80.913 Y74.285 E5.06843
G1 X80.913 Y74.172 E5.06877
G1 X70.137 Y84.948 E5.11424
G1 X70.024 Y84.948 E5.11458
G1 X80.913 Y74.059 E5.16053
G1 X80.913 Y73.946 E5.16086
G1 X69.911 Y84.948 E5.20729
G1 X69.799 Y84.948 E5.20763
G1 X80.913 Y73.834 E5.25453
G1 X80.913 Y73.721 E5.25486
G1 X69.686 Y84.948 E5.30224
G1 X69.573 Y84.948 E5.30257
G1 X80.913 Y73.608 E5.35043
G1 X80.913 Y73.495 E5.35076
G1 X69.460 Y84.948 E5.39909
G1 X69.347 Y84.948 E5.39943
G1 X80.913 Y73.382 E5.44823
G1 X80.913 Y73.270 E5.44857
G1 X69.235 Y84.948 E5.49785
G1 X69.122 Y84.948 E5.49818
G1 X80.913 Y73.157 E5.54794
G1 X80.913 Y73.044 E5.54828
G1 X69.087 Y84.870 E5.59818
G1 X69.087 Y84.757 E5.59851
G1 X80.913 Y72.931 E5.64842
G1 X80.913 Y72.819 E5.64875
G1 X69.087 Y84.644 E5.69865
G1 X69.087 Y84.531 E5.69899
G1 X80.913 Y72.706 E5.74889
G1 X80.913 Y72.593 E5.74923
G1 X69.087 Y84.419 E5.79913
G1 X69.087 Y84.306 E5.79947
G1 X80.913 Y72.480 E5.84937
G1 X80.913 Y72.367 E5.84971
G1 X69.087 Y84.193 E5.89961
G1 X69.087 Y84.080 E5.89994
G1 X80.913 Y72.255 E5.94985
G1 X80.913 Y72.142 E5.95018
G1 X69.087 Y83.967 E6.00008
G1 X69.087 Y83.855 E6.00042
G1 X80.913 Y72.029 E6.05032
G1 X80.913 Y71.916 E6.05066
G1 X69.087 Y83.742 E6.10056
G1 X69.087 Y83.629 E6.10090
G1 X80.913 Y71.804 E6.15080
G1 X80.913 Y71.691 E6.15113
G1 X69.087 Y83.516 E6.20104
G1 X69.087 Y83.404 E6.20137
G1 X80.913 Y71.578 E6.25127
G1 X80.913 Y71.465 E6.25161
G1 X69.087 Y83.291 E6.30151
G1 X69.087 Y83.178 E6.30185
G1 X80.913 Y71.352 E6.35175
G1 X80.913 Y71.240 E6.35209
G1 X69.087 Y83.065 E6.40199
G1 X69.087 Y82.952 E6.40233
G1 X80.913 Y71.127 E6.45223
G1 X80.913 Y71.014 E6.45256
G1 X69.087 Y82.840 E6.50247
G1 X69.087 Y82.727 E6.50280
G1 X80.913 Y70.901 E6.55270
G1 X80.913 Y70.789 E6.55304
G1 X69.087 Y82.614 E6.60294
G1 X69.087 Y82.501 E6.60328
G1 X80.913 Y70.676 E6.65318
G1 X80.913 Y70.563 E6.65352
G1 X69.087 Y82.389 E6.70342
G1 X69.087 Y82.276 E6.70376
G1 X80.913 Y70.450 E6.75366
G1 X80.913 Y70.337 E6.75399
G1 X69.087 Y82.163 E6.80390
G1 X69.087 Y82.050 E6.80423
G1 X80.913 Y70.225 E6.85413
G1 X80.913 Y70.112 E6.85447
G1 X69.087 Y81.937 E6.90437
G1 X69.087 Y81.825 E6.90471
G1 X80.913 Y69.999 E6.95461
G1 X80.913 Y69.886 E6.95495
G1 X69.087 Y81.712 E7.00485
G1 X69.087 Y81.599 E7.00519
G1 X80.913 Y69.774 E7.05509
G1 X80.913 Y69.661 E7.05542
G1 X69.087 Y81.486 E7.10533
G1 X69.087 Y81.374 E7.10566
G1 X80.913 Y69.548 E7.15556
G1 X80.913 Y69.435 E7.15590
G1 X69.087 Y81.261 E7.20580
G1 X69.087 Y81.148 E7.20614
G1 X80.913 Y69.323 E7.25604
G1 X80.913 Y69.210 E7.25638
G1 X69.087 Y81.035 E7.30628
G1 X69.087 Y80.922 E7.30662
G1 X80.913 Y69.097 E7.35652
G1 X80.913 Y68.984 E7.35685
G1 X69.087 Y80.810 E7.40676
G1 X69.087 Y80.697 E7.40709
G1 X80.913 Y68.871 E7.45699
G1 X80.913 Y68.759 E7.45733
G1 X69.087 Y80.584 E7.50723
G1 X69.087 Y80.471 E7.50757
G1 X80.913 Y68.646 E7.55747
G1 X80.913 Y68.533 E7.55781
G1 X69.087 Y80.359 E7.60771
G1 X69.087 Y80.246 E7.60804
G1 X80.913 Y68.420 E7.65795
G1 X80.913 Y68.308 E7.65828
G1 X69.087 Y80.133 E7.70818
G1 X69.087 Y80.020 E7.70852
G1 X80.913 Y68.195 E7.75842
G1 X80.913 Y68.082 E7.75876
G1 X69.087 Y79.907 E7.80866
G1 X69.087 Y79.795 E7.80900
G1 X80.913 Y67.969 E7.85890
G1 X80.913 Y67.856 E7.85924
G1 X69.087 Y79.682 E7.90914
G1 X69.087 Y79.569 E7.90947
G1 X80.913 Y67.744 E7.95938
G1 X80.913 Y67.631 E7.95971
G1 X69.087 Y79.456 E8.00961
G1 X69.087 Y79.344 E8.00995
G1 X80.913 Y67.518 E8.05985
G1 X80.913 Y67.405 E8.06019
G1 X69.087 Y79.231 E8.11009
G1 X69.087 Y79.118 E8.11043
G1 X80.913 Y67.293 E8.16033
G1 X80.913 Y67.180 E8.16067
G1 X69.087 Y79.005 E8.21057
G1 X69.087 Y78.893 E8.21090
G1 X80.913 Y67.067 E8.26081
G1 X80.913 Y66.954 E8.26114
G1 X69.087 Y78.780 E8.31104
G1 X69.087 Y78.667 E8.31138
G1 X80.913 Y66.841 E8.36128
G1 X80.913 Y66.729 E8.36162
G1 X69.087 Y78.554 E8.41152
G1 X69.087 Y78.441 E8.41186
G1 X80.913 Y66.616 E8.46176
G1 X80.913 Y66.503 E8.46210
G1 X69.087 Y78.329 E8.51200
G1 X69.087 Y78.216 E8.51233
G1 X80.913 Y66.390 E8.56224
G1 X80.913 Y66.278 E8.56257
G1 X69.087 Y78.103 E8.61247
G1 X69.087 Y77.990 E8.61281
G1 X80.913 Y66.165 E8.66271
G1 X80.913 Y66.052 E8.66305
G1 X69.087 Y77.878 E8.71295
G1 X69.087 Y77.765 E8.71329
G1 X80.913 Y65.939 E8.76319
G1 X80.913 Y65.826 E8.76353
G1 X69.087 Y77.652 E8.81343
G1 X69.087 Y77.539 E8.81376
G1 X80.913 Y65.714 E8.86367
G1 X80.913 Y65.601 E8.86400
G1 X69.087 Y77.426 E8.91390
G1 X69.087 Y77.314 E8.91424
G1 X80.913 Y65.488 E8.96414
G1 X80.913 Y65.375 E8.96448
G1 X69.087 Y77.201 E9.01438
G1 X69.087 Y77.088 E9.01472
G1 X80.913 Y65.263 E9.06462
G1 X80.913 Y65.150 E9.06496
G1 X69.087 Y76.975 E9.11486
G1 X69.087 Y76.863 E9.11519
G1 X80.913 Y65.037 E9.16510
G1 X80.913 Y64.924 E9.16543
G1 X69.087 Y76.750 E9.21533
G1 X69.087 Y76.637 E9.21567
G1 X80.913 Y64.811 E9.26557
G1 X80.913 Y64.699 E9.26591
G1 X69.087 Y76.524 E9.31581
G1 X69.087 Y76.411 E9.31615
G1 X80.913 Y64.586 E9.36605
G1 X80.913 Y64.473 E9.36638
G1 X69.087 Y76.299 E9.41629
G1 X69.087 Y76.186 E9.41662
G1 X80.913 Y64.360 E9.46652
G1 X80.913 Y64.248 E9.46686
G1 X69.087 Y76.073 E9.51676
G1 X69.087 Y75.960 E9.51710
G1 X80.913 Y64.135 E9.56700
G1 X80.913 Y64.022 E9.56734
G1 X69.087 Y75.848 E9.61724
G1 X69.087 Y75.735 E9.61758
G1 X80.913 Y63.909 E9.66748
G1 X80.913 Y63.796 E9.66781
G1 X69.087 Y75.622 E9.71772
G1 X69.087 Y75.509 E9.71805
G1 X80.913 Y63.684 E9.76795
G1 X80.913 Y63.571 E9.76829
G1 X69.087 Y75.396 E9.81819
G1 X69.087 Y75.284 E9.81853
G1 X80.913 Y63.458 E9.86843
G1 X80.913 Y63.345 E9.86877
G1 X69.087 Y75.171 E9.91867
G1 X69.087 Y75.058 E9.91901
G1 X80.913 Y63.233 E9.96891
G1 X80.913 Y63.120 E9.96924
G1 X69.087 Y74.945 E10.01915
G1 X69.087 Y74.833 E10.01948
G1 X80.913 Y63.007 E10.06938
G1 X80.913 Y62.894 E10.06972
G1 X69.087 Y74.720 E10.11962
G1 X69.087 Y74.607 E10.11996
G1 X80.913 Y62.781 E10.16986
G1 X80.913 Y62.669 E10.17020
G1 X69.087 Y74.494 E10.22010
G1 X69.087 Y74.381 E10.22044
G1 X80.913 Y62.556 E10.27034
G1 X80.913 Y62.443 E10.27067
G1 X69.087 Y74.269 E10.32058
G1 X69.087 Y74.156 E10.32091
G1 X80.913 Y62.330 E10.37081
G1 X80.913 Y62.218 E10.37115
G1 X69.087 Y74.043 E10.42105
G1 X69.087 Y73.930 E10.42139
G1 X80.913 Y62.105 E10.47129
G1 X80.913 Y61.992 E10.47163
G1 X69.087 Y73.818 E10.52153
G1 X69.087 Y73.705 E10.52187
G1 X80.913 Y61.879 E10.57177
G1 X80.913 Y61.766 E10.57210
G1 X69.087 Y73.592 E10.62201
G1 X69.087 Y73.479 E10.62234
G1 X80.913 Y61.654 E10.67224
G1 X80.913 Y61.541 E10.67258
G1 X69.087 Y73.366 E10.72248
G1 X69.087 Y73.254 E10.72282
G1 X80.913 Y61.428 E10.77272
G1 X80.913 Y61.315 E10.77306
G1 X69.087 Y73.141 E10.82296
G1 X69.087 Y73.028 E10.82330
G1 X80.913 Y61.203 E10.87320
G1 X80.913 Y61.090 E10.87353
G1 X69.087 Y72.915 E10.92344
G1 X69.087 Y72.803 E10.92377
G1 X80.913 Y60.977 E10.97367
G1 X80.913 Y60.864 E10.97401
G1 X69.087 Y72.690 E11.02391
G1 X69.087 Y72.577 E11.02425
G1 X80.913 Y60.751 E11.07415
G1 X80.913 Y60.639 E11.07449
G1 X69.087 Y72.464 E11.12439
G1 X69.087 Y72.351 E11.12472
G1 X80.913 Y60.526 E11.17463
G1 X80.913 Y60.413 E11.17496
G1 X69.087 Y72.239 E11.22486
G1 X69.087 Y72.126 E11.22520
G1 X80.913 Y60.300 E11.27510
G1 X80.913 Y60.222 E11.27534
G1 X80.878 Y60.222 E11.27544
G1 X69.087 Y72.013 E11.32520
G1 X69.087 Y71.900 E11.32553
G1 X80.765 Y60.222 E11.37481
G1 X80.653 Y60.222 E11.37515
G1 X69.087 Y71.788 E11.42395
G1 X69.087 Y71.675 E11.42429
G1 X80.540 Y60.222 E11.47262
G1 X80.427 Y60.222 E11.47295
G1 X69.087 Y71.562 E11.52081
G1 X69.087 Y71.449 E11.52114
G1 X80.314 Y60.222 E11.56852
G1 X80.201 Y60.222 E11.56885
G1 X69.087 Y71.336 E11.61575
G1 X69.087 Y71.224 E11.61609
G1 X80.089 Y60.222 E11.66252
G1 X79.976 Y60.222 E11.66285
G1 X69.087 Y71.111 E11.70880
G1 X69.087 Y70.998 E11.70914
G1 X79.863 Y60.222 E11.75461
G1 X79.750 Y60.222 E11.75495
G1 X69.087 Y70.885 E11.79994
G1 X69.087 Y70.773 E11.80028
G1 X79.638 Y60.222 E11.84480
G1 X79.525 Y60.222 E11.84514
G1 X69.087 Y70.660 E11.88918
G1 X69.087 Y70.547 E11.88952
G1 X79.412 Y60.222 E11.93309
G1 X79.299 Y60.222 E11.93342
G1 X69.087 Y70.434 E11.97652
G1 X69.087 Y70.322 E11.97685
G1 X79.187 Y60.222 E12.01947
G1 X79.074 Y60.222 E12.01981
G1 X69.087 Y70.209 E12.06195
G1 X69.087 Y70.096 E12.06228
G1 X78.961 Y60.222 E12.10395
G1 X78.848 Y60.222 E12.10429
G1 X69.087 Y69.983 E12.14548
G1 X69.087 Y69.870 E12.14581
G1 X78.735 Y60.222 E12.18653
G1 X78.623 Y60.222 E12.18686
G1 X69.087 Y69.758 E12.22710
G1 X69.087 Y69.645 E12.22744
G1 X78.510 Y60.222 E12.26720
G1 X78.397 Y60.222 E12.26754
G1 X69.087 Y69.532 E12.30682
G1 X69.087 Y69.419 E12.30716
G1 X78.284 Y60.222 E12.34597
G1 X78.172 Y60.222 E12.34630
