; generated by Slic3r Prusa Edition 1.39.0 on 2019-10-17 at 12:14:44

; 

; external perimeters extrusion width = 0.45mm
; perimeters extrusion width = 0.45mm
; infill extrusion width = 0.45mm
; solid infill extrusion width = 0.45mm
; top infill extrusion width = 0.40mm
; first layer extrusion width = 0.42mm

M107
M104 S213 ; set temperature
G28 ; home all axes
G1 Z5 F5000 ; lift nozzle
; Filament gcode
M109 S213 ; set temperature and wait for it to be reached
G21 ; set units to millimeters
G90 ; use absolute coordinates
M82 ; use absolute distances for extrusion
G92 E0
G1 Z0.350 F7800.000
G1 E-2.00000 F2400.00000
G92 E0
G1 X70.403 Y95.628 F7800.000
G1 E2.00000 F2400.00000
G1 F1800
G1 X71.595 Y94.745 E2.07447
G1 X72.960 Y94.163 E2.14894
G1 X90.156 Y89.608 E3.04170
G1 X91.173 Y89.431 E3.09349
G1 X125.256 Y89.405 E4.80398
G1 X126.426 Y89.515 E4.86293
G1 X127.560 Y89.841 E4.92218
G1 X128.610 Y90.368 E4.98112
G1 X129.544 Y91.079 E5.04006
G1 X130.332 Y91.951 E5.09900
G1 X130.945 Y92.952 E5.15795
G1 X131.363 Y94.050 E5.21689
G1 X131.572 Y95.212 E5.27614
G1 X131.593 Y104.393 E5.73690
G1 X131.517 Y105.242 E5.77966
G1 X131.328 Y106.072 E5.82241
G1 X130.694 Y107.509 E5.90122
G1 X129.727 Y108.746 E5.98004
G1 X128.485 Y109.708 E6.05885
G1 X127.040 Y110.337 E6.13797
G1 X126.171 Y110.528 E6.18259
G1 X125.278 Y110.595 E6.22753
G1 X74.284 Y110.578 E8.78674
G1 X73.337 Y110.436 E8.83479
G1 X72.422 Y110.152 E8.88284
G1 X71.561 Y109.735 E8.93089
G1 X70.767 Y109.189 E8.97925
G1 X70.065 Y108.529 E9.02761
G1 X69.474 Y107.775 E9.07566
G1 X69.004 Y106.941 E9.12371
G1 X68.663 Y106.040 E9.17207
G1 X68.411 Y104.527 E9.24902
G1 X68.406 Y100.157 E9.46836
G1 X68.508 Y99.111 E9.52108
G1 X68.784 Y98.091 E9.57411
G1 X69.448 Y96.764 E9.64859
G1 X70.364 Y95.674 E9.72005
G1 E7.72005 F2400.00000
G92 E0
G1 X124.350 Y103.350 F7800.000
G1 E2.00000 F2400.00000
G1 F1800
G1 X75.650 Y103.350 E4.44408
G1 X75.650 Y101.150 E4.55451
G1 X92.650 Y101.150 E5.40767
G1 X92.650 Y96.650 E5.63350
G1 X95.850 Y96.650 E5.79412
G1 X95.850 Y101.150 E6.01996
G1 X121.150 Y101.150 E7.28964
G1 X121.150 Y96.650 E7.51548
G1 X124.350 Y96.650 E7.67609
G1 X124.350 Y103.290 E8.00935
G1 E6.00935 F2400.00000
G92 E0
G1 X96.195 Y100.805 F7800.000
G1 E2.00000 F2400.00000
G1 F1800
G1 X120.805 Y100.805 E3.23506
G1 X120.805 Y96.305 E3.46090
G1 X124.695 Y96.305 E3.65614
G1 X124.695 Y103.695 E4.02702
G1 X75.305 Y103.695 E6.50571
G1 X75.305 Y100.805 E6.65076
G1 X92.305 Y100.805 E7.50392
G1 X92.305 Y96.305 E7.72976
G1 X96.195 Y96.305 E7.92499
G1 X96.195 Y100.745 E8.14782
G1 X96.540 Y100.460 F7800.000
G1 F1800
G1 X120.460 Y100.460 E9.34827
G1 X120.460 Y95.960 E9.57410
G1 X125.040 Y95.960 E9.80395
G1 X125.040 Y104.040 E10.20946
G1 X74.960 Y104.040 E12.72277
G1 X74.960 Y100.460 E12.90243
G1 X91.960 Y100.460 E13.75559
G1 X91.960 Y95.960 E13.98143
G1 X96.540 Y95.960 E14.21128
G1 X96.540 Y100.400 E14.43411
G1 X96.645 Y100.846 F7800.000
G1 E12.43411 F2400.00000
G92 E0
G1 X97.102 Y103.247 F7800.000
G1 E2.00000 F2400.00000
G1 F1800
G1 X92.908 Y99.053 E2.29997
G1 X92.908 Y99.545 E2.32483
G1 X96.455 Y103.092 E2.57854
G1 X95.964 Y103.092 E2.60341
G1 X92.908 Y100.036 E2.82195
G1 X92.908 Y100.528 E2.84681
G1 X95.472 Y103.092 E3.03020
G1 X94.981 Y103.092 E3.05506
G1 X92.908 Y101.019 E3.20328
G1 X92.908 Y101.408 E3.22296
G1 X92.806 Y101.408 E3.22815
G1 X94.489 Y103.092 E3.34854
G1 X93.997 Y103.092 E3.37341
G1 X92.314 Y101.408 E3.49380
G1 X91.823 Y101.408 E3.51867
G1 X93.506 Y103.092 E3.63906
G1 X93.014 Y103.092 E3.66392
G1 X91.331 Y101.408 E3.78432
G1 X90.840 Y101.408 E3.80918
G1 X92.523 Y103.092 E3.92958
G1 X92.031 Y103.092 E3.95444
G1 X90.348 Y101.408 E4.07484
G1 X89.856 Y101.408 E4.09970
G1 X91.540 Y103.092 E4.22010
G1 X91.048 Y103.092 E4.24496
G1 X89.365 Y101.408 E4.36536
G1 X88.873 Y101.408 E4.39022
G1 X90.556 Y103.092 E4.51062
G1 X90.065 Y103.092 E4.53548
G1 X88.382 Y101.408 E4.65588
G1 X87.890 Y101.408 E4.68074
G1 X89.573 Y103.092 E4.80114
G1 X89.082 Y103.092 E4.82600
G1 X87.399 Y101.408 E4.94640
G1 X86.907 Y101.408 E4.97126
G1 X88.590 Y103.092 E5.09166
G1 X88.099 Y103.092 E5.11652
G1 X86.415 Y101.408 E5.23692
G1 X85.924 Y101.408 E5.26178
G1 X87.607 Y103.092 E5.38218
G1 X87.115 Y103.092 E5.40704
G1 X85.432 Y101.408 E5.52744
G1 X84.941 Y101.408 E5.55230
G1 X86.624 Y103.092 E5.67270
G1 X86.132 Y103.092 E5.69756
G1 X84.449 Y101.408 E5.81796
G1 X83.958 Y101.408 E5.84282
G1 X85.641 Y103.092 E5.96322
G1 X85.149 Y103.092 E5.98808
G1 X83.466 Y101.408 E6.10848
G1 X82.974 Y101.408 E6.13334
G1 X84.658 Y103.092 E6.25374
G1 X84.166 Y103.092 E6.27860
G1 X82.483 Y101.408 E6.39900
G1 X81.991 Y101.408 E6.42386
G1 X83.674 Y103.092 E6.54426
G1 X83.183 Y103.092 E6.56912
G1 X81.500 Y101.408 E6.68952
G1 X81.008 Y101.408 E6.71438
G1 X82.691 Y103.092 E6.83478
G1 X82.200 Y103.092 E6.85964
G1 X80.517 Y101.408 E6.98004
G1 X80.025 Y101.408 E7.00490
G1 X81.708 Y103.092 E7.12530
G1 X81.217 Y103.092 E7.15016
G1 X79.533 Y101.408 E7.27056
G1 X79.042 Y101.408 E7.29542
G1 X80.725 Y103.092 E7.41582
G1 X80.233 Y103.092 E7.44068
G1 X78.550 Y101.408 E7.56108
G1 X78.059 Y101.408 E7.58594
G1 X79.742 Y103.092 E7.70634
G1 X79.250 Y103.092 E7.73120
G1 X77.567 Y101.408 E7.85160
G1 X77.076 Y101.408 E7.87646
G1 X78.759 Y103.092 E7.99685
G1 X78.267 Y103.092 E8.02172
G1 X76.584 Y101.408 E8.14211
G1 X76.092 Y101.408 E8.16698
G1 X77.776 Y103.092 E8.28737
G1 X77.284 Y103.092 E8.31224
G1 X75.908 Y101.716 E8.41063
G1 X75.908 Y102.208 E8.43549
G1 X76.792 Y103.092 E8.49873
G1 X76.301 Y103.092 E8.52359
G1 X75.753 Y102.544 E8.56276
G1 E6.56276 F2400.00000
G92 E0
G1 X95.033 Y96.753 F7800.000
G1 E2.00000 F2400.00000
G1 F1800
G1 X95.592 Y97.312 E2.03998
G1 X95.592 Y97.804 E2.06484
G1 X94.696 Y96.908 E2.12888
G1 X94.205 Y96.908 E2.15375
G1 X95.592 Y98.295 E2.25295
G1 X95.592 Y98.787 E2.27781
G1 X93.713 Y96.908 E2.41218
G1 X93.222 Y96.908 E2.43704
G1 X95.592 Y99.278 E2.60657
G1 X95.592 Y99.770 E2.63143
G1 X92.908 Y97.087 E2.82336
G1 X92.908 Y97.578 E2.84822
G1 X95.592 Y100.262 E3.04015
G1 X95.592 Y100.753 E3.06501
G1 X92.908 Y98.070 E3.25694
G1 X92.908 Y98.562 E3.28180
G1 X97.438 Y103.092 E3.60584
G1 X97.930 Y103.092 E3.63070
G1 X96.247 Y101.408 E3.75110
G1 X96.738 Y101.408 E3.77596
G1 X98.422 Y103.092 E3.89636
G1 X98.913 Y103.092 E3.92122
G1 X97.230 Y101.408 E4.04161
G1 X97.722 Y101.408 E4.06648
G1 X99.405 Y103.092 E4.18687
G1 X99.896 Y103.092 E4.21174
G1 X98.213 Y101.408 E4.33213
G1 X98.705 Y101.408 E4.35700
G1 X100.388 Y103.092 E4.47739
G1 X100.879 Y103.092 E4.50226
G1 X99.196 Y101.408 E4.62265
G1 X99.688 Y101.408 E4.64752
G1 X101.371 Y103.092 E4.76791
G1 X101.863 Y103.092 E4.79278
G1 X100.179 Y101.408 E4.91317
G1 X100.671 Y101.408 E4.93804
G1 X102.354 Y103.092 E5.05843
G1 X102.846 Y103.092 E5.08330
G1 X101.163 Y101.408 E5.20369
G1 X101.654 Y101.408 E5.22856
G1 X103.337 Y103.092 E5.34895
G1 X103.829 Y103.092 E5.37382
G1 X102.146 Y101.408 E5.49421
G1 X102.637 Y101.408 E5.51908
G1 X104.320 Y103.092 E5.63947
G1 X104.812 Y103.092 E5.66434
G1 X103.129 Y101.408 E5.78473
G1 X103.620 Y101.408 E5.80960
G1 X105.304 Y103.092 E5.92999
G1 X105.795 Y103.092 E5.95486
G1 X104.112 Y101.408 E6.07525
G1 X104.604 Y101.408 E6.10011
G1 X106.287 Y103.092 E6.22051
G1 X106.778 Y103.092 E6.24537
G1 X105.095 Y101.408 E6.36577
G1 X105.587 Y101.408 E6.39063
G1 X107.270 Y103.092 E6.51103
G1 X107.761 Y103.092 E6.53589
G1 X106.078 Y101.408 E6.65629
G1 X106.570 Y101.408 E6.68115
G1 X108.253 Y103.092 E6.80155
G1 X108.745 Y103.092 E6.82641
G1 X107.061 Y101.408 E6.94681
G1 X107.553 Y101.408 E6.97167
G1 X109.236 Y103.092 E7.09207
G1 X109.728 Y103.092 E7.11693
G1 X108.045 Y101.408 E7.23733
G1 X108.536 Y101.408 E7.26219
G1 X110.219 Y103.092 E7.38259
G1 X110.711 Y103.092 E7.40745
G1 X109.028 Y101.408 E7.52785
G1 X109.519 Y101.408 E7.55271
G1 X111.202 Y103.092 E7.67311
G1 X111.694 Y103.092 E7.69797
G1 X110.011 Y101.408 E7.81837
G1 X110.502 Y101.408 E7.84323
G1 X112.186 Y103.092 E7.96363
G1 X112.677 Y103.092 E7.98849
G1 X110.994 Y101.408 E8.10889
G1 X111.486 Y101.408 E8.13375
G1 X113.169 Y103.092 E8.25415
G1 X113.660 Y103.092 E8.27901
G1 X111.977 Y101.408 E8.39941
G1 X112.469 Y101.408 E8.42427
G1 X114.152 Y103.092 E8.54467
G1 X114.643 Y103.092 E8.56953
G1 X112.960 Y101.408 E8.68993
G1 X113.452 Y101.408 E8.71479
G1 X115.135 Y103.092 E8.83519
G1 X115.627 Y103.092 E8.86005
G1 X113.943 Y101.408 E8.98045
G1 X114.435 Y101.408 E9.00531
G1 X116.118 Y103.092 E9.12571
G1 X116.610 Y103.092 E9.15057
G1 X114.927 Y101.408 E9.27096
G1 X115.418 Y101.408 E9.29583
G1 X117.101 Y103.092 E9.41622
G1 X117.593 Y103.092 E9.44109
G1 X115.910 Y101.408 E9.56148
G1 X116.401 Y101.408 E9.58635
G1 X118.084 Y103.092 E9.70674
G1 X118.576 Y103.092 E9.73161
G1 X116.893 Y101.408 E9.85200
G1 X117.384 Y101.408 E9.87687
G1 X119.068 Y103.092 E9.99726
G1 X119.559 Y103.092 E10.02213
G1 X117.876 Y101.408 E10.14252
G1 X118.368 Y101.408 E10.16739
G1 X120.051 Y103.092 E10.28778
G1 X120.542 Y103.092 E10.31265
G1 X118.859 Y101.408 E10.43304
G1 X119.351 Y101.408 E10.45791
G1 X121.034 Y103.092 E10.57830
G1 X121.525 Y103.092 E10.60317
G1 X119.842 Y101.408 E10.72356
G1 X120.334 Y101.408 E10.74843
G1 X122.017 Y103.092 E10.86882
G1 X122.509 Y103.092 E10.89369
G1 X120.825 Y101.408 E11.01408
G1 X121.317 Y101.408 E11.03894
G1 X123.000 Y103.092 E11.15934
G1 X123.492 Y103.092 E11.18420
G1 X121.408 Y101.008 E11.33323
G1 X121.408 Y100.517 E11.35809
G1 X123.983 Y103.092 E11.54227
G1 X124.092 Y103.092 E11.54775
G1 X124.092 Y102.708 E11.56714
G1 X121.408 Y100.025 E11.75906
G1 X121.408 Y99.534 E11.78393
G1 X124.092 Y102.217 E11.97585
G1 X124.092 Y101.725 E12.00072
G1 X121.408 Y99.042 E12.19264
G1 X121.408 Y98.550 E12.21751
G1 X124.092 Y101.234 E12.40943
G1 X124.092 Y100.742 E12.43430
G1 X121.408 Y98.059 E12.62622
G1 X121.408 Y97.567 E12.65109
G1 X124.092 Y100.250 E12.84301
G1 X124.092 Y99.759 E12.86788
G1 X121.408 Y97.076 E13.05980
G1 X121.408 Y96.908 E13.06826
G1 X121.733 Y96.908 E13.08467
G1 X124.092 Y99.267 E13.25339
G1 X124.092 Y98.776 E13.27826
G1 X122.224 Y96.908 E13.41182
G1 X122.716 Y96.908 E13.43668
G1 X124.092 Y98.284 E13.53509
G1 X124.092 Y97.793 E13.55995
G1 X123.207 Y96.908 E13.62319
G1 X123.699 Y96.908 E13.64806
G1 X124.247 Y97.456 E13.68724
G1 Z0.650 F7800.000
G1 E11.68724 F2400.00000
G92 E0
G1 X95.754 Y101.246 F7800.000
G1 E2.00000 F2400.00000
G1 F3600
G1 X121.246 Y101.246 E3.22610
G1 X121.246 Y96.746 E3.44254
G1 X124.254 Y96.746 E3.58719
G1 X124.254 Y103.254 E3.90018
G1 X75.746 Y103.254 E6.23322
G1 X75.746 Y101.246 E6.32978
G1 X92.746 Y101.246 E7.14742
G1 X92.746 Y96.746 E7.36385
G1 X95.754 Y96.746 E7.50851
G1 X95.754 Y101.186 E7.72206
G1 X96.139 Y100.861 F7800.000
G1 F3600
G1 X120.861 Y100.861 E8.91106
G1 X120.861 Y96.361 E9.12750
G1 X124.639 Y96.361 E9.30924
G1 X124.639 Y103.639 E9.65933
G1 X75.361 Y103.639 E12.02947
G1 X75.361 Y100.861 E12.16312
G1 X92.361 Y100.861 E12.98076
G1 X92.361 Y96.361 E13.19719
G1 X96.139 Y96.361 E13.37894
G1 X96.139 Y100.801 E13.59249
G1 X96.525 Y100.475 F7800.000
G1 F1800
G1 X120.475 Y100.475 E14.74440
G1 X120.475 Y95.975 E14.96083
G1 X125.025 Y95.975 E15.17967
G1 X125.025 Y104.025 E15.56685
G1 X74.975 Y104.025 E17.97408
G1 X74.975 Y100.475 E18.14483
G1 X91.975 Y100.475 E18.96247
G1 X91.975 Y95.975 E19.17890
G1 X96.525 Y95.975 E19.39774
G1 X96.525 Y100.415 E19.61129
G1 X96.629 Y100.861 F7800.000
G1 X92.862 Y101.125 F7800.000
G1 F1200
G1 X95.465 Y98.522 E19.79012
G1 X95.465 Y97.971 E19.81688
G1 X93.035 Y100.401 E19.98378
G1 X93.035 Y99.850 E20.01054
G1 X95.465 Y97.421 E20.17745
G1 X95.465 Y97.035 E20.19616
G1 X95.299 Y97.035 E20.20421
G1 X93.035 Y99.299 E20.35972
G1 X93.035 Y98.748 E20.38649
G1 X94.748 Y97.035 E20.50415
G1 X94.197 Y97.035 E20.53091
G1 X93.035 Y98.197 E20.61073
G1 X93.035 Y97.646 E20.63749
G1 X93.646 Y97.035 E20.67946
G1 X93.095 Y97.035 E20.70622
G1 X92.862 Y97.269 E20.72226
G1 E18.72226 F2400.00000
G92 E0
G1 X75.862 Y102.150 F7800.000
G1 E2.00000 F2400.00000
G1 F1200
G1 X76.476 Y101.535 E2.04220
G1 X77.027 Y101.535 E2.06897
G1 X76.035 Y102.527 E2.13709
G1 X76.035 Y102.965 E2.15835
G1 X76.149 Y102.965 E2.16386
G1 X77.578 Y101.535 E2.26205
G1 X78.129 Y101.535 E2.28881
G1 X76.700 Y102.965 E2.38701
G1 X77.250 Y102.965 E2.41377
G1 X78.680 Y101.535 E2.51196
G1 X79.230 Y101.535 E2.53873
G1 X77.801 Y102.965 E2.63692
G1 X78.352 Y102.965 E2.66368
G1 X79.781 Y101.535 E2.76188
G1 X80.332 Y101.535 E2.78864
G1 X78.903 Y102.965 E2.88683
G1 X79.454 Y102.965 E2.91360
G1 X80.883 Y101.535 E3.01179
G1 X81.434 Y101.535 E3.03855
G1 X80.005 Y102.965 E3.13675
G1 X80.556 Y102.965 E3.16351
G1 X81.985 Y101.535 E3.26171
G1 X82.536 Y101.535 E3.28847
G1 X81.107 Y102.965 E3.38666
G1 X81.657 Y102.965 E3.41343
G1 X83.087 Y101.535 E3.51162
G1 X83.637 Y101.535 E3.53838
G1 X82.208 Y102.965 E3.63658
G1 X82.759 Y102.965 E3.66334
G1 X84.188 Y101.535 E3.76153
G1 X84.739 Y101.535 E3.78830
G1 X83.310 Y102.965 E3.88649
G1 X83.861 Y102.965 E3.91325
G1 X85.290 Y101.535 E4.01145
G1 X85.841 Y101.535 E4.03821
G1 X84.412 Y102.965 E4.13640
G1 X84.963 Y102.965 E4.16317
G1 X86.392 Y101.535 E4.26136
G1 X86.943 Y101.535 E4.28813
G1 X85.514 Y102.965 E4.38632
G1 X86.064 Y102.965 E4.41308
G1 X87.494 Y101.535 E4.51128
G1 X88.044 Y101.535 E4.53804
G1 X86.615 Y102.965 E4.63623
G1 X87.166 Y102.965 E4.66300
G1 X88.595 Y101.535 E4.76119
G1 X89.146 Y101.535 E4.78795
G1 X87.717 Y102.965 E4.88615
G1 X88.268 Y102.965 E4.91291
G1 X89.697 Y101.535 E5.01110
G1 X90.248 Y101.535 E5.03787
G1 X88.819 Y102.965 E5.13606
G1 X89.370 Y102.965 E5.16283
G1 X90.799 Y101.535 E5.26102
G1 X91.350 Y101.535 E5.28778
G1 X89.921 Y102.965 E5.38598
G1 X90.471 Y102.965 E5.41274
G1 X91.901 Y101.535 E5.51093
G1 X92.451 Y101.535 E5.53770
G1 X91.022 Y102.965 E5.63589
G1 X91.573 Y102.965 E5.66265
G1 X95.465 Y99.073 E5.93003
G1 X95.465 Y99.624 E5.95679
G1 X92.124 Y102.965 E6.18631
G1 X92.675 Y102.965 E6.21307
G1 X95.465 Y100.175 E6.40475
G1 X95.465 Y100.726 E6.43151
G1 X93.226 Y102.965 E6.58533
G1 X93.777 Y102.965 E6.61210
G1 X95.465 Y101.277 E6.72807
G1 X95.465 Y101.535 E6.74064
G1 X95.757 Y101.535 E6.75483
G1 X94.328 Y102.965 E6.85302
G1 X94.878 Y102.965 E6.87979
G1 X96.308 Y101.535 E6.97798
G1 X96.858 Y101.535 E7.00475
G1 X95.429 Y102.965 E7.10294
G1 X95.980 Y102.965 E7.12970
G1 X97.409 Y101.535 E7.22790
G1 X97.960 Y101.535 E7.25466
G1 X96.531 Y102.965 E7.35286
G1 X97.082 Y102.965 E7.37962
G1 X98.511 Y101.535 E7.47781
G1 X99.062 Y101.535 E7.50458
G1 X97.633 Y102.965 E7.60277
G1 X98.184 Y102.965 E7.62953
G1 X99.613 Y101.535 E7.72773
G1 X100.164 Y101.535 E7.75449
G1 X98.735 Y102.965 E7.85268
G1 X99.285 Y102.965 E7.87945
G1 X100.715 Y101.535 E7.97764
G1 X101.265 Y101.535 E8.00441
G1 X99.836 Y102.965 E8.10260
G1 X100.387 Y102.965 E8.12936
G1 X101.816 Y101.535 E8.22756
G1 X102.367 Y101.535 E8.25432
G1 X100.938 Y102.965 E8.35251
G1 X101.489 Y102.965 E8.37928
G1 X102.918 Y101.535 E8.47747
G1 X103.469 Y101.535 E8.50424
G1 X102.040 Y102.965 E8.60243
G1 X102.591 Y102.965 E8.62919
G1 X104.020 Y101.535 E8.72739
G1 X104.571 Y101.535 E8.75415
G1 X103.142 Y102.965 E8.85234
G1 X103.692 Y102.965 E8.87911
G1 X105.122 Y101.535 E8.97730
G1 X105.672 Y101.535 E9.00406
G1 X104.243 Y102.965 E9.10226
G1 X104.794 Y102.965 E9.12902
G1 X106.223 Y101.535 E9.22722
G1 X106.774 Y101.535 E9.25398
G1 X105.345 Y102.965 E9.35217
G1 X105.896 Y102.965 E9.37894
G1 X107.325 Y101.535 E9.47713
G1 X107.876 Y101.535 E9.50389
G1 X106.447 Y102.965 E9.60209
G1 X106.998 Y102.965 E9.62885
G1 X108.427 Y101.535 E9.72705
G1 X108.978 Y101.535 E9.75381
G1 X107.548 Y102.965 E9.85200
G1 X108.099 Y102.965 E9.87877
G1 X109.529 Y101.535 E9.97696
G1 X110.079 Y101.535 E10.00372
G1 X108.650 Y102.965 E10.10192
G1 X109.201 Y102.965 E10.12868
G1 X110.630 Y101.535 E10.22688
G1 X111.181 Y101.535 E10.25364
G1 X109.752 Y102.965 E10.35183
G1 X110.303 Y102.965 E10.37860
G1 X111.732 Y101.535 E10.47679
G1 X112.283 Y101.535 E10.50355
G1 X110.854 Y102.965 E10.60175
G1 X111.405 Y102.965 E10.62851
G1 X112.834 Y101.535 E10.72670
G1 X113.385 Y101.535 E10.75347
G1 X111.955 Y102.965 E10.85166
G1 X112.506 Y102.965 E10.87843
G1 X113.935 Y101.535 E10.97662
G1 X114.486 Y101.535 E11.00338
G1 X113.057 Y102.965 E11.10158
G1 X113.608 Y102.965 E11.12834
