; Gcode updated with 'stl_info' on 2019-12-09 21:15:53.853017

; stl_min_x = -8.199999809265137
; stl_max_x = 8.199999809265137
; stl_min_y = -8.199999809265137
; stl_max_y = 18.600000381469727
; stl_min_z = -8.199999809265137

; generated by Slic3r 1.3.1-dev (Build adea0d9) on 2019-12-09 at 21:15:53

; external perimeters extrusion width = 0.44mm (2.86mm^3/s)
; perimeters extrusion width = 0.56mm (4.14mm^3/s)
; infill extrusion width = 0.50mm (3.66mm^3/s)
; solid infill extrusion width = 0.56mm (3.10mm^3/s)
; top infill extrusion width = 0.56mm (3.10mm^3/s)

M107
G92 E0
;D3D:START:START
T0
M104 S215 T0

G21
G90
M107
T0
G28
G29
M109 T0 S215 T0
G0 F3000
M107
T0
G92 E0
G0 X0 Y149 Z0.1 F3600
G1 Y49 E6.5 F1200
G0 Z1
G92 E0
; Filament gcode

G21 ; set units to millimeters
G90 ; use absolute coordinates
M82 ; use absolute distances for extrusion
G92 E0
G1 Z0.300 F7800.000
G1 E-2.00000 F2400.00000
G92 E0
G1 X72.948 Y77.646 F7800.000
G1 E2.00000 F2400.00000
G1 F1800.000
G1 X77.052 Y77.646 E2.13596
G1 X79.104 Y81.200 E2.27192
G1 X77.052 Y84.754 E2.40789
G1 X72.948 Y84.754 E2.54385
G1 X70.896 Y81.200 E2.67981
G1 X72.918 Y77.698 E2.81378
G1 X73.101 Y77.911 F7800.000
G1 F1800.000
G1 X76.899 Y77.911 E2.93958
G1 X78.797 Y81.200 E3.06538
G1 X76.899 Y84.489 E3.19119
G1 X73.101 Y84.489 E3.31699
G1 X71.203 Y81.200 E3.44279
G1 X73.071 Y77.963 E3.56660
G1 X73.255 Y78.177 F7800.000
G1 F1800.000
G1 X76.745 Y78.177 E3.68224
G1 X78.491 Y81.200 E3.79788
G1 X76.745 Y84.223 E3.91352
G1 X73.255 Y84.223 E4.02916
G1 X71.509 Y81.200 E4.14480
G1 X73.225 Y78.229 E4.25845
G1 E2.25845 F2400.00000
G92 E0
G1 X74.077 Y75.626 F7800.000
G1 E2.00000 F2400.00000
G1 F1800.000
G1 X73.177 Y75.410 E2.03066
G1 X72.322 Y75.055 E2.06133
G1 X71.533 Y74.572 E2.09199
G1 X70.829 Y73.971 E2.12265
G1 X70.228 Y73.267 E2.15332
G1 X69.744 Y72.478 E2.18398
G1 X69.390 Y71.623 E2.21464
G1 X69.174 Y70.723 E2.24531
G1 X69.102 Y69.800 E2.27597
G1 X69.174 Y68.877 E2.30664
G1 X69.390 Y67.977 E2.33730
G1 X69.744 Y67.122 E2.36796
G1 X70.228 Y66.333 E2.39863
G1 X70.829 Y65.629 E2.42929
G1 X71.532 Y65.029 E2.45992
G1 X72.308 Y64.551 E2.49010
G1 X73.177 Y64.190 E2.52129
G1 X74.077 Y63.974 E2.55195
G1 X75.000 Y63.902 E2.58261
G1 X75.923 Y63.974 E2.61328
G1 X76.823 Y64.190 E2.64394
G1 X77.678 Y64.544 E2.67460
G1 X78.467 Y65.028 E2.70527
G1 X79.171 Y65.629 E2.73593
G1 X79.772 Y66.333 E2.76659
G1 X80.255 Y67.122 E2.79726
G1 X80.610 Y67.977 E2.82792
G1 X80.826 Y68.877 E2.85858
G1 X80.898 Y69.800 E2.88925
G1 X80.826 Y70.723 E2.91991
G1 X80.610 Y71.623 E2.95058
G1 X80.255 Y72.478 E2.98124
G1 X79.772 Y73.267 E3.01190
G1 X79.171 Y73.971 E3.04257
G1 X78.467 Y74.572 E3.07323
G1 X77.678 Y75.055 E3.10389
G1 X76.823 Y75.410 E3.13456
G1 X75.923 Y75.626 E3.16522
G1 X75.000 Y75.698 E3.19588
G1 X74.137 Y75.630 E3.22456
G1 X74.119 Y75.363 F7800.000
G1 F1800.000
G1 X73.260 Y75.156 E3.25384
G1 X72.443 Y74.818 E3.28312
G1 X71.690 Y74.356 E3.31239
G1 X71.018 Y73.782 E3.34167
G1 X70.444 Y73.110 E3.37095
G1 X69.982 Y72.357 E3.40023
G1 X69.644 Y71.540 E3.42951
G1 X69.437 Y70.681 E3.45879
G1 X69.368 Y69.800 E3.48806
G1 X69.437 Y68.919 E3.51734
G1 X69.644 Y68.060 E3.54662
G1 X69.982 Y67.243 E3.57590
G1 X70.444 Y66.490 E3.60518
G1 X71.018 Y65.818 E3.63446
G1 X71.689 Y65.244 E3.66371
G1 X72.429 Y64.788 E3.69251
G1 X73.260 Y64.444 E3.72230
G1 X74.119 Y64.237 E3.75158
G1 X75.000 Y64.168 E3.78085
G1 X75.881 Y64.237 E3.81013
G1 X76.740 Y64.444 E3.83941
G1 X77.557 Y64.782 E3.86869
G1 X78.310 Y65.244 E3.89797
G1 X78.982 Y65.818 E3.92725
G1 X79.556 Y66.490 E3.95653
G1 X80.018 Y67.243 E3.98580
G1 X80.356 Y68.060 E4.01508
G1 X80.563 Y68.919 E4.04436
G1 X80.632 Y69.800 E4.07364
G1 X80.563 Y70.681 E4.10292
G1 X80.356 Y71.540 E4.13220
G1 X80.018 Y72.357 E4.16147
G1 X79.556 Y73.110 E4.19075
G1 X78.982 Y73.782 E4.22003
G1 X78.310 Y74.356 E4.24931
G1 X77.557 Y74.818 E4.27859
G1 X76.740 Y75.156 E4.30787
G1 X75.881 Y75.363 E4.33714
G1 X75.000 Y75.432 E4.36642
G1 X74.179 Y75.367 E4.39371
G1 X74.161 Y75.099 F7800.000
G1 F1800.000
G1 X73.342 Y74.903 E4.42161
G1 X72.564 Y74.581 E4.44950
G1 X71.846 Y74.141 E4.47739
G1 X71.206 Y73.594 E4.50529
G1 X70.659 Y72.954 E4.53318
G1 X70.219 Y72.236 E4.56107
G1 X69.897 Y71.458 E4.58897
G1 X69.701 Y70.639 E4.61686
G1 X69.634 Y69.800 E4.64475
G1 X69.701 Y68.961 E4.67265
G1 X69.897 Y68.142 E4.70054
G1 X70.219 Y67.364 E4.72843
G1 X70.659 Y66.646 E4.75633
G1 X71.206 Y66.006 E4.78422
G1 X71.846 Y65.459 E4.81210
G1 X72.550 Y65.025 E4.83951
G1 X73.342 Y64.697 E4.86791
G1 X74.161 Y64.501 E4.89580
G1 X75.000 Y64.434 E4.92369
G1 X75.839 Y64.501 E4.95158
G1 X76.658 Y64.697 E4.97948
G1 X77.436 Y65.019 E5.00737
G1 X78.154 Y65.459 E5.03526
G1 X78.794 Y66.006 E5.06316
G1 X79.341 Y66.646 E5.09105
G1 X79.781 Y67.364 E5.11894
G1 X80.103 Y68.142 E5.14684
G1 X80.299 Y68.961 E5.17473
G1 X80.366 Y69.800 E5.20262
G1 X80.299 Y70.639 E5.23052
G1 X80.103 Y71.458 E5.25841
G1 X79.781 Y72.236 E5.28630
G1 X79.341 Y72.954 E5.31420
G1 X78.794 Y73.594 E5.34209
G1 X78.154 Y74.141 E5.36998
G1 X77.436 Y74.581 E5.39788
G1 X76.658 Y74.903 E5.42577
G1 X75.839 Y75.099 E5.45366
G1 X75.000 Y75.166 E5.48156
G1 X74.220 Y75.104 E5.50746
G1 E3.50746 F2400.00000
G92 E0
G1 X67.496 Y87.704 F7800.000
G1 E2.00000 F2400.00000
G1 F1800.000
G1 X67.496 Y69.827 E2.59224
G1 X67.591 Y68.626 E2.63214
G1 X67.866 Y67.482 E2.67114
G1 X68.316 Y66.394 E2.71014
G1 X68.931 Y65.391 E2.74914
G1 X69.696 Y64.496 E2.78814
G1 X70.591 Y63.731 E2.82713
G1 X71.594 Y63.116 E2.86613
G1 X72.682 Y62.666 E2.90513
G1 X73.826 Y62.391 E2.94413
G1 X75.000 Y62.298 E2.98313
G1 X76.174 Y62.391 E3.02212
G1 X77.318 Y62.666 E3.06112
G1 X78.406 Y63.116 E3.10012
G1 X79.409 Y63.731 E3.13912
G1 X80.304 Y64.496 E3.17812
G1 X81.069 Y65.391 E3.21711
G1 X81.684 Y66.394 E3.25611
G1 X82.134 Y67.482 E3.29511
G1 X82.409 Y68.626 E3.33411
G1 X82.504 Y69.827 E3.37402
G1 X82.504 Y87.704 E3.96625
G1 X67.556 Y87.704 E4.46146
G1 X67.231 Y87.969 F7800.000
G1 F1800.000
G1 X67.231 Y69.817 E5.06284
G1 X67.328 Y68.585 E5.10378
G1 X67.612 Y67.400 E5.14417
G1 X68.079 Y66.273 E5.18455
G1 X68.716 Y65.234 E5.22493
G1 X69.507 Y64.307 E5.26532
G1 X70.434 Y63.516 E5.30570
G1 X71.473 Y62.879 E5.34608
G1 X72.600 Y62.412 E5.38647
G1 X73.785 Y62.128 E5.42685
G1 X75.000 Y62.032 E5.46723
G1 X76.215 Y62.128 E5.50762
G1 X77.400 Y62.412 E5.54800
G1 X78.527 Y62.879 E5.58838
G1 X79.566 Y63.516 E5.62877
G1 X80.493 Y64.307 E5.66915
G1 X81.284 Y65.234 E5.70953
G1 X81.921 Y66.273 E5.74992
G1 X82.388 Y67.400 E5.79030
G1 X82.672 Y68.585 E5.83068
G1 X82.769 Y69.817 E5.87163
G1 X82.769 Y87.969 E6.47301
G1 X67.291 Y87.969 E6.98581
G1 X66.965 Y88.235 F7800.000
G1 F1800.000
G1 X66.965 Y69.806 E7.59634
G1 X67.064 Y68.543 E7.63833
G1 X67.359 Y67.317 E7.68009
G1 X67.841 Y66.152 E7.72186
G1 X68.500 Y65.077 E7.76363
G1 X69.319 Y64.119 E7.80540
G1 X70.277 Y63.300 E7.84717
G1 X71.352 Y62.641 E7.88894
G1 X72.517 Y62.159 E7.93070
G1 X73.743 Y61.864 E7.97247
G1 X75.000 Y61.766 E8.01424
G1 X76.257 Y61.864 E8.05601
G1 X77.483 Y62.159 E8.09778
G1 X78.648 Y62.641 E8.13954
G1 X79.723 Y63.300 E8.18131
G1 X80.681 Y64.119 E8.22308
G1 X81.500 Y65.077 E8.26485
G1 X82.159 Y66.152 E8.30662
G1 X82.641 Y67.317 E8.34839
G1 X82.936 Y68.543 E8.39015
G1 X83.035 Y69.806 E8.43214
G1 X83.035 Y88.235 E9.04267
G1 X67.025 Y88.235 E9.57307
G1 E7.57307 F2400.00000
G92 E0
G1 X77.237 Y84.889 F7800.000
G1 E2.00000 F2400.00000
G1 F1800.000
G1 X82.341 Y79.785 E2.24033
G1 X82.341 Y79.407 E2.25290
G1 X77.753 Y83.996 E2.46895
G1 X78.269 Y83.102 E2.50329
G1 X82.341 Y79.030 E2.69506
G1 X82.341 Y78.652 E2.70763
G1 X78.784 Y82.209 E2.87512
G1 X79.300 Y81.316 E2.90946
G1 X82.341 Y78.275 E3.05267
G1 X82.341 Y77.897 E3.06523
G1 X79.171 Y81.067 E3.21451
G1 X79.033 Y80.828 E3.22371
G1 X82.341 Y77.520 E3.37949
G1 X82.341 Y77.142 E3.39206
G1 X78.895 Y80.589 E3.55434
G1 X78.757 Y80.349 E3.56354
G1 X82.341 Y76.765 E3.73234
G1 X82.341 Y76.387 E3.74490
G1 X78.618 Y80.110 E3.92020
G1 X78.480 Y79.871 E3.92940
G1 X82.341 Y76.010 E4.11121
G1 X82.341 Y75.632 E4.12378
G1 X78.342 Y79.631 E4.31209
G1 X78.204 Y79.392 E4.32129
G1 X82.341 Y75.255 E4.51610
G1 X82.341 Y74.877 E4.52867
G1 X78.066 Y79.153 E4.72999
G1 X77.928 Y78.913 E4.73919
G1 X82.341 Y74.500 E4.94702
G1 X82.341 Y74.122 E4.95959
G1 X77.789 Y78.674 E5.17392
G1 X77.651 Y78.435 E5.18312
G1 X82.341 Y73.745 E5.40396
G1 X82.341 Y73.367 E5.41653
G1 X77.513 Y78.195 E5.64388
G1 X77.375 Y77.956 E5.65308
G1 X82.341 Y72.989 E5.88693
G1 X82.341 Y72.612 E5.89950
G1 X77.237 Y77.717 E6.13986
G1 X77.092 Y77.484 E6.14899
G1 X82.341 Y72.234 E6.39614
G1 X82.341 Y71.857 E6.40871
G1 X76.715 Y77.484 E6.67364
G1 X76.337 Y77.484 E6.68620
G1 X82.341 Y71.479 E6.96891
G1 X82.341 Y71.102 E6.98147
G1 X79.694 Y73.749 E7.10611
G1 X79.884 Y73.527 E7.11584
G1 X80.408 Y72.658 E7.14961
G1 X82.341 Y70.724 E7.24066
G1 X82.341 Y70.347 E7.25323
G1 X80.675 Y72.014 E7.33171
G1 X80.760 Y71.808 E7.33911
G1 X80.841 Y71.470 E7.35070
G1 X82.341 Y69.969 E7.42134
G1 X82.331 Y69.602 E7.43357
G1 X80.960 Y70.973 E7.49811
G1 X80.986 Y70.868 E7.50172
G1 X81.011 Y70.545 E7.51250
G1 X82.304 Y69.252 E7.57336
G1 X82.276 Y68.902 E7.58505
G1 X81.043 Y70.135 E7.64309
G1 X81.062 Y69.903 E7.65083
G1 X81.050 Y69.751 E7.65591
G1 X82.247 Y68.554 E7.71228
G1 X82.174 Y68.250 E7.72271
G1 X81.022 Y69.401 E7.77693
G1 X80.994 Y69.051 E7.78862
G1 X82.101 Y67.945 E7.84071
G1 X82.028 Y67.641 E7.85113
G1 X80.936 Y68.732 E7.90252
G1 X80.863 Y68.428 E7.91295
G1 X81.939 Y67.352 E7.96362
G1 X81.829 Y67.085 E7.97324
G1 X80.790 Y68.124 E8.02215
G1 X80.695 Y67.841 E8.03207
G1 X81.718 Y66.818 E8.08025
G1 X81.607 Y66.551 E8.08987
G1 X80.584 Y67.574 E8.13805
G1 X80.474 Y67.307 E8.14767
G1 X81.481 Y66.300 E8.19511
G1 X81.338 Y66.066 E8.20425
G1 X80.355 Y67.048 E8.25052
G1 X80.212 Y66.814 E8.25966
G1 X81.194 Y65.832 E8.30592
G1 X81.051 Y65.598 E8.31506
G1 X80.068 Y66.580 E8.36133
G1 X79.925 Y66.346 E8.37047
G1 X80.897 Y65.374 E8.41624
G1 X80.723 Y65.170 E8.42515
G1 X79.760 Y66.134 E8.47052
G1 X79.586 Y65.930 E8.47943
G1 X80.549 Y64.967 E8.52480
G1 X80.375 Y64.763 E8.53371
G1 X79.412 Y65.727 E8.57908
G1 X79.235 Y65.526 E8.58798
G1 X80.198 Y64.563 E8.63334
G1 X79.995 Y64.389 E8.64226
G1 X79.031 Y65.352 E8.68762
G1 X78.828 Y65.178 E8.69654
G1 X79.791 Y64.215 E8.74190
G1 X79.587 Y64.041 E8.75082
G1 X78.624 Y65.004 E8.79618
G1 X78.405 Y64.845 E8.80518
G1 X79.384 Y63.867 E8.85125
G1 X79.356 Y63.843 E8.85247
G1 X79.154 Y63.719 E8.86036
G1 X78.171 Y64.702 E8.90662
G1 X77.937 Y64.559 E8.91576
G1 X78.920 Y63.576 E8.96203
G1 X78.686 Y63.433 E8.97117
G1 X77.703 Y64.415 E9.01743
G1 X77.437 Y64.303 E9.02703
G1 X78.452 Y63.289 E9.07479
G1 X78.388 Y63.250 E9.07728
G1 X78.194 Y63.170 E9.08428
G1 X77.170 Y64.193 E9.13247
G1 X76.903 Y64.082 E9.14209
G1 X77.927 Y63.059 E9.19027
G1 X77.660 Y62.948 E9.19989
G1 X76.613 Y63.995 E9.24916
G1 X76.309 Y63.922 E9.25959
G1 X77.393 Y62.838 E9.31063
G1 X77.096 Y62.757 E9.32087
G1 X76.004 Y63.849 E9.37226
G1 X75.861 Y63.814 E9.37717
G1 X75.676 Y63.800 E9.38335
G1 X76.792 Y62.684 E9.43588
G1 X76.487 Y62.611 E9.44631
G1 X75.326 Y63.772 E9.50098
G1 X74.976 Y63.745 E9.51267
G1 X76.175 Y62.546 E9.56912
G1 X75.825 Y62.518 E9.58081
G1 X74.580 Y63.763 E9.63943
G1 X74.170 Y63.796 E9.65312
G1 X75.475 Y62.491 E9.71456
G1 X75.125 Y62.463 E9.72625
G1 X73.724 Y63.864 E9.79222
G1 X73.227 Y63.984 E9.80923
G1 X74.719 Y62.492 E9.87948
G1 X74.309 Y62.524 E9.89317
G1 X72.652 Y64.181 E9.97117
G1 X72.083 Y64.417 E9.99170
G1 X71.968 Y64.487 E9.99618
G1 X73.884 Y62.572 E10.08638
G1 X73.387 Y62.691 E10.10338
G1 X67.891 Y68.187 E10.36219
G1 X68.010 Y67.691 E10.37920
G1 X72.891 Y62.810 E10.60899
G1 X72.253 Y63.070 E10.63192
G1 X68.270 Y67.053 E10.81945
G1 X68.450 Y66.619 E10.83510
G1 X68.645 Y66.301 E10.84751
G1 X71.501 Y63.445 E10.98198
G1 X70.851 Y63.843 E11.00738
G1 X69.989 Y64.579 E11.04510
G1 X69.782 Y64.786 E11.05483
G1 X69.694 Y66.762 F7800.000
G1 F1800.000
G1 X67.772 Y68.684 E11.14534
G1 X67.724 Y69.109 E11.15958
G1 X69.381 Y67.452 E11.23758
G1 X69.240 Y67.792 E11.24981
G1 X69.184 Y68.027 E11.25786
G1 X67.692 Y69.519 E11.32811
G1 X67.660 Y69.929 E11.34180
G1 X69.064 Y68.524 E11.40795
G1 X69.014 Y68.732 E11.41509
G1 X68.996 Y68.970 E11.42303
G1 X67.659 Y70.307 E11.48599
G1 X67.659 Y70.685 E11.49856
G1 X68.963 Y69.380 E11.56000
G1 X68.945 Y69.776 E11.57320
G1 X67.659 Y71.062 E11.63376
G1 X67.659 Y71.440 E11.64633
G1 X68.972 Y70.126 E11.70819
G1 X69.000 Y70.476 E11.71987
G1 X67.659 Y71.817 E11.78303
G1 X67.659 Y72.195 E11.79560
G1 X69.049 Y70.804 E11.86106
G1 X69.122 Y71.109 E11.87148
G1 X67.659 Y72.572 E11.94038
G1 X67.659 Y72.950 E11.95295
G1 X69.195 Y71.413 E12.02529
G1 X69.282 Y71.703 E12.03538
G1 X67.659 Y73.327 E12.11184
G1 X67.659 Y73.705 E12.12441
G1 X69.393 Y71.970 E12.20607
G1 X69.503 Y72.237 E12.21569
G1 X67.659 Y74.082 E12.30255
G1 X67.659 Y74.460 E12.31512
G1 X69.615 Y72.503 E12.40725
G1 X69.759 Y72.737 E12.41639
G1 X67.659 Y74.837 E12.51527
G1 X67.659 Y75.215 E12.52784
G1 X69.902 Y72.971 E12.63347
G1 X70.045 Y73.205 E12.64261
G1 X67.659 Y75.592 E12.75499
G1 X67.659 Y75.970 E12.76756
G1 X70.204 Y73.424 E12.88743
G1 X70.378 Y73.628 E12.89635
G1 X67.659 Y76.347 E13.02440
G1 X67.659 Y76.725 E13.03697
G1 X70.552 Y73.831 E13.17322
G1 X70.726 Y74.035 E13.18213
G1 X67.659 Y77.102 E13.32657
G1 X67.659 Y77.480 E13.33913
G1 X70.927 Y74.212 E13.49301
G1 X71.130 Y74.386 E13.50192
G1 X67.659 Y77.857 E13.66539
G1 X67.659 Y78.235 E13.67795
G1 X71.334 Y74.560 E13.85100
G1 X71.546 Y74.725 E13.85996
G1 X67.659 Y78.612 E14.04300
G1 X67.659 Y78.990 E14.05557
G1 X71.780 Y74.868 E14.24963
G1 X72.014 Y75.012 E14.25877
G1 X67.659 Y79.367 E14.46386
G1 X67.659 Y79.745 E14.47642
G1 X72.248 Y75.155 E14.69253
G1 X72.507 Y75.274 E14.70201
G1 X67.659 Y80.122 E14.93031
G1 X67.659 Y80.500 E14.94288
G1 X72.774 Y75.384 E15.18375
G1 X73.041 Y75.495 E15.19337
G1 X67.659 Y80.877 E15.44681
G1 X67.659 Y81.255 E15.45938
G1 X73.324 Y75.590 E15.72611
G1 X73.628 Y75.663 E15.73654
G1 X67.659 Y81.632 E16.01760
G1 X67.659 Y82.010 E16.03017
G1 X73.932 Y75.736 E16.32557
G1 X74.251 Y75.794 E16.33637
G1 X67.659 Y82.387 E16.64680
G1 X67.659 Y82.765 E16.65936
G1 X72.559 Y77.865 E16.89008
G1 X72.043 Y78.758 E16.92442
G1 X67.659 Y83.142 E17.13086
G1 X67.659 Y83.520 E17.14343
G1 X71.527 Y79.651 E17.32559
G1 X71.012 Y80.544 E17.35992
G1 X67.659 Y83.897 E17.51780
G1 X67.659 Y84.275 E17.53037
G1 X70.745 Y81.188 E17.67571
G1 X70.884 Y81.427 E17.68491
G1 X67.659 Y84.652 E17.83676
G1 X67.659 Y85.030 E17.84933
G1 X71.022 Y81.667 E18.00769
G1 X71.160 Y81.906 E18.01689
G1 X67.659 Y85.407 E18.18175
G1 X67.659 Y85.785 E18.19432
G1 X71.298 Y82.145 E18.36568
G1 X71.436 Y82.385 E18.37489
G1 X67.659 Y86.162 E18.55276
G1 X67.659 Y86.540 E18.56533
G1 X71.574 Y82.624 E18.74971
G1 X71.713 Y82.863 E18.75891
G1 X67.659 Y86.917 E18.94979
G1 X67.659 Y87.295 E18.96236
G1 X71.851 Y83.103 E19.15975
G1 X71.989 Y83.342 E19.16895
G1 X67.789 Y87.541 E19.36668
G1 X68.167 Y87.541 E19.37925
G1 X72.127 Y83.581 E19.56571
G1 X72.265 Y83.821 E19.57492
G1 X68.545 Y87.541 E19.75011
G1 X68.922 Y87.541 E19.76268
G1 X72.404 Y84.060 E19.92660
G1 X72.542 Y84.299 E19.93580
G1 X69.300 Y87.541 E20.08846
G1 X69.677 Y87.541 E20.10103
G1 X72.680 Y84.539 E20.24242
G1 X72.818 Y84.778 E20.25162
G1 X70.055 Y87.541 E20.38173
G1 X70.432 Y87.541 E20.39430
G1 X73.057 Y84.916 E20.51790
G1 X73.435 Y84.916 E20.53047
G1 X70.810 Y87.541 E20.65407
G1 X71.187 Y87.541 E20.66664
G1 X73.812 Y84.916 E20.79024
G1 X74.190 Y84.916 E20.80280
G1 X71.565 Y87.541 E20.92640
G1 X71.942 Y87.541 E20.93897
G1 X74.567 Y84.916 E21.06257
G1 X74.945 Y84.916 E21.07514
G1 X72.320 Y87.541 E21.19874
G1 X72.697 Y87.541 E21.21131
G1 X75.322 Y84.916 E21.33491
G1 X75.700 Y84.916 E21.34747
G1 X73.075 Y87.541 E21.47107
G1 X73.452 Y87.541 E21.48364
G1 X76.077 Y84.916 E21.60724
G1 X76.455 Y84.916 E21.61981
G1 X73.830 Y87.541 E21.74341
G1 X74.207 Y87.541 E21.75598
G1 X76.832 Y84.916 E21.87957
G1 X77.210 Y84.916 E21.89214
G1 X74.585 Y87.541 E22.01574
G1 X74.962 Y87.541 E22.02831
G1 X82.341 Y80.162 E22.37576
G1 X82.341 Y80.540 E22.38833
G1 X75.340 Y87.541 E22.71801
G1 X75.717 Y87.541 E22.73058
G1 X82.341 Y80.917 E23.04249
