; generated by Slic3r 1.3.1-dev (Build 2ef957d) on 2019-11-25 at 09:20:25

; external perimeters extrusion width = 0.55mm (4.37mm^3/s)
; perimeters extrusion width = 0.70mm (11.44mm^3/s)
; infill extrusion width = 0.62mm (13.45mm^3/s)
; solid infill extrusion width = 0.70mm (3.81mm^3/s)
; top infill extrusion width = 0.70mm (2.86mm^3/s)

M107
G92 E0
M104 S200 ; set temperature
G28 ; home all axes
G1 Z5 F5000 ; lift nozzle

; Filament gcode

M109 S200 ; set temperature and wait for it to be reached
G21 ; set units to millimeters
G90 ; use absolute coordinates
M82 ; use absolute distances for extrusion
G92 E0
G1 Z0.350 F7800.000
G1 E-2.00000 F2400.00000
G92 E0
G1 X51.668 Y71.774 F7800.000
G1 E2.00000 F2400.00000
G1 F1800.000
G1 X53.270 Y71.105 E2.05370
G1 X80.770 Y63.664 E2.93518
G1 X82.500 Y63.434 E2.98919
G1 X117.500 Y63.434 E4.07214
G1 X119.230 Y63.664 E4.12615
G1 X146.730 Y71.105 E5.00763
G1 X148.807 Y72.078 E5.07859
G1 X150.428 Y73.701 E5.14955
G1 X151.398 Y75.779 E5.22052
G1 X151.625 Y77.500 E5.27422
G1 X151.625 Y122.500 E6.66658
G1 X151.228 Y124.759 E6.73754
G1 X150.085 Y126.747 E6.80850
G1 X148.332 Y128.226 E6.87946
G1 X146.730 Y128.895 E6.93316
G1 X119.230 Y136.336 E7.81465
G1 X117.500 Y136.566 E7.86866
G1 X82.500 Y136.566 E8.95160
G1 X80.770 Y136.336 E9.00561
G1 X53.270 Y128.895 E9.88709
G1 X51.193 Y127.922 E9.95806
G1 X49.572 Y126.299 E10.02902
G1 X48.602 Y124.221 E10.09998
G1 X48.375 Y122.500 E10.15368
G1 X48.375 Y77.500 E11.54604
G1 X48.772 Y75.241 E11.61700
G1 X49.915 Y73.253 E11.68797
G1 X51.611 Y71.822 E11.75661
G1 E9.75661 F2400.00000
G92 E0
G1 X63.142 Y99.463 F7800.000
G1 E2.00000 F2400.00000
G1 F1800.000
G1 X62.093 Y101.521 E2.07147
G1 X61.521 Y102.093 E2.09651
G1 X60.799 Y102.460 E2.12156
G1 X60.000 Y102.587 E2.14660
G1 X59.201 Y102.460 E2.17164
G1 X58.479 Y102.093 E2.19669
G1 X57.907 Y101.521 E2.22173
G1 X57.540 Y100.799 E2.24678
G1 X57.413 Y100.000 E2.27182
G1 X57.540 Y99.201 E2.29687
G1 X57.907 Y98.479 E2.32191
G1 X58.479 Y97.907 E2.34695
G1 X59.201 Y97.540 E2.37200
G1 X60.000 Y97.413 E2.39704
G1 X60.799 Y97.540 E2.42208
G1 X61.521 Y97.907 E2.44713
G1 X62.093 Y98.479 E2.47217
G1 X62.460 Y99.201 E2.49722
G1 X62.502 Y99.463 E2.50543
G1 X63.067 Y99.463 E2.52290
G1 X62.122 Y100.087 F7800.000
G1 F1800.000
G1 X61.581 Y101.149 E2.55976
G1 X61.149 Y101.581 E2.57868
G1 X60.604 Y101.859 E2.59760
G1 X60.000 Y101.954 E2.61651
G1 X59.396 Y101.859 E2.63543
G1 X58.851 Y101.581 E2.65435
G1 X58.419 Y101.149 E2.67327
G1 X58.141 Y100.604 E2.69219
G1 X58.046 Y100.000 E2.71111
G1 X58.141 Y99.396 E2.73003
G1 X58.419 Y98.851 E2.74895
G1 X58.851 Y98.419 E2.76787
G1 X59.396 Y98.141 E2.78679
G1 X60.000 Y98.046 E2.80571
G1 X60.604 Y98.141 E2.82463
G1 X61.149 Y98.419 E2.84355
G1 X61.581 Y98.851 E2.86247
G1 X61.859 Y99.396 E2.88139
G1 X61.968 Y100.087 E2.90305
G1 X62.047 Y100.087 E2.90548
G1 X62.122 Y100.087 F7800.000
G1 E0.90548 F2400.00000
G92 E0
G1 X64.162 Y98.838 F7800.000
G1 E2.00000 F2400.00000
G1 F1800.000
G1 X62.977 Y98.838 E2.03665
G1 X62.605 Y98.108 E2.06201
G1 X61.893 Y97.395 E2.09318
G1 X60.995 Y96.938 E2.12435
G1 X60.000 Y96.780 E2.15552
G1 X59.005 Y96.938 E2.18668
G1 X58.107 Y97.395 E2.21786
G1 X57.395 Y98.108 E2.24902
G1 X56.887 Y99.104 E2.28365
G1 X56.600 Y99.035 E2.29279
G1 X56.600 Y79.100 E2.90963
G1 X84.100 Y79.100 E3.76051
G1 X84.100 Y71.659 E3.99074
G1 X87.310 Y71.659 E4.09007
G1 X87.843 Y72.575 E4.12288
G1 X88.352 Y73.320 E4.15078
G1 X88.907 Y74.031 E4.17869
G1 X89.505 Y74.706 E4.20661
G1 X90.145 Y75.343 E4.23454
G1 X90.824 Y75.938 E4.26246
G1 X91.539 Y76.489 E4.29040
G1 X92.287 Y76.995 E4.31834
G1 X93.066 Y77.453 E4.34629
G1 X93.872 Y77.861 E4.37424
G1 X94.702 Y78.219 E4.40220
G1 X95.552 Y78.523 E4.43016
G1 X96.421 Y78.774 E4.45813
G1 X97.303 Y78.970 E4.48610
G1 X98.196 Y79.111 E4.51407
G1 X99.096 Y79.196 E4.54205
G1 X100.000 Y79.224 E4.57002
G1 X100.904 Y79.196 E4.59800
G1 X101.804 Y79.111 E4.62597
G1 X102.697 Y78.970 E4.65394
G1 X103.579 Y78.774 E4.68191
G1 X104.448 Y78.523 E4.70988
G1 X105.298 Y78.219 E4.73784
G1 X106.128 Y77.861 E4.76580
G1 X106.934 Y77.453 E4.79375
G1 X107.713 Y76.995 E4.82170
G1 X108.461 Y76.489 E4.84964
G1 X109.176 Y75.938 E4.87758
G1 X109.855 Y75.343 E4.90551
G1 X110.495 Y74.706 E4.93343
G1 X111.093 Y74.031 E4.96135
G1 X111.648 Y73.320 E4.98926
G1 X112.157 Y72.575 E5.01716
G1 X112.690 Y71.659 E5.04997
G1 X115.900 Y71.659 E5.14930
G1 X115.900 Y79.100 E5.37953
G1 X143.400 Y79.100 E6.23041
G1 X143.400 Y99.035 E6.84725
G1 X143.113 Y99.104 E6.85640
G1 X142.605 Y98.108 E6.89102
G1 X141.893 Y97.395 E6.92219
G1 X140.995 Y96.938 E6.95336
G1 X140.000 Y96.780 E6.98453
G1 X139.005 Y96.938 E7.01569
G1 X138.107 Y97.395 E7.04686
G1 X137.395 Y98.108 E7.07803
G1 X136.938 Y99.005 E7.10920
G1 X136.780 Y100.000 E7.14037
G1 X136.938 Y100.995 E7.17154
G1 X137.395 Y101.892 E7.20271
G1 X138.107 Y102.605 E7.23387
G1 X139.005 Y103.062 E7.26505
G1 X140.000 Y103.220 E7.29621
G1 X140.995 Y103.062 E7.32738
G1 X141.893 Y102.605 E7.35855
G1 X142.605 Y101.892 E7.38972
G1 X143.113 Y100.896 E7.42434
G1 X143.400 Y100.965 E7.43349
G1 X143.400 Y120.900 E8.05032
G1 X115.900 Y120.900 E8.90121
G1 X115.900 Y128.341 E9.13144
G1 X112.690 Y128.341 E9.23077
G1 X112.157 Y127.425 E9.26357
G1 X111.648 Y126.680 E9.29148
G1 X111.093 Y125.969 E9.31939
G1 X110.495 Y125.294 E9.34731
G1 X109.855 Y124.657 E9.37523
G1 X109.176 Y124.062 E9.40316
G1 X108.461 Y123.511 E9.43110
G1 X107.713 Y123.005 E9.45904
G1 X106.934 Y122.547 E9.48699
G1 X106.128 Y122.139 E9.51494
G1 X105.298 Y121.781 E9.54290
G1 X104.448 Y121.477 E9.57086
G1 X103.579 Y121.226 E9.59883
G1 X102.697 Y121.030 E9.62680
G1 X101.804 Y120.889 E9.65477
G1 X100.904 Y120.804 E9.68274
G1 X100.000 Y120.776 E9.71072
G1 X99.096 Y120.804 E9.73869
G1 X98.196 Y120.889 E9.76666
G1 X97.303 Y121.030 E9.79464
G1 X96.421 Y121.226 E9.82261
G1 X95.552 Y121.477 E9.85057
G1 X94.702 Y121.781 E9.87854
G1 X93.872 Y122.139 E9.90649
G1 X93.066 Y122.547 E9.93445
G1 X92.287 Y123.005 E9.96240
G1 X91.539 Y123.511 E9.99034
G1 X90.824 Y124.062 E10.01828
G1 X90.145 Y124.657 E10.04620
G1 X89.505 Y125.294 E10.07413
G1 X88.907 Y125.969 E10.10205
G1 X88.352 Y126.680 E10.12996
G1 X87.843 Y127.425 E10.15786
G1 X87.310 Y128.341 E10.19067
G1 X84.100 Y128.341 E10.29000
G1 X84.100 Y120.900 E10.52023
G1 X56.600 Y120.900 E11.37111
G1 X56.600 Y100.965 E11.98795
G1 X56.887 Y100.896 E11.99709
G1 X57.395 Y101.892 E12.03171
G1 X58.107 Y102.605 E12.06288
G1 X59.005 Y103.062 E12.09405
G1 X60.000 Y103.220 E12.12522
G1 X60.995 Y103.062 E12.15639
G1 X61.893 Y102.605 E12.18756
G1 X62.605 Y101.892 E12.21873
G1 X64.127 Y98.905 E12.32249
G1 E10.32249 F2400.00000
G92 E0
G1 X137.413 Y100.000 F7800.000
G1 E2.00000 F2400.00000
G1 F1800.000
G1 X137.540 Y99.201 E2.02504
G1 X137.907 Y98.479 E2.05009
G1 X138.479 Y97.907 E2.07513
G1 X139.201 Y97.540 E2.10018
G1 X140.000 Y97.413 E2.12522
G1 X140.799 Y97.540 E2.15026
G1 X141.521 Y97.907 E2.17531
G1 X142.093 Y98.479 E2.20035
G1 X142.460 Y99.201 E2.22540
G1 X142.587 Y100.000 E2.25044
G1 X142.460 Y100.799 E2.27549
G1 X142.093 Y101.521 E2.30053
G1 X141.521 Y102.093 E2.32557
G1 X140.799 Y102.460 E2.35062
G1 X140.000 Y102.587 E2.37566
G1 X139.201 Y102.460 E2.40070
G1 X138.479 Y102.093 E2.42575
G1 X137.907 Y101.521 E2.45079
G1 X137.540 Y100.799 E2.47584
G1 X137.425 Y100.074 E2.49856
G1 X138.046 Y100.000 F7800.000
G1 F1800.000
G1 X138.141 Y99.396 E2.51748
G1 X138.419 Y98.851 E2.53640
G1 X138.851 Y98.419 E2.55532
G1 X139.396 Y98.141 E2.57424
G1 X140.000 Y98.046 E2.59316
G1 X140.604 Y98.141 E2.61208
G1 X141.149 Y98.419 E2.63100
G1 X141.581 Y98.851 E2.64991
G1 X141.859 Y99.396 E2.66883
G1 X141.954 Y100.000 E2.68775
G1 X141.859 Y100.604 E2.70667
G1 X141.581 Y101.149 E2.72559
G1 X141.149 Y101.581 E2.74451
G1 X140.604 Y101.859 E2.76343
G1 X140.000 Y101.954 E2.78235
G1 X139.396 Y101.859 E2.80127
G1 X138.851 Y101.581 E2.82019
G1 X138.419 Y101.149 E2.83911
G1 X138.141 Y100.604 E2.85803
G1 X138.057 Y100.074 E2.87463
G1 X138.046 Y100.000 F7800.000
G1 E0.87463 F2400.00000
G92 E0
G1 X116.525 Y121.525 F7800.000
G1 E2.00000 F2400.00000
G1 F1800.000
G1 X116.525 Y128.966 E2.23023
G1 X112.308 Y128.966 E2.36071
G1 X112.070 Y128.502 E2.37684
G1 X111.630 Y127.761 E2.40352
G1 X111.143 Y127.049 E2.43020
G1 X110.612 Y126.369 E2.45690
G1 X110.040 Y125.723 E2.48360
G1 X109.428 Y125.114 E2.51031
G1 X108.779 Y124.545 E2.53702
G1 X108.095 Y124.017 E2.56375
G1 X107.379 Y123.534 E2.59047
G1 X106.634 Y123.095 E2.61721
G1 X105.863 Y122.705 E2.64395
G1 X105.069 Y122.363 E2.67070
G1 X104.255 Y122.072 E2.69745
G1 X103.425 Y121.832 E2.72421
G1 X102.580 Y121.644 E2.75097
G1 X101.726 Y121.509 E2.77773
G1 X100.865 Y121.428 E2.80450
G1 X100.000 Y121.401 E2.83126
G1 X99.135 Y121.428 E2.85803
G1 X98.274 Y121.509 E2.88479
G1 X97.420 Y121.644 E2.91156
G1 X96.575 Y121.832 E2.93832
G1 X95.745 Y122.072 E2.96508
G1 X94.931 Y122.363 E2.99183
G1 X94.137 Y122.705 E3.01857
G1 X93.366 Y123.095 E3.04532
G1 X92.621 Y123.534 E3.07205
G1 X91.905 Y124.017 E3.09878
G1 X91.221 Y124.545 E3.12551
G1 X90.572 Y125.114 E3.15222
G1 X89.960 Y125.723 E3.17893
G1 X89.388 Y126.369 E3.20563
G1 X88.857 Y127.049 E3.23232
G1 X88.370 Y127.761 E3.25901
G1 X87.930 Y128.502 E3.28569
G1 X87.692 Y128.966 E3.30182
G1 X83.475 Y128.966 E3.43230
G1 X83.475 Y121.525 E3.66253
G1 X55.975 Y121.525 E4.51342
G1 X55.975 Y78.475 E5.84545
G1 X83.475 Y78.475 E6.69633
G1 X83.475 Y71.034 E6.92656
G1 X87.692 Y71.034 E7.05704
G1 X87.930 Y71.498 E7.07317
G1 X88.370 Y72.239 E7.09985
G1 X88.857 Y72.951 E7.12654
G1 X89.388 Y73.631 E7.15323
G1 X89.960 Y74.277 E7.17993
G1 X90.572 Y74.886 E7.20664
G1 X91.221 Y75.455 E7.23335
G1 X91.905 Y75.983 E7.26008
G1 X92.621 Y76.466 E7.28681
G1 X93.366 Y76.905 E7.31354
G1 X94.137 Y77.295 E7.34029
G1 X94.931 Y77.637 E7.36703
G1 X95.745 Y77.928 E7.39378
G1 X96.575 Y78.168 E7.42054
G1 X97.420 Y78.356 E7.44730
G1 X98.274 Y78.491 E7.47407
G1 X99.135 Y78.572 E7.50083
G1 X100.000 Y78.599 E7.52760
G1 X100.865 Y78.572 E7.55436
G1 X101.726 Y78.491 E7.58113
G1 X102.580 Y78.356 E7.60789
G1 X103.425 Y78.168 E7.63465
G1 X104.255 Y77.928 E7.66141
G1 X105.069 Y77.637 E7.68816
G1 X105.863 Y77.295 E7.71491
G1 X106.634 Y76.905 E7.74165
G1 X107.379 Y76.466 E7.76839
G1 X108.095 Y75.983 E7.79512
G1 X108.779 Y75.455 E7.82184
G1 X109.428 Y74.886 E7.84855
G1 X110.040 Y74.277 E7.87526
G1 X110.612 Y73.631 E7.90196
G1 X111.143 Y72.951 E7.92866
G1 X111.630 Y72.239 E7.95534
G1 X112.070 Y71.498 E7.98202
G1 X112.308 Y71.034 E7.99815
G1 X116.525 Y71.034 E8.12863
G1 X116.525 Y78.475 E8.35886
G1 X144.025 Y78.475 E9.20975
G1 X144.025 Y121.525 E10.54178
G1 X116.600 Y121.525 E11.39034
G1 X117.150 Y122.150 F7800.000
G1 F1800.000
G1 X117.150 Y129.591 E11.62057
G1 X111.926 Y129.591 E11.78221
G1 X111.523 Y128.805 E11.80954
G1 X111.103 Y128.097 E11.83500
G1 X110.638 Y127.418 E11.86047
G1 X110.132 Y126.768 E11.88595
G1 X109.585 Y126.152 E11.91144
G1 X109.001 Y125.571 E11.93693
G1 X108.382 Y125.028 E11.96243
G1 X107.729 Y124.524 E11.98794
G1 X107.045 Y124.062 E12.01346
G1 X106.334 Y123.644 E12.03898
G1 X105.598 Y123.271 E12.06451
G1 X104.840 Y122.945 E12.09005
G1 X104.063 Y122.667 E12.11559
G1 X103.270 Y122.437 E12.14114
G1 X102.464 Y122.258 E12.16669
G1 X101.648 Y122.130 E12.19224
G1 X100.826 Y122.052 E12.21780
G1 X100.000 Y122.027 E12.24336
G1 X99.174 Y122.052 E12.26891
G1 X98.352 Y122.130 E12.29447
G1 X97.536 Y122.258 E12.32002
G1 X96.730 Y122.437 E12.34557
G1 X95.937 Y122.667 E12.37112
G1 X95.160 Y122.945 E12.39666
G1 X94.402 Y123.271 E12.42220
G1 X93.666 Y123.644 E12.44773
G1 X92.955 Y124.062 E12.47326
G1 X92.271 Y124.524 E12.49877
G1 X91.618 Y125.028 E12.52428
G1 X90.999 Y125.571 E12.54978
G1 X90.415 Y126.152 E12.57528
G1 X89.868 Y126.768 E12.60076
G1 X89.362 Y127.418 E12.62624
G1 X88.897 Y128.097 E12.65171
G1 X88.477 Y128.805 E12.67717
G1 X88.074 Y129.591 E12.70450
G1 X82.850 Y129.591 E12.86614
G1 X82.850 Y122.150 E13.09637
G1 X55.350 Y122.150 E13.94725
G1 X55.350 Y77.850 E15.31795
G1 X82.850 Y77.850 E16.16884
G1 X82.850 Y70.409 E16.39907
G1 X88.074 Y70.409 E16.56071
G1 X88.477 Y71.195 E16.58804
G1 X88.897 Y71.903 E16.61350
G1 X89.362 Y72.582 E16.63897
G1 X89.868 Y73.232 E16.66445
G1 X90.415 Y73.848 E16.68993
G1 X90.999 Y74.429 E16.71543
G1 X91.618 Y74.972 E16.74093
G1 X92.271 Y75.476 E16.76644
G1 X92.955 Y75.938 E16.79195
G1 X93.666 Y76.356 E16.81748
G1 X94.402 Y76.729 E16.84301
G1 X95.160 Y77.055 E16.86854
G1 X95.937 Y77.333 E16.89409
G1 X96.730 Y77.563 E16.91963
G1 X97.536 Y77.742 E16.94519
G1 X98.352 Y77.870 E16.97074
G1 X99.174 Y77.948 E16.99630
G1 X100.000 Y77.973 E17.02185
G1 X100.826 Y77.948 E17.04741
G1 X101.648 Y77.870 E17.07297
G1 X102.464 Y77.742 E17.09852
G1 X103.270 Y77.563 E17.12407
G1 X104.063 Y77.333 E17.14962
G1 X104.840 Y77.055 E17.17516
G1 X105.598 Y76.729 E17.20070
G1 X106.334 Y76.356 E17.22623
G1 X107.045 Y75.938 E17.25175
G1 X107.729 Y75.476 E17.27727
G1 X108.382 Y74.972 E17.30278
G1 X109.001 Y74.429 E17.32828
G1 X109.585 Y73.848 E17.35377
G1 X110.132 Y73.232 E17.37926
G1 X110.638 Y72.582 E17.40474
G1 X111.103 Y71.903 E17.43020
G1 X111.523 Y71.195 E17.45567
G1 X111.926 Y70.409 E17.48300
G1 X117.150 Y70.409 E17.64464
G1 X117.150 Y77.850 E17.87487
G1 X144.650 Y77.850 E18.72575
G1 X144.650 Y122.150 E20.09645
G1 X117.225 Y122.150 E20.94502
G1 X116.678 Y122.316 F7800.000
G1 E18.94502 F2400.00000
G92 E0
G1 X114.667 Y127.959 F7800.000
G1 E2.00000 F2400.00000
G1 F1800.000
G1 X115.518 Y127.107 E2.03746
G1 X115.518 Y126.219 E2.06507
G1 X113.779 Y127.959 E2.14157
G1 X112.890 Y127.959 E2.16918
G1 X115.518 Y125.331 E2.28473
G1 X115.518 Y124.443 E2.31234
G1 X112.511 Y127.451 E2.44460
G1 X112.157 Y126.916 E2.46452
G1 X115.518 Y123.555 E2.61232
G1 X115.518 Y122.667 E2.63993
G1 X111.788 Y126.398 E2.80397
G1 X111.399 Y125.899 E2.82365
G1 X115.518 Y121.779 E3.00480
G1 X115.518 Y120.891 E3.03241
G1 X110.986 Y125.423 E3.23170
G1 X110.560 Y124.962 E3.25124
G1 E1.25124 F2400.00000
G92 E0
G1 X142.532 Y120.518 F7800.000
G1 E2.00000 F2400.00000
G1 F1800.000
G1 X143.018 Y120.032 E2.02138
G1 X143.018 Y119.144 E2.04899
G1 X141.644 Y120.518 E2.10942
G1 X140.756 Y120.518 E2.13703
G1 X143.018 Y118.256 E2.23650
G1 X143.018 Y117.368 E2.26411
G1 X139.868 Y120.518 E2.40263
G1 X138.980 Y120.518 E2.43024
G1 X143.018 Y116.480 E2.60781
G1 X143.018 Y115.592 E2.63542
G1 X138.092 Y120.518 E2.85204
G1 X137.204 Y120.518 E2.87965
G1 X143.018 Y114.704 E3.13532
G1 X143.018 Y113.816 E3.16293
G1 X136.316 Y120.518 E3.45764
G1 X135.428 Y120.518 E3.48525
G1 X143.018 Y112.928 E3.81901
G1 X143.018 Y112.040 E3.84662
G1 X134.540 Y120.518 E4.21943
G1 X133.652 Y120.518 E4.24704
G1 X143.018 Y111.152 E4.65890
G1 X143.018 Y110.264 E4.68651
G1 X132.764 Y120.518 E5.13741
G1 X131.876 Y120.518 E5.16502
G1 X143.018 Y109.376 E5.65498
G1 X143.018 Y108.488 E5.68259
G1 X130.988 Y120.518 E6.21159
G1 X130.100 Y120.518 E6.23920
G1 X143.018 Y107.600 E6.80724
G1 X143.018 Y106.712 E6.83486
G1 X129.212 Y120.518 E7.44195
G1 X128.324 Y120.518 E7.46956
G1 X143.018 Y105.824 E8.11570
G1 X143.018 Y104.936 E8.14332
G1 X127.436 Y120.518 E8.82851
G1 X126.548 Y120.518 E8.85612
G1 X143.018 Y104.048 E9.58036
G1 X143.018 Y103.160 E9.60797
G1 X125.660 Y120.518 E10.37125
G1 X124.771 Y120.518 E10.39886
G1 X142.322 Y102.968 E11.17055
G1 X141.433 Y103.421 E11.20155
G1 X140.896 Y103.506 E11.21847
G1 X123.883 Y120.518 E11.96652
G1 X122.995 Y120.518 E11.99413
G1 X139.951 Y103.563 E12.73967
G1 X139.184 Y103.442 E12.76380
G1 X122.107 Y120.518 E13.51469
G1 X121.219 Y120.518 E13.54230
G1 X138.565 Y103.172 E14.30501
G1 X137.977 Y102.872 E14.32554
G1 X120.331 Y120.518 E15.10145
G1 X119.443 Y120.518 E15.12906
G1 X137.533 Y102.428 E15.92450
G1 X137.126 Y102.021 E15.94239
G1 X137.101 Y101.972 E15.94411
G1 X118.555 Y120.518 E16.75960
G1 X117.667 Y120.518 E16.78721
G1 X136.802 Y101.384 E17.62857
G1 X136.579 Y100.947 E17.64380
G1 X136.548 Y100.750 E17.65003
G1 X116.779 Y120.518 E18.51928
G1 X115.891 Y120.518 E18.54689
G1 X136.426 Y99.983 E19.44985
G1 X136.391 Y99.757 E19.45696
G1 X136.508 Y99.013 E19.48038
G1 X110.560 Y124.962 E20.62138
G1 X110.114 Y124.519 E20.64090
G1 X137.111 Y97.522 E21.82799
G1 E19.82799 F2400.00000
G92 E0
G1 X142.428 Y97.533 F7800.000
