; generated by Slic3r 1.3.1-dev (Build 4f5b935) on 2019-11-26 at 14:50:21

; external perimeters extrusion width = 0.55mm (1.90mm^3/s)
; perimeters extrusion width = 0.70mm (2.71mm^3/s)
; infill extrusion width = 0.62mm (2.41mm^3/s)
; solid infill extrusion width = 0.70mm (2.04mm^3/s)
; top infill extrusion width = 0.70mm (2.04mm^3/s)

M107
G92 E0
;D3D:START:START
T0
M104 S215 T0

G21
G90
M107
T0
G28
G29
M109 T0 S215 T0
G0 F3000
M107
T0
G92 E0
G0 X0 Y149 Z0.1 F3600
G1 Y49 E6.5 F1200
G0 Z1
G92 E0
; Filament gcode

G21 ; set units to millimeters
G90 ; use absolute coordinates
M82 ; use absolute distances for extrusion
G92 E0
G1 Z0.090 F7800.000
G1 E-2.00000 F2400.00000
G92 E0
G1 X64.481 Y64.909 F7800.000
G1 E2.00000 F2400.00000
G1 F1800.000
G1 X65.508 Y63.941 E2.00421
G1 X67.091 Y62.762 E2.01009
G1 X68.313 Y62.056 E2.01430
G1 X70.125 Y61.275 E2.02019
G1 X71.478 Y60.870 E2.02440
G1 X73.421 Y60.527 E2.03028
G1 X74.831 Y60.445 E2.03449
G1 X76.801 Y60.560 E2.04037
G1 X78.191 Y60.805 E2.04458
G1 X80.082 Y61.371 E2.05047
G1 X81.378 Y61.930 E2.05468
G1 X83.087 Y62.917 E2.06056
G1 X84.219 Y63.760 E2.06477
G1 X85.655 Y65.114 E2.07065
G1 X86.562 Y66.195 E2.07486
G1 X87.647 Y67.844 E2.08075
G1 X88.280 Y69.106 E2.08496
G1 X88.955 Y70.960 E2.09084
G1 X89.281 Y72.334 E2.09505
G1 X89.510 Y74.294 E2.10093
G1 X89.510 Y75.706 E2.10514
G1 X89.281 Y77.666 E2.11103
G1 X88.955 Y79.040 E2.11524
G1 X88.280 Y80.894 E2.12112
G1 X87.647 Y82.156 E2.12533
G1 X86.562 Y83.805 E2.13122
G1 X85.655 Y84.886 E2.13542
G1 X84.219 Y86.240 E2.14131
G1 X83.087 Y87.083 E2.14552
G1 X81.378 Y88.070 E2.15140
G1 X80.082 Y88.629 E2.15561
G1 X78.191 Y89.195 E2.16150
G1 X76.801 Y89.440 E2.16570
G1 X74.831 Y89.555 E2.17159
G1 X73.421 Y89.473 E2.17580
G1 X71.478 Y89.130 E2.18168
G1 X70.125 Y88.725 E2.18589
G1 X68.313 Y87.944 E2.19178
G1 X67.091 Y87.238 E2.19599
G1 X65.508 Y86.059 E2.20187
G1 X64.481 Y85.091 E2.20608
G1 X63.212 Y83.579 E2.21196
G1 X62.437 Y82.399 E2.21617
G1 X61.551 Y80.636 E2.22206
G1 X61.068 Y79.309 E2.22627
G1 X60.613 Y77.389 E2.23215
G1 X60.449 Y75.987 E2.23636
G1 X60.449 Y74.013 E2.24224
G1 X60.613 Y72.611 E2.24645
G1 X61.068 Y70.691 E2.25234
G1 X61.551 Y69.364 E2.25655
G1 X62.437 Y67.601 E2.26243
G1 X63.212 Y66.421 E2.26664
G1 X64.433 Y64.967 E2.27230
G1 E0.27230 F2400.00000
G92 E0
G1 X77.412 Y78.537 F7800.000
G1 E2.00000 F2400.00000
G1 F1800.000
G1 X75.489 Y79.266 E2.00613
G1 X73.447 Y79.018 E2.01227
G1 X71.755 Y77.850 E2.01840
G1 X70.799 Y76.028 E2.02453
G1 X70.799 Y73.972 E2.03066
G1 X71.755 Y72.150 E2.03680
G1 X73.447 Y70.982 E2.04293
G1 X75.489 Y70.734 E2.04906
G1 X77.412 Y71.463 E2.05519
G1 X78.776 Y73.003 E2.06133
G1 X79.268 Y75.000 E2.06746
G1 X78.776 Y76.997 E2.07359
G1 X77.462 Y78.480 E2.07950
G1 X77.366 Y78.469 F7800.000
G1 F1800.000
G1 X75.479 Y79.184 E2.08552
G1 X73.477 Y78.941 E2.09153
G1 X71.816 Y77.795 E2.09755
G1 X70.879 Y76.009 E2.10356
G1 X70.879 Y73.991 E2.10958
G1 X71.816 Y72.205 E2.11559
G1 X73.477 Y71.059 E2.12161
G1 X75.479 Y70.816 E2.12762
G1 X77.366 Y71.531 E2.13364
G1 X78.704 Y73.041 E2.13965
G1 X79.186 Y75.000 E2.14567
G1 X78.704 Y76.959 E2.15169
G1 X77.415 Y78.413 E2.15748
G1 X77.319 Y78.401 F7800.000
G1 F1800.000
G1 X75.469 Y79.103 E2.16338
G1 X73.506 Y78.864 E2.16927
G1 X71.878 Y77.741 E2.17517
G1 X70.958 Y75.989 E2.18107
G1 X70.958 Y74.011 E2.18697
G1 X71.878 Y72.259 E2.19287
G1 X73.506 Y71.136 E2.19877
G1 X75.469 Y70.897 E2.20466
G1 X77.319 Y71.599 E2.21056
G1 X78.631 Y73.079 E2.21646
G1 X79.104 Y75.000 E2.22236
G1 X78.631 Y76.921 E2.22826
G1 X77.369 Y78.345 E2.23393
G1 X77.272 Y78.334 F7800.000
G1 F1800.000
G1 X75.460 Y79.021 E2.23971
G1 X73.535 Y78.788 E2.24549
G1 X71.939 Y77.686 E2.25128
G1 X71.038 Y75.969 E2.25706
G1 X71.038 Y74.031 E2.26284
G1 X71.939 Y72.314 E2.26862
G1 X73.535 Y71.212 E2.27440
G1 X75.460 Y70.979 E2.28018
G1 X77.272 Y71.666 E2.28596
G1 X78.558 Y73.117 E2.29174
G1 X79.022 Y75.000 E2.29753
G1 X78.558 Y76.883 E2.30331
G1 X77.322 Y78.278 E2.30886
G1 X77.272 Y78.334 F7800.000
G1 E0.30886 F2400.00000
G92 E0
G1 X79.331 Y81.899 F7800.000
G1 E2.00000 F2400.00000
G1 F1800.000
G1 X78.223 Y82.538 E2.00381
G1 X76.397 Y83.085 E2.00950
G1 X74.494 Y83.196 E2.01518
G1 X72.617 Y82.865 E2.02086
G1 X70.867 Y82.110 E2.02655
G1 X69.338 Y80.971 E2.03223
G1 X68.112 Y79.511 E2.03791
G1 X67.257 Y77.808 E2.04360
G1 X66.817 Y75.953 E2.04928
G1 X66.817 Y74.047 E2.05496
G1 X67.257 Y72.192 E2.06065
G1 X68.112 Y70.489 E2.06633
G1 X69.338 Y69.029 E2.07201
G1 X70.867 Y67.890 E2.07770
G1 X72.617 Y67.135 E2.08338
G1 X74.494 Y66.804 E2.08906
G1 X76.397 Y66.915 E2.09475
G1 X78.223 Y67.462 E2.10043
G1 X79.874 Y68.415 E2.10612
G1 X81.260 Y69.723 E2.11180
G1 X82.308 Y71.316 E2.11748
G1 X82.959 Y73.107 E2.12317
G1 X83.181 Y75.000 E2.12885
G1 X82.959 Y76.893 E2.13453
G1 X82.308 Y78.684 E2.14022
G1 X81.260 Y80.277 E2.14590
G1 X79.874 Y81.585 E2.15158
G1 X79.395 Y81.861 E2.15323
G1 X79.370 Y81.968 F7800.000
G1 F1800.000
G1 X78.255 Y82.612 E2.15707
G1 X76.411 Y83.164 E2.16281
G1 X74.489 Y83.276 E2.16855
G1 X72.594 Y82.941 E2.17429
G1 X70.826 Y82.179 E2.18003
G1 X69.283 Y81.030 E2.18576
G1 X68.045 Y79.555 E2.19150
G1 X67.181 Y77.835 E2.19724
G1 X66.738 Y75.962 E2.20298
G1 X66.738 Y74.038 E2.20872
G1 X67.181 Y72.165 E2.21446
G1 X68.045 Y70.445 E2.22020
G1 X69.283 Y68.970 E2.22594
G1 X70.826 Y67.821 E2.23168
G1 X72.594 Y67.059 E2.23742
G1 X74.489 Y66.724 E2.24315
G1 X76.411 Y66.836 E2.24889
G1 X78.255 Y67.388 E2.25463
G1 X79.922 Y68.351 E2.26037
G1 X81.322 Y69.671 E2.26611
G1 X82.379 Y71.280 E2.27185
G1 X83.038 Y73.088 E2.27759
G1 X83.261 Y75.000 E2.28333
G1 X83.038 Y76.912 E2.28907
G1 X82.379 Y78.720 E2.29480
G1 X81.322 Y80.329 E2.30054
G1 X79.922 Y81.649 E2.30628
G1 X79.435 Y81.930 E2.30796
G1 X79.410 Y82.037 F7800.000
G1 F1800.000
G1 X78.286 Y82.685 E2.31183
G1 X76.425 Y83.243 E2.31762
G1 X74.485 Y83.356 E2.32341
G1 X72.571 Y83.018 E2.32921
G1 X70.786 Y82.249 E2.33500
G1 X69.227 Y81.088 E2.34080
G1 X67.978 Y79.599 E2.34659
G1 X67.106 Y77.863 E2.35239
G1 X66.658 Y75.972 E2.35818
G1 X66.658 Y74.028 E2.36398
G1 X67.106 Y72.137 E2.36977
G1 X67.978 Y70.401 E2.37557
G1 X69.227 Y68.912 E2.38136
G1 X70.786 Y67.751 E2.38715
G1 X72.571 Y66.982 E2.39295
G1 X74.485 Y66.644 E2.39874
G1 X76.425 Y66.757 E2.40454
G1 X78.286 Y67.315 E2.41033
G1 X79.969 Y68.286 E2.41613
G1 X81.383 Y69.620 E2.42192
G1 X82.451 Y71.244 E2.42772
G1 X83.116 Y73.070 E2.43351
G1 X83.341 Y75.000 E2.43930
G1 X83.116 Y76.930 E2.44510
G1 X82.451 Y78.756 E2.45089
G1 X81.383 Y80.380 E2.45669
G1 X79.969 Y81.714 E2.46248
G1 X79.475 Y81.999 E2.46418
G1 X79.450 Y82.106 F7800.000
G1 F1800.000
G1 X78.318 Y82.759 E2.46808
G1 X76.439 Y83.322 E2.47393
G1 X74.480 Y83.436 E2.47978
G1 X72.548 Y83.095 E2.48563
G1 X70.746 Y82.318 E2.49148
G1 X69.172 Y81.146 E2.49733
G1 X67.911 Y79.643 E2.50318
G1 X67.031 Y77.890 E2.50903
G1 X66.578 Y75.981 E2.51488
G1 X66.578 Y74.019 E2.52073
G1 X67.031 Y72.110 E2.52658
G1 X67.911 Y70.357 E2.53243
G1 X69.172 Y68.854 E2.53828
G1 X70.746 Y67.682 E2.54413
G1 X72.548 Y66.905 E2.54998
G1 X74.480 Y66.564 E2.55583
G1 X76.439 Y66.678 E2.56168
G1 X78.318 Y67.241 E2.56753
G1 X80.017 Y68.222 E2.57338
G1 X81.444 Y69.568 E2.57923
G1 X82.523 Y71.208 E2.58508
G1 X83.194 Y73.051 E2.59093
G1 X83.421 Y75.000 E2.59678
G1 X83.194 Y76.949 E2.60263
G1 X82.523 Y78.792 E2.60848
G1 X81.444 Y80.432 E2.61433
G1 X80.017 Y81.778 E2.62018
G1 X79.515 Y82.068 E2.62191
G1 X79.003 Y81.881 F7800.000
G1 E0.62191 F2400.00000
G92 E0
G1 X81.165 Y80.259 F7800.000
G1 E2.00000 F2400.00000
G1 F1800.000
G1 X81.230 Y80.194 E2.00027
G1 X81.447 Y79.864 E2.00146
G1 X79.711 Y81.600 E2.00880
G1 X79.443 Y81.755 E2.00972
G1 X81.664 Y79.534 E2.01912
G1 X81.881 Y79.203 E2.02030
G1 X79.176 Y81.909 E2.03174
G1 X78.908 Y82.063 E2.03266
G1 X82.099 Y78.873 E2.04616
G1 X82.281 Y78.577 E2.04720
G1 X78.641 Y82.218 E2.06259
G1 X78.374 Y82.372 E2.06352
G1 X82.346 Y78.400 E2.08032
G1 X82.411 Y78.222 E2.08088
G1 X78.128 Y82.505 E2.09900
G1 X77.966 Y82.553 E2.09950
G1 X82.475 Y78.044 E2.11857
G1 X82.540 Y77.867 E2.11913
G1 X77.805 Y82.602 E2.13916
G1 X77.644 Y82.650 E2.13966
G1 X82.605 Y77.689 E2.16065
G1 X82.669 Y77.511 E2.16121
G1 X77.482 Y82.698 E2.18315
G1 X77.321 Y82.747 E2.18365
G1 X82.734 Y77.333 E2.20655
G1 X82.799 Y77.156 E2.20711
G1 X77.160 Y82.795 E2.23096
G1 X76.998 Y82.843 E2.23146
G1 X82.864 Y76.978 E2.25627
G1 X82.916 Y76.812 E2.25679
G1 X76.837 Y82.892 E2.28250
G1 X76.676 Y82.940 E2.28300
G1 X82.931 Y76.684 E2.30946
G1 X82.946 Y76.556 E2.30984
G1 X76.514 Y82.988 E2.33704
G1 X76.353 Y83.036 E2.33755
G1 X82.961 Y76.429 E2.36549
G1 X82.976 Y76.301 E2.36588
G1 X76.233 Y83.044 E2.39439
G1 X76.113 Y83.051 E2.39475
G1 X82.991 Y76.173 E2.42384
G1 X83.006 Y76.045 E2.42423
G1 X75.993 Y83.058 E2.45389
G1 X75.873 Y83.065 E2.45425
G1 X83.021 Y75.917 E2.48448
G1 X83.036 Y75.789 E2.48486
G1 X75.753 Y83.072 E2.51566
G1 X75.633 Y83.079 E2.51602
G1 X83.051 Y75.661 E2.54740
G1 X83.066 Y75.533 E2.54778
G1 X75.513 Y83.086 E2.57972
G1 X75.393 Y83.093 E2.58008
G1 X83.081 Y75.405 E2.61260
G1 X83.096 Y75.277 E2.61298
G1 X75.273 Y83.100 E2.64607
G1 X75.153 Y83.107 E2.64643
G1 X83.111 Y75.149 E2.68008
G1 X83.125 Y75.021 E2.68047
G1 X75.033 Y83.114 E2.71469
G1 X74.913 Y83.121 E2.71505
G1 X83.124 Y74.909 E2.74978
G1 X83.113 Y74.807 E2.75009
G1 X74.793 Y83.128 E2.78527
G1 X74.673 Y83.135 E2.78563
G1 X83.101 Y74.706 E2.82128
G1 X83.089 Y74.605 E2.82158
G1 X74.552 Y83.142 E2.85768
G1 X74.439 Y83.142 E2.85802
G1 X83.077 Y74.504 E2.89455
G1 X83.065 Y74.403 E2.89486
G1 X74.343 Y83.125 E2.93174
G1 X74.247 Y83.108 E2.93204
G1 X83.054 Y74.301 E2.96928
G1 X83.042 Y74.200 E2.96958
G1 X74.151 Y83.091 E3.00718
G1 X74.055 Y83.074 E3.00747
G1 X83.030 Y74.099 E3.04543
G1 X83.018 Y73.998 E3.04573
G1 X73.959 Y83.057 E3.08405
G1 X73.863 Y83.040 E3.08434
G1 X83.006 Y73.897 E3.12300
G1 X82.994 Y73.795 E3.12331
G1 X73.767 Y83.023 E3.16233
G1 X73.671 Y83.006 E3.16263
G1 X82.983 Y73.694 E3.20201
G1 X82.971 Y73.593 E3.20231
G1 X73.575 Y82.989 E3.24205
G1 X73.479 Y82.972 E3.24234
G1 X82.959 Y73.492 E3.28243
G1 X82.947 Y73.391 E3.28274
G1 X73.383 Y82.955 E3.32319
G1 X73.286 Y82.938 E3.32348
G1 X82.935 Y73.290 E3.36428
G1 X82.923 Y73.188 E3.36459
G1 X73.190 Y82.921 E3.40575
G1 X73.094 Y82.904 E3.40604
G1 X77.386 Y78.612 E3.42419
G1 X77.204 Y78.681 E3.42478
G1 X72.998 Y82.887 E3.44257
G1 X72.902 Y82.870 E3.44286
G1 X77.022 Y78.750 E3.46028
G1 X76.840 Y78.819 E3.46086
G1 X72.806 Y82.854 E3.47792
G1 X72.710 Y82.837 E3.47822
G1 X76.658 Y78.889 E3.49491
G1 X76.476 Y78.958 E3.49549
G1 X72.614 Y82.820 E3.51183
G1 X72.534 Y82.786 E3.51209
G1 X76.294 Y79.027 E3.52799
G1 X76.112 Y79.096 E3.52857
G1 X72.455 Y82.752 E3.54403
G1 X72.376 Y82.718 E3.54429
G1 X75.930 Y79.165 E3.55932
G1 X75.748 Y79.234 E3.55990
G1 X72.297 Y82.684 E3.57450
G1 X72.218 Y82.650 E3.57475
G1 X75.566 Y79.303 E3.58891
G1 X75.449 Y79.306 E3.58926
G1 X72.139 Y82.616 E3.60326
G1 X72.060 Y82.582 E3.60351
G1 X75.348 Y79.294 E3.61742
G1 X75.247 Y79.282 E3.61772
G1 X71.981 Y82.548 E3.63153
G1 X71.902 Y82.514 E3.63179
G1 X75.147 Y79.270 E3.64551
G1 X75.046 Y79.258 E3.64582
G1 X71.823 Y82.480 E3.65944
G1 X71.744 Y82.446 E3.65970
G1 X74.945 Y79.245 E3.67324
G1 X74.844 Y79.233 E3.67354
G1 X71.665 Y82.412 E3.68698
G1 X71.586 Y82.378 E3.68724
G1 X74.743 Y79.221 E3.70059
G1 X74.643 Y79.209 E3.70090
G1 X71.507 Y82.344 E3.71416
G1 X71.429 Y82.310 E3.71441
G1 X74.542 Y79.196 E3.72758
G1 X74.441 Y79.184 E3.72788
G1 X71.350 Y82.276 E3.74096
G1 X71.271 Y82.242 E3.74121
G1 X74.340 Y79.172 E3.75420
G1 X74.239 Y79.160 E3.75450
G1 X71.192 Y82.207 E3.76739
G1 X71.113 Y82.173 E3.76765
G1 X74.139 Y79.147 E3.78044
G1 X74.038 Y79.135 E3.78075
G1 X71.034 Y82.139 E3.79345
G1 X70.955 Y82.105 E3.79371
G1 X73.937 Y79.123 E3.80632
G1 X73.836 Y79.111 E3.80663
G1 X70.876 Y82.071 E3.81915
G1 X70.811 Y82.023 E3.81939
G1 X73.736 Y79.098 E3.83176
G1 X73.635 Y79.086 E3.83206
G1 X70.746 Y81.975 E3.84428
G1 X70.681 Y81.927 E3.84452
G1 X73.534 Y79.074 E3.85658
G1 X73.439 Y79.056 E3.85687
G1 X70.617 Y81.878 E3.86881
G1 X70.552 Y81.830 E3.86905
G1 X73.372 Y79.010 E3.88098
G1 X73.305 Y78.964 E3.88122
G1 X70.487 Y81.782 E3.89314
G1 X70.422 Y81.734 E3.89338
G1 X73.238 Y78.918 E3.90529
G1 X73.171 Y78.872 E3.90553
G1 X70.357 Y81.685 E3.91743
G1 X70.293 Y81.637 E3.91767
G1 X73.104 Y78.825 E3.92956
G1 X73.037 Y78.779 E3.92980
G1 X70.228 Y81.589 E3.94169
G1 X70.163 Y81.541 E3.94193
G1 X72.971 Y78.733 E3.95380
G1 X72.904 Y78.687 E3.95404
G1 X70.098 Y81.492 E3.96591
G1 X70.033 Y81.444 E3.96615
G1 X72.837 Y78.641 E3.97801
G1 X72.770 Y78.595 E3.97825
G1 X69.969 Y81.396 E3.99009
G1 X69.904 Y81.348 E3.99034
G1 X72.703 Y78.549 E4.00217
G1 X72.636 Y78.502 E4.00242
G1 X69.839 Y81.299 E4.01425
G1 X69.774 Y81.251 E4.01449
G1 X72.569 Y78.456 E4.02631
G1 X72.502 Y78.410 E4.02655
G1 X69.710 Y81.203 E4.03836
G1 X69.645 Y81.155 E4.03861
G1 X72.436 Y78.364 E4.05041
G1 X72.369 Y78.318 E4.05065
G1 X69.580 Y81.107 E4.06245
G1 X69.515 Y81.058 E4.06269
G1 X72.302 Y78.272 E4.07447
G1 X72.235 Y78.225 E4.07472
G1 X69.450 Y81.010 E4.08649
G1 X69.386 Y80.962 E4.08673
G1 X72.168 Y78.179 E4.09850
G1 X72.101 Y78.133 E4.09874
G1 X69.329 Y80.905 E4.11047
G1 X69.278 Y80.844 E4.11071
G1 X72.034 Y78.087 E4.12237
G1 X71.968 Y78.041 E4.12261
G1 X69.226 Y80.782 E4.13420
G1 X69.174 Y80.721 E4.13444
G1 X71.901 Y77.995 E4.14597
G1 X71.834 Y77.949 E4.14622
G1 X69.123 Y80.659 E4.15768
G1 X69.071 Y80.598 E4.15792
G1 X71.767 Y77.902 E4.16932
G1 X71.710 Y77.846 E4.16956
G1 X69.020 Y80.537 E4.18094
G1 X68.968 Y80.475 E4.18118
G1 X71.671 Y77.772 E4.19261
G1 X71.632 Y77.698 E4.19286
G1 X68.917 Y80.414 E4.20435
G1 X68.865 Y80.352 E4.20459
G1 X71.593 Y77.624 E4.21613
G1 X71.555 Y77.550 E4.21638
G1 X68.813 Y80.291 E4.22797
G1 X68.762 Y80.229 E4.22821
G1 X71.516 Y77.475 E4.23986
G1 X71.477 Y77.401 E4.24011
G1 X68.710 Y80.168 E4.25181
G1 X68.659 Y80.106 E4.25205
G1 X71.438 Y77.327 E4.26380
G1 X71.399 Y77.253 E4.26405
G1 X68.607 Y80.045 E4.27586
G1 X68.556 Y79.983 E4.27610
G1 X71.360 Y77.179 E4.28796
G1 X71.321 Y77.105 E4.28821
G1 X68.504 Y79.922 E4.30012
G1 X68.452 Y79.860 E4.30036
G1 X71.282 Y77.031 E4.31233
G1 X71.243 Y76.957 E4.31258
G1 X68.401 Y79.799 E4.32460
G1 X68.349 Y79.738 E4.32484
G1 X71.204 Y76.882 E4.33692
G1 X71.166 Y76.808 E4.33717
G1 X68.298 Y79.676 E4.34929
G1 X68.246 Y79.615 E4.34953
G1 X71.127 Y76.734 E4.36172
G1 X71.088 Y76.660 E4.36197
G1 X68.195 Y79.553 E4.37420
G1 X68.144 Y79.490 E4.37444
G1 X71.049 Y76.586 E4.38673
G1 X71.010 Y76.512 E4.38698
G1 X68.107 Y79.415 E4.39925
G1 X68.069 Y79.340 E4.39951
G1 X70.971 Y76.438 E4.41178
G1 X70.932 Y76.364 E4.41203
G1 X68.031 Y79.265 E4.42430
G1 X67.993 Y79.189 E4.42455
G1 X70.893 Y76.289 E4.43681
G1 X70.854 Y76.215 E4.43707
G1 X67.956 Y79.114 E4.44932
G1 X67.918 Y79.039 E4.44958
G1 X70.815 Y76.141 E4.46183
G1 X70.777 Y76.067 E4.46208
G1 X67.880 Y78.964 E4.47433
G1 X67.842 Y78.888 E4.47458
G1 X70.750 Y75.980 E4.48688
G1 X70.750 Y75.867 E4.48722
G1 X67.804 Y78.813 E4.49968
G1 X67.767 Y78.738 E4.49993
G1 X70.750 Y75.754 E4.51255
G1 X70.750 Y75.641 E4.51289
G1 X67.729 Y78.663 E4.52566
G1 X67.691 Y78.587 E4.52592
G1 X70.750 Y75.528 E4.53885
G1 X70.750 Y75.415 E4.53919
G1 X67.653 Y78.512 E4.55229
G1 X67.615 Y78.437 E4.55254
G1 X70.750 Y75.302 E4.56580
G1 X70.750 Y75.189 E4.56614
G1 X67.578 Y78.362 E4.57956
G1 X67.540 Y78.287 E4.57981
G1 X70.750 Y75.076 E4.59338
G1 X70.750 Y74.963 E4.59372
G1 X67.502 Y78.211 E4.60746
G1 X67.464 Y78.136 E4.60771
G1 X70.750 Y74.850 E4.62161
G1 X70.750 Y74.737 E4.62195
G1 X67.427 Y78.061 E4.63600
G1 X67.389 Y77.986 E4.63625
G1 X70.750 Y74.624 E4.65047
G1 X70.750 Y74.511 E4.65081
G1 X67.351 Y77.910 E4.66518
G1 X67.313 Y77.835 E4.66544
G1 X70.750 Y74.398 E4.67997
G1 X70.750 Y74.285 E4.68031
G1 X67.286 Y77.749 E4.69496
G1 X67.265 Y77.657 E4.69524
G1 X70.750 Y74.172 E4.70998
G1 X70.750 Y74.059 E4.71032
G1 X67.243 Y77.566 E4.72515
G1 X67.221 Y77.475 E4.72543
G1 X70.750 Y73.946 E4.74036
G1 X70.848 Y73.735 E4.74105
G1 X67.200 Y77.383 E4.75648
G1 X67.178 Y77.292 E4.75676
G1 X70.972 Y73.498 E4.77280
G1 X71.097 Y73.260 E4.77361
G1 X67.156 Y77.201 E4.79027
G1 X67.135 Y77.109 E4.79055
G1 X71.222 Y73.022 E4.80784
