; generated by Slic3r 1.3.1-dev (Build adea0d9) on 2019-12-16 at 00:49:18

; external perimeters extrusion width = 0.44mm (2.86mm^3/s)
; perimeters extrusion width = 0.56mm (4.14mm^3/s)
; infill extrusion width = 0.50mm (3.66mm^3/s)
; solid infill extrusion width = 0.56mm (3.10mm^3/s)
; top infill extrusion width = 0.56mm (3.10mm^3/s)

M107
G92 E0
;D3D:START:START
T0
M104 S215 T0

G21
G90
M107
T0
G28
G29
M109 T0 S215 T0
G0 F3000
M107
T0
G92 E0
G0 X0 Y149 Z0.1 F3600
G1 Y49 E6.5 F1200
G0 Z1
G92 E0
; Filament gcode

G21 ; set units to millimeters
G90 ; use absolute coordinates
M82 ; use absolute distances for extrusion
G92 E0
G1 Z0.300 F7800.000
G1 E-2.00000 F2400.00000
G92 E0
G1 X67.446 Y75.946 F7800.000
G1 E2.00000 F2400.00000
G1 F1800.000
G1 X67.446 Y71.446 E2.14908
G1 X71.054 Y71.446 E2.26860
G1 X71.054 Y75.946 E2.41768
G1 X95.946 Y75.946 E3.24236
G1 X95.946 Y71.446 E3.39144
G1 X99.554 Y71.446 E3.51096
G1 X99.554 Y78.554 E3.74642
G1 X50.446 Y78.554 E5.37333
G1 X50.446 Y75.946 E5.45972
G1 X67.386 Y75.946 E6.02093
G1 X67.181 Y75.681 F7800.000
G1 F1800.000
G1 X67.181 Y71.181 E6.17002
G1 X71.319 Y71.181 E6.30713
G1 X71.319 Y75.681 E6.45621
G1 X95.681 Y75.681 E7.26329
G1 X95.681 Y71.181 E7.41237
G1 X99.819 Y71.181 E7.54949
G1 X99.819 Y78.819 E7.80256
G1 X50.181 Y78.819 E9.44707
G1 X50.181 Y75.681 E9.55105
G1 X67.121 Y75.681 E10.11227
G1 X66.915 Y75.415 F7800.000
G1 F1800.000
G1 X66.915 Y70.915 E10.26135
G1 X71.585 Y70.915 E10.41606
G1 X71.585 Y75.415 E10.56515
G1 X95.415 Y75.415 E11.35462
G1 X95.415 Y70.915 E11.50371
G1 X100.085 Y70.915 E11.65842
G1 X100.085 Y79.085 E11.92909
G1 X49.915 Y79.085 E13.59120
G1 X49.915 Y75.415 E13.71278
G1 X66.855 Y75.415 E14.27400
G1 X67.609 Y75.947 F7800.000
G1 F1800.000
G1 X70.891 Y72.665 E14.42877
G1 X70.891 Y72.287 E14.44138
G1 X67.609 Y75.569 E14.59616
G1 X67.609 Y75.191 E14.60876
G1 X70.891 Y71.909 E14.76354
G1 X70.891 Y71.609 E14.77354
G1 X70.813 Y71.609 E14.77614
G1 X67.609 Y74.813 E14.92724
G1 X67.609 Y74.435 E14.93984
G1 X70.435 Y71.609 E15.07312
G1 X70.057 Y71.609 E15.08572
G1 X67.609 Y74.057 E15.20118
G1 X67.609 Y73.679 E15.21378
G1 X69.679 Y71.609 E15.31141
G1 X69.301 Y71.609 E15.32401
G1 X67.609 Y73.301 E15.40383
G1 X67.609 Y72.923 E15.41643
G1 X68.923 Y71.609 E15.47842
G1 X68.545 Y71.609 E15.49102
G1 X67.609 Y72.545 E15.53519
G1 X67.609 Y72.167 E15.54780
G1 X68.167 Y71.609 E15.57415
G1 E13.57415 F2400.00000
G92 E0
G1 X50.815 Y76.109 F7800.000
G1 E2.00000 F2400.00000
G1 F1800.000
G1 X50.609 Y76.315 E2.00975
G1 X50.609 Y76.693 E2.02235
G1 X51.193 Y76.109 E2.04992
G1 X51.571 Y76.109 E2.06252
G1 X50.609 Y77.071 E2.10792
G1 X50.609 Y77.449 E2.12052
G1 X51.949 Y76.109 E2.18373
G1 X52.327 Y76.109 E2.19634
G1 X50.609 Y77.827 E2.27737
G1 X50.609 Y78.205 E2.28997
G1 X52.705 Y76.109 E2.38883
G1 X53.083 Y76.109 E2.40143
G1 X50.800 Y78.391 E2.50906
G1 X51.178 Y78.391 E2.52167
G1 X53.461 Y76.109 E2.62930
G1 X53.839 Y76.109 E2.64190
G1 X51.556 Y78.391 E2.74953
G1 X51.934 Y78.391 E2.76213
G1 X54.217 Y76.109 E2.86977
G1 X54.595 Y76.109 E2.88237
G1 X52.312 Y78.391 E2.99000
G1 X52.690 Y78.391 E3.00260
G1 X54.973 Y76.109 E3.11023
G1 X55.351 Y76.109 E3.12284
G1 X53.068 Y78.391 E3.23047
G1 X53.446 Y78.391 E3.24307
G1 X55.729 Y76.109 E3.35070
G1 X56.107 Y76.109 E3.36330
G1 X53.824 Y78.391 E3.47094
G1 X54.202 Y78.391 E3.48354
G1 X56.485 Y76.109 E3.59117
G1 X56.863 Y76.109 E3.60377
G1 X54.580 Y78.391 E3.71140
G1 X54.958 Y78.391 E3.72401
G1 X57.241 Y76.109 E3.83164
G1 X57.619 Y76.109 E3.84424
G1 X55.336 Y78.391 E3.95187
G1 X55.714 Y78.391 E3.96447
G1 X57.997 Y76.109 E4.07211
G1 X58.375 Y76.109 E4.08471
G1 X56.092 Y78.391 E4.19234
G1 X56.470 Y78.391 E4.20494
G1 X58.753 Y76.109 E4.31257
G1 X59.131 Y76.109 E4.32517
G1 X56.848 Y78.391 E4.43281
G1 X57.226 Y78.391 E4.44541
G1 X59.509 Y76.109 E4.55304
G1 X59.887 Y76.109 E4.56564
G1 X57.604 Y78.391 E4.67327
G1 X57.982 Y78.391 E4.68588
G1 X60.265 Y76.109 E4.79351
G1 X60.643 Y76.109 E4.80611
G1 X58.360 Y78.391 E4.91374
G1 X58.738 Y78.391 E4.92634
G1 X61.021 Y76.109 E5.03398
G1 X61.399 Y76.109 E5.04658
G1 X59.116 Y78.391 E5.15421
G1 X59.494 Y78.391 E5.16681
G1 X61.777 Y76.109 E5.27444
G1 X62.155 Y76.109 E5.28705
G1 X59.872 Y78.391 E5.39468
G1 X60.250 Y78.391 E5.40728
G1 X62.533 Y76.109 E5.51491
G1 X62.911 Y76.109 E5.52751
G1 X60.628 Y78.391 E5.63515
G1 X61.006 Y78.391 E5.64775
G1 X63.289 Y76.109 E5.75538
G1 X63.667 Y76.109 E5.76798
G1 X61.384 Y78.391 E5.87561
G1 X61.762 Y78.391 E5.88822
G1 X64.045 Y76.109 E5.99585
G1 X64.423 Y76.109 E6.00845
G1 X62.140 Y78.391 E6.11608
G1 X62.518 Y78.391 E6.12868
G1 X64.801 Y76.109 E6.23632
G1 X65.179 Y76.109 E6.24892
G1 X62.896 Y78.391 E6.35655
G1 X63.274 Y78.391 E6.36915
G1 X65.557 Y76.109 E6.47678
G1 X65.935 Y76.109 E6.48939
G1 X63.652 Y78.391 E6.59702
G1 X64.031 Y78.391 E6.60962
G1 X66.313 Y76.109 E6.71725
G1 X66.691 Y76.109 E6.72985
G1 X64.409 Y78.391 E6.83749
G1 X64.787 Y78.391 E6.85009
G1 X67.069 Y76.109 E6.95772
G1 X67.447 Y76.109 E6.97032
G1 X65.165 Y78.391 E7.07795
G1 X65.543 Y78.391 E7.09056
G1 X70.891 Y73.043 E7.34274
G1 X70.891 Y73.421 E7.35534
G1 X65.921 Y78.391 E7.58971
G1 X66.299 Y78.391 E7.60231
G1 X70.891 Y73.799 E7.81885
G1 X70.891 Y74.177 E7.83145
G1 X66.677 Y78.391 E8.03017
G1 X67.055 Y78.391 E8.04277
G1 X70.891 Y74.555 E8.22367
G1 X70.891 Y74.933 E8.23627
G1 X67.433 Y78.391 E8.39935
G1 X67.811 Y78.391 E8.41195
G1 X70.891 Y75.311 E8.55721
G1 X70.891 Y75.689 E8.56981
G1 X68.189 Y78.391 E8.69724
G1 X68.567 Y78.391 E8.70985
G1 X70.891 Y76.067 E8.81946
G1 X70.891 Y76.109 E8.82086
G1 X71.227 Y76.109 E8.83206
G1 X68.945 Y78.391 E8.93969
G1 X69.323 Y78.391 E8.95229
G1 X71.605 Y76.109 E9.05993
G1 X71.983 Y76.109 E9.07253
G1 X69.701 Y78.391 E9.18016
G1 X70.079 Y78.391 E9.19276
G1 X72.361 Y76.109 E9.30039
G1 X72.739 Y76.109 E9.31300
G1 X70.457 Y78.391 E9.42063
G1 X70.835 Y78.391 E9.43323
G1 X73.117 Y76.109 E9.54086
G1 X73.495 Y76.109 E9.55346
G1 X71.213 Y78.391 E9.66110
G1 X71.591 Y78.391 E9.67370
G1 X73.873 Y76.109 E9.78133
G1 X74.251 Y76.109 E9.79393
G1 X71.969 Y78.391 E9.90156
G1 X72.347 Y78.391 E9.91416
G1 X74.629 Y76.109 E10.02180
G1 X75.007 Y76.109 E10.03440
G1 X72.725 Y78.391 E10.14203
G1 X73.103 Y78.391 E10.15463
G1 X75.385 Y76.109 E10.26227
G1 X75.763 Y76.109 E10.27487
G1 X73.481 Y78.391 E10.38250
G1 X73.859 Y78.391 E10.39510
G1 X76.141 Y76.109 E10.50273
G1 X76.519 Y76.109 E10.51533
G1 X74.237 Y78.391 E10.62297
G1 X74.615 Y78.391 E10.63557
G1 X76.897 Y76.109 E10.74320
G1 X77.275 Y76.109 E10.75580
G1 X74.993 Y78.391 E10.86343
G1 X75.371 Y78.391 E10.87604
G1 X77.654 Y76.109 E10.98367
G1 X78.032 Y76.109 E10.99627
G1 X75.749 Y78.391 E11.10390
G1 X76.127 Y78.391 E11.11650
G1 X78.410 Y76.109 E11.22414
G1 X78.788 Y76.109 E11.23674
G1 X76.505 Y78.391 E11.34437
G1 X76.883 Y78.391 E11.35697
G1 X79.166 Y76.109 E11.46460
G1 X79.544 Y76.109 E11.47721
G1 X77.261 Y78.391 E11.58484
G1 X77.639 Y78.391 E11.59744
G1 X79.922 Y76.109 E11.70507
G1 X80.300 Y76.109 E11.71767
G1 X78.017 Y78.391 E11.82531
G1 X78.395 Y78.391 E11.83791
G1 X80.678 Y76.109 E11.94554
G1 X81.056 Y76.109 E11.95814
G1 X78.773 Y78.391 E12.06577
G1 X79.151 Y78.391 E12.07838
G1 X81.434 Y76.109 E12.18601
G1 X81.812 Y76.109 E12.19861
G1 X79.529 Y78.391 E12.30624
G1 X79.907 Y78.391 E12.31884
G1 X82.190 Y76.109 E12.42648
G1 X82.568 Y76.109 E12.43908
G1 X80.285 Y78.391 E12.54671
G1 X80.663 Y78.391 E12.55931
G1 X82.946 Y76.109 E12.66694
G1 X83.324 Y76.109 E12.67955
G1 X81.041 Y78.391 E12.78718
G1 X81.419 Y78.391 E12.79978
G1 X83.702 Y76.109 E12.90741
G1 X84.080 Y76.109 E12.92001
G1 X81.797 Y78.391 E13.02765
G1 X82.175 Y78.391 E13.04025
G1 X84.458 Y76.109 E13.14788
G1 X84.836 Y76.109 E13.16048
G1 X82.553 Y78.391 E13.26811
G1 X82.931 Y78.391 E13.28072
G1 X85.214 Y76.109 E13.38835
G1 X85.592 Y76.109 E13.40095
G1 X83.309 Y78.391 E13.50858
G1 X83.687 Y78.391 E13.52118
G1 X85.970 Y76.109 E13.62882
G1 X86.348 Y76.109 E13.64142
G1 X84.065 Y78.391 E13.74905
G1 X84.443 Y78.391 E13.76165
G1 X86.726 Y76.109 E13.86928
G1 X87.104 Y76.109 E13.88189
G1 X84.821 Y78.391 E13.98952
G1 X85.199 Y78.391 E14.00212
G1 X87.482 Y76.109 E14.10975
G1 X87.860 Y76.109 E14.12235
G1 X85.577 Y78.391 E14.22999
G1 X85.955 Y78.391 E14.24259
G1 X88.238 Y76.109 E14.35022
G1 X88.616 Y76.109 E14.36282
G1 X86.333 Y78.391 E14.47045
G1 X86.711 Y78.391 E14.48306
G1 X88.994 Y76.109 E14.59069
G1 X89.372 Y76.109 E14.60329
G1 X87.089 Y78.391 E14.71092
G1 X87.467 Y78.391 E14.72352
G1 X89.750 Y76.109 E14.83116
G1 X90.128 Y76.109 E14.84376
G1 X87.845 Y78.391 E14.95139
G1 X88.223 Y78.391 E14.96399
G1 X90.506 Y76.109 E15.07162
G1 X90.884 Y76.109 E15.08423
G1 X88.601 Y78.391 E15.19186
G1 X88.979 Y78.391 E15.20446
G1 X91.262 Y76.109 E15.31209
G1 X91.640 Y76.109 E15.32469
G1 X89.357 Y78.391 E15.43233
G1 X89.735 Y78.391 E15.44493
G1 X92.018 Y76.109 E15.55256
G1 X92.396 Y76.109 E15.56516
G1 X90.113 Y78.391 E15.67279
G1 X90.491 Y78.391 E15.68540
G1 X92.774 Y76.109 E15.79303
G1 X93.152 Y76.109 E15.80563
G1 X90.869 Y78.391 E15.91326
G1 X91.247 Y78.391 E15.92586
G1 X93.530 Y76.109 E16.03350
G1 X93.908 Y76.109 E16.04610
G1 X91.625 Y78.391 E16.15373
G1 X92.003 Y78.391 E16.16633
G1 X94.286 Y76.109 E16.27396
G1 X94.664 Y76.109 E16.28657
G1 X92.381 Y78.391 E16.39420
G1 X92.759 Y78.391 E16.40680
G1 X95.042 Y76.109 E16.51443
G1 X95.420 Y76.109 E16.52703
G1 X93.137 Y78.391 E16.63467
G1 X93.515 Y78.391 E16.64727
G1 X95.798 Y76.109 E16.75490
G1 X96.176 Y76.109 E16.76750
G1 X93.893 Y78.391 E16.87513
G1 X94.271 Y78.391 E16.88773
G1 X99.391 Y73.271 E17.12916
G1 X99.391 Y73.649 E17.14176
G1 X94.649 Y78.391 E17.36537
G1 X95.027 Y78.391 E17.37797
G1 X99.391 Y74.027 E17.58375
G1 X99.391 Y74.405 E17.59636
G1 X95.405 Y78.391 E17.78432
G1 X95.783 Y78.391 E17.79692
G1 X99.391 Y74.783 E17.96706
G1 X99.391 Y75.161 E17.97966
G1 X96.161 Y78.391 E18.13198
G1 X96.539 Y78.391 E18.14458
G1 X99.391 Y75.539 E18.27908
G1 X99.391 Y75.917 E18.29168
G1 X96.917 Y78.391 E18.40836
G1 X97.295 Y78.391 E18.42096
G1 X99.391 Y76.295 E18.51981
G1 X99.391 Y76.673 E18.53242
G1 X97.673 Y78.391 E18.61345
G1 X98.051 Y78.391 E18.62605
G1 X99.391 Y77.051 E18.68926
G1 X99.391 Y77.429 E18.70187
G1 X98.429 Y78.391 E18.74726
G1 X98.807 Y78.391 E18.75986
G1 X99.391 Y77.807 E18.78743
G1 X99.391 Y78.185 E18.80003
G1 X99.185 Y78.391 E18.80977
G1 E16.80977 F2400.00000
G92 E0
G1 X96.109 Y76.176 F7800.000
G1 E2.00000 F2400.00000
G1 F1800.000
G1 X99.391 Y72.893 E2.15478
G1 X99.391 Y72.515 E2.16738
G1 X96.109 Y75.798 E2.32216
G1 X96.109 Y75.420 E2.33476
G1 X99.391 Y72.137 E2.48954
G1 X99.391 Y71.759 E2.50214
G1 X96.109 Y75.042 E2.65692
G1 X96.109 Y74.664 E2.66952
G1 X99.164 Y71.609 E2.81356
G1 X98.786 Y71.609 E2.82616
G1 X96.109 Y74.286 E2.95238
G1 X96.109 Y73.908 E2.96498
G1 X98.408 Y71.609 E3.07337
G1 X98.030 Y71.609 E3.08597
G1 X96.109 Y73.530 E3.17654
G1 X96.109 Y73.152 E3.18915
G1 X97.652 Y71.609 E3.26190
G1 X97.274 Y71.609 E3.27450
G1 X96.109 Y72.774 E3.32943
G1 X96.109 Y72.396 E3.34203
G1 X96.896 Y71.609 E3.37914
G1 X96.518 Y71.609 E3.39174
G1 X96.109 Y72.018 E3.41102
G1 X96.109 Y71.815 E3.41777
G1 X96.311 Y71.815 E3.42452
M106 S255
G1 Z0.500 F7800.000
G1 E1.42452 F2400.00000
G92 E0
G1 X67.427 Y75.927 F7800.000
G1 E2.00000 F2400.00000
G1 F2400.000
G1 X67.427 Y71.427 E2.19348
G1 X71.073 Y71.427 E2.35023
G1 X71.073 Y75.927 E2.54371
G1 X95.927 Y75.927 E3.61233
G1 X95.927 Y71.427 E3.80580
G1 X99.573 Y71.427 E3.96256
G1 X99.573 Y78.573 E4.26980
G1 X50.427 Y78.573 E6.38284
G1 X50.427 Y75.927 E6.49660
G1 X67.367 Y75.927 E7.22494
G1 X66.970 Y75.470 F7800.000
G1 F2160.000
G1 X66.970 Y70.970 E7.37352
G1 X71.530 Y70.970 E7.52408
G1 X71.530 Y75.470 E7.67265
G1 X95.470 Y75.470 E8.46309
G1 X95.470 Y70.970 E8.61167
G1 X100.030 Y70.970 E8.76223
G1 X100.030 Y79.030 E9.02835
G1 X49.970 Y79.030 E10.68119
G1 X49.970 Y75.470 E10.79873
G1 X66.910 Y75.470 E11.35805
G1 X67.743 Y74.338 F7800.000
G1 F1800.000
G1 X67.743 Y73.605 E11.38961
G1 X70.757 Y76.619 E11.57325
G1 X70.757 Y75.886 E11.60482
G1 X67.743 Y72.872 E11.78845
G1 X67.743 Y72.139 E11.82002
G1 X70.757 Y75.153 E12.00365
G1 X70.757 Y74.421 E12.03522
G1 X68.079 Y71.743 E12.19836
G1 X68.812 Y71.743 E12.22993
G1 X70.757 Y73.688 E12.34843
G1 X70.757 Y72.955 E12.37999
G1 X69.545 Y71.743 E12.45385
G1 X70.278 Y71.743 E12.48542
G1 X70.757 Y72.222 E12.51462
G1 E10.51462 F2400.00000
G92 E0
G1 X50.743 Y77.855 F7800.000
G1 E2.00000 F2400.00000
G1 F1800.000
G1 X51.145 Y78.257 E2.02452
G1 X51.878 Y78.257 E2.05608
G1 X50.743 Y77.122 E2.12524
G1 X50.743 Y76.389 E2.15681
G1 X52.611 Y78.257 E2.27062
G1 X53.344 Y78.257 E2.30219
G1 X51.330 Y76.243 E2.42489
G1 X52.062 Y76.243 E2.45646
G1 X54.076 Y78.257 E2.57916
G1 X54.809 Y78.257 E2.61073
G1 X52.795 Y76.243 E2.73344
G1 X53.528 Y76.243 E2.76500
G1 X55.542 Y78.257 E2.88771
G1 X56.275 Y78.257 E2.91928
G1 X54.261 Y76.243 E3.04198
G1 X54.993 Y76.243 E3.07355
G1 X57.007 Y78.257 E3.19625
G1 X57.740 Y78.257 E3.22782
G1 X55.726 Y76.243 E3.35053
G1 X56.459 Y76.243 E3.38210
G1 X58.473 Y78.257 E3.50480
G1 X59.206 Y78.257 E3.53637
G1 X57.192 Y76.243 E3.65907
G1 X57.924 Y76.243 E3.69064
G1 X59.938 Y78.257 E3.81335
G1 X60.671 Y78.257 E3.84491
G1 X58.657 Y76.243 E3.96762
G1 X59.390 Y76.243 E3.99919
G1 X61.404 Y78.257 E4.12189
G1 X62.137 Y78.257 E4.15346
G1 X60.123 Y76.243 E4.27616
G1 X60.855 Y76.243 E4.30773
G1 X62.869 Y78.257 E4.43044
G1 X63.602 Y78.257 E4.46200
G1 X61.588 Y76.243 E4.58471
G1 X62.321 Y76.243 E4.61628
G1 X64.335 Y78.257 E4.73898
G1 X65.068 Y78.257 E4.77055
G1 X63.054 Y76.243 E4.89325
G1 X63.786 Y76.243 E4.92482
G1 X65.800 Y78.257 E5.04753
G1 X66.533 Y78.257 E5.07910
G1 X64.519 Y76.243 E5.20180
G1 X65.252 Y76.243 E5.23337
G1 X67.266 Y78.257 E5.35607
G1 X67.999 Y78.257 E5.38764
G1 X65.985 Y76.243 E5.51034
G1 X66.717 Y76.243 E5.54191
G1 X68.731 Y78.257 E5.66462
G1 X69.464 Y78.257 E5.69619
G1 X67.450 Y76.243 E5.81889
G1 X67.743 Y76.243 E5.83151
G1 X67.743 Y75.803 E5.85046
G1 X70.197 Y78.257 E5.99996
G1 X70.930 Y78.257 E6.03153
G1 X67.743 Y75.070 E6.22568
G1 X67.743 Y74.338 E6.25725
G1 X71.662 Y78.257 E6.49604
G1 X72.395 Y78.257 E6.52761
G1 X70.381 Y76.243 E6.65031
G1 X71.114 Y76.243 E6.68188
G1 X73.128 Y78.257 E6.80458
G1 X73.861 Y78.257 E6.83615
G1 X71.847 Y76.243 E6.95885
G1 X72.579 Y76.243 E6.99042
G1 X74.593 Y78.257 E7.11313
G1 X75.326 Y78.257 E7.14470
G1 X73.312 Y76.243 E7.26740
G1 X74.045 Y76.243 E7.29897
G1 X76.059 Y78.257 E7.42167
G1 X76.791 Y78.257 E7.45324
G1 X74.778 Y76.243 E7.57595
G1 X75.510 Y76.243 E7.60751
G1 X77.524 Y78.257 E7.73022
G1 X78.257 Y78.257 E7.76179
G1 X76.243 Y76.243 E7.88449
G1 X76.976 Y76.243 E7.91606
G1 X78.990 Y78.257 E8.03876
G1 X79.722 Y78.257 E8.07033
G1 X77.709 Y76.243 E8.19304
G1 X78.441 Y76.243 E8.22460
G1 X80.455 Y78.257 E8.34731
G1 X81.188 Y78.257 E8.37888
G1 X79.174 Y76.243 E8.50158
G1 X79.907 Y76.243 E8.53315
G1 X81.921 Y78.257 E8.65585
G1 X82.653 Y78.257 E8.68742
G1 X80.640 Y76.243 E8.81013
G1 X81.372 Y76.243 E8.84169
G1 X83.386 Y78.257 E8.96440
G1 X84.119 Y78.257 E8.99597
G1 X82.105 Y76.243 E9.11867
G1 X82.838 Y76.243 E9.15024
G1 X84.852 Y78.257 E9.27294
G1 X85.584 Y78.257 E9.30451
G1 X83.571 Y76.243 E9.42722
G1 X84.303 Y76.243 E9.45879
G1 X86.317 Y78.257 E9.58149
G1 X87.050 Y78.257 E9.61306
G1 X85.036 Y76.243 E9.73576
G1 X85.769 Y76.243 E9.76733
G1 X87.783 Y78.257 E9.89003
G1 X88.515 Y78.257 E9.92160
G1 X86.501 Y76.243 E10.04431
G1 X87.234 Y76.243 E10.07588
G1 X89.248 Y78.257 E10.19858
G1 X89.981 Y78.257 E10.23015
G1 X87.967 Y76.243 E10.35285
G1 X88.700 Y76.243 E10.38442
G1 X90.714 Y78.257 E10.50713
G1 X91.446 Y78.257 E10.53869
G1 X89.432 Y76.243 E10.66140
G1 X90.165 Y76.243 E10.69297
G1 X92.179 Y78.257 E10.81567
G1 X92.912 Y78.257 E10.84724
G1 X90.898 Y76.243 E10.96994
G1 X91.631 Y76.243 E11.00151
G1 X93.645 Y78.257 E11.12422
G1 X94.377 Y78.257 E11.15578
G1 X92.363 Y76.243 E11.27849
G1 X93.096 Y76.243 E11.31006
G1 X95.110 Y78.257 E11.43276
G1 X95.843 Y78.257 E11.46433
G1 X93.829 Y76.243 E11.58703
G1 X94.562 Y76.243 E11.61860
G1 X96.576 Y78.257 E11.74131
G1 X97.308 Y78.257 E11.77288
G1 X95.294 Y76.243 E11.89558
G1 X96.027 Y76.243 E11.92715
G1 X98.041 Y78.257 E12.04985
G1 X98.774 Y78.257 E12.08142
G1 X96.243 Y75.726 E12.23562
G1 X96.243 Y74.993 E12.26719
