; generated by Slic3r 1.3.1-dev (Build 2ef957d) on 2019-11-25 at 09:20:32

; external perimeters extrusion width = 0.55mm (4.37mm^3/s)
; perimeters extrusion width = 0.70mm (11.44mm^3/s)
; infill extrusion width = 0.62mm (13.45mm^3/s)
; solid infill extrusion width = 0.70mm (3.81mm^3/s)
; top infill extrusion width = 0.70mm (2.86mm^3/s)

M107
G92 E0
M104 S200 ; set temperature
G28 ; home all axes
G1 Z5 F5000 ; lift nozzle

; Filament gcode

M109 S200 ; set temperature and wait for it to be reached
G21 ; set units to millimeters
G90 ; use absolute coordinates
M82 ; use absolute distances for extrusion
G92 E0
G1 Z0.350 F7800.000
G1 E-2.00000 F2400.00000
G92 E0
G1 X84.915 Y65.003 F7800.000
G1 E2.00000 F2400.00000
G1 F1800.000
G1 X86.668 Y63.524 E2.07096
G1 X88.820 Y62.731 E2.14192
G1 X90.000 Y62.625 E2.17858
G1 X110.000 Y62.625 E2.79740
G1 X112.259 Y63.022 E2.86836
G1 X114.247 Y64.165 E2.93933
G1 X115.726 Y65.918 E3.01029
G1 X116.519 Y68.070 E3.08125
G1 X116.625 Y69.250 E3.11790
G1 X116.625 Y130.750 E5.02079
G1 X116.228 Y133.009 E5.09176
G1 X115.085 Y134.997 E5.16272
G1 X113.332 Y136.476 E5.23368
G1 X111.180 Y137.269 E5.30464
G1 X110.000 Y137.375 E5.34129
G1 X90.000 Y137.375 E5.96012
G1 X87.741 Y136.978 E6.03108
G1 X85.753 Y135.835 E6.10204
G1 X84.274 Y134.082 E6.17301
G1 X83.481 Y131.930 E6.24397
G1 X83.375 Y130.750 E6.28062
G1 X83.375 Y69.250 E8.18351
G1 X83.772 Y66.991 E8.25447
G1 X84.878 Y65.068 E8.32311
G1 E6.32311 F2400.00000
G92 E0
G1 X108.400 Y129.150 F7800.000
G1 E2.00000 F2400.00000
G1 F1800.000
G1 X91.600 Y129.150 E2.51983
G1 X91.600 Y122.350 E2.73024
G1 X108.400 Y122.350 E3.25007
G1 X108.400 Y129.075 E3.45816
G1 X109.025 Y129.775 F7800.000
G1 F1800.000
G1 X90.975 Y129.775 E4.01666
G1 X90.975 Y121.725 E4.26575
G1 X109.025 Y121.725 E4.82424
G1 X109.025 Y129.700 E5.07101
G1 X109.650 Y130.400 F7800.000
G1 F1800.000
G1 X90.350 Y130.400 E5.66818
G1 X90.350 Y121.100 E5.95593
G1 X109.650 Y121.100 E6.55310
G1 X109.650 Y130.325 E6.83853
G1 X109.156 Y130.325 F7800.000
G1 E4.83853 F2400.00000
G92 E0
G1 X107.532 Y128.768 F7800.000
G1 E2.00000 F2400.00000
G1 F1800.000
G1 X108.018 Y128.282 E2.02209
G1 X108.018 Y127.365 E2.05156
G1 X106.615 Y128.768 E2.11532
G1 X105.697 Y128.768 E2.14479
G1 X108.018 Y126.447 E2.25023
G1 X108.018 Y125.530 E2.27970
G1 X104.780 Y128.768 E2.42681
G1 X103.862 Y128.768 E2.45628
G1 X108.018 Y124.612 E2.64507
G1 X108.018 Y123.695 E2.67454
G1 X102.945 Y128.768 E2.90501
G1 X102.028 Y128.768 E2.93448
G1 X108.018 Y122.778 E3.20663
G1 X108.018 Y122.732 E3.20810
G1 X107.147 Y122.732 E3.23610
G1 X101.110 Y128.768 E3.51033
G1 X100.193 Y128.768 E3.53980
G1 X106.229 Y122.732 E3.81403
G1 X105.312 Y122.732 E3.84350
G1 X99.275 Y128.768 E4.11773
G1 X98.358 Y128.768 E4.14720
G1 X104.395 Y122.732 E4.42143
G1 X103.477 Y122.732 E4.45090
G1 X97.440 Y128.768 E4.72513
G1 X96.523 Y128.768 E4.75460
G1 X102.560 Y122.732 E5.02883
G1 X101.642 Y122.732 E5.05830
G1 X95.605 Y128.768 E5.33254
G1 X94.688 Y128.768 E5.36201
G1 X100.725 Y122.732 E5.63624
G1 X99.807 Y122.732 E5.66571
G1 X93.771 Y128.768 E5.93994
G1 X92.853 Y128.768 E5.96941
G1 X98.890 Y122.732 E6.24364
G1 X97.972 Y122.732 E6.27311
G1 X91.982 Y128.722 E6.54525
G1 X91.982 Y127.805 E6.57472
G1 X97.055 Y122.732 E6.80519
G1 X96.138 Y122.732 E6.83466
G1 X91.982 Y126.888 E7.02346
G1 X91.982 Y125.970 E7.05293
G1 X95.220 Y122.732 E7.20004
G1 X94.303 Y122.732 E7.22951
G1 X91.982 Y125.053 E7.33495
G1 X91.982 Y124.135 E7.36442
G1 X93.385 Y122.732 E7.42818
G1 X92.468 Y122.732 E7.45765
G1 X91.982 Y123.218 E7.47973
G1 E5.47973 F2400.00000
G92 E0
G1 X108.400 Y77.650 F7800.000
G1 E2.00000 F2400.00000
G1 F1800.000
G1 X91.600 Y77.650 E2.51983
G1 X91.600 Y70.850 E2.73024
G1 X108.400 Y70.850 E3.25007
G1 X108.400 Y77.575 E3.45816
G1 X109.025 Y78.275 F7800.000
G1 F1800.000
G1 X90.975 Y78.275 E4.01666
G1 X90.975 Y70.225 E4.26575
G1 X109.025 Y70.225 E4.82424
G1 X109.025 Y78.200 E5.07101
G1 X109.650 Y78.900 F7800.000
G1 F1800.000
G1 X90.350 Y78.900 E5.66818
G1 X90.350 Y69.600 E5.95593
G1 X109.650 Y69.600 E6.55310
G1 X109.650 Y78.825 E6.83853
G1 X109.156 Y78.825 F7800.000
G1 E4.83853 F2400.00000
G92 E0
G1 X107.532 Y77.268 F7800.000
G1 E2.00000 F2400.00000
G1 F1800.000
G1 X108.018 Y76.782 E2.02209
G1 X108.018 Y75.865 E2.05156
G1 X106.615 Y77.268 E2.11532
G1 X105.697 Y77.268 E2.14479
G1 X108.018 Y74.947 E2.25023
G1 X108.018 Y74.030 E2.27970
G1 X104.780 Y77.268 E2.42681
G1 X103.862 Y77.268 E2.45628
G1 X108.018 Y73.112 E2.64507
G1 X108.018 Y72.195 E2.67454
G1 X102.945 Y77.268 E2.90501
G1 X102.028 Y77.268 E2.93448
G1 X108.018 Y71.278 E3.20663
G1 X108.018 Y71.232 E3.20810
G1 X107.147 Y71.232 E3.23610
G1 X101.110 Y77.268 E3.51033
G1 X100.193 Y77.268 E3.53980
G1 X106.229 Y71.232 E3.81403
G1 X105.312 Y71.232 E3.84350
G1 X99.275 Y77.268 E4.11773
G1 X98.358 Y77.268 E4.14720
G1 X104.395 Y71.232 E4.42143
G1 X103.477 Y71.232 E4.45090
G1 X97.440 Y77.268 E4.72513
G1 X96.523 Y77.268 E4.75460
G1 X102.560 Y71.232 E5.02883
G1 X101.642 Y71.232 E5.05830
G1 X95.605 Y77.268 E5.33254
G1 X94.688 Y77.268 E5.36200
G1 X100.725 Y71.232 E5.63624
G1 X99.807 Y71.232 E5.66571
G1 X93.771 Y77.268 E5.93994
G1 X92.853 Y77.268 E5.96941
G1 X98.890 Y71.232 E6.24364
G1 X97.972 Y71.232 E6.27311
G1 X91.982 Y77.222 E6.54525
G1 X91.982 Y76.305 E6.57472
G1 X97.055 Y71.232 E6.80519
G1 X96.138 Y71.232 E6.83466
G1 X91.982 Y75.388 E7.02346
G1 X91.982 Y74.470 E7.05293
G1 X95.220 Y71.232 E7.20004
G1 X94.303 Y71.232 E7.22951
G1 X91.982 Y73.553 E7.33495
G1 X91.982 Y72.635 E7.36442
G1 X93.385 Y71.232 E7.42818
G1 X92.468 Y71.232 E7.45765
G1 X91.982 Y71.718 E7.47973
G1 Z0.650 F7800.000
G1 E5.47973 F2400.00000
G92 E0
G1 X108.529 Y122.221 F7800.000
G1 E2.00000 F2400.00000
G1 F3600.000
G1 X108.529 Y129.279 E2.19039
G1 X91.471 Y129.279 E2.65054
G1 X91.471 Y122.221 E2.84093
G1 X108.454 Y122.221 E3.29906
G1 X109.164 Y121.586 F7800.000
G1 F3600.000
G1 X109.164 Y129.914 E3.52374
G1 X90.836 Y129.914 E4.01818
G1 X90.836 Y121.586 E4.24287
G1 X109.089 Y121.586 E4.73529
G1 X109.725 Y121.025 F7800.000
G1 F1800.000
G1 X109.725 Y130.475 E4.93006
G1 X90.275 Y130.475 E5.33093
G1 X90.275 Y121.025 E5.52570
G1 X109.650 Y121.025 E5.92502
G1 X109.543 Y121.491 F7800.000
G1 X108.140 Y123.104 F7800.000
G1 F1200.000
G1 X107.646 Y122.610 E5.94471
G1 X106.708 Y122.610 E5.97111
G1 X108.140 Y124.042 E6.02813
G1 X108.140 Y124.980 E6.05453
G1 X105.770 Y122.610 E6.14889
G1 X104.832 Y122.610 E6.17529
G1 X108.140 Y125.918 E6.30698
G1 X108.140 Y126.856 E6.33338
G1 X103.894 Y122.610 E6.50241
G1 X102.956 Y122.610 E6.52881
G1 X108.140 Y127.794 E6.73518
G1 X108.140 Y128.732 E6.76158
G1 X102.018 Y122.610 E7.00528
G1 X101.080 Y122.610 E7.03168
G1 X107.361 Y128.890 E7.28170
G1 X106.423 Y128.890 E7.30810
G1 X100.142 Y122.610 E7.55812
G1 X99.204 Y122.610 E7.58452
G1 X105.485 Y128.890 E7.83453
G1 X104.547 Y128.890 E7.86093
G1 X98.267 Y122.610 E8.11095
G1 X97.329 Y122.610 E8.13735
G1 X103.609 Y128.890 E8.38737
G1 X102.671 Y128.890 E8.41377
G1 X96.391 Y122.610 E8.66378
G1 X95.453 Y122.610 E8.69018
G1 X101.733 Y128.890 E8.94020
G1 X100.796 Y128.890 E8.96660
G1 X94.515 Y122.610 E9.21662
G1 X93.577 Y122.610 E9.24302
G1 X99.858 Y128.890 E9.49303
G1 X98.920 Y128.890 E9.51944
G1 X92.639 Y122.610 E9.76945
G1 X91.860 Y122.610 E9.79139
G1 X91.860 Y122.768 E9.79585
G1 X97.982 Y128.890 E10.03956
G1 X97.044 Y128.890 E10.06596
G1 X91.860 Y123.706 E10.27232
G1 X91.860 Y124.644 E10.29872
G1 X96.106 Y128.890 E10.46775
G1 X95.168 Y128.890 E10.49415
G1 X91.860 Y125.582 E10.62585
G1 X91.860 Y126.520 E10.65225
G1 X94.230 Y128.890 E10.74661
G1 X93.292 Y128.890 E10.77301
G1 X91.860 Y127.458 E10.83003
G1 X91.860 Y128.396 E10.85643
G1 X92.354 Y128.890 E10.87611
G1 E8.87611 F2400.00000
G92 E0
G1 X108.529 Y77.779 F7800.000
G1 E2.00000 F2400.00000
G1 F3600.000
G1 X91.471 Y77.779 E2.46015
G1 X91.471 Y70.721 E2.65054
G1 X108.529 Y70.721 E3.11069
G1 X108.529 Y77.704 E3.29906
G1 X109.164 Y78.414 F7800.000
G1 F3600.000
G1 X90.836 Y78.414 E3.79350
G1 X90.836 Y70.086 E4.01818
G1 X109.164 Y70.086 E4.51263
G1 X109.164 Y78.339 E4.73529
G1 X109.725 Y78.975 F7800.000
G1 F1800.000
G1 X90.275 Y78.975 E5.13616
G1 X90.275 Y69.525 E5.33093
G1 X109.725 Y69.525 E5.73180
G1 X109.725 Y78.900 E5.92502
G1 X109.231 Y78.900 F7800.000
G1 X108.140 Y71.604 F7800.000
G1 F1200.000
G1 X107.646 Y71.110 E5.94471
G1 X106.708 Y71.110 E5.97111
G1 X108.140 Y72.542 E6.02813
G1 X108.140 Y73.480 E6.05453
G1 X105.770 Y71.110 E6.14889
G1 X104.832 Y71.110 E6.17529
G1 X108.140 Y74.418 E6.30698
G1 X108.140 Y75.356 E6.33338
G1 X103.894 Y71.110 E6.50241
G1 X102.956 Y71.110 E6.52881
G1 X108.140 Y76.294 E6.73518
G1 X108.140 Y77.232 E6.76158
G1 X102.018 Y71.110 E7.00528
G1 X101.080 Y71.110 E7.03168
G1 X107.361 Y77.390 E7.28170
G1 X106.423 Y77.390 E7.30810
G1 X100.142 Y71.110 E7.55812
G1 X99.204 Y71.110 E7.58452
G1 X105.485 Y77.390 E7.83453
G1 X104.547 Y77.390 E7.86094
G1 X98.267 Y71.110 E8.11095
G1 X97.329 Y71.110 E8.13735
G1 X103.609 Y77.390 E8.38737
G1 X102.671 Y77.390 E8.41377
G1 X96.391 Y71.110 E8.66379
G1 X95.453 Y71.110 E8.69019
G1 X101.733 Y77.390 E8.94020
G1 X100.796 Y77.390 E8.96660
G1 X94.515 Y71.110 E9.21662
G1 X93.577 Y71.110 E9.24302
G1 X99.858 Y77.390 E9.49304
G1 X98.920 Y77.390 E9.51944
G1 X92.639 Y71.110 E9.76945
G1 X91.860 Y71.110 E9.79139
G1 X91.860 Y71.268 E9.79585
G1 X97.982 Y77.390 E10.03956
G1 X97.044 Y77.390 E10.06596
G1 X91.860 Y72.206 E10.27232
G1 X91.860 Y73.144 E10.29872
G1 X96.106 Y77.390 E10.46775
G1 X95.168 Y77.390 E10.49416
G1 X91.860 Y74.082 E10.62585
G1 X91.860 Y75.020 E10.65225
G1 X94.230 Y77.390 E10.74661
G1 X93.292 Y77.390 E10.77301
G1 X91.860 Y75.958 E10.83003
G1 X91.860 Y76.896 E10.85643
G1 X92.354 Y77.390 E10.87611
G1 Z0.950 F7800.000
G1 E8.87611 F2400.00000
G92 E0
G1 X108.529 Y122.221 F7800.000
G1 E2.00000 F2400.00000
G1 F3600.000
G1 X108.529 Y129.279 E2.19039
G1 X91.471 Y129.279 E2.65054
G1 X91.471 Y122.221 E2.84093
G1 X108.454 Y122.221 E3.29906
G1 X109.164 Y121.586 F7800.000
G1 F3600.000
G1 X109.164 Y129.914 E3.52374
G1 X90.836 Y129.914 E4.01818
G1 X90.836 Y121.586 E4.24287
G1 X109.089 Y121.586 E4.73529
G1 X109.725 Y121.025 F7800.000
G1 F1800.000
G1 X109.725 Y130.475 E4.93006
G1 X90.275 Y130.475 E5.33093
G1 X90.275 Y121.025 E5.52570
G1 X109.650 Y121.025 E5.92502
G1 X109.543 Y121.491 F7800.000
G1 X107.646 Y128.890 F7800.000
G1 F1200.000
G1 X108.140 Y128.396 E5.94471
G1 X108.140 Y127.458 E5.97111
G1 X106.708 Y128.890 E6.02813
G1 X105.770 Y128.890 E6.05453
G1 X108.140 Y126.520 E6.14889
G1 X108.140 Y125.582 E6.17529
G1 X104.832 Y128.890 E6.30698
G1 X103.894 Y128.890 E6.33338
G1 X108.140 Y124.644 E6.50241
G1 X108.140 Y123.706 E6.52881
G1 X102.956 Y128.890 E6.73518
G1 X102.018 Y128.890 E6.76158
G1 X108.140 Y122.768 E7.00528
G1 X108.140 Y122.610 E7.00975
G1 X107.361 Y122.610 E7.03168
G1 X101.080 Y128.890 E7.28170
G1 X100.142 Y128.890 E7.30810
G1 X106.423 Y122.610 E7.55812
G1 X105.485 Y122.610 E7.58452
G1 X99.204 Y128.890 E7.83454
G1 X98.267 Y128.890 E7.86094
G1 X104.547 Y122.610 E8.11095
G1 X103.609 Y122.610 E8.13735
G1 X97.329 Y128.890 E8.38737
G1 X96.391 Y128.890 E8.41377
G1 X102.671 Y122.610 E8.66379
G1 X101.733 Y122.610 E8.69019
G1 X95.453 Y128.890 E8.94020
G1 X94.515 Y128.890 E8.96660
G1 X100.796 Y122.610 E9.21662
G1 X99.858 Y122.610 E9.24302
G1 X93.577 Y128.890 E9.49304
G1 X92.639 Y128.890 E9.51944
G1 X98.920 Y122.610 E9.76945
G1 X97.982 Y122.610 E9.79586
G1 X91.860 Y128.732 E10.03956
G1 X91.860 Y127.794 E10.06596
G1 X97.044 Y122.610 E10.27233
G1 X96.106 Y122.610 E10.29873
G1 X91.860 Y126.856 E10.46776
G1 X91.860 Y125.918 E10.49416
G1 X95.168 Y122.610 E10.62585
G1 X94.230 Y122.610 E10.65225
G1 X91.860 Y124.980 E10.74661
G1 X91.860 Y124.042 E10.77301
G1 X93.292 Y122.610 E10.83003
G1 X92.354 Y122.610 E10.85643
G1 X91.860 Y123.104 E10.87611
G1 E8.87611 F2400.00000
G92 E0
G1 X108.529 Y77.779 F7800.000
G1 E2.00000 F2400.00000
G1 F3600.000
G1 X91.471 Y77.779 E2.46015
G1 X91.471 Y70.721 E2.65054
G1 X108.529 Y70.721 E3.11069
G1 X108.529 Y77.704 E3.29906
G1 X109.164 Y78.414 F7800.000
G1 F3600.000
G1 X90.836 Y78.414 E3.79350
G1 X90.836 Y70.086 E4.01818
G1 X109.164 Y70.086 E4.51263
G1 X109.164 Y78.339 E4.73529
G1 X109.725 Y78.975 F7800.000
G1 F1800.000
G1 X90.275 Y78.975 E5.13616
G1 X90.275 Y69.525 E5.33093
G1 X109.725 Y69.525 E5.73180
G1 X109.725 Y78.900 E5.92502
G1 X109.231 Y78.900 F7800.000
G1 X107.646 Y77.390 F7800.000
G1 F1200.000
G1 X108.140 Y76.896 E5.94471
G1 X108.140 Y75.958 E5.97111
G1 X106.708 Y77.390 E6.02813
G1 X105.770 Y77.390 E6.05453
G1 X108.140 Y75.020 E6.14889
G1 X108.140 Y74.082 E6.17529
G1 X104.832 Y77.390 E6.30698
G1 X103.894 Y77.390 E6.33338
G1 X108.140 Y73.144 E6.50241
G1 X108.140 Y72.206 E6.52881
G1 X102.956 Y77.390 E6.73518
G1 X102.018 Y77.390 E6.76158
G1 X108.140 Y71.268 E7.00528
G1 X108.140 Y71.110 E7.00975
G1 X107.361 Y71.110 E7.03168
G1 X101.080 Y77.390 E7.28170
G1 X100.142 Y77.390 E7.30810
G1 X106.423 Y71.110 E7.55812
G1 X105.485 Y71.110 E7.58452
G1 X99.204 Y77.390 E7.83453
G1 X98.267 Y77.390 E7.86094
G1 X104.547 Y71.110 E8.11095
G1 X103.609 Y71.110 E8.13735
G1 X97.329 Y77.390 E8.38737
G1 X96.391 Y77.390 E8.41377
G1 X102.671 Y71.110 E8.66379
G1 X101.733 Y71.110 E8.69019
G1 X95.453 Y77.390 E8.94020
G1 X94.515 Y77.390 E8.96660
G1 X100.796 Y71.110 E9.21662
G1 X99.858 Y71.110 E9.24302
G1 X93.577 Y77.390 E9.49304
G1 X92.639 Y77.390 E9.51944
G1 X98.920 Y71.110 E9.76945
G1 X97.982 Y71.110 E9.79585
G1 X91.860 Y77.232 E10.03956
G1 X91.860 Y76.294 E10.06596
G1 X97.044 Y71.110 E10.27232
G1 X96.106 Y71.110 E10.29873
G1 X91.860 Y75.356 E10.46776
G1 X91.860 Y74.418 E10.49416
G1 X95.168 Y71.110 E10.62585
G1 X94.230 Y71.110 E10.65225
G1 X91.860 Y73.480 E10.74661
G1 X91.860 Y72.542 E10.77301
G1 X93.292 Y71.110 E10.83003
G1 X92.354 Y71.110 E10.85643
G1 X91.860 Y71.604 E10.87611
M106 S242.25
G1 Z1.250 F7800.000
G1 E8.87611 F2400.00000
G92 E0
G1 X108.529 Y122.221 F7800.000
G1 E2.00000 F2400.00000
G1 F3600.000
G1 X108.529 Y129.279 E2.19039
G1 X91.471 Y129.279 E2.65054
G1 X91.471 Y122.221 E2.84093
G1 X108.454 Y122.221 E3.29906
G1 X109.164 Y121.586 F7800.000
G1 F3600.000
G1 X109.164 Y129.914 E3.52374
G1 X90.836 Y129.914 E4.01818
G1 X90.836 Y121.586 E4.24287
G1 X109.089 Y121.586 E4.73529
G1 X109.725 Y121.025 F7800.000
G1 F1800.000
G1 X109.725 Y130.475 E4.93006
G1 X90.275 Y130.475 E5.33093
G1 X90.275 Y121.025 E5.52570
G1 X109.650 Y121.025 E5.92502
G1 X109.543 Y121.491 F7800.000
G1 X102.677 Y122.502 F7800.000
G1 F4800.000
G1 X100.936 Y128.998 E6.08505
G1 X105.128 Y128.913 F7800.000
G1 F4800.000
G1 X98.802 Y122.587 E6.29794
G1 X91.837 Y122.587 E6.46366
G1 X91.837 Y127.514 E6.58090
G1 X93.236 Y128.913 E6.62797
G1 X92.302 Y128.913 E6.65019
G1 X92.302 Y127.980 E6.67241
G1 X92.230 Y128.998 F7800.000
G1 F4800.000
G1 X93.971 Y122.502 E6.83244
G1 X96.382 Y122.734 F7800.000
G1 F4800.000
G1 X91.752 Y123.975 E6.94651
G1 X106.363 Y128.766 F7800.000
G1 F4800.000
G1 X108.248 Y128.261 E6.99295
G1 E4.99295 F2400.00000
G92 E0
G1 X108.529 Y77.779 F7800.000
G1 E2.00000 F2400.00000
G1 F3600.000
G1 X91.471 Y77.779 E2.46015
G1 X91.471 Y70.721 E2.65054
G1 X108.529 Y70.721 E3.11069
G1 X108.529 Y77.704 E3.29906
G1 X109.164 Y78.414 F7800.000
G1 F3600.000
G1 X90.836 Y78.414 E3.79350
G1 X90.836 Y70.086 E4.01818
G1 X109.164 Y70.086 E4.51263
G1 X109.164 Y78.339 E4.73529
G1 X109.725 Y78.975 F7800.000
G1 F1800.000
G1 X90.275 Y78.975 E5.13616
G1 X90.275 Y69.525 E5.33093
G1 X109.725 Y69.525 E5.73180
G1 X109.725 Y78.900 E5.92502
G1 X109.231 Y78.900 F7800.000
G1 X108.248 Y76.025 F7800.000
G1 F4800.000
G1 X103.618 Y77.266 E6.03909
G1 X106.029 Y77.498 F7800.000
G1 F4800.000
G1 X107.770 Y71.002 E6.19912
G1 X108.163 Y72.486 F7800.000
G1 F4800.000
G1 X106.764 Y71.087 E6.24619
G1 X94.872 Y71.087 E6.52916
G1 X101.198 Y77.413 E6.74204
G1 X92.302 Y77.413 E6.95371
G1 X92.302 Y71.552 E7.09318
G1 X95.337 Y71.552 E7.16539
G1 X93.637 Y71.234 F7800.000
G1 F4800.000
G1 X91.752 Y71.739 E7.21183
G1 X99.064 Y71.002 F7800.000
G1 F4800.000
G1 X97.323 Y77.498 E7.37187
G1 Z1.550 F7800.000
G1 E5.37187 F2400.00000
G92 E0
G1 X108.529 Y122.221 F7800.000
G1 E2.00000 F2400.00000
G1 F3600.000
G1 X108.529 Y129.279 E2.19039
G1 X91.471 Y129.279 E2.65054
