; generated by Slic3r 1.3.1-dev (Build 2ef957d) on 2019-11-25 at 09:22:21

; external perimeters extrusion width = 0.55mm (4.37mm^3/s)
; perimeters extrusion width = 0.70mm (11.44mm^3/s)
; infill extrusion width = 0.62mm (13.45mm^3/s)
; solid infill extrusion width = 0.70mm (3.81mm^3/s)
; top infill extrusion width = 0.70mm (2.86mm^3/s)

M107
G92 E0
M104 S200 ; set temperature
G28 ; home all axes
G1 Z5 F5000 ; lift nozzle

; Filament gcode

M109 S200 ; set temperature and wait for it to be reached
G21 ; set units to millimeters
G90 ; use absolute coordinates
M82 ; use absolute distances for extrusion
G92 E0
G1 Z0.350 F7800.000
G1 E-2.00000 F2400.00000
G92 E0
G1 X84.915 Y63.446 F7800.000
G1 E2.00000 F2400.00000
G1 F1800.000
G1 X86.668 Y61.967 E2.07096
G1 X88.820 Y61.174 E2.14192
G1 X90.000 Y61.068 E2.17858
G1 X110.000 Y61.068 E2.79740
G1 X112.259 Y61.465 E2.86836
G1 X114.247 Y62.609 E2.93933
G1 X115.726 Y64.361 E3.01029
G1 X116.519 Y66.513 E3.08125
G1 X116.625 Y67.693 E3.11790
G1 X116.625 Y132.307 E5.11713
G1 X116.228 Y134.566 E5.18810
G1 X115.085 Y136.554 E5.25906
G1 X113.332 Y138.033 E5.33002
G1 X111.180 Y138.826 E5.40098
G1 X110.000 Y138.932 E5.43763
G1 X90.000 Y138.932 E6.05646
G1 X87.741 Y138.535 E6.12742
G1 X85.753 Y137.391 E6.19839
G1 X84.274 Y135.639 E6.26935
G1 X83.481 Y133.487 E6.34031
G1 X83.375 Y132.307 E6.37696
G1 X83.375 Y67.693 E8.37619
G1 X83.772 Y65.434 E8.44716
G1 X84.878 Y63.511 E8.51580
G1 E6.51580 F2400.00000
G92 E0
G1 X108.400 Y130.707 F7800.000
G1 E2.00000 F2400.00000
G1 F1800.000
G1 X91.600 Y130.707 E2.51983
G1 X91.600 Y69.293 E4.42006
G1 X108.400 Y69.293 E4.93989
G1 X108.400 Y130.632 E6.83780
G1 X109.025 Y131.332 F7800.000
G1 F1800.000
G1 X90.975 Y131.332 E7.39630
G1 X90.975 Y68.668 E9.33520
G1 X109.025 Y68.668 E9.89370
G1 X109.025 Y131.257 E11.83028
G1 X109.650 Y131.957 F7800.000
G1 F1800.000
G1 X90.350 Y131.957 E12.42745
G1 X90.350 Y68.043 E14.40502
G1 X109.650 Y68.043 E15.00219
G1 X109.650 Y131.882 E16.97744
G1 X109.195 Y131.750 F7800.000
G1 E14.97744 F2400.00000
G92 E0
G1 X107.532 Y130.325 F7800.000
G1 E2.00000 F2400.00000
G1 F1800.000
G1 X108.018 Y129.839 E2.02144
G1 X108.018 Y128.948 E2.04922
G1 X106.641 Y130.325 E2.10996
G1 X105.751 Y130.325 E2.13774
G1 X108.018 Y128.057 E2.23776
G1 X108.018 Y127.167 E2.26554
G1 X104.860 Y130.325 E2.40485
G1 X103.969 Y130.325 E2.43263
G1 X108.018 Y126.276 E2.61122
G1 X108.018 Y125.385 E2.63900
G1 X103.078 Y130.325 E2.85689
G1 X102.188 Y130.325 E2.88467
G1 X108.018 Y124.494 E3.14184
G1 X108.018 Y123.604 E3.16962
G1 X101.297 Y130.325 E3.46608
G1 X100.406 Y130.325 E3.49386
G1 X108.018 Y122.713 E3.82961
G1 X108.018 Y121.822 E3.85739
G1 X99.515 Y130.325 E4.23242
G1 X98.625 Y130.325 E4.26020
G1 X108.018 Y120.931 E4.67453
G1 X108.018 Y120.041 E4.70231
G1 X97.734 Y130.325 E5.15592
G1 X96.843 Y130.325 E5.18370
G1 X108.018 Y119.150 E5.67660
G1 X108.018 Y118.259 E5.70438
G1 X95.952 Y130.325 E6.23657
G1 X95.062 Y130.325 E6.26435
G1 X108.018 Y117.368 E6.83582
G1 X108.018 Y116.478 E6.86360
G1 X94.171 Y130.325 E7.47437
G1 X93.280 Y130.325 E7.50215
G1 X108.018 Y115.587 E8.15220
G1 X108.018 Y114.696 E8.17998
G1 X92.389 Y130.325 E8.86932
G1 X91.982 Y130.325 E8.88203
G1 X91.982 Y129.842 E8.89710
G1 X108.018 Y113.805 E9.60441
G1 X108.018 Y112.915 E9.63219
G1 X91.982 Y128.951 E10.33951
G1 X91.982 Y128.061 E10.36729
G1 X108.018 Y112.024 E11.07461
G1 X108.018 Y111.133 E11.10239
G1 X91.982 Y127.170 E11.80971
G1 X91.982 Y126.279 E11.83749
G1 X108.018 Y110.242 E12.54480
G1 X108.018 Y109.351 E12.57259
G1 X91.982 Y125.388 E13.27990
G1 X91.982 Y124.497 E13.30768
G1 X108.018 Y108.461 E14.01500
G1 X108.018 Y107.570 E14.04278
G1 X91.982 Y123.607 E14.75010
G1 X91.982 Y122.716 E14.77788
G1 X108.018 Y106.679 E15.48519
G1 X108.018 Y105.788 E15.51298
G1 X91.982 Y121.825 E16.22029
G1 X91.982 Y120.934 E16.24807
G1 X108.018 Y104.898 E16.95539
G1 X108.018 Y104.007 E16.98317
G1 X91.982 Y120.044 E17.69049
G1 X91.982 Y119.153 E17.71827
G1 X108.018 Y103.116 E18.42558
G1 X108.018 Y102.225 E18.45337
G1 X91.982 Y118.262 E19.16068
G1 X91.982 Y117.371 E19.18846
G1 X108.018 Y101.335 E19.89578
G1 X108.018 Y100.444 E19.92356
G1 X91.982 Y116.481 E20.63088
G1 X91.982 Y115.590 E20.65866
G1 X108.018 Y99.553 E21.36597
G1 X108.018 Y98.662 E21.39375
G1 X91.982 Y114.699 E22.10107
G1 X91.982 Y113.808 E22.12885
G1 X108.018 Y97.772 E22.83617
G1 X108.018 Y96.881 E22.86395
G1 X91.982 Y112.918 E23.57127
G1 X91.982 Y112.027 E23.59905
G1 X108.018 Y95.990 E24.30636
G1 X108.018 Y95.099 E24.33414
G1 X91.982 Y111.136 E25.04146
G1 X91.982 Y110.245 E25.06924
G1 X108.018 Y94.209 E25.77656
G1 X108.018 Y93.318 E25.80434
G1 X91.982 Y109.355 E26.51166
G1 X91.982 Y108.464 E26.53944
G1 X108.018 Y92.427 E27.24675
G1 X108.018 Y91.536 E27.27453
G1 X91.982 Y107.573 E27.98185
G1 X91.982 Y106.682 E28.00963
G1 X108.018 Y90.645 E28.71695
G1 X108.018 Y89.755 E28.74473
G1 X91.982 Y105.791 E29.45205
G1 X91.982 Y104.901 E29.47983
G1 X108.018 Y88.864 E30.18714
G1 X108.018 Y87.973 E30.21492
G1 X91.982 Y104.010 E30.92224
G1 X91.982 Y103.119 E30.95002
G1 X108.018 Y87.082 E31.65734
G1 X108.018 Y86.192 E31.68512
G1 X91.982 Y102.228 E32.39244
G1 X91.982 Y101.338 E32.42022
G1 X108.018 Y85.301 E33.12753
G1 X108.018 Y84.410 E33.15531
G1 X91.982 Y100.447 E33.86263
G1 X91.982 Y99.556 E33.89041
G1 X108.018 Y83.519 E34.59773
G1 X108.018 Y82.629 E34.62551
G1 X91.982 Y98.665 E35.33283
G1 X91.982 Y97.775 E35.36061
G1 X108.018 Y81.738 E36.06792
G1 X108.018 Y80.847 E36.09570
G1 X91.982 Y96.884 E36.80302
G1 X91.982 Y95.993 E36.83080
G1 X108.018 Y79.956 E37.53812
G1 X108.018 Y79.066 E37.56590
G1 X91.982 Y95.102 E38.27322
G1 X91.982 Y94.212 E38.30100
G1 X108.018 Y78.175 E39.00831
G1 X108.018 Y77.284 E39.03609
G1 X91.982 Y93.321 E39.74341
G1 X91.982 Y92.430 E39.77119
G1 X108.018 Y76.393 E40.47851
G1 X108.018 Y75.503 E40.50629
G1 X91.982 Y91.539 E41.21361
G1 X91.982 Y90.649 E41.24139
G1 X108.018 Y74.612 E41.94870
G1 X108.018 Y73.721 E41.97648
G1 X91.982 Y89.758 E42.68380
G1 X91.982 Y88.867 E42.71158
G1 X108.018 Y72.830 E43.41890
G1 X108.018 Y71.939 E43.44668
G1 X91.982 Y87.976 E44.15400
G1 X91.982 Y87.085 E44.18178
G1 X108.018 Y71.049 E44.88909
G1 X108.018 Y70.158 E44.91687
G1 X91.982 Y86.195 E45.62419
G1 X91.982 Y85.304 E45.65197
G1 X107.611 Y69.675 E46.34131
G1 X106.720 Y69.675 E46.36909
G1 X91.982 Y84.413 E47.01914
G1 X91.982 Y83.522 E47.04693
G1 X105.829 Y69.675 E47.65769
G1 X104.939 Y69.675 E47.68547
G1 X91.982 Y82.632 E48.25695
G1 X91.982 Y81.741 E48.28473
G1 X104.048 Y69.675 E48.81691
G1 X103.157 Y69.675 E48.84470
G1 X91.982 Y80.850 E49.33760
G1 X91.982 Y79.959 E49.36538
G1 X102.266 Y69.675 E49.81899
G1 X101.375 Y69.675 E49.84677
G1 X91.982 Y79.069 E50.26109
G1 X91.982 Y78.178 E50.28887
G1 X100.485 Y69.675 E50.66391
G1 X99.594 Y69.675 E50.69169
G1 X91.982 Y77.287 E51.02744
G1 X91.982 Y76.396 E51.05522
G1 X98.703 Y69.675 E51.35168
G1 X97.812 Y69.675 E51.37946
G1 X91.982 Y75.506 E51.63663
G1 X91.982 Y74.615 E51.66442
G1 X96.922 Y69.675 E51.88230
G1 X96.031 Y69.675 E51.91008
G1 X91.982 Y73.724 E52.08868
G1 X91.982 Y72.833 E52.11646
G1 X95.140 Y69.675 E52.25577
G1 X94.249 Y69.675 E52.28355
G1 X91.982 Y71.943 E52.38357
G1 X91.982 Y71.052 E52.41135
G1 X93.359 Y69.675 E52.47208
G1 X92.468 Y69.675 E52.49986
G1 X91.982 Y70.161 E52.52130
G1 Z0.650 F7800.000
G1 X108.529 Y131.023 F7800.000
G1 F3600.000
G1 X91.471 Y131.023 E52.98145
G1 X91.471 Y68.977 E54.65525
G1 X108.529 Y68.977 E55.11540
G1 X108.529 Y130.948 E56.78718
G1 X109.164 Y131.659 F7800.000
G1 F3600.000
G1 X90.836 Y131.659 E57.28163
G1 X90.836 Y68.341 E58.98972
G1 X109.164 Y68.341 E59.48416
G1 X109.164 Y131.584 E61.19023
G1 X109.725 Y132.219 F7800.000
G1 F1800.000
G1 X90.275 Y132.219 E61.59110
G1 X90.275 Y67.781 E62.91921
G1 X109.725 Y67.781 E63.32008
G1 X109.725 Y132.144 E64.64664
G1 X109.270 Y132.013 F7800.000
G1 X92.354 Y130.635 F7800.000
G1 F1200.000
G1 X91.860 Y130.140 E64.66554
G1 X91.860 Y129.240 E64.68989
G1 X93.255 Y130.635 E64.74323
G1 X94.156 Y130.635 E64.76758
G1 X91.860 Y128.339 E64.85535
G1 X91.860 Y127.438 E64.87970
G1 X95.056 Y130.635 E65.00190
G1 X95.957 Y130.635 E65.02625
G1 X91.860 Y126.537 E65.18288
G1 X91.860 Y125.637 E65.20723
G1 X96.858 Y130.635 E65.39830
G1 X97.759 Y130.635 E65.42265
G1 X91.860 Y124.736 E65.64815
G1 X91.860 Y123.835 E65.67249
G1 X98.659 Y130.635 E65.93243
G1 X99.560 Y130.635 E65.95678
G1 X91.860 Y122.935 E66.25114
G1 X91.860 Y122.034 E66.27549
G1 X100.461 Y130.635 E66.60429
G1 X101.361 Y130.635 E66.62864
G1 X91.860 Y121.133 E66.99187
G1 X91.860 Y120.232 E67.01622
G1 X102.262 Y130.635 E67.41388
G1 X103.163 Y130.635 E67.43823
G1 X91.860 Y119.332 E67.87032
G1 X91.860 Y118.431 E67.89467
G1 X104.064 Y130.635 E68.36120
G1 X104.964 Y130.635 E68.38555
G1 X91.860 Y117.530 E68.88651
G1 X91.860 Y116.629 E68.91086
G1 X105.865 Y130.635 E69.44625
G1 X106.766 Y130.635 E69.47060
G1 X91.860 Y115.729 E70.04043
G1 X91.860 Y114.828 E70.06477
G1 X107.666 Y130.635 E70.66903
G1 X108.140 Y130.635 E70.68184
G1 X108.140 Y130.208 E70.69338
G1 X91.860 Y113.927 E71.31576
G1 X91.860 Y113.027 E71.34010
G1 X108.140 Y129.307 E71.96248
G1 X108.140 Y128.407 E71.98683
G1 X91.860 Y112.126 E72.60920
G1 X91.860 Y111.225 E72.63355
G1 X108.140 Y127.506 E73.25593
G1 X108.140 Y126.605 E73.28028
G1 X91.860 Y110.324 E73.90265
G1 X91.860 Y109.424 E73.92700
G1 X108.140 Y125.704 E74.54938
G1 X108.140 Y124.804 E74.57372
G1 X91.860 Y108.523 E75.19610
G1 X91.860 Y107.622 E75.22045
G1 X108.140 Y123.903 E75.84282
G1 X108.140 Y123.002 E75.86717
G1 X91.860 Y106.722 E76.48955
G1 X91.860 Y105.821 E76.51389
G1 X108.140 Y122.102 E77.13627
G1 X108.140 Y121.201 E77.16062
G1 X91.860 Y104.920 E77.78299
G1 X91.860 Y104.019 E77.80734
G1 X108.140 Y120.300 E78.42972
G1 X108.140 Y119.399 E78.45406
G1 X91.860 Y103.119 E79.07644
G1 X91.860 Y102.218 E79.10079
G1 X108.140 Y118.499 E79.72316
G1 X108.140 Y117.598 E79.74751
G1 X91.860 Y101.317 E80.36989
G1 X91.860 Y100.416 E80.39424
G1 X108.140 Y116.697 E81.01661
G1 X108.140 Y115.796 E81.04096
G1 X91.860 Y99.516 E81.66334
G1 X91.860 Y98.615 E81.68768
G1 X108.140 Y114.896 E82.31006
G1 X108.140 Y113.995 E82.33441
G1 X91.860 Y97.714 E82.95678
G1 X91.860 Y96.814 E82.98113
G1 X108.140 Y113.094 E83.60351
G1 X108.140 Y112.194 E83.62785
G1 X91.860 Y95.913 E84.25023
G1 X91.860 Y95.012 E84.27458
G1 X108.140 Y111.293 E84.89695
G1 X108.140 Y110.392 E84.92130
G1 X91.860 Y94.111 E85.54368
G1 X91.860 Y93.211 E85.56802
G1 X108.140 Y109.491 E86.19040
G1 X108.140 Y108.591 E86.21475
G1 X91.860 Y92.310 E86.83712
G1 X91.860 Y91.409 E86.86147
G1 X108.140 Y107.690 E87.48385
G1 X108.140 Y106.789 E87.50820
G1 X91.860 Y90.509 E88.13057
G1 X91.860 Y89.608 E88.15492
G1 X108.140 Y105.889 E88.77730
G1 X108.140 Y104.988 E88.80164
G1 X91.860 Y88.707 E89.42402
G1 X91.860 Y87.806 E89.44837
G1 X108.140 Y104.087 E90.07074
G1 X108.140 Y103.186 E90.09509
G1 X91.860 Y86.906 E90.71747
G1 X91.860 Y86.005 E90.74181
G1 X108.140 Y102.286 E91.36419
G1 X108.140 Y101.385 E91.38854
G1 X91.860 Y85.104 E92.01091
G1 X91.860 Y84.203 E92.03526
G1 X108.140 Y100.484 E92.65764
G1 X108.140 Y99.584 E92.68198
G1 X91.860 Y83.303 E93.30436
G1 X91.860 Y82.402 E93.32871
G1 X108.140 Y98.683 E93.95108
G1 X108.140 Y97.782 E93.97543
G1 X91.860 Y81.501 E94.59781
G1 X91.860 Y80.601 E94.62216
G1 X108.140 Y96.881 E95.24453
G1 X108.140 Y95.981 E95.26888
G1 X91.860 Y79.700 E95.89126
G1 X91.860 Y78.799 E95.91560
G1 X108.140 Y95.080 E96.53798
G1 X108.140 Y94.179 E96.56233
G1 X91.860 Y77.898 E97.18470
G1 X91.860 Y76.998 E97.20905
G1 X108.140 Y93.278 E97.83143
G1 X108.140 Y92.378 E97.85577
G1 X91.860 Y76.097 E98.47815
G1 X91.860 Y75.196 E98.50250
G1 X108.140 Y91.477 E99.12487
G1 X108.140 Y90.576 E99.14922
G1 X91.860 Y74.296 E99.77160
G1 X91.860 Y73.395 E99.79594
G1 X108.140 Y89.676 E100.41832
G1 X108.140 Y88.775 E100.44267
G1 X91.860 Y72.494 E101.06504
G1 X91.860 Y71.593 E101.08939
G1 X108.140 Y87.874 E101.71177
G1 X108.140 Y86.973 E101.73612
G1 X91.860 Y70.693 E102.35849
G1 X91.860 Y69.792 E102.38284
G1 X108.140 Y86.073 E103.00522
G1 X108.140 Y85.172 E103.02956
G1 X92.334 Y69.365 E103.63382
G1 X93.234 Y69.365 E103.65817
G1 X108.140 Y84.271 E104.22800
G1 X108.140 Y83.371 E104.25234
G1 X94.135 Y69.365 E104.78774
G1 X95.036 Y69.365 E104.81208
G1 X108.140 Y82.470 E105.31305
G1 X108.140 Y81.569 E105.33739
G1 X95.936 Y69.365 E105.80392
G1 X96.837 Y69.365 E105.82827
G1 X108.140 Y80.668 E106.26037
G1 X108.140 Y79.768 E106.28471
G1 X97.738 Y69.365 E106.68238
G1 X98.639 Y69.365 E106.70672
G1 X108.140 Y78.867 E107.06995
G1 X108.140 Y77.966 E107.09430
G1 X99.539 Y69.365 E107.42310
G1 X100.440 Y69.365 E107.44745
G1 X108.140 Y77.065 E107.74181
G1 X108.140 Y76.165 E107.76616
G1 X101.341 Y69.365 E108.02609
G1 X102.241 Y69.365 E108.05044
G1 X108.140 Y75.264 E108.27594
G1 X108.140 Y74.363 E108.30029
G1 X103.142 Y69.365 E108.49136
G1 X104.043 Y69.365 E108.51570
G1 X108.140 Y73.463 E108.67234
G1 X108.140 Y72.562 E108.69669
G1 X104.944 Y69.365 E108.81889
G1 X105.844 Y69.365 E108.84324
G1 X108.140 Y71.661 E108.93101
G1 X108.140 Y70.760 E108.95536
G1 X106.745 Y69.365 E109.00869
G1 X107.646 Y69.365 E109.03304
G1 X108.140 Y69.860 E109.05195
G1 Z0.950 F7800.000
G1 X108.529 Y131.196 F7800.000
G1 F3600.000
G1 X91.471 Y131.196 E109.51210
G1 X91.471 Y68.804 E111.19524
G1 X108.529 Y68.804 E111.65539
G1 X108.529 Y131.121 E113.33651
G1 X109.164 Y131.832 F7800.000
G1 F3600.000
G1 X90.836 Y131.832 E113.83096
G1 X90.836 Y68.168 E115.54840
G1 X109.164 Y68.168 E116.04284
G1 X109.164 Y131.757 E117.75826
G1 X109.725 Y132.393 F7800.000
G1 F1800.000
G1 X90.275 Y132.393 E118.15913
G1 X90.275 Y67.607 E119.49438
G1 X109.725 Y67.607 E119.89525
G1 X109.725 Y132.318 E121.22895
G1 X109.270 Y132.186 F7800.000
G1 X107.646 Y130.808 F7800.000
G1 F1200.000
G1 X108.140 Y130.313 E121.24794
G1 X108.140 Y129.409 E121.27251
G1 X106.741 Y130.808 E121.32624
G1 X105.836 Y130.808 E121.35081
G1 X108.140 Y128.504 E121.43929
G1 X108.140 Y127.599 E121.46386
G1 X104.931 Y130.808 E121.58708
G1 X104.027 Y130.808 E121.61165
G1 X108.140 Y126.694 E121.76962
G1 X108.140 Y125.790 E121.79419
G1 X103.122 Y130.808 E121.98690
G1 X102.217 Y130.808 E122.01147
G1 X108.140 Y124.885 E122.23893
G1 X108.140 Y123.980 E122.26350
G1 X101.312 Y130.808 E122.52570
G1 X100.407 Y130.808 E122.55027
G1 X108.140 Y123.075 E122.84722
G1 X108.140 Y122.170 E122.87179
G1 X99.503 Y130.808 E123.20348
G1 X98.598 Y130.808 E123.22805
G1 X108.140 Y121.266 E123.59449
G1 X108.140 Y120.361 E123.61906
G1 X97.693 Y130.808 E124.02024
G1 X96.788 Y130.808 E124.04481
G1 X108.140 Y119.456 E124.48074
G1 X108.140 Y118.551 E124.50531
G1 X95.883 Y130.808 E124.97598
G1 X94.979 Y130.808 E125.00055
G1 X108.140 Y117.646 E125.50597
G1 X108.140 Y116.742 E125.53053
G1 X94.074 Y130.808 E126.07070
G1 X93.169 Y130.808 E126.09526
G1 X108.140 Y115.837 E126.67017
G1 X108.140 Y114.932 E126.69474
G1 X92.264 Y130.808 E127.30439
G1 X91.860 Y130.808 E127.31538
G1 X91.860 Y130.308 E127.32896
G1 X108.140 Y114.027 E127.95415
G1 X108.140 Y113.122 E127.97872
G1 X91.860 Y129.403 E128.60391
G1 X91.860 Y128.498 E128.62848
G1 X108.140 Y112.218 E129.25367
G1 X108.140 Y111.313 E129.27824
G1 X91.860 Y127.594 E129.90343
G1 X91.860 Y126.689 E129.92800
G1 X108.140 Y110.408 E130.55319
G1 X108.140 Y109.503 E130.57776
G1 X91.860 Y125.784 E131.20295
G1 X91.860 Y124.879 E131.22752
G1 X108.140 Y108.598 E131.85271
G1 X108.140 Y107.694 E131.87728
G1 X91.860 Y123.974 E132.50247
G1 X91.860 Y123.070 E132.52704
G1 X108.140 Y106.789 E133.15223
G1 X108.140 Y105.884 E133.17680
G1 X91.860 Y122.165 E133.80199
G1 X91.860 Y121.260 E133.82656
G1 X108.140 Y104.979 E134.45175
G1 X108.140 Y104.074 E134.47632
G1 X91.860 Y120.355 E135.10151
G1 X91.860 Y119.450 E135.12608
G1 X108.140 Y103.170 E135.75127
G1 X108.140 Y102.265 E135.77583
G1 X91.860 Y118.546 E136.40103
G1 X91.860 Y117.641 E136.42559
G1 X108.140 Y101.360 E137.05079
G1 X108.140 Y100.455 E137.07535
G1 X91.860 Y116.736 E137.70055
G1 X91.860 Y115.831 E137.72511
G1 X108.140 Y99.550 E138.35030
G1 X108.140 Y98.646 E138.37487
G1 X91.860 Y114.926 E139.00006
G1 X91.860 Y114.022 E139.02463
G1 X108.140 Y97.741 E139.64982
G1 X108.140 Y96.836 E139.67439
