; generated by Slic3r 1.3.1-dev (Build 2ef957d) on 2019-11-25 at 09:20:09

; external perimeters extrusion width = 0.55mm (4.37mm^3/s)
; perimeters extrusion width = 0.70mm (11.44mm^3/s)
; infill extrusion width = 0.62mm (13.45mm^3/s)
; solid infill extrusion width = 0.70mm (3.81mm^3/s)
; top infill extrusion width = 0.70mm (2.86mm^3/s)

M107
G92 E0
M104 S200 ; set temperature
G28 ; home all axes
G1 Z5 F5000 ; lift nozzle

; Filament gcode

M109 S200 ; set temperature and wait for it to be reached
G21 ; set units to millimeters
G90 ; use absolute coordinates
M82 ; use absolute distances for extrusion
G92 E0
G1 Z0.350 F7800.000
G1 E-2.00000 F2400.00000
G92 E0
G1 X69.951 Y71.212 F7800.000
G1 E2.00000 F2400.00000
G1 F1800.000
G1 X73.155 Y68.203 E2.13600
G1 X73.796 Y67.672 E2.16174
G1 X77.352 Y65.089 E2.29774
G1 X78.055 Y64.643 E2.32348
G1 X81.906 Y62.526 E2.45948
G1 X82.659 Y62.171 E2.48522
G1 X86.746 Y60.553 E2.62122
G1 X87.537 Y60.296 E2.64696
G1 X91.794 Y59.203 E2.78296
G1 X92.611 Y59.047 E2.80870
G1 X96.972 Y58.496 E2.94470
G1 X97.802 Y58.444 E2.97044
G1 X102.198 Y58.444 E3.10644
G1 X103.028 Y58.496 E3.13217
G1 X107.389 Y59.047 E3.26817
G1 X108.206 Y59.203 E3.29392
G1 X112.463 Y60.296 E3.42992
G1 X113.254 Y60.553 E3.45566
G1 X117.341 Y62.171 E3.59166
G1 X118.094 Y62.526 E3.61740
G1 X121.945 Y64.643 E3.75339
G1 X122.648 Y65.089 E3.77913
G1 X126.204 Y67.672 E3.91513
G1 X126.845 Y68.203 E3.94088
G1 X130.049 Y71.212 E4.07688
G1 X130.618 Y71.818 E4.10261
G1 X133.420 Y75.205 E4.23861
G1 X133.909 Y75.878 E4.26436
G1 X136.264 Y79.589 E4.40035
G1 X136.665 Y80.318 E4.42609
G1 X138.537 Y84.295 E4.56209
G1 X138.843 Y85.068 E4.58783
G1 X140.201 Y89.249 E4.72383
G1 X140.408 Y90.054 E4.74957
G1 X141.232 Y94.372 E4.88557
G1 X141.336 Y95.197 E4.91131
G1 X141.612 Y99.584 E5.04731
G1 X141.612 Y100.416 E5.07305
G1 X141.336 Y104.803 E5.20905
G1 X141.232 Y105.628 E5.23479
G1 X140.408 Y109.946 E5.37079
G1 X140.201 Y110.751 E5.39653
G1 X138.843 Y114.932 E5.53253
G1 X138.537 Y115.705 E5.55827
G1 X136.665 Y119.682 E5.69427
G1 X136.264 Y120.411 E5.72001
G1 X133.909 Y124.122 E5.85601
G1 X133.420 Y124.795 E5.88175
G1 X130.618 Y128.182 E6.01775
G1 X130.049 Y128.788 E6.04349
G1 X126.845 Y131.797 E6.17949
G1 X126.204 Y132.328 E6.20523
G1 X122.648 Y134.911 E6.34123
G1 X121.945 Y135.357 E6.36697
G1 X118.094 Y137.474 E6.50296
G1 X117.341 Y137.829 E6.52870
G1 X113.254 Y139.447 E6.66470
G1 X112.463 Y139.704 E6.69044
G1 X108.206 Y140.797 E6.82644
G1 X107.389 Y140.953 E6.85219
G1 X103.028 Y141.504 E6.98819
G1 X102.198 Y141.556 E7.01392
G1 X97.802 Y141.556 E7.14992
G1 X96.972 Y141.504 E7.17566
G1 X92.611 Y140.953 E7.31166
G1 X91.794 Y140.797 E7.33741
G1 X87.537 Y139.704 E7.47340
G1 X86.746 Y139.447 E7.49915
G1 X82.659 Y137.829 E7.63514
G1 X81.906 Y137.474 E7.66088
G1 X78.055 Y135.357 E7.79688
G1 X77.352 Y134.911 E7.82262
G1 X73.796 Y132.328 E7.95862
G1 X73.155 Y131.797 E7.98436
G1 X69.951 Y128.788 E8.12036
G1 X69.382 Y128.182 E8.14610
G1 X66.580 Y124.795 E8.28210
G1 X66.091 Y124.122 E8.30784
G1 X63.736 Y120.411 E8.44384
G1 X63.335 Y119.682 E8.46958
G1 X61.463 Y115.705 E8.60557
G1 X61.157 Y114.932 E8.63132
G1 X59.799 Y110.751 E8.76732
G1 X59.592 Y109.946 E8.79306
G1 X58.768 Y105.628 E8.92906
G1 X58.664 Y104.803 E8.95480
G1 X58.388 Y100.416 E9.09079
G1 X58.388 Y99.584 E9.11654
G1 X58.664 Y95.197 E9.25254
G1 X58.768 Y94.372 E9.27828
G1 X59.592 Y90.054 E9.41427
G1 X59.799 Y89.249 E9.44001
G1 X61.157 Y85.068 E9.57601
G1 X61.463 Y84.295 E9.60176
G1 X63.335 Y80.318 E9.73776
G1 X63.736 Y79.589 E9.76349
G1 X66.091 Y75.878 E9.89949
G1 X66.580 Y75.205 E9.92524
G1 X69.382 Y71.818 E10.06123
G1 X69.900 Y71.266 E10.08465
G1 E8.08465 F2400.00000
G92 E0
G1 X103.489 Y124.382 F7800.000
G1 E2.00000 F2400.00000
G1 F1800.000
G1 X103.289 Y124.808 E2.01459
G1 X103.036 Y125.206 E2.02916
G1 X102.736 Y125.569 E2.04375
G1 X102.392 Y125.892 E2.05833
G1 X102.011 Y126.169 E2.07291
G1 X101.598 Y126.396 E2.08749
G1 X101.160 Y126.569 E2.10208
G1 X100.703 Y126.686 E2.11666
G1 X100.236 Y126.746 E2.13124
G1 X99.764 Y126.746 E2.14583
G1 X99.297 Y126.686 E2.16041
G1 X98.840 Y126.569 E2.17499
G1 X98.402 Y126.396 E2.18958
G1 X97.989 Y126.169 E2.20416
G1 X97.608 Y125.892 E2.21874
G1 X97.264 Y125.569 E2.23332
G1 X96.964 Y125.206 E2.24791
G1 X96.711 Y124.808 E2.26248
G1 X96.511 Y124.382 E2.27707
G1 X96.365 Y123.933 E2.29165
G1 X96.277 Y123.470 E2.30623
G1 X96.247 Y123.000 E2.32082
G1 X96.277 Y122.530 E2.33540
G1 X96.365 Y122.067 E2.34998
G1 X96.511 Y121.618 E2.36457
G1 X96.711 Y121.192 E2.37915
G1 X96.964 Y120.794 E2.39373
G1 X97.264 Y120.431 E2.40831
G1 X97.608 Y120.108 E2.42290
G1 X97.989 Y119.831 E2.43748
G1 X98.402 Y119.604 E2.45206
G1 X98.840 Y119.431 E2.46665
G1 X99.297 Y119.314 E2.48122
G1 X99.764 Y119.254 E2.49580
G1 X100.236 Y119.254 E2.51040
G1 X100.703 Y119.314 E2.52497
G1 X101.160 Y119.431 E2.53955
G1 X101.598 Y119.604 E2.55414
G1 X102.011 Y119.831 E2.56872
G1 X102.392 Y120.108 E2.58330
G1 X102.736 Y120.431 E2.59789
G1 X103.036 Y120.794 E2.61247
G1 X103.289 Y121.192 E2.62705
G1 X103.489 Y121.618 E2.64163
G1 X103.635 Y122.067 E2.65622
G1 X103.723 Y122.530 E2.67080
G1 X103.753 Y123.000 E2.68538
G1 X103.723 Y123.470 E2.69997
G1 X103.635 Y123.933 E2.71455
G1 X103.513 Y124.310 E2.72681
G1 X102.907 Y124.151 F7800.000
G1 F1800.000
G1 X102.740 Y124.506 E2.73896
G1 X102.530 Y124.838 E2.75111
G1 X102.279 Y125.140 E2.76326
G1 X101.993 Y125.409 E2.77541
G1 X101.675 Y125.640 E2.78756
G1 X101.331 Y125.829 E2.79971
G1 X100.966 Y125.974 E2.81186
G1 X100.586 Y126.071 E2.82401
G1 X100.196 Y126.121 E2.83615
G1 X99.804 Y126.121 E2.84831
G1 X99.414 Y126.071 E2.86046
G1 X99.034 Y125.974 E2.87260
G1 X98.669 Y125.829 E2.88476
G1 X98.325 Y125.640 E2.89691
G1 X98.007 Y125.409 E2.90905
G1 X97.721 Y125.140 E2.92121
G1 X97.470 Y124.838 E2.93336
G1 X97.260 Y124.506 E2.94550
G1 X97.093 Y124.151 E2.95765
G1 X96.971 Y123.778 E2.96980
G1 X96.898 Y123.392 E2.98195
G1 X96.873 Y123.000 E2.99410
G1 X96.898 Y122.608 E3.00625
G1 X96.971 Y122.222 E3.01840
G1 X97.093 Y121.849 E3.03055
G1 X97.260 Y121.494 E3.04270
G1 X97.470 Y121.162 E3.05485
G1 X97.721 Y120.860 E3.06700
G1 X98.007 Y120.591 E3.07915
G1 X98.325 Y120.360 E3.09130
G1 X98.669 Y120.171 E3.10345
G1 X99.034 Y120.026 E3.11560
G1 X99.414 Y119.929 E3.12775
G1 X99.804 Y119.879 E3.13990
G1 X100.196 Y119.879 E3.15205
G1 X100.586 Y119.929 E3.16420
G1 X100.966 Y120.026 E3.17635
G1 X101.331 Y120.171 E3.18850
G1 X101.675 Y120.360 E3.20065
G1 X101.993 Y120.591 E3.21280
G1 X102.279 Y120.860 E3.22495
G1 X102.530 Y121.162 E3.23710
G1 X102.740 Y121.494 E3.24924
G1 X102.907 Y121.849 E3.26140
G1 X103.029 Y122.222 E3.27355
G1 X103.102 Y122.608 E3.28570
G1 X103.127 Y123.000 E3.29785
G1 X103.102 Y123.392 E3.31000
G1 X103.029 Y123.778 E3.32215
G1 X102.930 Y124.080 E3.33198
G1 X102.325 Y123.921 F7800.000
G1 F1800.000
G1 X102.191 Y124.205 E3.34169
G1 X102.023 Y124.470 E3.35141
G1 X101.823 Y124.712 E3.36113
G1 X101.594 Y124.927 E3.37084
G1 X101.340 Y125.111 E3.38056
G1 X101.065 Y125.263 E3.39028
G1 X100.773 Y125.378 E3.39999
G1 X100.469 Y125.456 E3.40971
G1 X100.157 Y125.496 E3.41942
G1 X99.843 Y125.496 E3.42914
G1 X99.531 Y125.456 E3.43886
G1 X99.227 Y125.378 E3.44858
G1 X98.935 Y125.263 E3.45829
G1 X98.660 Y125.111 E3.46801
G1 X98.406 Y124.927 E3.47773
G1 X98.177 Y124.712 E3.48744
G1 X97.977 Y124.470 E3.49716
G1 X97.809 Y124.205 E3.50688
G1 X97.675 Y123.921 E3.51659
G1 X97.578 Y123.622 E3.52631
G1 X97.519 Y123.313 E3.53603
G1 X97.499 Y123.000 E3.54574
G1 X97.519 Y122.687 E3.55546
G1 X97.578 Y122.378 E3.56518
G1 X97.675 Y122.079 E3.57490
G1 X97.809 Y121.795 E3.58461
G1 X97.977 Y121.530 E3.59433
G1 X98.177 Y121.288 E3.60405
G1 X98.406 Y121.073 E3.61376
G1 X98.660 Y120.889 E3.62348
G1 X98.935 Y120.737 E3.63320
G1 X99.227 Y120.622 E3.64291
G1 X99.531 Y120.544 E3.65263
G1 X99.843 Y120.504 E3.66235
G1 X100.157 Y120.504 E3.67206
G1 X100.469 Y120.544 E3.68178
G1 X100.773 Y120.622 E3.69150
G1 X101.065 Y120.737 E3.70121
G1 X101.340 Y120.889 E3.71093
G1 X101.594 Y121.073 E3.72065
G1 X101.823 Y121.288 E3.73036
G1 X102.023 Y121.530 E3.74008
G1 X102.191 Y121.795 E3.74980
G1 X102.325 Y122.079 E3.75951
G1 X102.422 Y122.378 E3.76923
G1 X102.481 Y122.687 E3.77895
G1 X102.501 Y123.000 E3.78867
G1 X102.481 Y123.313 E3.79838
G1 X102.422 Y123.622 E3.80810
G1 X102.348 Y123.849 E3.81550
G1 X102.325 Y123.921 F7800.000
G1 E1.81550 F2400.00000
G92 E0
G1 X100.424 Y106.740 F7800.000
G1 E2.00000 F2400.00000
G1 F1800.000
G1 X99.576 Y106.740 E2.02624
G1 X98.735 Y106.633 E2.05248
G1 X97.913 Y106.422 E2.07872
G1 X97.125 Y106.110 E2.10496
G1 X96.382 Y105.702 E2.13120
G1 X95.696 Y105.203 E2.15744
G1 X95.077 Y104.623 E2.18368
G1 X94.537 Y103.969 E2.20992
G1 X94.082 Y103.253 E2.23616
G1 X93.721 Y102.486 E2.26240
G1 X93.459 Y101.679 E2.28863
G1 X93.300 Y100.846 E2.31487
G1 X93.247 Y100.000 E2.34111
G1 X93.300 Y99.154 E2.36735
G1 X93.459 Y98.321 E2.39359
G1 X93.721 Y97.514 E2.41983
G1 X94.082 Y96.747 E2.44607
G1 X94.537 Y96.031 E2.47231
G1 X95.077 Y95.377 E2.49855
G1 X95.696 Y94.797 E2.52479
G1 X96.382 Y94.298 E2.55103
G1 X97.125 Y93.890 E2.57727
G1 X97.913 Y93.578 E2.60351
G1 X98.735 Y93.367 E2.62975
G1 X99.576 Y93.260 E2.65599
G1 X100.424 Y93.260 E2.68223
G1 X101.265 Y93.367 E2.70847
G1 X102.087 Y93.578 E2.73471
G1 X102.875 Y93.890 E2.76095
G1 X103.618 Y94.298 E2.78719
G1 X104.304 Y94.797 E2.81343
G1 X104.923 Y95.377 E2.83966
G1 X105.463 Y96.031 E2.86590
G1 X105.918 Y96.747 E2.89214
G1 X106.279 Y97.514 E2.91838
G1 X106.541 Y98.321 E2.94462
G1 X106.700 Y99.154 E2.97086
G1 X106.753 Y100.000 E2.99710
G1 X106.700 Y100.846 E3.02334
G1 X106.541 Y101.679 E3.04958
G1 X106.279 Y102.486 E3.07582
G1 X105.918 Y103.253 E3.10206
G1 X105.463 Y103.969 E3.12830
G1 X104.923 Y104.623 E3.15454
G1 X104.304 Y105.203 E3.18078
G1 X103.618 Y105.702 E3.20702
G1 X102.875 Y106.110 E3.23326
G1 X102.087 Y106.422 E3.25950
G1 X101.265 Y106.633 E3.28574
G1 X100.498 Y106.730 E3.30965
G1 X100.385 Y106.115 F7800.000
G1 F1800.000
G1 X99.615 Y106.115 E3.33346
G1 X98.852 Y106.018 E3.35727
G1 X98.107 Y105.827 E3.38107
G1 X97.391 Y105.544 E3.40488
G1 X96.717 Y105.173 E3.42869
G1 X96.095 Y104.721 E3.45249
G1 X95.534 Y104.194 E3.47630
G1 X95.043 Y103.601 E3.50011
G1 X94.631 Y102.952 E3.52391
G1 X94.303 Y102.255 E3.54772
G1 X94.066 Y101.524 E3.57153
G1 X93.921 Y100.768 E3.59533
G1 X93.873 Y100.000 E3.61914
G1 X93.921 Y99.232 E3.64295
G1 X94.066 Y98.476 E3.66675
G1 X94.303 Y97.745 E3.69056
G1 X94.631 Y97.048 E3.71437
G1 X95.043 Y96.399 E3.73817
G1 X95.534 Y95.806 E3.76198
G1 X96.095 Y95.279 E3.78579
G1 X96.717 Y94.827 E3.80959
G1 X97.391 Y94.456 E3.83340
G1 X98.107 Y94.173 E3.85721
G1 X98.852 Y93.982 E3.88101
G1 X99.615 Y93.885 E3.90482
G1 X100.385 Y93.885 E3.92863
G1 X101.148 Y93.982 E3.95243
G1 X101.893 Y94.173 E3.97624
G1 X102.609 Y94.456 E4.00005
G1 X103.283 Y94.827 E4.02385
G1 X103.905 Y95.279 E4.04766
G1 X104.466 Y95.806 E4.07147
G1 X104.957 Y96.399 E4.09527
G1 X105.369 Y97.048 E4.11908
G1 X105.697 Y97.745 E4.14289
G1 X105.934 Y98.476 E4.16669
G1 X106.079 Y99.232 E4.19050
G1 X106.127 Y100.000 E4.21431
G1 X106.079 Y100.768 E4.23811
G1 X105.934 Y101.524 E4.26192
G1 X105.697 Y102.255 E4.28573
G1 X105.369 Y102.952 E4.30953
G1 X104.957 Y103.601 E4.33334
G1 X104.466 Y104.194 E4.35715
G1 X103.905 Y104.721 E4.38095
G1 X103.283 Y105.173 E4.40476
G1 X102.609 Y105.544 E4.42857
G1 X101.893 Y105.827 E4.45237
G1 X101.148 Y106.018 E4.47618
G1 X100.459 Y106.105 E4.49767
G1 X100.345 Y105.490 F7800.000
G1 F1800.000
G1 X99.655 Y105.490 E4.51904
G1 X98.969 Y105.403 E4.54041
G1 X98.300 Y105.231 E4.56179
G1 X97.658 Y104.977 E4.58316
G1 X97.053 Y104.644 E4.60453
G1 X96.494 Y104.238 E4.62591
G1 X95.990 Y103.765 E4.64728
G1 X95.550 Y103.233 E4.66866
G1 X95.180 Y102.650 E4.69003
G1 X94.886 Y102.025 E4.71140
G1 X94.672 Y101.368 E4.73278
G1 X94.543 Y100.689 E4.75415
G1 X94.499 Y100.000 E4.77552
G1 X94.543 Y99.311 E4.79690
G1 X94.672 Y98.632 E4.81827
G1 X94.886 Y97.975 E4.83964
G1 X95.180 Y97.350 E4.86102
G1 X95.550 Y96.767 E4.88239
G1 X95.990 Y96.235 E4.90377
G1 X96.494 Y95.762 E4.92514
G1 X97.053 Y95.356 E4.94651
G1 X97.658 Y95.023 E4.96789
G1 X98.300 Y94.769 E4.98926
G1 X98.969 Y94.597 E5.01063
G1 X99.655 Y94.510 E5.03201
G1 X100.345 Y94.510 E5.05338
G1 X101.031 Y94.597 E5.07476
G1 X101.700 Y94.769 E5.09613
G1 X102.342 Y95.023 E5.11750
G1 X102.947 Y95.356 E5.13888
G1 X103.506 Y95.762 E5.16025
G1 X104.010 Y96.235 E5.18162
G1 X104.450 Y96.767 E5.20300
G1 X104.820 Y97.350 E5.22437
G1 X105.114 Y97.975 E5.24575
G1 X105.328 Y98.632 E5.26712
G1 X105.457 Y99.311 E5.28849
G1 X105.501 Y100.000 E5.30987
G1 X105.457 Y100.689 E5.33124
G1 X105.328 Y101.368 E5.35261
G1 X105.114 Y102.025 E5.37399
G1 X104.820 Y102.650 E5.39536
G1 X104.450 Y103.233 E5.41673
G1 X104.010 Y103.765 E5.43811
G1 X103.506 Y104.238 E5.45948
G1 X102.947 Y104.644 E5.48086
G1 X102.342 Y104.977 E5.50223
G1 X101.700 Y105.231 E5.52360
G1 X101.031 Y105.403 E5.54498
G1 X100.420 Y105.480 E5.56403
G1 X100.345 Y105.490 F7800.000
G1 E3.56403 F2400.00000
G92 E0
G1 X100.236 Y80.746 F7800.000
G1 E2.00000 F2400.00000
G1 F1800.000
G1 X99.764 Y80.746 E2.01459
G1 X99.297 Y80.686 E2.02917
G1 X98.840 Y80.569 E2.04375
G1 X98.402 Y80.396 E2.05834
G1 X97.989 Y80.169 E2.07292
G1 X97.608 Y79.892 E2.08750
G1 X97.264 Y79.569 E2.10208
G1 X96.964 Y79.206 E2.11667
G1 X96.711 Y78.808 E2.13124
G1 X96.511 Y78.382 E2.14583
G1 X96.365 Y77.933 E2.16041
G1 X96.277 Y77.470 E2.17500
G1 X96.247 Y77.000 E2.18958
G1 X96.277 Y76.530 E2.20416
G1 X96.365 Y76.067 E2.21875
G1 X96.511 Y75.618 E2.23333
G1 X96.711 Y75.192 E2.24791
G1 X96.964 Y74.794 E2.26249
G1 X97.264 Y74.431 E2.27707
G1 X97.608 Y74.108 E2.29166
G1 X97.989 Y73.831 E2.30624
G1 X98.402 Y73.604 E2.32082
G1 X98.840 Y73.431 E2.33541
G1 X99.297 Y73.314 E2.34999
G1 X99.764 Y73.254 E2.36457
G1 X100.236 Y73.254 E2.37916
G1 X100.703 Y73.314 E2.39374
G1 X101.160 Y73.431 E2.40832
G1 X101.598 Y73.604 E2.42290
G1 X102.011 Y73.831 E2.43749
G1 X102.392 Y74.108 E2.45206
G1 X102.736 Y74.431 E2.46665
G1 X103.036 Y74.794 E2.48123
G1 X103.289 Y75.192 E2.49581
G1 X103.489 Y75.618 E2.51040
G1 X103.635 Y76.067 E2.52498
G1 X103.723 Y76.530 E2.53956
G1 X103.753 Y77.000 E2.55414
G1 X103.723 Y77.470 E2.56873
G1 X103.635 Y77.933 E2.58331
G1 X103.489 Y78.382 E2.59789
G1 X103.289 Y78.808 E2.61248
G1 X103.036 Y79.206 E2.62706
G1 X102.736 Y79.569 E2.64164
G1 X102.392 Y79.892 E2.65622
G1 X102.011 Y80.169 E2.67080
G1 X101.598 Y80.396 E2.68539
G1 X101.160 Y80.569 E2.69997
G1 X100.703 Y80.686 E2.71455
G1 X100.310 Y80.736 E2.72681
G1 X100.196 Y80.121 F7800.000
G1 F1800.000
G1 X99.804 Y80.121 E2.73897
G1 X99.414 Y80.071 E2.75111
G1 X99.034 Y79.974 E2.76326
G1 X98.669 Y79.829 E2.77541
G1 X98.325 Y79.640 E2.78756
G1 X98.007 Y79.409 E2.79971
G1 X97.721 Y79.140 E2.81186
G1 X97.470 Y78.838 E2.82401
G1 X97.260 Y78.506 E2.83616
G1 X97.093 Y78.151 E2.84831
G1 X96.971 Y77.778 E2.86046
G1 X96.898 Y77.392 E2.87261
G1 X96.873 Y77.000 E2.88476
G1 X96.898 Y76.608 E2.89691
G1 X96.971 Y76.222 E2.90906
G1 X97.093 Y75.849 E2.92121
G1 X97.260 Y75.494 E2.93336
G1 X97.470 Y75.162 E2.94551
G1 X97.721 Y74.860 E2.95766
G1 X98.007 Y74.591 E2.96981
G1 X98.325 Y74.360 E2.98196
G1 X98.669 Y74.171 E2.99411
G1 X99.034 Y74.026 E3.00626
G1 X99.414 Y73.929 E3.01841
G1 X99.804 Y73.879 E3.03055
G1 X100.196 Y73.879 E3.04271
G1 X100.586 Y73.929 E3.05486
G1 X100.966 Y74.026 E3.06700
G1 X101.331 Y74.171 E3.07916
G1 X101.675 Y74.360 E3.09131
G1 X101.993 Y74.591 E3.10345
G1 X102.279 Y74.860 E3.11560
G1 X102.530 Y75.162 E3.12776
G1 X102.740 Y75.494 E3.13990
G1 X102.907 Y75.849 E3.15205
G1 X103.029 Y76.222 E3.16420
G1 X103.102 Y76.608 E3.17635
G1 X103.127 Y77.000 E3.18850
G1 X103.102 Y77.392 E3.20065
G1 X103.029 Y77.778 E3.21280
G1 X102.907 Y78.151 E3.22495
G1 X102.740 Y78.506 E3.23710
G1 X102.530 Y78.838 E3.24925
G1 X102.279 Y79.140 E3.26140
G1 X101.993 Y79.409 E3.27355
G1 X101.675 Y79.640 E3.28570
G1 X101.331 Y79.829 E3.29785
G1 X100.966 Y79.974 E3.31000
G1 X100.586 Y80.071 E3.32215
G1 X100.271 Y80.111 E3.33198
G1 X100.157 Y79.496 F7800.000
G1 F1800.000
G1 X99.843 Y79.496 E3.34169
G1 X99.531 Y79.456 E3.35141
G1 X99.227 Y79.378 E3.36113
G1 X98.935 Y79.263 E3.37084
