; generated by Slic3r Prusa Edition 1.39.0 on 2019-10-17 at 22:12:11

; 

; external perimeters extrusion width = 0.56mm
; perimeters extrusion width = 0.56mm
; infill extrusion width = 0.56mm
; solid infill extrusion width = 0.56mm
; top infill extrusion width = 0.50mm
; first layer extrusion width = 0.70mm

M107
M104 S200 ; set temperature
G28 ; home all axes
G1 Z5 F5000 ; lift nozzle
; Filament gcode
M109 S200 ; set temperature and wait for it to be reached
G21 ; set units to millimeters
G90 ; use absolute coordinates
M82 ; use absolute distances for extrusion
G92 E0
G1 Z0.350 F7800.000
G1 E-2.00000 F2400.00000
G92 E0
G1 X89.527 Y89.061 F7800.000
G1 E2.00000 F2400.00000
G1 F1800
G1 X92.276 Y86.980 E2.10670
G1 X94.974 Y85.747 E2.19847
G1 X96.299 Y85.348 E2.24129
G1 X98.534 Y84.957 E2.31149
G1 X99.484 Y84.889 E2.34098
G1 X102.665 Y85.117 E2.43964
G1 X105.908 Y86.089 E2.54439
G1 X108.889 Y87.785 E2.65051
G1 X111.089 Y89.775 E2.74228
G1 X112.006 Y90.878 E2.78666
G1 X113.251 Y92.782 E2.85706
G1 X113.735 Y93.768 E2.89106
G1 X114.715 Y96.628 E2.98461
G1 X115.096 Y99.999 E3.08955
G1 X114.714 Y103.375 E3.19469
G1 X113.736 Y106.229 E3.28805
G1 X113.252 Y107.216 E3.32204
G1 X112.007 Y109.120 E3.39244
G1 X111.091 Y110.223 E3.43682
G1 X108.886 Y112.217 E3.52879
G1 X105.911 Y113.910 E3.63471
G1 X102.662 Y114.884 E3.73966
G1 X99.475 Y115.111 E3.83852
G1 X98.467 Y115.033 E3.86977
G1 X95.855 Y114.552 E3.95196
G1 X95.065 Y114.291 E3.97772
G1 X93.068 Y113.432 E4.04497
G1 X91.819 Y112.715 E4.08955
G1 X89.986 Y111.345 E4.16034
G1 X89.228 Y110.630 E4.19257
G1 X87.284 Y108.232 E4.28809
G1 X85.774 Y105.216 E4.39245
G1 X84.968 Y101.909 E4.49778
G1 X84.904 Y99.013 E4.58739
G1 X85.069 Y97.544 E4.63314
G1 X85.604 Y95.306 E4.70433
G1 X85.977 Y94.300 E4.73754
G1 X87.387 Y91.611 E4.83149
G1 X89.478 Y89.118 E4.93216
G1 E2.93216 F2400.00000
G92 E0
G1 X103.179 Y104.648 F7800.000
G1 E2.00000 F2400.00000
G1 F1800
G1 X100.652 Y105.606 E2.08364
G1 X97.969 Y105.281 E2.16728
G1 X95.744 Y103.745 E2.25092
G1 X94.488 Y101.352 E2.33456
G1 X94.488 Y98.648 E2.41819
G1 X95.744 Y96.255 E2.50183
G1 X97.969 Y94.719 E2.58547
G1 X100.652 Y94.394 E2.66911
G1 X103.179 Y95.352 E2.75275
G1 X104.972 Y97.375 E2.83639
G1 X105.619 Y100.000 E2.92003
G1 X104.972 Y102.625 E3.00367
G1 X103.229 Y104.592 E3.08498
G1 X102.814 Y104.118 F7800.000
G1 F1800
G1 X100.574 Y104.968 E3.15909
G1 X98.197 Y104.679 E3.23320
G1 X96.226 Y103.318 E3.30731
G1 X95.113 Y101.198 E3.38141
G1 X95.113 Y98.802 E3.45552
G1 X96.226 Y96.682 E3.52963
G1 X98.197 Y95.321 E3.60374
G1 X100.574 Y95.032 E3.67784
G1 X102.814 Y95.882 E3.75195
G1 X104.402 Y97.674 E3.82606
G1 X104.975 Y100.000 E3.90017
G1 X104.402 Y102.326 E3.97427
G1 X102.864 Y104.062 E4.04606
G1 X102.448 Y103.589 F7800.000
G1 F1800
G1 X100.497 Y104.329 E4.11064
G1 X98.425 Y104.077 E4.17521
G1 X96.707 Y102.892 E4.23979
G1 X95.737 Y101.044 E4.30437
G1 X95.737 Y98.956 E4.36894
G1 X96.707 Y97.108 E4.43352
G1 X98.425 Y95.923 E4.49810
G1 X100.497 Y95.671 E4.56267
G1 X102.448 Y96.411 E4.62725
G1 X103.832 Y97.974 E4.69182
G1 X104.332 Y100.000 E4.75640
G1 X103.832 Y102.026 E4.82098
G1 X102.498 Y103.532 E4.88323
G1 X102.489 Y104.087 F7800.000
G1 E2.88323 F2400.00000
G92 E0
G1 X104.085 Y105.526 F7800.000
G1 E2.00000 F2400.00000
G1 F1800
G1 X102.700 Y106.326 E2.04949
G1 X101.168 Y106.785 E2.09899
G1 X99.571 Y106.878 E2.14848
G1 X97.995 Y106.600 E2.19798
G1 X96.527 Y105.966 E2.24747
G1 X95.244 Y105.011 E2.29696
G1 X94.215 Y103.786 E2.34646
G1 X93.497 Y102.356 E2.39595
G1 X93.129 Y100.800 E2.44544
G1 X93.129 Y99.200 E2.49494
G1 X93.497 Y97.644 E2.54443
G1 X94.215 Y96.214 E2.59393
G1 X95.244 Y94.989 E2.64342
G1 X96.527 Y94.034 E2.69291
G1 X97.995 Y93.400 E2.74241
G1 X99.571 Y93.122 E2.79190
G1 X101.168 Y93.215 E2.84140
G1 X102.700 Y93.674 E2.89089
G1 X104.085 Y94.474 E2.94038
G1 X105.249 Y95.572 E2.98988
G1 X106.128 Y96.908 E3.03937
G1 X106.675 Y98.411 E3.08887
G1 X106.861 Y100.000 E3.13836
G1 X106.675 Y101.589 E3.18785
G1 X106.128 Y103.092 E3.23735
G1 X105.249 Y104.428 E3.28684
G1 X104.140 Y105.475 E3.33401
G1 X104.514 Y105.981 F7800.000
G1 F1800
G1 X104.461 Y106.031 E3.33627
G1 X102.949 Y106.904 E3.39029
G1 X101.277 Y107.404 E3.44430
G1 X99.534 Y107.506 E3.49832
G1 X97.815 Y107.203 E3.55233
G1 X96.212 Y106.511 E3.60634
G1 X94.812 Y105.469 E3.66036
G1 X93.690 Y104.131 E3.71437
G1 X92.906 Y102.571 E3.76838
G1 X92.504 Y100.873 E3.82240
G1 X92.504 Y99.127 E3.87641
G1 X92.906 Y97.429 E3.93043
G1 X93.690 Y95.869 E3.98444
G1 X94.812 Y94.531 E4.03845
G1 X96.212 Y93.489 E4.09247
G1 X97.815 Y92.797 E4.14648
G1 X99.534 Y92.494 E4.20050
G1 X101.277 Y92.596 E4.25451
G1 X102.949 Y93.096 E4.30852
G1 X104.461 Y93.969 E4.36254
G1 X105.731 Y95.167 E4.41655
G1 X106.690 Y96.626 E4.47056
G1 X107.287 Y98.266 E4.52458
G1 X107.490 Y100.000 E4.57859
G1 X107.287 Y101.734 E4.63260
G1 X106.690 Y103.374 E4.68662
G1 X105.731 Y104.833 E4.74063
G1 X104.569 Y105.929 E4.79007
G1 X104.943 Y106.435 F7800.000
G1 F1800
G1 X104.837 Y106.535 E4.79459
G1 X103.198 Y107.481 E4.85312
G1 X101.386 Y108.024 E4.91165
G1 X99.498 Y108.134 E4.97019
G1 X97.634 Y107.805 E5.02872
G1 X95.897 Y107.056 E5.08725
G1 X94.380 Y105.926 E5.14579
G1 X93.164 Y104.477 E5.20432
G1 X92.315 Y102.787 E5.26285
G1 X91.879 Y100.946 E5.32139
G1 X91.879 Y99.054 E5.37992
G1 X92.315 Y97.213 E5.43846
G1 X93.164 Y95.523 E5.49699
G1 X94.380 Y94.074 E5.55552
G1 X95.897 Y92.944 E5.61406
G1 X97.634 Y92.195 E5.67259
G1 X99.498 Y91.866 E5.73112
G1 X101.386 Y91.976 E5.78966
G1 X103.198 Y92.519 E5.84819
G1 X104.837 Y93.465 E5.90672
G1 X106.213 Y94.763 E5.96526
G1 X107.252 Y96.343 E6.02379
G1 X107.899 Y98.121 E6.08232
G1 X108.119 Y100.000 E6.14086
G1 X107.899 Y101.879 E6.19939
G1 X107.252 Y103.657 E6.25793
G1 X106.213 Y105.237 E6.31646
G1 X104.997 Y106.384 E6.36815
G1 X104.801 Y106.399 F7800.000
G1 X103.585 Y105.110 F7800.000
G1 F1800
G1 X103.466 Y105.186 E6.37232
G1 F1800
G1 X103.205 Y105.310 E6.38134
G1 F1800
G1 X102.944 Y105.433 E6.39102
G1 F1800
G1 X102.683 Y105.557 E6.40137
G1 F1800
G1 X102.422 Y105.681 E6.41189
G1 X101.510 Y105.990 E6.44694
G1 F1800
G1 X101.055 Y106.144 E6.46090
G1 X100.656 Y106.212 E6.47264
G1 F1800
G1 X100.395 Y106.204 E6.48071
G1 F1800
G1 X100.134 Y106.196 E6.48938
G1 F1800
G1 X99.873 Y106.188 E6.49866
G1 F1800
G1 X99.611 Y106.180 E6.50805
G1 X98.185 Y105.967 E6.55985
G1 F1800
G1 X97.692 Y105.817 E6.57461
G1 F1800
G1 X97.487 Y105.704 E6.58176
G1 F1800
G1 X97.283 Y105.591 E6.58945
G1 F1800
G1 X97.079 Y105.477 E6.59767
G1 F1800
G1 X96.874 Y105.364 E6.60586
G1 X95.703 Y104.524 E6.65639
G1 F1800
G1 X95.582 Y104.414 E6.66209
G1 F1800
G1 X95.251 Y104.091 E6.67523
G1 F1800
G1 X95.136 Y103.920 E6.68149
G1 F1800
G1 X95.021 Y103.749 E6.68820
G1 F1800
G1 X94.907 Y103.578 E6.69536
G1 F1800
G1 X94.792 Y103.406 E6.70271
G1 X94.134 Y102.125 E6.75411
G1 X94.081 Y101.984 E6.75947
G1 F1800
G1 X93.923 Y101.561 E6.77221
G1 X93.891 Y101.429 E6.77606
G1 F1800
G1 X93.870 Y101.252 E6.78144
G1 F1800
G1 X93.850 Y101.074 E6.78719
G1 F1800
G1 X93.829 Y100.897 E6.79331
G1 F1800
G1 X93.808 Y100.720 E6.79979
G1 F1800
G1 X93.808 Y99.280 E6.85218
G1 F1800
G1 X93.829 Y99.103 E6.85866
G1 F1800
G1 X93.891 Y98.571 E6.87375
G1 X93.923 Y98.439 E6.87760
G1 F1800
G1 X93.976 Y98.298 E6.88212
G1 F1800
G1 X94.028 Y98.157 E6.88693
G1 F1800
G1 X94.081 Y98.016 E6.89202
G1 F1800
G1 X94.134 Y97.875 E6.89738
G1 F1800
G1 X94.792 Y96.594 E6.94747
G1 X95.021 Y96.251 E6.96179
G1 F1800
G1 X95.340 Y95.806 E6.97735
G1 F1800
G1 X95.461 Y95.696 E6.98234
G1 F1800
G1 X95.582 Y95.586 E6.98769
G1 F1800
G1 X95.703 Y95.476 E6.99339
G1 F1800
G1 X96.288 Y95.056 E7.01945
G1 F1800
G1 X96.874 Y94.636 E7.04479
G1 X97.283 Y94.409 E7.06123
G1 F1800
G1 X97.692 Y94.183 E7.07462
G1 X97.820 Y94.131 E7.07856
G1 F1800
G1 X97.941 Y94.098 E7.08240
G1 F1800
G1 X98.063 Y94.065 E7.08646
G1 F1800
G1 X98.185 Y94.033 E7.09075
G1 F1800
G1 X98.898 Y93.926 E7.11665
G1 F1800
G1 X99.611 Y93.820 E7.14246
G1 X100.071 Y93.806 E7.15892
G1 F1800
G1 X100.656 Y93.788 E7.17591
G1 X100.795 Y93.800 E7.17995
G1 F1800
G1 X100.925 Y93.828 E7.18407
G1 F1800
G1 X101.055 Y93.856 E7.18846
G1 F1800
G1 X101.510 Y94.010 E7.20516
G1 F1800
G1 X101.966 Y94.164 E7.22269
G1 F1800
G1 X102.422 Y94.319 E7.23992
G1 X102.944 Y94.567 E7.26062
G1 F1800
G1 X103.466 Y94.814 E7.27766
G1 X103.585 Y94.890 E7.28182
G1 F1800
G1 X103.704 Y94.987 E7.28670
G1 F1800
G1 X104.039 Y95.332 E7.30311
G1 F1800
G1 X104.374 Y95.678 E7.32054
G1 F1800
G1 X104.709 Y96.024 E7.33900
G1 F1800
G1 X104.902 Y96.276 E7.35112
G1 F1800
G1 X105.479 Y97.029 E7.37966
G1 X105.552 Y97.153 E7.38399
G1 F1800
G1 X105.568 Y97.189 E7.38520
G1 F1800
G1 X105.673 Y97.536 E7.39701
G1 F1800
G1 X105.778 Y97.882 E7.40952
G1 F1800
G1 X105.883 Y98.228 E7.42272
G1 F1800
G1 X105.989 Y98.574 E7.43585
G1 X106.111 Y99.251 E7.46081
G1 F1800
G1 X106.242 Y100.000 E7.48354
G1 F1800
G1 X106.234 Y100.072 E7.48572
G1 F1800
G1 X106.172 Y100.411 E7.49673
G1 F1800
G1 X106.111 Y100.749 E7.50848
G1 F1800
G1 X106.050 Y101.088 E7.52096
G1 F1800
G1 X105.989 Y101.426 E7.53417
G1 F1800
G1 X105.883 Y101.772 E7.54807
G1 F1800
G1 X105.552 Y102.847 E7.58263
G1 F1800
G1 X105.479 Y102.971 E7.58695
G1 F1800
G1 X105.286 Y103.222 E7.59694
G1 F1800
G1 X105.094 Y103.473 E7.60765
G1 F1800
G1 X104.902 Y103.724 E7.61907
G1 F1800
G1 X104.709 Y103.976 E7.63052
G1 X104.039 Y104.668 E7.66538
G1 F1800
G1 X103.643 Y105.063 E7.68187
G1 Z0.650 F7800.000
G1 X102.991 Y104.375 F7800.000
G1 F900
G1 X100.612 Y105.277 E7.73566
G1 X98.086 Y104.970 E7.78945
G1 X95.992 Y103.525 E7.84324
G1 X94.810 Y101.272 E7.89702
G1 X94.810 Y98.728 E7.95081
G1 X95.992 Y96.475 E8.00460
G1 X98.086 Y95.030 E8.05839
G1 X100.612 Y94.723 E8.11218
G1 X102.991 Y95.625 E8.16596
G1 X104.678 Y97.530 E8.21975
G1 X105.287 Y100.000 E8.27354
G1 X104.678 Y102.470 E8.32733
G1 X103.041 Y104.319 E8.37953
G1 X102.700 Y103.953 F7800.000
G1 F900
G1 X100.550 Y104.768 E8.42813
G1 X98.268 Y104.491 E8.47672
G1 X96.376 Y103.185 E8.52532
G1 X95.308 Y101.149 E8.57392
G1 X95.308 Y98.851 E8.62251
G1 X96.376 Y96.815 E8.67111
G1 X98.268 Y95.509 E8.71971
G1 X100.550 Y95.232 E8.76830
G1 X102.700 Y96.047 E8.81690
G1 X104.224 Y97.768 E8.86550
G1 X104.774 Y100.000 E8.91409
G1 X104.224 Y102.232 E8.96269
G1 X102.749 Y103.896 E9.00970
G1 X102.408 Y103.530 F7800.000
G1 F900
G1 X100.488 Y104.258 E9.05311
G1 X98.450 Y104.011 E9.09651
G1 X96.760 Y102.845 E9.13992
G1 X95.806 Y101.027 E9.18333
G1 X95.806 Y98.973 E9.22673
G1 X96.760 Y97.155 E9.27014
G1 X98.450 Y95.989 E9.31354
G1 X100.488 Y95.742 E9.35695
G1 X102.408 Y96.470 E9.40035
G1 X103.770 Y98.006 E9.44376
G1 X104.261 Y100.000 E9.48717
G1 X103.770 Y101.994 E9.53057
G1 X102.458 Y103.474 E9.57239
G1 X102.448 Y104.029 F7800.000
G1 X104.279 Y105.786 F7800.000
G1 F3600
G1 X102.829 Y106.624 E9.60780
G1 X101.224 Y107.104 E9.64321
G1 X99.552 Y107.202 E9.67862
G1 X97.902 Y106.911 E9.71403
G1 X96.364 Y106.247 E9.74944
G1 X95.021 Y105.247 E9.78485
G1 X93.944 Y103.964 E9.82026
G1 X93.192 Y102.467 E9.85567
G1 X92.859 Y101.061 E9.88621
G1 X92.806 Y100.837 E9.89108
G1 X92.806 Y99.163 E9.92649
G1 X93.192 Y97.533 E9.96190
G1 X93.944 Y96.036 E9.99731
G1 X95.021 Y94.753 E10.03272
G1 X96.364 Y93.753 E10.06813
G1 X97.902 Y93.089 E10.10354
G1 X99.552 Y92.798 E10.13895
G1 X101.224 Y92.896 E10.17436
G1 X102.829 Y93.376 E10.20977
G1 X104.279 Y94.214 E10.24518
G1 X105.497 Y95.363 E10.28059
G1 X106.418 Y96.762 E10.31600
G1 X106.991 Y98.336 E10.35141
G1 X107.185 Y100.000 E10.38682
G1 X106.991 Y101.664 E10.42223
G1 X106.418 Y103.238 E10.45764
G1 X105.497 Y104.637 E10.49305
G1 X104.334 Y105.735 E10.52687
G1 X104.528 Y106.218 F7800.000
G1 F3600
G1 X103.027 Y107.084 E10.56351
G1 X101.311 Y107.598 E10.60138
G1 X99.523 Y107.702 E10.63925
G1 X97.758 Y107.391 E10.67713
G1 X96.114 Y106.682 E10.71500
G1 X94.677 Y105.612 E10.75287
G1 X93.525 Y104.240 E10.79074
G1 X92.721 Y102.639 E10.82861
G1 X92.308 Y100.896 E10.86648
G1 X92.308 Y99.104 E10.90435
G1 X92.721 Y97.361 E10.94223
G1 X93.525 Y95.760 E10.98010
G1 X94.677 Y94.388 E11.01797
G1 X96.114 Y93.318 E11.05584
G1 X97.758 Y92.609 E11.09371
G1 X99.523 Y92.298 E11.13158
G1 X101.311 Y92.402 E11.16945
G1 X103.027 Y92.916 E11.20733
G1 X104.579 Y93.811 E11.24520
G1 X105.882 Y95.041 E11.28307
G1 X106.866 Y96.537 E11.32094
G1 X107.479 Y98.221 E11.35881
G1 X107.687 Y100.000 E11.39668
G1 X107.479 Y101.779 E11.43455
G1 X106.866 Y103.463 E11.47243
G1 X105.882 Y104.959 E11.51030
G1 X104.591 Y106.177 E11.54781
G1 X104.777 Y106.649 F7800.000
G1 F1800
G1 X103.226 Y107.545 E11.58569
G1 X101.398 Y108.092 E11.62602
G1 X99.493 Y108.203 E11.66635
G1 X97.615 Y107.872 E11.70669
G1 X95.863 Y107.116 E11.74702
G1 X94.333 Y105.977 E11.78735
G1 X93.106 Y104.515 E11.82769
G1 X92.250 Y102.810 E11.86802
G1 X91.890 Y101.291 E11.90102
G1 X91.810 Y100.954 E11.90835
G1 X91.810 Y99.046 E11.94869
G1 X92.250 Y97.190 E11.98902
G1 X93.106 Y95.485 E12.02935
G1 X94.333 Y94.023 E12.06968
G1 X95.863 Y92.884 E12.11002
G1 X97.615 Y92.128 E12.15035
G1 X99.493 Y91.797 E12.19068
G1 X101.398 Y91.908 E12.23102
G1 X103.226 Y92.455 E12.27135
G1 X104.878 Y93.409 E12.31168
G1 X106.266 Y94.718 E12.35202
G1 X107.314 Y96.312 E12.39235
G1 X107.967 Y98.105 E12.43268
G1 X108.188 Y100.000 E12.47302
G1 X107.967 Y101.895 E12.51335
G1 X107.314 Y103.688 E12.55368
G1 X106.266 Y105.282 E12.59402
G1 X104.842 Y106.612 E12.63520
G1 X104.319 Y106.450 F7800.000
G1 X103.587 Y106.013 F7800.000
G1 F1200
G1 X106.001 Y103.600 E12.70841
G1 X104.033 Y103.424 F7800.000
G1 F1200
G1 X106.723 Y100.734 E12.78998
G1 X106.809 Y100.000 E12.80582
G1 X106.802 Y99.940 E12.80711
G1 X105.322 Y101.421 E12.85200
G1 X105.555 Y100.472 E12.87295
G1 X106.727 Y99.301 E12.90849
G1 X106.652 Y98.661 E12.92230
G1 X105.601 Y99.712 E12.95419
G1 X105.460 Y99.139 E12.96685
G1 X106.505 Y98.094 E12.99855
G1 X106.314 Y97.570 E13.01050
G1 X105.318 Y98.566 E13.04070
G1 X105.177 Y97.993 E13.05336
G1 X106.123 Y97.046 E13.08206
G1 X106.082 Y96.931 E13.08469
G1 X105.860 Y96.595 E13.09332
G1 X105.036 Y97.419 E13.11833
G1 X105.019 Y97.351 E13.11985
G1 X104.723 Y97.017 E13.12940
G1 X105.577 Y96.164 E13.15529
G1 X105.293 Y95.733 E13.16635
G1 X104.388 Y96.638 E13.19382
G1 X104.052 Y96.260 E13.20467
G1 X104.951 Y95.361 E13.23192
G1 X104.583 Y95.014 E13.24276
G1 X103.716 Y95.881 E13.26905
G1 X103.381 Y95.502 E13.27990
G1 X104.215 Y94.667 E13.30521
G1 X104.054 Y94.515 E13.30996
G1 X103.800 Y94.368 E13.31626
G1 X102.956 Y95.212 E13.34186
G1 X102.438 Y95.016 E13.35374
G1 X103.347 Y94.107 E13.38131
G1 X102.894 Y93.845 E13.39253
G1 X101.920 Y94.819 E13.42207
G1 X101.401 Y94.623 E13.43395
G1 X102.390 Y93.635 E13.46392
G1 X101.840 Y93.470 E13.47623
G1 X100.883 Y94.426 E13.50523
G1 X100.658 Y94.341 E13.51039
G1 X100.198 Y94.397 E13.52033
G1 X101.290 Y93.305 E13.55343
G1 X101.159 Y93.266 E13.55637
G1 X100.645 Y93.236 E13.56741
G1 X99.385 Y94.496 E13.60560
G1 X98.572 Y94.594 E13.62317
G1 X99.969 Y93.197 E13.66555
G1 X99.574 Y93.174 E13.67405
G1 X99.215 Y93.237 E13.68187
G1 X97.407 Y95.045 E13.73668
G1 X96.383 Y93.925 F7800.000
G1 F1200
G1 X93.949 Y96.359 E13.81050
G1 X93.301 Y97.721 F7800.000
G1 F1200
G1 X97.242 Y93.781 E13.92999
G1 X98.010 Y93.450 E13.94794
G1 X98.347 Y93.390 E13.95527
G1 X93.381 Y98.356 E14.10586
G1 X93.180 Y99.206 E14.12460
G1 X93.180 Y99.272 E14.12601
G1 X95.122 Y97.330 E14.18490
G1 X94.865 Y98.301 F7800.000
G1 F1200
G1 X93.180 Y99.986 E14.23602
G1 X93.180 Y100.701 E14.25134
G1 X94.436 Y99.444 E14.28945
G1 X94.436 Y100.159 E14.30477
G1 X93.299 Y101.296 E14.33927
G1 X93.436 Y101.874 E14.35199
G1 X94.436 Y100.873 E14.38234
G1 X94.436 Y101.364 E14.39286
G1 X94.513 Y101.511 E14.39642
G1 X93.593 Y102.432 E14.42434
G1 X93.832 Y102.907 E14.43575
G1 X94.759 Y101.980 E14.46389
G1 X95.005 Y102.448 E14.47524
G1 X94.070 Y103.383 E14.50359
G1 X94.258 Y103.757 E14.51257
G1 X94.328 Y103.840 E14.51489
G1 X95.251 Y102.917 E14.54289
G1 X95.497 Y103.385 E14.55424
G1 X94.654 Y104.229 E14.57981
G1 X94.980 Y104.617 E14.59069
G1 X95.771 Y103.826 E14.61468
G1 X96.194 Y104.118 E14.62569
G1 X95.313 Y104.999 E14.65241
G1 X95.722 Y105.304 E14.66336
G1 X96.616 Y104.410 E14.69047
G1 X97.039 Y104.701 E14.70149
G1 X96.132 Y105.609 E14.72900
