; generated by Slic3r 1.3.1-dev (Build adea0d9) on 2019-12-16 at 00:49:55

; external perimeters extrusion width = 0.44mm (2.86mm^3/s)
; perimeters extrusion width = 0.56mm (4.14mm^3/s)
; infill extrusion width = 0.50mm (3.66mm^3/s)
; solid infill extrusion width = 0.56mm (3.10mm^3/s)
; top infill extrusion width = 0.56mm (3.10mm^3/s)

M107
G92 E0
;D3D:START:START
T0
M104 S215 T0

G21
G90
M107
T0
G28
G29
M109 T0 S215 T0
G0 F3000
M107
T0
G92 E0
G0 X0 Y149 Z0.1 F3600
G1 Y49 E6.5 F1200
G0 Z1
G92 E0
; Filament gcode

G21 ; set units to millimeters
G90 ; use absolute coordinates
M82 ; use absolute distances for extrusion
G92 E0
G1 Z0.300 F7800.000
G1 E-2.00000 F2400.00000
G92 E0
G1 X70.196 Y68.304 F7800.000
G1 E2.00000 F2400.00000
G1 F1800.000
G1 X50.549 Y68.304 E2.65090
G1 X50.549 Y58.946 E2.96091
G1 X59.089 Y58.946 E3.24382
G1 X98.827 Y65.702 E4.57923
G1 X103.804 Y66.578 E4.74664
G1 X103.804 Y83.422 E5.30467
G1 X98.827 Y84.298 E5.47209
G1 X59.088 Y91.054 E6.80749
G1 X50.549 Y91.054 E7.09040
G1 X50.549 Y81.696 E7.40041
G1 X70.196 Y81.696 E8.05132
G1 X70.196 Y68.364 E8.49301
G1 X69.931 Y68.569 F7800.000
G1 F1800.000
G1 X50.283 Y68.569 E9.14392
G1 X50.283 Y58.681 E9.47153
G1 X59.111 Y58.681 E9.76398
G1 X98.872 Y65.441 E11.10014
G1 X102.819 Y66.124 E11.23285
G1 X104.069 Y66.358 E11.27499
G1 X104.069 Y83.642 E11.84764
G1 X102.819 Y83.876 E11.88979
G1 X98.872 Y84.559 E12.02249
G1 X59.111 Y91.319 E13.35866
G1 X50.283 Y91.319 E13.65111
G1 X50.283 Y81.431 E13.97872
G1 X69.931 Y81.431 E14.62962
G1 X69.931 Y68.629 E15.05372
G1 X69.665 Y68.835 F7800.000
G1 F1800.000
G1 X50.018 Y68.835 E15.70462
G1 X50.018 Y58.415 E16.04983
G1 X59.133 Y58.415 E16.35182
G1 X98.917 Y65.179 E17.68874
G1 X102.866 Y65.862 E17.82152
G1 X104.335 Y66.137 E17.87104
G1 X104.335 Y83.863 E18.45829
G1 X102.866 Y84.138 E18.50781
G1 X98.917 Y84.821 E18.64058
G1 X59.133 Y91.585 E19.97750
G1 X50.018 Y91.585 E20.27950
G1 X50.018 Y81.165 E20.62471
G1 X69.665 Y81.165 E21.27561
G1 X69.665 Y68.895 E21.68211
G1 E19.68211 F2400.00000
G92 E0
G1 X70.359 Y81.784 F7800.000
G1 E2.00000 F2400.00000
G1 F1800.000
G1 X88.114 Y64.028 E2.83273
G1 X87.792 Y63.974 E2.84354
G1 X70.359 Y81.408 E3.66120
G1 X70.359 Y81.032 E3.67367
G1 X87.471 Y63.919 E4.47626
G1 X87.150 Y63.864 E4.48707
G1 X70.359 Y80.656 E5.27458
G1 X70.359 Y80.280 E5.28705
G1 X86.828 Y63.810 E6.05950
G1 X86.507 Y63.755 E6.07031
G1 X70.359 Y79.903 E6.82768
G1 X70.359 Y79.527 E6.84015
G1 X86.186 Y63.700 E7.58245
G1 X85.864 Y63.646 E7.59326
G1 X70.359 Y79.151 E8.32049
G1 X70.359 Y78.775 E8.33296
G1 X85.543 Y63.591 E9.04511
G1 X85.222 Y63.536 E9.05592
G1 X70.359 Y78.399 E9.75301
G1 X70.359 Y78.023 E9.76548
G1 X84.900 Y63.482 E10.44749
G1 X84.579 Y63.427 E10.45830
G1 X70.359 Y77.647 E11.12524
G1 X70.359 Y77.271 E11.13771
G1 X84.257 Y63.372 E11.78957
G1 X83.936 Y63.318 E11.80038
G1 X70.359 Y76.895 E12.43718
G1 X70.359 Y76.519 E12.44965
G1 X83.615 Y63.263 E13.07137
G1 X83.293 Y63.208 E13.08218
G1 X70.359 Y76.143 E13.68883
G1 X70.359 Y75.767 E13.70131
G1 X82.972 Y63.154 E14.29288
G1 X82.651 Y63.099 E14.30369
G1 X70.359 Y75.391 E14.88020
G1 X70.359 Y75.015 E14.89267
G1 X82.329 Y63.044 E15.45411
G1 X82.008 Y62.990 E15.46492
G1 X70.359 Y74.639 E16.01128
G1 X70.359 Y74.263 E16.02375
G1 X81.687 Y62.935 E16.55504
G1 X81.365 Y62.880 E16.56585
G1 X70.359 Y73.887 E17.08207
G1 X70.359 Y73.511 E17.09454
G1 X81.044 Y62.826 E17.59569
G1 X80.722 Y62.771 E17.60650
G1 X70.359 Y73.135 E18.09258
G1 X70.359 Y72.759 E18.10505
G1 X80.401 Y62.716 E18.57605
G1 X80.080 Y62.662 E18.58686
G1 X70.359 Y72.383 E19.04279
G1 X70.359 Y72.007 E19.05526
G1 X79.758 Y62.607 E19.49612
G1 X79.437 Y62.552 E19.50693
G1 X70.359 Y71.631 E19.93272
G1 X70.359 Y71.255 E19.94519
G1 X79.116 Y62.498 E20.35590
G1 X78.794 Y62.443 E20.36671
G1 X70.359 Y70.879 E20.76236
G1 X70.359 Y70.503 E20.77483
G1 X78.473 Y62.388 E21.15540
G1 X78.152 Y62.334 E21.16621
G1 X70.359 Y70.127 E21.53171
G1 X70.359 Y69.751 E21.54418
G1 X77.830 Y62.279 E21.89461
G1 X77.509 Y62.224 E21.90542
G1 X70.359 Y69.375 E22.24077
G1 X70.359 Y68.999 E22.25324
G1 X77.188 Y62.170 E22.57352
G1 X76.866 Y62.115 E22.58434
G1 X70.359 Y68.623 E22.88955
G1 X70.359 Y68.247 E22.90202
G1 X76.545 Y62.060 E23.19216
G1 X76.223 Y62.006 E23.20297
G1 X70.088 Y68.141 E23.49074
G1 X69.712 Y68.141 E23.50321
G1 X75.902 Y61.951 E23.79355
G1 X75.581 Y61.896 E23.80436
G1 X69.336 Y68.141 E24.09726
G1 X68.959 Y68.141 E24.10974
G1 X75.259 Y61.842 E24.40520
G1 X74.938 Y61.787 E24.41601
G1 X68.583 Y68.141 E24.71404
G1 X68.207 Y68.141 E24.72652
G1 X74.617 Y61.732 E25.02711
G1 X74.295 Y61.678 E25.03792
G1 X67.831 Y68.141 E25.34108
G1 X67.455 Y68.141 E25.35355
G1 X73.974 Y61.623 E25.65928
G1 X73.653 Y61.568 E25.67009
G1 X67.079 Y68.141 E25.97837
G1 X66.703 Y68.141 E25.99084
G1 X73.331 Y61.514 E26.30170
G1 X73.010 Y61.459 E26.31251
G1 X66.327 Y68.141 E26.62592
G1 X65.951 Y68.141 E26.63839
G1 X72.688 Y61.404 E26.95437
G1 X72.367 Y61.350 E26.96518
G1 X65.575 Y68.141 E27.28373
G1 X65.199 Y68.141 E27.29620
G1 X72.046 Y61.295 E27.61731
G1 X71.724 Y61.240 E27.62812
G1 X64.823 Y68.141 E27.95179
G1 X64.447 Y68.141 E27.96426
G1 X71.403 Y61.186 E28.29050
G1 X71.082 Y61.131 E28.30131
G1 X64.071 Y68.141 E28.63011
G1 X63.695 Y68.141 E28.64258
G1 X70.760 Y61.076 E28.97394
G1 X70.439 Y61.022 E28.98475
G1 X63.319 Y68.141 E29.31868
G1 X62.943 Y68.141 E29.33115
G1 X70.118 Y60.967 E29.66765
G1 X69.796 Y60.912 E29.67846
G1 X62.567 Y68.141 E30.01751
G1 X62.191 Y68.141 E30.02998
G1 X69.475 Y60.858 E30.37160
G1 X69.153 Y60.803 E30.38242
G1 X61.815 Y68.141 E30.72660
G1 X61.439 Y68.141 E30.73907
G1 X68.832 Y60.748 E31.08581
G1 X68.510 Y60.694 E31.09662
G1 X61.063 Y68.141 E31.44592
G1 X60.687 Y68.141 E31.45839
G1 X68.189 Y60.639 E31.81025
G1 X67.868 Y60.585 E31.82106
G1 X60.311 Y68.141 E32.17548
G1 X59.935 Y68.141 E32.18795
G1 X67.546 Y60.530 E32.54492
G1 X67.225 Y60.476 E32.55573
G1 X59.559 Y68.141 E32.91527
G1 X59.183 Y68.141 E32.92774
G1 X66.903 Y60.421 E33.28983
G1 X66.582 Y60.366 E33.30064
G1 X58.807 Y68.141 E33.66529
G1 X58.431 Y68.141 E33.67777
G1 X66.260 Y60.312 E34.04498
G1 X65.939 Y60.257 E34.05579
G1 X58.055 Y68.141 E34.42556
G1 X57.679 Y68.141 E34.43803
G1 X65.617 Y60.203 E34.81036
G1 X65.296 Y60.148 E34.82117
G1 X57.303 Y68.141 E35.19606
G1 X56.926 Y68.141 E35.20853
G1 X64.974 Y60.094 E35.58597
G1 X64.653 Y60.039 E35.59679
G1 X56.550 Y68.141 E35.97679
G1 X56.174 Y68.141 E35.98926
G1 X64.331 Y59.985 E36.37182
G1 X64.010 Y59.930 E36.38264
G1 X55.798 Y68.141 E36.76776
G1 X55.422 Y68.141 E36.78023
G1 X63.688 Y59.875 E37.16791
G1 X63.367 Y59.821 E37.17872
G1 X55.046 Y68.141 E37.56896
G1 X54.670 Y68.141 E37.58143
G1 X63.045 Y59.766 E37.97423
G1 X62.724 Y59.712 E37.98505
G1 X54.294 Y68.141 E38.38040
G1 X53.918 Y68.141 E38.39287
G1 X62.402 Y59.657 E38.79079
G1 X62.081 Y59.603 E38.80160
G1 X53.542 Y68.141 E39.20208
G1 X53.166 Y68.141 E39.21455
G1 X61.760 Y59.548 E39.61758
G1 X61.438 Y59.494 E39.62840
G1 X52.790 Y68.141 E40.03399
G1 X52.414 Y68.141 E40.04646
G1 X61.117 Y59.439 E40.45461
G1 X60.795 Y59.384 E40.46543
G1 X52.038 Y68.141 E40.87614
G1 X51.662 Y68.141 E40.88861
G1 X60.474 Y59.330 E41.30188
G1 X60.152 Y59.275 E41.31269
G1 X51.286 Y68.141 E41.72852
G1 X50.910 Y68.141 E41.74099
G1 X59.831 Y59.221 E42.15938
G1 X59.509 Y59.166 E42.17019
G1 X50.711 Y67.964 E42.58282
G1 X50.711 Y67.588 E42.59529
G1 X59.188 Y59.112 E42.99284
G1 X58.815 Y59.109 E43.00521
G1 X50.711 Y67.212 E43.38527
G1 X50.711 Y66.836 E43.39774
G1 X58.439 Y59.109 E43.76016
G1 X58.063 Y59.109 E43.77263
G1 X50.711 Y66.460 E44.11742
G1 X50.711 Y66.084 E44.12989
G1 X57.687 Y59.109 E44.45705
G1 X57.311 Y59.109 E44.46952
G1 X50.711 Y65.708 E44.77903
G1 X50.711 Y65.332 E44.79150
G1 X56.935 Y59.109 E45.08338
G1 X56.559 Y59.109 E45.09585
G1 X50.711 Y64.956 E45.37010
G1 X50.711 Y64.580 E45.38257
G1 X56.183 Y59.109 E45.63918
G1 X55.807 Y59.109 E45.65165
G1 X50.711 Y64.204 E45.89062
G1 X50.711 Y63.828 E45.90309
G1 X55.431 Y59.109 E46.12442
G1 X55.055 Y59.109 E46.13690
G1 X50.711 Y63.452 E46.34060
G1 X50.711 Y63.076 E46.35307
G1 X54.678 Y59.109 E46.53913
G1 X54.302 Y59.109 E46.55160
G1 X50.711 Y62.700 E46.72003
G1 X50.711 Y62.324 E46.73250
G1 X53.926 Y59.109 E46.88329
G1 X53.550 Y59.109 E46.89576
G1 X50.711 Y61.948 E47.02892
G1 X50.711 Y61.572 E47.04139
G1 X53.174 Y59.109 E47.15691
G1 X52.798 Y59.109 E47.16938
G1 X50.711 Y61.196 E47.26726
G1 X50.711 Y60.820 E47.27973
G1 X52.422 Y59.109 E47.35998
G1 X52.046 Y59.109 E47.37245
G1 X50.711 Y60.444 E47.43506
G1 X50.711 Y60.067 E47.44753
G1 X51.670 Y59.109 E47.49250
G1 X51.294 Y59.109 E47.50497
G1 X50.711 Y59.691 E47.53231
G1 X50.711 Y59.315 E47.54478
G1 X50.918 Y59.109 E47.55449
G1 E45.55449 F2400.00000
G92 E0
G1 X50.899 Y82.065 F7800.000
G1 E2.00000 F2400.00000
G1 F1800.000
G1 X50.711 Y82.065 E2.00624
G1 X50.711 Y82.253 E2.01248
G1 X51.106 Y81.859 E2.03099
G1 X51.482 Y81.859 E2.04346
G1 X50.711 Y82.629 E2.07962
G1 X50.711 Y83.005 E2.09209
G1 X51.858 Y81.859 E2.14587
G1 X52.234 Y81.859 E2.15834
G1 X50.711 Y83.381 E2.22977
G1 X50.711 Y83.757 E2.24224
G1 X52.610 Y81.859 E2.33130
G1 X52.986 Y81.859 E2.34377
G1 X50.711 Y84.133 E2.45046
G1 X50.711 Y84.509 E2.46293
G1 X53.362 Y81.859 E2.58726
G1 X53.738 Y81.859 E2.59973
G1 X50.711 Y84.886 E2.74170
G1 X50.711 Y85.262 E2.75417
G1 X54.114 Y81.859 E2.91377
G1 X54.490 Y81.859 E2.92624
G1 X50.711 Y85.638 E3.10348
G1 X50.711 Y86.014 E3.11595
G1 X54.866 Y81.859 E3.31083
G1 X55.242 Y81.859 E3.32330
G1 X50.711 Y86.390 E3.53581
G1 X50.711 Y86.766 E3.54828
G1 X55.618 Y81.859 E3.77843
G1 X55.994 Y81.859 E3.79090
G1 X50.711 Y87.142 E4.03868
G1 X50.711 Y87.518 E4.05115
G1 X56.371 Y81.859 E4.31657
G1 X56.747 Y81.859 E4.32904
G1 X50.711 Y87.894 E4.61210
G1 X50.711 Y88.270 E4.62457
G1 X57.123 Y81.859 E4.92526
G1 X57.499 Y81.859 E4.93773
G1 X50.711 Y88.646 E5.25606
G1 X50.711 Y89.022 E5.26853
G1 X57.875 Y81.859 E5.60450
G1 X58.251 Y81.859 E5.61697
G1 X50.711 Y89.398 E5.97057
G1 X50.711 Y89.774 E5.98304
G1 X58.627 Y81.859 E6.35427
G1 X59.003 Y81.859 E6.36674
G1 X50.711 Y90.150 E6.75562
G1 X50.711 Y90.526 E6.76809
G1 X59.379 Y81.859 E7.17460
G1 X59.755 Y81.859 E7.18707
G1 X50.722 Y90.891 E7.61072
G1 X51.098 Y90.891 E7.62319
G1 X60.131 Y81.859 E8.04684
G1 X60.507 Y81.859 E8.05931
G1 X51.474 Y90.891 E8.48296
G1 X51.850 Y90.891 E8.49543
G1 X60.883 Y81.859 E8.91908
G1 X61.259 Y81.859 E8.93155
G1 X52.226 Y90.891 E9.35520
G1 X52.602 Y90.891 E9.36767
G1 X61.635 Y81.859 E9.79132
G1 X62.011 Y81.859 E9.80379
G1 X52.978 Y90.891 E10.22744
G1 X53.354 Y90.891 E10.23991
G1 X62.387 Y81.859 E10.66356
G1 X62.763 Y81.859 E10.67603
G1 X53.730 Y90.891 E11.09968
G1 X54.106 Y90.891 E11.11216
G1 X63.139 Y81.859 E11.53581
G1 X63.515 Y81.859 E11.54828
G1 X54.482 Y90.891 E11.97193
G1 X54.858 Y90.891 E11.98440
G1 X63.891 Y81.859 E12.40805
G1 X64.267 Y81.859 E12.42052
G1 X55.234 Y90.891 E12.84417
G1 X55.610 Y90.891 E12.85664
G1 X64.643 Y81.859 E13.28029
G1 X65.019 Y81.859 E13.29276
G1 X55.986 Y90.891 E13.71641
G1 X56.362 Y90.891 E13.72888
G1 X65.395 Y81.859 E14.15253
G1 X65.771 Y81.859 E14.16500
G1 X56.738 Y90.891 E14.58865
G1 X57.114 Y90.891 E14.60112
G1 X66.147 Y81.859 E15.02477
G1 X66.523 Y81.859 E15.03724
G1 X57.490 Y90.891 E15.46089
G1 X57.866 Y90.891 E15.47336
G1 X66.899 Y81.859 E15.89701
G1 X67.275 Y81.859 E15.90949
G1 X58.242 Y90.891 E16.33314
G1 X58.618 Y90.891 E16.34561
G1 X67.651 Y81.859 E16.76926
G1 X68.027 Y81.859 E16.78173
G1 X59.001 Y90.885 E17.20507
G1 X59.454 Y90.808 E17.22031
G1 X68.403 Y81.859 E17.64005
G1 X68.780 Y81.859 E17.65252
G1 X59.907 Y90.731 E18.06864
G1 X60.360 Y90.654 E18.08388
G1 X69.156 Y81.859 E18.49638
G1 X69.532 Y81.859 E18.50885
G1 X60.813 Y90.577 E18.91775
G1 X61.266 Y90.500 E18.93299
G1 X69.908 Y81.859 E19.33827
G1 X70.284 Y81.859 E19.35074
G1 X61.719 Y90.423 E19.75241
G1 X62.172 Y90.346 E19.76765
G1 X88.435 Y64.083 E20.99939
G1 X88.756 Y64.138 E21.01020
G1 X62.626 Y90.269 E22.23575
G1 X63.079 Y90.192 E22.25100
G1 X89.078 Y64.192 E23.47038
G1 X89.399 Y64.247 E23.48119
G1 X63.532 Y90.115 E24.69439
G1 X63.985 Y90.038 E24.70963
G1 X89.721 Y64.302 E25.91666
G1 X90.042 Y64.356 E25.92747
G1 X64.438 Y89.961 E27.12832
G1 X64.891 Y89.884 E27.14356
G1 X90.363 Y64.411 E28.33824
G1 X90.685 Y64.466 E28.34905
G1 X65.344 Y89.807 E29.53755
G1 X65.797 Y89.730 E29.55279
G1 X91.006 Y64.520 E30.73511
G1 X91.327 Y64.575 E30.74592
G1 X66.250 Y89.653 E31.92206
G1 X66.703 Y89.575 E31.93731
G1 X91.649 Y64.630 E33.10727
G1 X91.970 Y64.684 E33.11808
G1 X67.156 Y89.498 E34.28187
G1 X67.609 Y89.421 E34.29712
G1 X92.291 Y64.739 E35.45473
G1 X92.613 Y64.794 E35.46554
G1 X68.062 Y89.344 E36.61698
G1 X68.515 Y89.267 E36.63222
G1 X92.934 Y64.849 E37.77748
G1 X93.256 Y64.903 E37.78829
G1 X68.968 Y89.190 E38.92737
G1 X69.421 Y89.113 E38.94261
G1 X93.577 Y64.958 E40.07552
G1 X93.898 Y65.013 E40.08633
G1 X69.874 Y89.036 E41.21306
G1 X70.328 Y88.959 E41.22830
G1 X94.220 Y65.067 E42.34886
G1 X94.541 Y65.122 E42.35967
G1 X70.781 Y88.882 E43.47404
G1 X71.234 Y88.805 E43.48929
G1 X94.862 Y65.177 E44.59749
G1 X95.184 Y65.231 E44.60830
G1 X71.687 Y88.728 E45.71032
G1 X72.140 Y88.651 E45.72556
G1 X95.505 Y65.286 E46.82141
G1 X95.826 Y65.341 E46.83222
G1 X72.593 Y88.574 E47.92189
G1 X73.046 Y88.497 E47.93713
G1 X96.148 Y65.395 E49.02062
G1 X96.469 Y65.450 E49.03143
G1 X73.499 Y88.420 E50.10875
G1 X73.952 Y88.343 E50.12399
G1 X96.790 Y65.505 E51.19513
G1 X97.112 Y65.559 E51.20594
G1 X74.405 Y88.266 E52.27090
G1 X74.858 Y88.189 E52.28614
G1 X97.433 Y65.614 E53.34493
G1 X97.755 Y65.669 E53.35574
G1 X75.311 Y88.112 E54.40835
G1 X75.764 Y88.035 E54.42359
G1 X98.076 Y65.723 E55.47002
G1 X98.397 Y65.778 E55.48083
G1 X76.217 Y87.958 E56.52109
G1 X76.670 Y87.881 E56.53633
G1 X98.719 Y65.833 E57.57041
G1 X99.039 Y65.888 E57.58120
G1 X77.123 Y87.804 E58.60907
G1 X77.576 Y87.727 E58.62431
G1 X99.359 Y65.944 E59.64592
G1 X99.679 Y66.001 E59.65669
G1 X78.030 Y87.650 E60.67205
G1 X78.483 Y87.573 E60.68729
G1 X99.999 Y66.057 E61.69641
G1 X100.318 Y66.113 E61.70718
G1 X78.936 Y87.496 E62.71004
G1 X79.389 Y87.419 E62.72528
G1 X100.638 Y66.169 E63.72189
G1 X100.958 Y66.226 E63.73266
G1 X79.842 Y87.342 E64.72302
G1 X80.295 Y87.265 E64.73826
G1 X101.278 Y66.282 E65.72237
G1 X101.597 Y66.338 E65.73313
G1 X80.748 Y87.188 E66.71099
G1 X81.201 Y87.111 E66.72623
G1 X101.917 Y66.394 E67.69784
G1 X102.237 Y66.451 E67.70860
G1 X81.654 Y87.034 E68.67396
G1 X82.107 Y86.957 E68.68920
G1 X102.557 Y66.507 E69.64830
G1 X102.877 Y66.563 E69.65907
G1 X82.560 Y86.880 E70.61192
G1 X83.013 Y86.802 E70.62716
G1 X103.196 Y66.619 E71.57377
G1 X103.516 Y66.676 E71.58453
G1 X83.466 Y86.725 E72.52488
G1 X83.919 Y86.648 E72.54012
G1 X103.641 Y66.926 E73.46511
G1 X103.641 Y67.302 E73.47758
G1 X84.372 Y86.571 E74.38131
G1 X84.825 Y86.494 E74.39655
G1 X103.641 Y67.678 E75.27904
G1 X103.641 Y68.054 E75.29151
G1 X85.278 Y86.417 E76.15275
G1 X85.732 Y86.340 E76.16799
G1 X103.641 Y68.430 E77.00797
G1 X103.641 Y68.806 E77.02044
G1 X86.185 Y86.263 E77.83918
G1 X86.638 Y86.186 E77.85442
G1 X103.641 Y69.182 E78.65192
G1 X103.641 Y69.558 E78.66439
G1 X87.091 Y86.109 E79.44063
G1 X87.544 Y86.032 E79.45587
G1 X103.641 Y69.934 E80.21086
G1 X103.641 Y70.311 E80.22333
G1 X87.997 Y85.955 E80.95708
G1 X88.450 Y85.878 E80.97232
G1 X103.641 Y70.687 E81.68481
G1 X103.641 Y71.063 E81.69728
G1 X88.903 Y85.801 E82.38853
G1 X89.356 Y85.724 E82.40377
G1 X103.641 Y71.439 E83.07377
G1 X103.641 Y71.815 E83.08624
G1 X89.809 Y85.647 E83.73499
G1 X90.262 Y85.570 E83.75023
G1 X103.641 Y72.191 E84.37773
G1 X103.641 Y72.567 E84.39020
G1 X90.715 Y85.493 E84.99645
G1 X91.168 Y85.416 E85.01169
G1 X103.641 Y72.943 E85.59670
G1 X103.641 Y73.319 E85.60917
G1 X91.621 Y85.339 E86.17292
G1 X92.074 Y85.262 E86.18816
G1 X103.641 Y73.695 E86.73067
G1 X103.641 Y74.071 E86.74314
G1 X92.527 Y85.185 E87.26439
G1 X92.980 Y85.108 E87.27964
G1 X103.641 Y74.447 E87.77964
G1 X103.641 Y74.823 E87.79211
G1 X93.434 Y85.031 E88.27087
G1 X93.887 Y84.954 E88.28611
G1 X103.641 Y75.199 E88.74362
G1 X103.641 Y75.575 E88.75610
G1 X94.340 Y84.877 E89.19236
G1 X94.793 Y84.800 E89.20760
G1 X103.641 Y75.951 E89.62261
G1 X103.641 Y76.327 E89.63508
