; generated by Slic3r 1.3.1-dev (Build 2ef957d) on 2019-11-25 at 09:21:16

; external perimeters extrusion width = 0.55mm (4.37mm^3/s)
; perimeters extrusion width = 0.70mm (11.44mm^3/s)
; infill extrusion width = 0.62mm (13.45mm^3/s)
; solid infill extrusion width = 0.70mm (3.81mm^3/s)
; top infill extrusion width = 0.70mm (2.86mm^3/s)

M107
G92 E0
M104 S200 ; set temperature
G28 ; home all axes
G1 Z5 F5000 ; lift nozzle

; Filament gcode

M109 S200 ; set temperature and wait for it to be reached
G21 ; set units to millimeters
G90 ; use absolute coordinates
M82 ; use absolute distances for extrusion
G92 E0
G1 Z0.350 F7800.000
G1 E-2.00000 F2400.00000
G92 E0
G1 X66.468 Y105.174 F7800.000
G1 E2.00000 F2400.00000
G1 F1800.000
G1 X68.620 Y104.381 E2.07096
G1 X69.800 Y104.275 E2.10761
G1 X130.200 Y104.275 E3.97647
G1 X132.459 Y104.672 E4.04743
G1 X134.447 Y105.815 E4.11839
G1 X135.926 Y107.568 E4.18936
G1 X136.719 Y109.720 E4.26032
G1 X136.825 Y110.900 E4.29697
G1 X136.825 Y119.900 E4.57544
G1 X136.428 Y122.159 E4.64640
G1 X135.285 Y124.147 E4.71737
G1 X133.532 Y125.626 E4.78833
G1 X131.380 Y126.419 E4.85929
G1 X130.200 Y126.525 E4.89594
G1 X69.800 Y126.525 E6.76480
G1 X67.541 Y126.128 E6.83576
G1 X65.553 Y124.985 E6.90672
G1 X64.074 Y123.232 E6.97768
G1 X63.281 Y121.080 E7.04865
G1 X63.175 Y119.900 E7.08530
G1 X63.175 Y110.900 E7.36377
G1 X63.572 Y108.641 E7.43473
G1 X64.715 Y106.653 E7.50569
G1 X66.411 Y105.222 E7.57434
G1 E5.57434 F2400.00000
G92 E0
G1 X111.375 Y117.875 F7800.000
G1 E2.00000 F2400.00000
G1 F1800.000
G1 X87.425 Y117.875 E2.74104
G1 X87.425 Y112.925 E2.89419
G1 X111.375 Y112.925 E3.63523
G1 X111.375 Y117.800 E3.78606
G1 X110.750 Y117.250 F7800.000
G1 F1800.000
G1 X88.050 Y117.250 E4.48843
G1 X88.050 Y113.550 E4.60291
G1 X110.750 Y113.550 E5.30528
G1 X110.750 Y117.175 E5.41744
G1 X110.976 Y117.696 F7800.000
G1 E3.41744 F2400.00000
G92 E0
G1 X86.800 Y118.300 F7800.000
G1 E2.00000 F2400.00000
G1 F1800.000
G1 X71.400 Y118.300 E2.47651
G1 X71.400 Y112.500 E2.65598
G1 X86.800 Y112.500 E3.13249
G1 X86.800 Y118.225 E3.30965
G1 E1.30965 F2400.00000
G92 E0
G1 X112.000 Y118.300 F7800.000
G1 E2.00000 F2400.00000
G1 F1800.000
G1 X112.000 Y112.500 E2.17947
G1 X128.600 Y112.500 E2.69311
G1 X128.600 Y118.300 E2.87259
G1 X112.075 Y118.300 E3.38391
G1 E1.38391 F2400.00000
G92 E0
G1 X129.225 Y118.925 F7800.000
G1 E2.00000 F2400.00000
G1 F1800.000
G1 X70.775 Y118.925 E3.80853
G1 X70.775 Y111.875 E4.02667
G1 X129.225 Y111.875 E5.83520
G1 X129.225 Y118.850 E6.05102
G1 X129.850 Y119.550 F7800.000
G1 F1800.000
G1 X70.150 Y119.550 E7.89822
G1 X70.150 Y111.250 E8.15503
G1 X129.850 Y111.250 E10.00223
G1 X129.850 Y119.475 E10.25672
G1 X129.351 Y119.527 F7800.000
G1 E8.25672 F2400.00000
G92 E0
G1 X127.732 Y117.918 F7800.000
G1 E2.00000 F2400.00000
G1 F1800.000
G1 X128.218 Y117.432 E2.02178
G1 X128.218 Y116.528 E2.05043
G1 X126.828 Y117.918 E2.11272
G1 X125.923 Y117.918 E2.14137
G1 X128.218 Y115.623 E2.24418
G1 X128.218 Y114.718 E2.27284
G1 X125.018 Y117.918 E2.41617
G1 X124.114 Y117.918 E2.44482
G1 X128.218 Y113.814 E2.62866
G1 X128.218 Y112.909 E2.65731
G1 X123.209 Y117.918 E2.88168
G1 X122.305 Y117.918 E2.91033
G1 X127.341 Y112.882 E3.13593
G1 X126.437 Y112.882 E3.16458
G1 X121.400 Y117.918 E3.39018
G1 X120.495 Y117.918 E3.41883
G1 X125.532 Y112.882 E3.64443
G1 X124.628 Y112.882 E3.67308
G1 X119.591 Y117.918 E3.89869
G1 X118.686 Y117.918 E3.92734
G1 X123.723 Y112.882 E4.15294
G1 X122.818 Y112.882 E4.18159
G1 X117.782 Y117.918 E4.40719
G1 X116.877 Y117.918 E4.43584
G1 X121.914 Y112.882 E4.66144
G1 X121.009 Y112.882 E4.69009
G1 X115.972 Y117.918 E4.91569
G1 X115.068 Y117.918 E4.94434
G1 X120.105 Y112.882 E5.16994
G1 X119.200 Y112.882 E5.19859
G1 X114.163 Y117.918 E5.42420
G1 X113.259 Y117.918 E5.45285
G1 X118.295 Y112.882 E5.67845
G1 X117.391 Y112.882 E5.70710
G1 X112.382 Y117.891 E5.93146
G1 X112.382 Y116.986 E5.96011
G1 X116.486 Y112.882 E6.14396
G1 X115.582 Y112.882 E6.17261
G1 X112.382 Y116.082 E6.31595
G1 X112.382 Y115.177 E6.34460
G1 X114.677 Y112.882 E6.44741
G1 X113.772 Y112.882 E6.47606
G1 X112.382 Y114.272 E6.53836
G1 X112.382 Y113.368 E6.56701
G1 X112.868 Y112.882 E6.58878
G1 X111.687 Y112.400 F7800.000
G1 F1800.000
G1 X87.113 Y112.400 E7.01494
G1 E5.01494 F2400.00000
G92 E0
G1 X85.932 Y117.918 F7800.000
G1 E2.00000 F2400.00000
G1 F1800.000
G1 X86.418 Y117.432 E2.02144
G1 X86.418 Y116.542 E2.04920
G1 X85.042 Y117.918 E2.10991
G1 X84.151 Y117.918 E2.13768
G1 X86.418 Y115.651 E2.23765
G1 X86.418 Y114.761 E2.26542
G1 X83.261 Y117.918 E2.40466
G1 X82.370 Y117.918 E2.43242
G1 X86.418 Y113.870 E2.61093
G1 X86.418 Y112.980 E2.63870
G1 X81.480 Y117.918 E2.85647
G1 X80.589 Y117.918 E2.88424
G1 X85.626 Y112.882 E3.10633
G1 X84.735 Y112.882 E3.13410
G1 X79.698 Y117.918 E3.35619
G1 X78.808 Y117.918 E3.38396
G1 X83.845 Y112.882 E3.60605
G1 X82.954 Y112.882 E3.63382
G1 X77.917 Y117.918 E3.85591
G1 X77.027 Y117.918 E3.88367
G1 X82.064 Y112.882 E4.10577
G1 X81.173 Y112.882 E4.13353
G1 X76.136 Y117.918 E4.35563
G1 X75.246 Y117.918 E4.38339
G1 X80.283 Y112.882 E4.60549
G1 X79.392 Y112.882 E4.63325
G1 X74.355 Y117.918 E4.85535
G1 X73.465 Y117.918 E4.88311
G1 X78.502 Y112.882 E5.10520
G1 X77.611 Y112.882 E5.13297
G1 X72.574 Y117.918 E5.35506
G1 X71.782 Y117.918 E5.37978
G1 X71.782 Y117.820 E5.38283
G1 X76.720 Y112.882 E5.60061
G1 X75.830 Y112.882 E5.62837
G1 X71.782 Y116.930 E5.80688
G1 X71.782 Y116.039 E5.83465
G1 X74.939 Y112.882 E5.97389
G1 X74.049 Y112.882 E6.00166
G1 X71.782 Y115.149 E6.10163
G1 X71.782 Y114.258 E6.12940
G1 X73.158 Y112.882 E6.19010
G1 X72.268 Y112.882 E6.21787
G1 X71.782 Y113.368 E6.23930
G1 E4.23930 F2400.00000
G92 E0
G1 X87.113 Y118.400 F7800.000
G1 E2.00000 F2400.00000
G1 F1800.000
G1 X111.687 Y118.400 E2.42616
G1 Z0.650 F7800.000
G1 X111.236 Y117.736 F7800.000
G1 F3600.000
G1 X87.564 Y117.736 E3.06473
G1 X87.564 Y113.064 E3.19074
G1 X111.236 Y113.064 E3.82931
G1 X111.236 Y117.661 E3.95330
G1 X110.675 Y117.175 F7800.000
G1 F1800.000
G1 X88.125 Y117.175 E4.41806
G1 X88.125 Y113.625 E4.49123
G1 X110.675 Y113.625 E4.95599
G1 X110.675 Y117.100 E5.02761
G1 X110.902 Y117.620 F7800.000
G1 X86.929 Y118.429 F7800.000
G1 F3600.000
G1 X71.271 Y118.429 E5.45000
G1 X71.271 Y112.371 E5.61341
G1 X86.929 Y112.371 E6.03579
G1 X86.929 Y118.354 E6.19718
G1 X111.871 Y118.429 F7800.000
G1 F3600.000
G1 X111.871 Y112.371 E6.36059
G1 X128.729 Y112.371 E6.81535
G1 X128.729 Y118.429 E6.97876
G1 X111.946 Y118.429 E7.43150
G1 X129.364 Y119.064 F7800.000
G1 F3600.000
G1 X70.636 Y119.064 E9.01579
G1 X70.636 Y111.736 E9.21350
G1 X129.364 Y111.736 E10.79780
G1 X129.364 Y118.989 E10.99348
G1 X129.925 Y119.625 F7800.000
G1 F1800.000
G1 X70.075 Y119.625 E12.22701
G1 X70.075 Y111.175 E12.40116
G1 X129.925 Y111.175 E13.63469
G1 X129.925 Y119.550 E13.80730
G1 X129.426 Y119.602 F7800.000
G1 X128.340 Y113.254 F7800.000
G1 F1200.000
G1 X127.846 Y112.760 E13.82674
G1 X126.920 Y112.760 E13.85247
G1 X128.340 Y114.180 E13.90830
G1 X128.340 Y115.106 E13.93404
G1 X125.994 Y112.760 E14.02626
G1 X125.068 Y112.760 E14.05199
G1 X128.340 Y116.032 E14.18061
G1 X128.340 Y116.958 E14.20635
G1 X124.142 Y112.760 E14.37136
G1 X123.216 Y112.760 E14.39709
G1 X128.340 Y117.884 E14.59849
G1 X128.340 Y118.040 E14.60283
G1 X127.570 Y118.040 E14.62423
G1 X122.290 Y112.760 E14.83177
G1 X121.364 Y112.760 E14.85750
G1 X126.644 Y118.040 E15.06504
G1 X125.718 Y118.040 E15.09078
G1 X120.438 Y112.760 E15.29832
G1 X119.512 Y112.760 E15.32405
G1 X124.792 Y118.040 E15.53159
G1 X123.866 Y118.040 E15.55732
G1 X118.586 Y112.760 E15.76486
G1 X117.660 Y112.760 E15.79060
G1 X122.940 Y118.040 E15.99814
G1 X122.014 Y118.040 E16.02387
G1 X116.734 Y112.760 E16.23141
G1 X115.808 Y112.760 E16.25714
G1 X121.088 Y118.040 E16.46468
G1 X120.162 Y118.040 E16.49042
G1 X114.882 Y112.760 E16.69796
G1 X113.956 Y112.760 E16.72369
G1 X119.236 Y118.040 E16.93123
G1 X118.310 Y118.040 E16.95697
G1 X113.030 Y112.760 E17.16451
G1 X112.260 Y112.760 E17.18590
G1 X112.260 Y112.916 E17.19024
G1 X117.384 Y118.040 E17.39164
G1 X116.458 Y118.040 E17.41738
G1 X112.260 Y113.842 E17.58239
G1 X112.260 Y114.768 E17.60812
G1 X115.532 Y118.040 E17.73674
G1 X114.606 Y118.040 E17.76248
G1 X112.260 Y115.694 E17.85470
G1 X112.260 Y116.620 E17.88044
G1 X113.680 Y118.040 E17.93627
G1 X112.754 Y118.040 E17.96200
G1 X112.260 Y117.546 E17.98144
G1 X111.553 Y118.400 F7800.000
G1 F1200.000
G1 X87.247 Y118.400 E18.63008
G1 X86.540 Y113.254 F7800.000
G1 F1200.000
G1 X86.046 Y112.760 E18.64924
G1 X85.133 Y112.760 E18.67426
G1 X86.540 Y114.167 E18.72879
G1 X86.540 Y115.080 E18.75381
G1 X84.220 Y112.760 E18.84372
G1 X83.307 Y112.760 E18.86873
G1 X86.540 Y115.993 E18.99402
G1 X86.540 Y116.906 E19.01904
G1 X82.394 Y112.760 E19.17970
G1 X81.481 Y112.760 E19.20471
G1 X86.540 Y117.819 E19.40075
G1 X86.540 Y118.040 E19.40682
G1 X85.849 Y118.040 E19.42577
G1 X80.568 Y112.760 E19.63038
G1 X79.655 Y112.760 E19.65540
G1 X84.936 Y118.040 E19.86001
G1 X84.023 Y118.040 E19.88503
G1 X78.742 Y112.760 E20.08964
G1 X77.829 Y112.760 E20.11466
G1 X83.110 Y118.040 E20.31927
G1 X82.197 Y118.040 E20.34429
G1 X76.916 Y112.760 E20.54890
G1 X76.003 Y112.760 E20.57392
G1 X81.284 Y118.040 E20.77853
G1 X80.371 Y118.040 E20.80355
G1 X75.090 Y112.760 E21.00816
G1 X74.177 Y112.760 E21.03318
G1 X79.458 Y118.040 E21.23779
G1 X78.545 Y118.040 E21.26281
G1 X73.264 Y112.760 E21.46742
G1 X72.351 Y112.760 E21.49244
G1 X77.632 Y118.040 E21.69705
G1 X76.719 Y118.040 E21.72207
G1 X71.660 Y112.981 E21.91811
G1 X71.660 Y113.894 E21.94312
G1 X75.806 Y118.040 E22.10378
G1 X74.893 Y118.040 E22.12880
G1 X71.660 Y114.807 E22.25409
G1 X71.660 Y115.720 E22.27910
G1 X73.980 Y118.040 E22.36901
G1 X73.067 Y118.040 E22.39403
G1 X71.660 Y116.633 E22.44857
G1 X71.660 Y117.546 E22.47358
G1 X72.154 Y118.040 E22.49274
G1 X87.247 Y112.400 F7800.000
G1 F1200.000
G1 X111.553 Y112.400 E23.14138
G1 Z0.950 F7800.000
G1 X111.236 Y117.736 F7800.000
G1 F3600.000
G1 X87.564 Y117.736 E23.77995
G1 X87.564 Y113.064 E23.90596
G1 X111.236 Y113.064 E24.54453
G1 X111.236 Y117.661 E24.66852
G1 X110.675 Y117.175 F7800.000
G1 F1800.000
G1 X88.125 Y117.175 E25.13328
G1 X88.125 Y113.625 E25.20645
G1 X110.675 Y113.625 E25.67121
G1 X110.675 Y117.100 E25.74283
G1 X110.902 Y117.620 F7800.000
G1 X86.929 Y118.429 F7800.000
G1 F3600.000
G1 X71.271 Y118.429 E26.16522
G1 X71.271 Y112.371 E26.32863
G1 X86.929 Y112.371 E26.75101
G1 X86.929 Y118.354 E26.91240
G1 X111.871 Y118.429 F7800.000
G1 F3600.000
G1 X111.871 Y112.371 E27.07581
G1 X128.729 Y112.371 E27.53057
G1 X128.729 Y118.429 E27.69398
G1 X111.946 Y118.429 E28.14672
G1 X129.364 Y119.064 F7800.000
G1 F3600.000
G1 X70.636 Y119.064 E29.73101
G1 X70.636 Y111.736 E29.92872
G1 X129.364 Y111.736 E31.51302
G1 X129.364 Y118.989 E31.70870
G1 X129.925 Y119.625 F7800.000
G1 F1800.000
G1 X70.075 Y119.625 E32.94223
G1 X70.075 Y111.175 E33.11638
G1 X129.925 Y111.175 E34.34991
G1 X129.925 Y119.550 E34.52252
G1 X129.426 Y119.602 F7800.000
G1 X127.846 Y118.040 F7800.000
G1 F1200.000
G1 X128.340 Y117.546 E34.54196
G1 X128.340 Y116.620 E34.56769
G1 X126.920 Y118.040 E34.62352
G1 X125.994 Y118.040 E34.64926
G1 X128.340 Y115.694 E34.74148
G1 X128.340 Y114.768 E34.76721
G1 X125.068 Y118.040 E34.89583
G1 X124.142 Y118.040 E34.92157
G1 X128.340 Y113.842 E35.08658
G1 X128.340 Y112.916 E35.11231
G1 X123.216 Y118.040 E35.31371
G1 X122.290 Y118.040 E35.33945
G1 X127.570 Y112.760 E35.54699
G1 X126.644 Y112.760 E35.57272
G1 X121.364 Y118.040 E35.78026
G1 X120.438 Y118.040 E35.80600
G1 X125.718 Y112.760 E36.01354
G1 X124.792 Y112.760 E36.03927
G1 X119.512 Y118.040 E36.24681
G1 X118.586 Y118.040 E36.27254
G1 X123.866 Y112.760 E36.48008
G1 X122.940 Y112.760 E36.50582
G1 X117.660 Y118.040 E36.71336
G1 X116.734 Y118.040 E36.73909
G1 X122.014 Y112.760 E36.94663
G1 X121.088 Y112.760 E36.97236
G1 X115.808 Y118.040 E37.17990
G1 X114.882 Y118.040 E37.20564
G1 X120.162 Y112.760 E37.41318
G1 X119.236 Y112.760 E37.43891
G1 X113.956 Y118.040 E37.64645
G1 X113.030 Y118.040 E37.67219
G1 X118.310 Y112.760 E37.87972
G1 X117.384 Y112.760 E37.90546
G1 X112.260 Y117.884 E38.10686
G1 X112.260 Y116.958 E38.13260
G1 X116.458 Y112.760 E38.29761
G1 X115.532 Y112.760 E38.32334
G1 X112.260 Y116.032 E38.45196
G1 X112.260 Y115.106 E38.47770
G1 X114.606 Y112.760 E38.56992
G1 X113.680 Y112.760 E38.59565
G1 X112.260 Y114.180 E38.65148
G1 X112.260 Y113.254 E38.67722
G1 X112.754 Y112.760 E38.69666
G1 X111.553 Y112.400 F7800.000
G1 F1200.000
G1 X87.247 Y112.400 E39.34530
G1 X86.046 Y118.040 F7800.000
G1 F1200.000
G1 X86.540 Y117.546 E39.36446
G1 X86.540 Y116.633 E39.38947
G1 X85.133 Y118.040 E39.44401
G1 X84.220 Y118.040 E39.46903
G1 X86.540 Y115.720 E39.55894
G1 X86.540 Y114.807 E39.58395
G1 X83.307 Y118.040 E39.70924
G1 X82.394 Y118.040 E39.73426
G1 X86.540 Y113.894 E39.89492
G1 X86.540 Y112.981 E39.91993
G1 X81.481 Y118.040 E40.11597
G1 X80.568 Y118.040 E40.14099
G1 X85.849 Y112.760 E40.34560
G1 X84.936 Y112.760 E40.37062
G1 X79.655 Y118.040 E40.57523
G1 X78.742 Y118.040 E40.60025
G1 X84.023 Y112.760 E40.80486
G1 X83.110 Y112.760 E40.82988
G1 X77.829 Y118.040 E41.03449
G1 X76.916 Y118.040 E41.05951
G1 X82.197 Y112.760 E41.26412
G1 X81.284 Y112.760 E41.28914
G1 X76.003 Y118.040 E41.49375
G1 X75.090 Y118.040 E41.51876
G1 X80.371 Y112.760 E41.72338
G1 X79.458 Y112.760 E41.74839
G1 X74.177 Y118.040 E41.95301
G1 X73.264 Y118.040 E41.97802
G1 X78.545 Y112.760 E42.18264
G1 X77.632 Y112.760 E42.20765
G1 X72.351 Y118.040 E42.41227
G1 X71.660 Y118.040 E42.43122
G1 X71.660 Y117.819 E42.43728
G1 X76.719 Y112.760 E42.63332
G1 X75.806 Y112.760 E42.65834
G1 X71.660 Y116.906 E42.81900
G1 X71.660 Y115.993 E42.84402
G1 X74.893 Y112.760 E42.96930
G1 X73.980 Y112.760 E42.99432
G1 X71.660 Y115.080 E43.08423
G1 X71.660 Y114.167 E43.10925
G1 X73.067 Y112.760 E43.16378
G1 X72.154 Y112.760 E43.18880
G1 X71.660 Y113.254 E43.20795
G1 X87.247 Y118.400 F7800.000
G1 F1200.000
G1 X111.553 Y118.400 E43.85660
M106 S224.4
G1 Z1.250 F7800.000
G1 X111.236 Y117.736 F7800.000
G1 F3600.000
G1 X87.564 Y117.736 E44.49516
G1 X87.564 Y113.064 E44.62118
G1 X111.236 Y113.064 E45.25975
G1 X111.236 Y117.661 E45.38374
G1 X110.675 Y117.175 F7800.000
G1 F1800.000
G1 X88.125 Y117.175 E45.84850
G1 X88.125 Y113.625 E45.92167
G1 X110.675 Y113.625 E46.38643
G1 X110.675 Y117.100 E46.45805
G1 X110.902 Y117.620 F7800.000
G1 X86.929 Y118.429 F7800.000
G1 F3600.000
G1 X71.271 Y118.429 E46.88044
G1 X71.271 Y112.371 E47.04385
G1 X86.929 Y112.371 E47.46623
G1 X86.929 Y118.354 E47.62762
G1 X111.871 Y118.429 F7800.000
G1 F3600.000
G1 X111.871 Y112.371 E47.79103
G1 X128.729 Y112.371 E48.24579
G1 X128.729 Y118.429 E48.40920
G1 X111.946 Y118.429 E48.86193
G1 X129.364 Y119.064 F7800.000
G1 F3600.000
G1 X70.636 Y119.064 E50.44623
G1 X70.636 Y111.736 E50.64394
G1 X129.364 Y111.736 E52.22823
G1 X129.364 Y118.989 E52.42392
G1 X129.925 Y119.625 F7800.000
G1 F1800.000
G1 X70.075 Y119.625 E53.65744
G1 X70.075 Y111.175 E53.83160
G1 X129.925 Y111.175 E55.06513
G1 X129.925 Y119.550 E55.23774
G1 X129.426 Y119.602 F7800.000
G1 X128.363 Y116.471 F7800.000
G1 F4800.000
G1 X124.629 Y112.737 E55.36339
G1 X112.737 Y112.737 E55.64635
G1 X118.063 Y118.063 E55.82558
G1 X112.702 Y118.063 E55.95315
G1 X112.702 Y113.202 E56.06881
G1 X113.202 Y113.202 E56.08071
G1 X114.022 Y112.652 F7800.000
G1 F4800.000
G1 X112.549 Y118.148 E56.21611
G1 X114.365 Y117.916 F7800.000
G1 F4800.000
G1 X128.448 Y114.142 E56.56303
G1 X122.728 Y112.652 F7800.000
G1 F4800.000
G1 X121.255 Y118.148 E56.69843
G1 X111.553 Y112.400 F7800.000
G1 F1200.000
G1 X87.247 Y112.400 E57.34707
G1 X86.648 Y116.636 F7800.000
G1 F4800.000
G1 X81.874 Y117.916 E57.46469
G1 X81.920 Y117.598 F7800.000
G1 F4800.000
G1 X86.098 Y117.598 E57.56408
G1 X86.098 Y112.737 E57.67975
G1 X77.059 Y112.737 E57.89482
G1 X82.386 Y118.063 E58.07405
G1 X77.725 Y118.148 F7800.000
G1 F4800.000
G1 X79.198 Y112.652 E58.20945
G1 X87.247 Y118.400 F7800.000
G1 F1200.000
G1 X111.553 Y118.400 E58.85809
G1 Z1.550 F7800.000
G1 X111.236 Y117.736 F7800.000
G1 F3600.000
G1 X87.564 Y117.736 E59.49666
G1 X87.564 Y113.064 E59.62268
G1 X111.236 Y113.064 E60.26124
