; generated by Slic3r 1.3.1-dev (Build 2ef957d) on 2019-11-25 at 09:21:27

; external perimeters extrusion width = 0.55mm (4.37mm^3/s)
; perimeters extrusion width = 0.70mm (11.44mm^3/s)
; infill extrusion width = 0.62mm (13.45mm^3/s)
; solid infill extrusion width = 0.70mm (3.81mm^3/s)
; top infill extrusion width = 0.70mm (2.86mm^3/s)

M107
G92 E0
M104 S200 ; set temperature
G28 ; home all axes
G1 Z5 F5000 ; lift nozzle

; Filament gcode

M109 S200 ; set temperature and wait for it to be reached
G21 ; set units to millimeters
G90 ; use absolute coordinates
M82 ; use absolute distances for extrusion
G92 E0
G1 Z0.350 F7800.000
G1 E-2.00000 F2400.00000
G92 E0
G1 X-158.326 Y69.546 F7800.000
G1 E2.00000 F2400.00000
G1 F1800.000
G1 X400.000 Y69.546 E19.27534
G1 X402.259 Y69.943 E19.34630
G1 X404.247 Y71.086 E19.41726
G1 X405.726 Y72.839 E19.48822
G1 X406.519 Y74.991 E19.55919
G1 X406.625 Y76.171 E19.59584
G1 X406.625 Y123.829 E21.07044
G1 X406.228 Y126.088 E21.14140
G1 X405.085 Y128.076 E21.21236
G1 X403.332 Y129.555 E21.28333
G1 X401.180 Y130.348 E21.35429
G1 X400.000 Y130.454 E21.39094
G1 X-200.000 Y130.454 E39.95573
G1 X-202.259 Y130.057 E40.02669
G1 X-204.247 Y128.914 E40.09765
G1 X-205.726 Y127.161 E40.16861
G1 X-206.519 Y125.009 E40.23958
G1 X-206.625 Y123.829 E40.27623
G1 X-206.625 Y76.171 E41.75083
G1 X-206.228 Y73.912 E41.82179
G1 X-205.085 Y71.924 E41.89275
G1 X-203.332 Y70.445 E41.96372
G1 X-201.180 Y69.652 E42.03468
G1 X-200.000 Y69.546 E42.07133
G1 X-158.401 Y69.546 E43.35846
G1 E41.35846 F2400.00000
G92 E0
G1 X-199.025 Y122.854 F7800.000
G1 E2.00000 F2400.00000
G1 F1800.000
G1 X-199.025 Y122.146 E2.02191
G1 X-163.081 Y122.146 E3.13407
G1 X-163.137 Y122.500 E3.14516
G1 X-163.081 Y122.854 E3.15626
G1 X-198.950 Y122.854 E4.26610
G1 X-199.650 Y123.479 F7800.000
G1 F1800.000
G1 X-199.650 Y121.521 E4.32668
G1 X-162.349 Y121.521 E5.48081
G1 X-162.504 Y122.500 E5.51148
G1 X-162.349 Y123.479 E5.54215
G1 X-199.575 Y123.479 E6.69396
G1 X-199.404 Y123.044 F7800.000
G1 E4.69396 F2400.00000
G92 E0
G1 X-199.025 Y77.854 F7800.000
G1 E2.00000 F2400.00000
G1 F1800.000
G1 X-199.025 Y77.146 E2.02191
G1 X-163.081 Y77.146 E3.13407
G1 X-163.137 Y77.500 E3.14517
G1 X-163.081 Y77.854 E3.15626
G1 X-198.950 Y77.854 E4.26610
G1 X-199.650 Y78.479 F7800.000
G1 F1800.000
G1 X-199.650 Y76.521 E4.32668
G1 X-162.349 Y76.521 E5.48081
G1 X-162.504 Y77.500 E5.51148
G1 X-162.349 Y78.479 E5.54215
G1 X-199.575 Y78.479 E6.69396
G1 X-199.404 Y78.044 F7800.000
G1 E4.69396 F2400.00000
G92 E0
G1 X-156.919 Y77.854 F7800.000
G1 E2.00000 F2400.00000
G1 F1800.000
G1 X-156.863 Y77.500 E2.01109
G1 X-156.919 Y77.146 E2.02219
G1 X-112.531 Y77.146 E3.39561
G1 X-112.587 Y77.500 E3.40670
G1 X-112.531 Y77.854 E3.41780
G1 X-156.844 Y77.854 E4.78890
G1 X-157.651 Y78.479 F7800.000
G1 F1800.000
G1 X-157.496 Y77.500 E4.81957
G1 X-157.651 Y76.521 E4.85024
G1 X-111.668 Y76.521 E6.27301
G1 X-111.859 Y76.896 E6.28604
G1 X-111.954 Y77.500 E6.30496
G1 X-111.859 Y78.104 E6.32387
G1 X-111.668 Y78.479 E6.33690
G1 X-157.576 Y78.479 E7.75735
G1 X-157.358 Y78.074 F7800.000
G1 E5.75735 F2400.00000
G92 E0
G1 X-107.469 Y77.854 F7800.000
G1 E2.00000 F2400.00000
G1 F1800.000
G1 X-107.413 Y77.500 E2.01109
G1 X-107.469 Y77.146 E2.02218
G1 X-72.531 Y77.146 E3.10321
G1 X-72.587 Y77.500 E3.11431
G1 X-72.531 Y77.854 E3.12540
G1 X-107.394 Y77.854 E4.20411
G1 X-108.332 Y78.479 F7800.000
G1 F1800.000
G1 X-108.141 Y78.104 E4.21713
G1 X-108.046 Y77.500 E4.23605
G1 X-108.141 Y76.896 E4.25497
G1 X-108.332 Y76.521 E4.26799
G1 X-71.668 Y76.521 E5.40245
G1 X-71.859 Y76.896 E5.41548
G1 X-71.954 Y77.500 E5.43439
G1 X-71.859 Y78.104 E5.45331
G1 X-71.668 Y78.479 E5.46634
G1 X-108.257 Y78.479 E6.59847
G1 X-108.021 Y78.196 F7800.000
G1 E4.59847 F2400.00000
G92 E0
G1 X-67.469 Y77.854 F7800.000
G1 E2.00000 F2400.00000
G1 F1800.000
G1 X-67.413 Y77.500 E2.01109
G1 X-67.469 Y77.146 E2.02218
G1 X-32.531 Y77.146 E3.10321
G1 X-32.587 Y77.500 E3.11431
G1 X-32.531 Y77.854 E3.12540
G1 X-67.394 Y77.854 E4.20411
G1 X-68.332 Y78.479 F7800.000
G1 F1800.000
G1 X-68.141 Y78.104 E4.21713
G1 X-68.046 Y77.500 E4.23605
G1 X-68.141 Y76.896 E4.25497
G1 X-68.332 Y76.521 E4.26799
G1 X-31.668 Y76.521 E5.40245
G1 X-31.859 Y76.896 E5.41548
G1 X-31.954 Y77.500 E5.43439
G1 X-31.859 Y78.104 E5.45331
G1 X-31.668 Y78.479 E5.46634
G1 X-68.257 Y78.479 E6.59847
G1 X-68.021 Y78.196 F7800.000
G1 E4.59847 F2400.00000
G92 E0
G1 X-27.469 Y77.854 F7800.000
G1 E2.00000 F2400.00000
G1 F1800.000
G1 X-27.413 Y77.500 E2.01109
G1 X-27.469 Y77.146 E2.02218
G1 X7.469 Y77.146 E3.10321
G1 X7.413 Y77.500 E3.11430
G1 X7.469 Y77.854 E3.12539
G1 X-27.394 Y77.854 E4.20410
G1 X-28.332 Y78.479 F7800.000
G1 F1800.000
G1 X-28.141 Y78.104 E4.21712
G1 X-28.046 Y77.500 E4.23604
G1 X-28.141 Y76.896 E4.25496
G1 X-28.332 Y76.521 E4.26799
G1 X8.332 Y76.521 E5.40242
G1 X8.141 Y76.896 E5.41545
G1 X8.046 Y77.500 E5.43436
G1 X8.141 Y78.104 E5.45328
G1 X8.333 Y78.479 E5.46631
G1 X-28.257 Y78.479 E6.59845
G1 X-28.021 Y78.196 F7800.000
G1 E4.59845 F2400.00000
G92 E0
G1 X12.531 Y77.854 F7800.000
G1 E2.00000 F2400.00000
G1 F1800.000
G1 X12.587 Y77.500 E2.01109
G1 X12.531 Y77.146 E2.02218
G1 X47.469 Y77.146 E3.10320
G1 X47.413 Y77.500 E3.11430
G1 X47.469 Y77.854 E3.12539
G1 X12.606 Y77.854 E4.20409
G1 X11.667 Y78.479 F7800.000
G1 F1800.000
G1 X11.859 Y78.104 E4.21712
G1 X11.954 Y77.500 E4.23604
G1 X11.859 Y76.896 E4.25496
G1 X11.667 Y76.521 E4.26799
G1 X48.332 Y76.521 E5.40243
G1 X48.141 Y76.896 E5.41546
G1 X48.046 Y77.500 E5.43437
G1 X48.141 Y78.104 E5.45329
G1 X48.333 Y78.479 E5.46632
G1 X11.742 Y78.479 E6.59846
G1 X11.980 Y78.196 F7800.000
G1 E4.59846 F2400.00000
G92 E0
G1 X52.531 Y77.854 F7800.000
G1 E2.00000 F2400.00000
G1 F1800.000
G1 X52.587 Y77.500 E2.01109
G1 X52.531 Y77.146 E2.02218
G1 X87.469 Y77.146 E3.10320
G1 X87.413 Y77.500 E3.11430
G1 X87.469 Y77.854 E3.12539
G1 X52.606 Y77.854 E4.20409
G1 X51.667 Y78.479 F7800.000
G1 F1800.000
G1 X51.859 Y78.104 E4.21712
G1 X51.954 Y77.500 E4.23604
G1 X51.859 Y76.896 E4.25496
G1 X51.667 Y76.521 E4.26799
G1 X88.332 Y76.521 E5.40243
G1 X88.141 Y76.896 E5.41546
G1 X88.046 Y77.500 E5.43437
G1 X88.141 Y78.104 E5.45329
G1 X88.333 Y78.479 E5.46632
G1 X51.742 Y78.479 E6.59846
G1 X51.980 Y78.196 F7800.000
G1 E4.59846 F2400.00000
G92 E0
G1 X92.531 Y77.854 F7800.000
G1 E2.00000 F2400.00000
G1 F1800.000
G1 X92.587 Y77.500 E2.01109
G1 X92.531 Y77.146 E2.02218
G1 X127.469 Y77.146 E3.10320
G1 X127.413 Y77.500 E3.11430
G1 X127.469 Y77.854 E3.12539
G1 X92.606 Y77.854 E4.20409
G1 X91.667 Y78.479 F7800.000
G1 F1800.000
G1 X91.859 Y78.104 E4.21712
G1 X91.954 Y77.500 E4.23604
G1 X91.859 Y76.896 E4.25496
G1 X91.667 Y76.521 E4.26799
G1 X128.332 Y76.521 E5.40243
G1 X128.141 Y76.896 E5.41546
G1 X128.046 Y77.500 E5.43437
G1 X128.141 Y78.104 E5.45329
G1 X128.333 Y78.479 E5.46631
G1 X91.742 Y78.479 E6.59846
G1 X91.980 Y78.196 F7800.000
G1 E4.59846 F2400.00000
G92 E0
G1 X132.531 Y77.854 F7800.000
G1 E2.00000 F2400.00000
G1 F1800.000
G1 X132.587 Y77.500 E2.01109
G1 X132.531 Y77.146 E2.02218
G1 X167.469 Y77.146 E3.10320
G1 X167.413 Y77.500 E3.11430
G1 X167.469 Y77.854 E3.12539
G1 X132.606 Y77.854 E4.20409
G1 X131.667 Y78.479 F7800.000
G1 F1800.000
G1 X131.859 Y78.104 E4.21712
G1 X131.954 Y77.500 E4.23604
G1 X131.859 Y76.896 E4.25496
G1 X131.667 Y76.521 E4.26799
G1 X168.332 Y76.521 E5.40243
G1 X168.141 Y76.896 E5.41546
G1 X168.046 Y77.500 E5.43437
G1 X168.141 Y78.104 E5.45329
G1 X168.333 Y78.479 E5.46632
G1 X131.742 Y78.479 E6.59846
G1 X131.980 Y78.196 F7800.000
G1 E4.59846 F2400.00000
G92 E0
G1 X172.531 Y77.854 F7800.000
G1 E2.00000 F2400.00000
G1 F1800.000
G1 X172.587 Y77.500 E2.01109
G1 X172.531 Y77.146 E2.02218
G1 X207.469 Y77.146 E3.10320
G1 X207.413 Y77.500 E3.11430
G1 X207.469 Y77.854 E3.12539
G1 X172.606 Y77.854 E4.20409
G1 X171.667 Y78.479 F7800.000
G1 F1800.000
G1 X171.859 Y78.104 E4.21712
G1 X171.954 Y77.500 E4.23604
G1 X171.859 Y76.896 E4.25496
G1 X171.667 Y76.521 E4.26799
G1 X208.332 Y76.521 E5.40243
G1 X208.141 Y76.896 E5.41546
G1 X208.046 Y77.500 E5.43437
G1 X208.141 Y78.104 E5.45329
G1 X208.333 Y78.479 E5.46632
G1 X171.742 Y78.479 E6.59846
G1 X171.980 Y78.196 F7800.000
G1 E4.59846 F2400.00000
G92 E0
G1 X212.531 Y77.854 F7800.000
G1 E2.00000 F2400.00000
G1 F1800.000
G1 X212.587 Y77.500 E2.01109
G1 X212.531 Y77.146 E2.02218
G1 X247.469 Y77.146 E3.10320
G1 X247.413 Y77.500 E3.11430
G1 X247.469 Y77.854 E3.12539
G1 X212.606 Y77.854 E4.20409
G1 X211.667 Y78.479 F7800.000
G1 F1800.000
G1 X211.859 Y78.104 E4.21712
G1 X211.954 Y77.500 E4.23604
G1 X211.859 Y76.896 E4.25496
G1 X211.667 Y76.521 E4.26799
G1 X248.332 Y76.521 E5.40243
G1 X248.141 Y76.896 E5.41546
G1 X248.046 Y77.500 E5.43437
G1 X248.141 Y78.104 E5.45329
G1 X248.333 Y78.479 E5.46632
G1 X211.742 Y78.479 E6.59846
G1 X211.980 Y78.196 F7800.000
G1 E4.59846 F2400.00000
G92 E0
G1 X252.531 Y77.854 F7800.000
G1 E2.00000 F2400.00000
G1 F1800.000
G1 X252.587 Y77.500 E2.01109
G1 X252.531 Y77.146 E2.02218
G1 X287.469 Y77.146 E3.10320
G1 X287.413 Y77.500 E3.11430
G1 X287.469 Y77.854 E3.12539
G1 X252.606 Y77.854 E4.20409
G1 X251.667 Y78.479 F7800.000
G1 F1800.000
G1 X251.859 Y78.104 E4.21712
G1 X251.954 Y77.500 E4.23604
G1 X251.859 Y76.896 E4.25496
G1 X251.667 Y76.521 E4.26799
G1 X288.332 Y76.521 E5.40243
G1 X288.141 Y76.896 E5.41546
G1 X288.046 Y77.500 E5.43437
G1 X288.141 Y78.104 E5.45329
G1 X288.333 Y78.479 E5.46632
G1 X251.742 Y78.479 E6.59846
G1 X251.980 Y78.196 F7800.000
G1 E4.59846 F2400.00000
G92 E0
G1 X292.531 Y77.854 F7800.000
G1 E2.00000 F2400.00000
G1 F1800.000
G1 X292.587 Y77.500 E2.01109
G1 X292.531 Y77.146 E2.02218
G1 X327.469 Y77.146 E3.10321
G1 X327.413 Y77.500 E3.11430
G1 X327.469 Y77.854 E3.12539
G1 X292.606 Y77.854 E4.20409
G1 X291.667 Y78.479 F7800.000
G1 F1800.000
G1 X291.859 Y78.104 E4.21712
G1 X291.954 Y77.500 E4.23604
G1 X291.859 Y76.896 E4.25496
G1 X291.667 Y76.521 E4.26799
G1 X328.332 Y76.521 E5.40243
G1 X328.141 Y76.896 E5.41546
G1 X328.046 Y77.500 E5.43437
G1 X328.141 Y78.104 E5.45328
G1 X328.333 Y78.479 E5.46631
G1 X291.742 Y78.479 E6.59846
G1 X291.980 Y78.196 F7800.000
G1 E4.59846 F2400.00000
G92 E0
G1 X332.531 Y77.854 F7800.000
G1 E2.00000 F2400.00000
G1 F1800.000
G1 X332.587 Y77.500 E2.01109
G1 X332.531 Y77.146 E2.02218
G1 X367.469 Y77.146 E3.10321
G1 X367.413 Y77.500 E3.11430
G1 X367.469 Y77.854 E3.12539
G1 X332.606 Y77.854 E4.20409
G1 X331.667 Y78.479 F7800.000
G1 F1800.000
G1 X331.859 Y78.104 E4.21712
G1 X331.954 Y77.500 E4.23604
G1 X331.859 Y76.896 E4.25496
G1 X331.667 Y76.521 E4.26799
G1 X368.332 Y76.521 E5.40243
G1 X368.141 Y76.896 E5.41545
G1 X368.046 Y77.500 E5.43436
G1 X368.141 Y78.104 E5.45328
G1 X368.333 Y78.479 E5.46631
G1 X331.742 Y78.479 E6.59846
G1 X331.980 Y78.196 F7800.000
G1 E4.59846 F2400.00000
G92 E0
G1 X372.531 Y77.854 F7800.000
G1 E2.00000 F2400.00000
G1 F1800.000
G1 X372.587 Y77.500 E2.01109
G1 X372.531 Y77.146 E2.02218
G1 X399.025 Y77.146 E2.84194
G1 X399.025 Y77.854 E2.86386
G1 X372.606 Y77.854 E3.68130
G1 X371.667 Y78.479 F7800.000
G1 F1800.000
G1 X371.859 Y78.104 E3.69432
G1 X371.954 Y77.500 E3.71324
G1 X371.859 Y76.896 E3.73216
G1 X371.667 Y76.521 E3.74519
G1 X399.650 Y76.521 E4.61101
G1 X399.650 Y78.479 E4.67159
G1 X371.742 Y78.479 E5.53509
G1 X371.974 Y78.190 F7800.000
G1 E3.53509 F2400.00000
G92 E0
G1 X372.531 Y122.146 F7800.000
G1 E2.00000 F2400.00000
G1 F1800.000
G1 X399.025 Y122.146 E2.81976
G1 X399.025 Y122.854 E2.84167
G1 X372.531 Y122.854 E3.66143
G1 X372.587 Y122.500 E3.67252
G1 X372.543 Y122.220 E3.68130
G1 X371.667 Y121.521 F7800.000
G1 F1800.000
G1 X399.650 Y121.521 E4.54711
G1 X399.650 Y123.479 E4.60770
G1 X371.667 Y123.479 E5.47351
G1 X371.859 Y123.104 E5.48654
G1 X371.954 Y122.500 E5.50546
G1 X371.859 Y121.896 E5.52438
G1 X371.702 Y121.588 E5.53509
G1 X372.122 Y121.729 F7800.000
G1 E3.53509 F2400.00000
G92 E0
G1 X367.469 Y122.146 F7800.000
G1 E2.00000 F2400.00000
G1 F1800.000
G1 X367.413 Y122.500 E2.01109
G1 X367.469 Y122.854 E2.02218
G1 X332.531 Y122.854 E3.10321
G1 X332.587 Y122.500 E3.11430
G1 X332.531 Y122.146 E3.12539
G1 X367.394 Y122.146 E4.20409
G1 X368.332 Y121.521 F7800.000
G1 F1800.000
G1 X368.141 Y121.896 E4.21712
G1 X368.046 Y122.500 E4.23603
G1 X368.141 Y123.104 E4.25495
G1 X368.333 Y123.479 E4.26797
G1 X331.667 Y123.479 E5.40244
G1 X331.859 Y123.104 E5.41547
G1 X331.954 Y122.500 E5.43439
G1 X331.859 Y121.896 E5.45331
G1 X331.667 Y121.521 E5.46634
G1 X368.257 Y121.521 E6.59846
G1 X368.020 Y121.804 F7800.000
G1 E4.59846 F2400.00000
G92 E0
G1 X327.469 Y122.146 F7800.000
G1 E2.00000 F2400.00000
G1 F1800.000
G1 X327.413 Y122.500 E2.01109
G1 X327.469 Y122.854 E2.02218
G1 X292.531 Y122.854 E3.10321
G1 X292.587 Y122.500 E3.11430
G1 X292.531 Y122.146 E3.12539
G1 X327.394 Y122.146 E4.20409
G1 X328.332 Y121.521 F7800.000
G1 F1800.000
G1 X328.141 Y121.896 E4.21712
G1 X328.046 Y122.500 E4.23603
G1 X328.141 Y123.104 E4.25495
G1 X328.333 Y123.479 E4.26797
G1 X291.667 Y123.479 E5.40244
G1 X291.859 Y123.104 E5.41547
G1 X291.954 Y122.500 E5.43439
G1 X291.859 Y121.896 E5.45331
G1 X291.667 Y121.521 E5.46634
G1 X328.257 Y121.521 E6.59846
G1 X328.020 Y121.804 F7800.000
G1 E4.59846 F2400.00000
G92 E0
G1 X287.469 Y122.146 F7800.000
G1 E2.00000 F2400.00000
G1 F1800.000
G1 X287.413 Y122.500 E2.01109
G1 X287.469 Y122.854 E2.02218
G1 X252.531 Y122.854 E3.10320
G1 X252.587 Y122.500 E3.11430
G1 X252.531 Y122.146 E3.12539
G1 X287.394 Y122.146 E4.20409
G1 X288.332 Y121.521 F7800.000
G1 F1800.000
G1 X288.141 Y121.896 E4.21712
G1 X288.046 Y122.500 E4.23603
G1 X288.141 Y123.104 E4.25495
G1 X288.333 Y123.479 E4.26798
G1 X251.667 Y123.479 E5.40244
G1 X251.859 Y123.104 E5.41547
G1 X251.954 Y122.500 E5.43439
G1 X251.859 Y121.896 E5.45331
G1 X251.667 Y121.521 E5.46634
G1 X288.257 Y121.521 E6.59846
G1 X288.020 Y121.804 F7800.000
G1 E4.59846 F2400.00000
G92 E0
G1 X247.469 Y122.146 F7800.000
G1 E2.00000 F2400.00000
G1 F1800.000
G1 X247.413 Y122.500 E2.01109
G1 X247.469 Y122.854 E2.02218
G1 X212.531 Y122.854 E3.10320
G1 X212.587 Y122.500 E3.11430
G1 X212.531 Y122.146 E3.12539
G1 X247.394 Y122.146 E4.20409
G1 X248.332 Y121.521 F7800.000
G1 F1800.000
G1 X248.141 Y121.896 E4.21712
G1 X248.046 Y122.500 E4.23603
G1 X248.141 Y123.104 E4.25495
G1 X248.333 Y123.479 E4.26798
G1 X211.667 Y123.479 E5.40244
G1 X211.859 Y123.104 E5.41547
G1 X211.954 Y122.500 E5.43439
G1 X211.859 Y121.896 E5.45331
G1 X211.667 Y121.521 E5.46634
G1 X248.257 Y121.521 E6.59846
G1 X248.020 Y121.804 F7800.000
G1 E4.59846 F2400.00000
G92 E0
G1 X207.469 Y122.146 F7800.000
G1 E2.00000 F2400.00000
G1 F1800.000
G1 X207.413 Y122.500 E2.01109
G1 X207.469 Y122.854 E2.02218
G1 X172.531 Y122.854 E3.10320
G1 X172.587 Y122.500 E3.11430
G1 X172.531 Y122.146 E3.12539
G1 X207.394 Y122.146 E4.20409
G1 X208.332 Y121.521 F7800.000
G1 F1800.000
G1 X208.141 Y121.896 E4.21712
G1 X208.046 Y122.500 E4.23603
G1 X208.141 Y123.104 E4.25495
G1 X208.333 Y123.479 E4.26798
G1 X171.667 Y123.479 E5.40244
G1 X171.859 Y123.104 E5.41547
G1 X171.954 Y122.500 E5.43439
G1 X171.859 Y121.896 E5.45331
G1 X171.667 Y121.521 E5.46634
G1 X208.257 Y121.521 E6.59846
G1 X208.020 Y121.804 F7800.000
G1 E4.59846 F2400.00000
G92 E0
G1 X167.469 Y122.146 F7800.000
G1 E2.00000 F2400.00000
G1 F1800.000
G1 X167.413 Y122.500 E2.01109
G1 X167.469 Y122.854 E2.02218
G1 X132.531 Y122.854 E3.10320
G1 X132.587 Y122.500 E3.11430
G1 X132.531 Y122.146 E3.12539
G1 X167.394 Y122.146 E4.20409
G1 X168.332 Y121.521 F7800.000
G1 F1800.000
G1 X168.141 Y121.896 E4.21712
G1 X168.046 Y122.500 E4.23603
G1 X168.141 Y123.104 E4.25495
G1 X168.333 Y123.479 E4.26798
G1 X131.667 Y123.479 E5.40244
G1 X131.859 Y123.104 E5.41547
G1 X131.954 Y122.500 E5.43439
G1 X131.859 Y121.896 E5.45331
G1 X131.667 Y121.521 E5.46634
G1 X168.257 Y121.521 E6.59846
G1 X168.020 Y121.804 F7800.000
G1 E4.59846 F2400.00000
G92 E0
G1 X127.469 Y122.146 F7800.000
G1 E2.00000 F2400.00000
G1 F1800.000
G1 X127.413 Y122.500 E2.01109
G1 X127.469 Y122.854 E2.02218
G1 X92.531 Y122.854 E3.10320
G1 X92.587 Y122.500 E3.11430
G1 X92.531 Y122.146 E3.12539
G1 X127.394 Y122.146 E4.20409
G1 X128.332 Y121.521 F7800.000
G1 F1800.000
G1 X128.141 Y121.896 E4.21712
G1 X128.046 Y122.500 E4.23603
