; generated by Slic3r 1.3.1-dev (Build adea0d9) on 2019-12-16 at 00:48:48

; external perimeters extrusion width = 0.44mm (2.86mm^3/s)
; perimeters extrusion width = 0.56mm (4.14mm^3/s)
; infill extrusion width = 0.50mm (3.66mm^3/s)
; solid infill extrusion width = 0.56mm (3.10mm^3/s)
; top infill extrusion width = 0.56mm (3.10mm^3/s)

M107
G92 E0
;D3D:START:START
T0
M104 S215 T0

G21
G90
M107
T0
G28
G29
M109 T0 S215 T0
G0 F3000
M107
T0
G92 E0
G0 X0 Y149 Z0.1 F3600
G1 Y49 E6.5 F1200
G0 Z1
G92 E0
; Filament gcode

G21 ; set units to millimeters
G90 ; use absolute coordinates
M82 ; use absolute distances for extrusion
G92 E0
G1 Z0.300 F7800.000
G1 E-2.00000 F2400.00000
G92 E0
G1 X93.141 Y73.650 F7800.000
G1 E2.00000 F2400.00000
G1 F1800.000
G1 X93.325 Y73.427 E2.00956
G1 X93.535 Y73.230 E2.01912
G1 X93.769 Y73.060 E2.02868
G1 X94.022 Y72.921 E2.03824
G1 X94.290 Y72.815 E2.04780
G1 X94.569 Y72.743 E2.05736
G1 X94.856 Y72.707 E2.06691
G1 X95.144 Y72.707 E2.07647
G1 X95.431 Y72.743 E2.08603
G1 X95.710 Y72.815 E2.09559
G1 X95.978 Y72.921 E2.10515
G1 X96.231 Y73.060 E2.11471
G1 X96.465 Y73.230 E2.12427
G1 X96.675 Y73.427 E2.13383
G1 X96.859 Y73.649 E2.14338
G1 X97.013 Y73.893 E2.15295
G1 X97.136 Y74.154 E2.16251
G1 X97.225 Y74.429 E2.17206
G1 X97.280 Y74.712 E2.18162
G1 X97.298 Y75.000 E2.19118
G1 X97.280 Y75.288 E2.20074
G1 X97.225 Y75.571 E2.21030
G1 X97.136 Y75.846 E2.21986
G1 X97.013 Y76.107 E2.22942
G1 X96.859 Y76.351 E2.23898
G1 X96.675 Y76.573 E2.24854
G1 X96.465 Y76.770 E2.25809
G1 X96.231 Y76.940 E2.26766
G1 X95.978 Y77.079 E2.27721
G1 X95.710 Y77.185 E2.28677
G1 X95.431 Y77.257 E2.29633
G1 X95.144 Y77.293 E2.30589
G1 X94.856 Y77.293 E2.31545
G1 X94.569 Y77.257 E2.32501
G1 X94.290 Y77.185 E2.33457
G1 X94.022 Y77.079 E2.34413
G1 X93.769 Y76.940 E2.35368
G1 X93.535 Y76.770 E2.36324
G1 X93.325 Y76.573 E2.37281
G1 X93.141 Y76.350 E2.38236
G1 X92.987 Y76.107 E2.39192
G1 X92.864 Y75.846 E2.40148
G1 X92.775 Y75.571 E2.41104
G1 X92.720 Y75.288 E2.42060
G1 X92.702 Y75.000 E2.43016
G1 X92.720 Y74.712 E2.43972
G1 X92.775 Y74.429 E2.44928
G1 X92.864 Y74.154 E2.45883
G1 X92.987 Y73.893 E2.46839
G1 X93.109 Y73.700 E2.47596
G1 X93.357 Y73.806 F7800.000
G1 F1800.000
G1 X93.519 Y73.609 E2.48441
G1 X93.705 Y73.435 E2.49287
G1 X93.912 Y73.285 E2.50132
G1 X94.135 Y73.162 E2.50977
G1 X94.372 Y73.068 E2.51822
G1 X94.619 Y73.005 E2.52668
G1 X94.872 Y72.973 E2.53513
G1 X95.128 Y72.973 E2.54358
G1 X95.381 Y73.005 E2.55203
G1 X95.628 Y73.068 E2.56048
G1 X95.865 Y73.162 E2.56893
G1 X96.088 Y73.285 E2.57738
G1 X96.295 Y73.435 E2.58584
G1 X96.481 Y73.609 E2.59429
G1 X96.643 Y73.806 E2.60274
G1 X96.780 Y74.021 E2.61119
G1 X96.889 Y74.252 E2.61965
G1 X96.968 Y74.495 E2.62809
G1 X97.015 Y74.745 E2.63655
G1 X97.031 Y75.000 E2.64500
G1 X97.015 Y75.255 E2.65345
G1 X96.968 Y75.505 E2.66191
G1 X96.889 Y75.748 E2.67036
G1 X96.780 Y75.979 E2.67881
G1 X96.643 Y76.194 E2.68726
G1 X96.481 Y76.391 E2.69571
G1 X96.295 Y76.565 E2.70416
G1 X96.088 Y76.715 E2.71262
G1 X95.865 Y76.838 E2.72107
G1 X95.628 Y76.932 E2.72952
G1 X95.381 Y76.995 E2.73797
G1 X95.128 Y77.027 E2.74642
G1 X94.872 Y77.027 E2.75487
G1 X94.619 Y76.995 E2.76333
G1 X94.372 Y76.932 E2.77178
G1 X94.135 Y76.838 E2.78023
G1 X93.912 Y76.715 E2.78868
G1 X93.705 Y76.565 E2.79713
G1 X93.519 Y76.391 E2.80559
G1 X93.357 Y76.194 E2.81404
G1 X93.220 Y75.979 E2.82249
G1 X93.111 Y75.748 E2.83094
G1 X93.032 Y75.505 E2.83939
G1 X92.985 Y75.255 E2.84784
G1 X92.969 Y75.000 E2.85630
G1 X92.985 Y74.745 E2.86475
G1 X93.032 Y74.495 E2.87320
G1 X93.111 Y74.252 E2.88165
G1 X93.220 Y74.021 E2.89010
G1 X93.324 Y73.857 E2.89657
G1 X93.572 Y73.962 F7800.000
G1 F1800.000
G1 X93.713 Y73.792 E2.90391
G1 X93.875 Y73.640 E2.91125
G1 X94.054 Y73.509 E2.91860
G1 X94.248 Y73.403 E2.92595
G1 X94.455 Y73.321 E2.93329
G1 X94.669 Y73.266 E2.94063
G1 X94.889 Y73.238 E2.94798
G1 X95.111 Y73.238 E2.95532
G1 X95.331 Y73.266 E2.96267
G1 X95.545 Y73.321 E2.97001
G1 X95.752 Y73.403 E2.97735
G1 X95.946 Y73.509 E2.98470
G1 X96.125 Y73.640 E2.99205
G1 X96.287 Y73.792 E2.99939
G1 X96.428 Y73.962 E3.00673
G1 X96.547 Y74.150 E3.01408
G1 X96.641 Y74.350 E3.02142
G1 X96.710 Y74.561 E3.02877
G1 X96.751 Y74.779 E3.03611
G1 X96.765 Y75.000 E3.04346
G1 X96.751 Y75.221 E3.05080
G1 X96.710 Y75.439 E3.05815
G1 X96.641 Y75.650 E3.06549
G1 X96.547 Y75.850 E3.07283
G1 X96.428 Y76.038 E3.08018
G1 X96.287 Y76.208 E3.08752
G1 X96.125 Y76.360 E3.09487
G1 X95.946 Y76.491 E3.10221
G1 X95.752 Y76.597 E3.10956
G1 X95.545 Y76.679 E3.11690
G1 X95.331 Y76.734 E3.12425
G1 X95.111 Y76.762 E3.13159
G1 X94.889 Y76.762 E3.13894
G1 X94.669 Y76.734 E3.14628
G1 X94.455 Y76.679 E3.15362
G1 X94.248 Y76.597 E3.16097
G1 X94.054 Y76.491 E3.16831
G1 X93.875 Y76.360 E3.17566
G1 X93.713 Y76.208 E3.18300
G1 X93.572 Y76.038 E3.19035
G1 X93.453 Y75.850 E3.19769
G1 X93.359 Y75.650 E3.20503
G1 X93.290 Y75.439 E3.21238
G1 X93.249 Y75.221 E3.21972
G1 X93.235 Y75.000 E3.22707
G1 X93.249 Y74.779 E3.23441
G1 X93.290 Y74.561 E3.24176
G1 X93.359 Y74.350 E3.24910
G1 X93.540 Y74.013 E3.26178
G1 E1.26178 F2400.00000
G92 E0
G1 X57.298 Y75.000 F7800.000
G1 E2.00000 F2400.00000
G1 F1800.000
G1 X57.279 Y75.288 E2.00956
G1 X57.225 Y75.571 E2.01912
G1 X57.136 Y75.846 E2.02868
G1 X57.013 Y76.107 E2.03824
G1 X56.859 Y76.351 E2.04780
G1 X56.675 Y76.573 E2.05735
G1 X56.465 Y76.770 E2.06691
G1 X56.231 Y76.940 E2.07647
G1 X55.978 Y77.079 E2.08603
G1 X55.710 Y77.185 E2.09559
G1 X55.431 Y77.257 E2.10515
G1 X55.144 Y77.293 E2.11471
G1 X54.856 Y77.293 E2.12427
G1 X54.569 Y77.257 E2.13383
G1 X54.290 Y77.185 E2.14339
G1 X54.022 Y77.079 E2.15295
G1 X53.769 Y76.940 E2.16250
G1 X53.535 Y76.770 E2.17206
G1 X53.325 Y76.573 E2.18162
G1 X53.141 Y76.351 E2.19118
G1 X52.987 Y76.107 E2.20074
G1 X52.864 Y75.846 E2.21030
G1 X52.775 Y75.571 E2.21986
G1 X52.721 Y75.288 E2.22942
G1 X52.702 Y75.000 E2.23898
G1 X52.721 Y74.712 E2.24854
G1 X52.775 Y74.429 E2.25810
G1 X52.864 Y74.154 E2.26765
G1 X52.987 Y73.893 E2.27721
G1 X53.141 Y73.649 E2.28677
G1 X53.325 Y73.427 E2.29633
G1 X53.535 Y73.230 E2.30589
G1 X53.769 Y73.060 E2.31545
G1 X54.022 Y72.921 E2.32501
G1 X54.290 Y72.815 E2.33457
G1 X54.569 Y72.743 E2.34413
G1 X54.856 Y72.707 E2.35369
G1 X55.144 Y72.707 E2.36324
G1 X55.431 Y72.743 E2.37280
G1 X55.710 Y72.815 E2.38236
G1 X55.978 Y72.921 E2.39192
G1 X56.231 Y73.060 E2.40148
G1 X56.465 Y73.230 E2.41104
G1 X56.675 Y73.427 E2.42060
G1 X56.859 Y73.649 E2.43016
G1 X57.013 Y73.893 E2.43972
G1 X57.136 Y74.154 E2.44928
G1 X57.225 Y74.429 E2.45884
G1 X57.279 Y74.712 E2.46839
G1 X57.294 Y74.940 E2.47597
G1 X57.031 Y75.000 F7800.000
G1 F1800.000
G1 X57.015 Y75.255 E2.48442
G1 X56.968 Y75.505 E2.49287
G1 X56.889 Y75.748 E2.50132
G1 X56.780 Y75.979 E2.50977
G1 X56.643 Y76.194 E2.51823
G1 X56.481 Y76.391 E2.52668
G1 X56.295 Y76.565 E2.53513
G1 X56.089 Y76.715 E2.54358
G1 X55.865 Y76.838 E2.55203
G1 X55.628 Y76.932 E2.56048
G1 X55.381 Y76.995 E2.56894
G1 X55.128 Y77.027 E2.57739
G1 X54.872 Y77.027 E2.58584
G1 X54.619 Y76.995 E2.59429
G1 X54.372 Y76.932 E2.60274
G1 X54.135 Y76.838 E2.61120
G1 X53.911 Y76.715 E2.61965
G1 X53.705 Y76.565 E2.62810
G1 X53.519 Y76.391 E2.63655
G1 X53.357 Y76.194 E2.64500
G1 X53.220 Y75.979 E2.65345
G1 X53.111 Y75.748 E2.66191
G1 X53.032 Y75.505 E2.67036
G1 X52.985 Y75.255 E2.67881
G1 X52.969 Y75.000 E2.68726
G1 X52.985 Y74.745 E2.69571
G1 X53.032 Y74.495 E2.70416
G1 X53.111 Y74.252 E2.71262
G1 X53.220 Y74.021 E2.72107
G1 X53.357 Y73.806 E2.72952
G1 X53.519 Y73.609 E2.73797
G1 X53.705 Y73.435 E2.74642
G1 X53.911 Y73.285 E2.75488
G1 X54.135 Y73.162 E2.76333
G1 X54.372 Y73.068 E2.77178
G1 X54.619 Y73.005 E2.78023
G1 X54.872 Y72.973 E2.78868
G1 X55.128 Y72.973 E2.79713
G1 X55.381 Y73.005 E2.80559
G1 X55.628 Y73.068 E2.81404
G1 X55.865 Y73.162 E2.82249
G1 X56.089 Y73.285 E2.83094
G1 X56.295 Y73.435 E2.83939
G1 X56.481 Y73.609 E2.84785
G1 X56.643 Y73.806 E2.85630
G1 X56.780 Y74.021 E2.86475
G1 X56.889 Y74.252 E2.87320
G1 X56.968 Y74.495 E2.88165
G1 X57.015 Y74.745 E2.89010
G1 X57.028 Y74.940 E2.89657
G1 X56.765 Y75.000 F7800.000
G1 F1800.000
G1 X56.751 Y75.221 E2.90391
G1 X56.710 Y75.439 E2.91126
G1 X56.641 Y75.650 E2.91860
G1 X56.547 Y75.850 E2.92595
G1 X56.428 Y76.038 E2.93329
G1 X56.287 Y76.208 E2.94064
G1 X56.125 Y76.360 E2.94798
G1 X55.946 Y76.491 E2.95532
G1 X55.752 Y76.597 E2.96267
G1 X55.546 Y76.679 E2.97001
G1 X55.331 Y76.734 E2.97736
G1 X55.111 Y76.762 E2.98470
G1 X54.889 Y76.762 E2.99205
G1 X54.669 Y76.734 E2.99939
G1 X54.454 Y76.679 E3.00674
G1 X54.248 Y76.597 E3.01408
G1 X54.054 Y76.491 E3.02143
G1 X53.875 Y76.360 E3.02877
G1 X53.713 Y76.208 E3.03611
G1 X53.572 Y76.038 E3.04346
G1 X53.453 Y75.850 E3.05080
G1 X53.359 Y75.650 E3.05815
G1 X53.290 Y75.439 E3.06549
G1 X53.249 Y75.221 E3.07284
G1 X53.235 Y75.000 E3.08018
G1 X53.249 Y74.779 E3.08753
G1 X53.290 Y74.561 E3.09487
G1 X53.359 Y74.350 E3.10222
G1 X53.453 Y74.150 E3.10956
G1 X53.572 Y73.962 E3.11690
G1 X53.713 Y73.792 E3.12425
G1 X53.875 Y73.640 E3.13159
G1 X54.054 Y73.509 E3.13894
G1 X54.248 Y73.403 E3.14628
G1 X54.454 Y73.321 E3.15363
G1 X54.669 Y73.266 E3.16097
G1 X54.889 Y73.238 E3.16832
G1 X55.111 Y73.238 E3.17566
G1 X55.331 Y73.266 E3.18301
G1 X55.546 Y73.321 E3.19035
G1 X55.752 Y73.403 E3.19769
G1 X55.946 Y73.509 E3.20504
G1 X56.125 Y73.640 E3.21238
G1 X56.287 Y73.792 E3.21973
G1 X56.428 Y73.962 E3.22707
G1 X56.547 Y74.150 E3.23442
G1 X56.641 Y74.350 E3.24176
G1 X56.710 Y74.561 E3.24911
G1 X56.762 Y74.940 E3.26178
G1 E1.26178 F2400.00000
G92 E0
G1 X53.758 Y80.873 F7800.000
G1 E2.00000 F2400.00000
G1 F1800.000
G1 X53.145 Y80.709 E2.02103
G1 X52.558 Y80.484 E2.04185
G1 X51.999 Y80.199 E2.06266
G1 X51.472 Y79.856 E2.08348
G1 X50.983 Y79.461 E2.10430
G1 X50.539 Y79.017 E2.12511
G1 X50.144 Y78.528 E2.14593
G1 X49.801 Y78.001 E2.16675
G1 X49.516 Y77.442 E2.18756
G1 X49.291 Y76.855 E2.20838
G1 X49.128 Y76.248 E2.22919
G1 X49.030 Y75.627 E2.25001
G1 X48.997 Y75.000 E2.27083
G1 X49.030 Y74.373 E2.29164
G1 X49.128 Y73.752 E2.31246
G1 X49.291 Y73.145 E2.33327
G1 X49.516 Y72.558 E2.35409
G1 X49.801 Y71.999 E2.37491
G1 X50.144 Y71.472 E2.39572
G1 X50.539 Y70.983 E2.41654
G1 X50.983 Y70.539 E2.43735
G1 X51.472 Y70.144 E2.45817
G1 X51.999 Y69.801 E2.47899
G1 X52.558 Y69.516 E2.49980
G1 X53.145 Y69.291 E2.52062
G1 X53.758 Y69.127 E2.54165
G1 X72.995 Y65.710 E3.18892
G1 X74.007 Y65.549 E3.22287
G1 X75.000 Y65.497 E3.25583
G1 X76.007 Y65.549 E3.28923
G1 X77.019 Y65.710 E3.32317
G1 X96.141 Y69.106 E3.96659
G1 X96.858 Y69.292 E3.99112
G1 X97.442 Y69.516 E4.01184
G1 X98.001 Y69.801 E4.03266
G1 X98.528 Y70.144 E4.05347
G1 X99.017 Y70.539 E4.07429
G1 X99.461 Y70.983 E4.09510
G1 X99.856 Y71.472 E4.11592
G1 X100.199 Y71.999 E4.13674
G1 X100.484 Y72.558 E4.15755
G1 X100.709 Y73.145 E4.17837
G1 X100.872 Y73.752 E4.19918
G1 X100.970 Y74.373 E4.22000
G1 X101.003 Y75.000 E4.24082
G1 X100.970 Y75.627 E4.26163
G1 X100.872 Y76.248 E4.28245
G1 X100.709 Y76.855 E4.30327
G1 X100.484 Y77.442 E4.32408
G1 X100.199 Y78.001 E4.34490
G1 X99.856 Y78.528 E4.36571
G1 X99.461 Y79.017 E4.38653
G1 X99.017 Y79.461 E4.40735
G1 X98.528 Y79.856 E4.42816
G1 X98.001 Y80.199 E4.44898
G1 X97.442 Y80.484 E4.46980
G1 X96.855 Y80.709 E4.49061
G1 X96.242 Y80.873 E4.51164
G1 X77.019 Y84.290 E5.15847
G1 X76.007 Y84.451 E5.19241
G1 X75.000 Y84.503 E5.22581
G1 X74.007 Y84.451 E5.25877
G1 X72.995 Y84.290 E5.29272
G1 X53.817 Y80.884 E5.93800
G1 X53.701 Y81.133 F7800.000
G1 F1800.000
G1 X53.063 Y80.962 E5.95987
G1 X52.450 Y80.727 E5.98161
G1 X51.866 Y80.429 E6.00335
G1 X51.315 Y80.072 E6.02509
G1 X50.805 Y79.659 E6.04683
G1 X50.341 Y79.195 E6.06856
G1 X49.928 Y78.685 E6.09030
G1 X49.571 Y78.134 E6.11204
G1 X49.273 Y77.550 E6.13378
G1 X49.038 Y76.937 E6.15552
G1 X48.868 Y76.303 E6.17726
G1 X48.766 Y75.655 E6.19899
G1 X48.731 Y75.000 E6.22073
G1 X48.766 Y74.345 E6.24247
G1 X48.868 Y73.697 E6.26421
G1 X49.038 Y73.063 E6.28595
G1 X49.273 Y72.450 E6.30769
G1 X49.571 Y71.866 E6.32943
G1 X49.928 Y71.315 E6.35116
G1 X50.341 Y70.805 E6.37290
G1 X50.805 Y70.341 E6.39464
G1 X51.315 Y69.928 E6.41638
G1 X51.866 Y69.571 E6.43812
G1 X52.450 Y69.273 E6.45986
G1 X53.063 Y69.038 E6.48160
G1 X53.701 Y68.867 E6.50347
G1 X72.951 Y65.448 E7.15120
G1 X73.979 Y65.285 E7.18569
G1 X75.000 Y65.231 E7.21957
G1 X76.035 Y65.285 E7.25389
G1 X77.063 Y65.448 E7.28838
G1 X96.198 Y68.847 E7.93223
G1 X96.939 Y69.039 E7.95759
G1 X97.550 Y69.273 E7.97927
G1 X98.134 Y69.571 E8.00101
G1 X98.685 Y69.928 E8.02275
G1 X99.195 Y70.341 E8.04449
G1 X99.659 Y70.805 E8.06622
G1 X100.072 Y71.315 E8.08796
G1 X100.429 Y71.866 E8.10970
G1 X100.727 Y72.450 E8.13144
G1 X100.962 Y73.063 E8.15318
G1 X101.132 Y73.697 E8.17492
G1 X101.234 Y74.345 E8.19666
G1 X101.269 Y75.000 E8.21839
G1 X101.234 Y75.655 E8.24013
G1 X101.132 Y76.303 E8.26187
G1 X100.962 Y76.937 E8.28361
G1 X100.727 Y77.550 E8.30535
G1 X100.429 Y78.134 E8.32709
G1 X100.072 Y78.685 E8.34883
G1 X99.659 Y79.195 E8.37056
G1 X99.195 Y79.659 E8.39230
G1 X98.685 Y80.072 E8.41404
G1 X98.134 Y80.429 E8.43578
G1 X97.550 Y80.727 E8.45752
G1 X96.937 Y80.962 E8.47926
G1 X96.299 Y81.133 E8.50113
G1 X77.063 Y84.552 E9.14841
G1 X76.035 Y84.715 E9.18290
G1 X75.000 Y84.769 E9.21723
G1 X73.979 Y84.715 E9.25111
G1 X72.951 Y84.552 E9.28560
G1 X53.760 Y81.143 E9.93134
G1 X53.643 Y81.392 F7800.000
G1 F1800.000
G1 X52.981 Y81.215 E9.95405
G1 X52.342 Y80.970 E9.97671
G1 X51.733 Y80.659 E9.99937
G1 X51.159 Y80.287 E10.02203
G1 X50.627 Y79.856 E10.04469
G1 X50.144 Y79.373 E10.06736
G1 X49.713 Y78.841 E10.09002
G1 X49.341 Y78.267 E10.11268
G1 X49.030 Y77.658 E10.13534
G1 X48.785 Y77.019 E10.15800
G1 X48.608 Y76.359 E10.18066
G1 X48.501 Y75.683 E10.20332
G1 X48.465 Y75.000 E10.22598
G1 X48.501 Y74.317 E10.24864
G1 X48.608 Y73.641 E10.27130
G1 X48.785 Y72.981 E10.29396
G1 X49.030 Y72.342 E10.31662
G1 X49.341 Y71.733 E10.33928
G1 X49.713 Y71.159 E10.36195
G1 X50.144 Y70.627 E10.38461
G1 X50.627 Y70.144 E10.40727
G1 X51.159 Y69.713 E10.42993
G1 X51.733 Y69.341 E10.45259
G1 X52.342 Y69.030 E10.47525
G1 X52.981 Y68.785 E10.49791
G1 X53.643 Y68.608 E10.52062
G1 X72.907 Y65.186 E11.16881
G1 X73.951 Y65.020 E11.20385
G1 X75.000 Y64.965 E11.23865
G1 X76.063 Y65.020 E11.27389
G1 X77.107 Y65.186 E11.30893
G1 X96.254 Y68.587 E11.95320
G1 X97.020 Y68.785 E11.97940
G1 X97.658 Y69.030 E12.00204
G1 X98.267 Y69.341 E12.02470
G1 X98.841 Y69.713 E12.04737
G1 X99.373 Y70.144 E12.07003
G1 X99.856 Y70.627 E12.09269
G1 X100.287 Y71.159 E12.11535
G1 X100.659 Y71.733 E12.13801
G1 X100.970 Y72.342 E12.16067
G1 X101.215 Y72.981 E12.18333
G1 X101.392 Y73.641 E12.20599
G1 X101.499 Y74.317 E12.22865
G1 X101.535 Y75.000 E12.25131
G1 X101.499 Y75.683 E12.27397
G1 X101.392 Y76.359 E12.29663
G1 X101.215 Y77.019 E12.31929
G1 X100.970 Y77.658 E12.34195
G1 X100.659 Y78.267 E12.36462
G1 X100.287 Y78.841 E12.38728
G1 X99.856 Y79.373 E12.40994
G1 X99.373 Y79.856 E12.43260
G1 X98.841 Y80.287 E12.45526
G1 X98.267 Y80.659 E12.47792
G1 X97.658 Y80.970 E12.50058
G1 X97.019 Y81.215 E12.52324
G1 X96.357 Y81.392 E12.54595
G1 X77.107 Y84.814 E13.19370
G1 X76.063 Y84.980 E13.22874
G1 X75.000 Y85.035 E13.26398
G1 X73.951 Y84.980 E13.29878
G1 X72.907 Y84.814 E13.33381
G1 X53.702 Y81.403 E13.98002
G1 E11.98002 F2400.00000
G92 E0
G1 X56.920 Y76.671 F7800.000
G1 E2.00000 F2400.00000
G1 F1800.000
G1 X66.553 Y67.039 E2.45318
G1 X66.094 Y67.120 E2.46868
G1 X57.335 Y75.880 E2.88079
G1 X57.380 Y75.741 E2.88564
G1 X57.442 Y75.395 E2.89732
G1 X65.636 Y67.202 E3.28280
G1 X65.177 Y67.283 E3.29830
G1 X57.454 Y75.006 E3.66163
G1 X57.418 Y74.665 E3.67303
G1 X64.718 Y67.365 E4.01649
G1 X64.259 Y67.446 E4.03199
G1 X57.346 Y74.360 E4.35727
G1 X57.245 Y74.084 E4.36705
G1 X63.801 Y67.528 E4.67550
G1 X63.342 Y67.609 E4.69100
G1 X57.120 Y73.831 E4.98374
G1 X56.973 Y73.600 E4.99283
G1 X62.883 Y67.690 E5.27088
G1 X62.425 Y67.772 E5.28638
G1 X56.803 Y73.394 E5.55086
G1 X56.614 Y73.206 E5.55973
G1 X61.966 Y67.853 E5.81154
G1 X61.507 Y67.935 E5.82704
G1 X56.405 Y73.037 E6.06707
G1 X56.177 Y72.888 E6.07614
G1 X61.049 Y68.016 E6.30531
G1 X60.590 Y68.098 E6.32081
G1 X55.928 Y72.760 E6.54014
G1 X55.654 Y72.656 E6.54987
G1 X60.131 Y68.179 E6.76049
G1 X59.673 Y68.261 E6.77599
