; generated by Slic3r 1.3.1-dev (Build 2ef957d) on 2019-11-25 at 09:19:54

; external perimeters extrusion width = 0.55mm (4.37mm^3/s)
; perimeters extrusion width = 0.70mm (11.44mm^3/s)
; infill extrusion width = 0.62mm (13.45mm^3/s)
; solid infill extrusion width = 0.70mm (3.81mm^3/s)
; top infill extrusion width = 0.70mm (2.86mm^3/s)

M107
G92 E0
M104 S200 ; set temperature
G28 ; home all axes
G1 Z5 F5000 ; lift nozzle

; Filament gcode

M109 S200 ; set temperature and wait for it to be reached
G21 ; set units to millimeters
G90 ; use absolute coordinates
M82 ; use absolute distances for extrusion
G92 E0
G1 Z0.350 F7800.000
G1 E-2.00000 F2400.00000
G92 E0
G1 X84.915 Y89.603 F7800.000
G1 E2.00000 F2400.00000
G1 F1800.000
G1 X86.668 Y88.124 E2.07096
G1 X88.820 Y87.331 E2.14192
G1 X90.000 Y87.225 E2.17858
G1 X110.000 Y87.225 E2.79740
G1 X112.259 Y87.622 E2.86836
G1 X114.247 Y88.765 E2.93933
G1 X115.726 Y90.518 E3.01029
G1 X116.519 Y92.670 E3.08125
G1 X116.625 Y93.850 E3.11790
G1 X116.625 Y106.150 E3.49848
G1 X116.228 Y108.409 E3.56944
G1 X115.085 Y110.397 E3.64041
G1 X113.332 Y111.876 E3.71137
G1 X111.180 Y112.669 E3.78233
G1 X110.000 Y112.775 E3.81898
G1 X90.000 Y112.775 E4.43781
G1 X87.741 Y112.378 E4.50877
G1 X85.753 Y111.235 E4.57973
G1 X84.274 Y109.482 E4.65069
G1 X83.481 Y107.330 E4.72166
G1 X83.375 Y106.150 E4.75831
G1 X83.375 Y93.850 E5.13889
G1 X83.772 Y91.591 E5.20985
G1 X84.878 Y89.668 E5.27849
G1 E3.27849 F2400.00000
G92 E0
G1 X108.400 Y104.550 F7800.000
G1 E2.00000 F2400.00000
G1 F1800.000
G1 X91.600 Y104.550 E2.51983
G1 X91.600 Y95.450 E2.80141
G1 X108.400 Y95.450 E3.32124
G1 X108.400 Y104.475 E3.60049
G1 X109.025 Y105.175 F7800.000
G1 F1800.000
G1 X90.975 Y105.175 E4.15899
G1 X90.975 Y94.825 E4.47924
G1 X109.025 Y94.825 E5.03774
G1 X109.025 Y105.100 E5.35567
G1 X109.650 Y105.800 F7800.000
G1 F1800.000
G1 X90.350 Y105.800 E5.95284
G1 X90.350 Y94.200 E6.31176
G1 X109.650 Y94.200 E6.90892
G1 X109.650 Y105.725 E7.26552
G1 X109.158 Y105.710 F7800.000
G1 E5.26552 F2400.00000
G92 E0
G1 X107.532 Y104.168 F7800.000
G1 E2.00000 F2400.00000
G1 F1800.000
G1 X108.018 Y103.682 E2.02167
G1 X108.018 Y102.782 E2.05003
G1 X106.632 Y104.168 E2.11181
G1 X105.732 Y104.168 E2.14017
G1 X108.018 Y101.882 E2.24206
G1 X108.018 Y100.982 E2.27042
G1 X104.832 Y104.168 E2.41242
G1 X103.932 Y104.168 E2.44079
G1 X108.018 Y100.082 E2.62290
G1 X108.018 Y99.182 E2.65126
G1 X103.032 Y104.168 E2.87348
G1 X102.132 Y104.168 E2.90184
G1 X108.018 Y98.282 E3.16418
G1 X108.018 Y97.382 E3.19254
G1 X101.232 Y104.168 E3.49498
G1 X100.332 Y104.168 E3.52335
G1 X108.018 Y96.482 E3.86590
G1 X108.018 Y95.832 E3.88639
G1 X107.769 Y95.832 E3.89426
G1 X99.432 Y104.168 E4.26580
G1 X98.532 Y104.168 E4.29416
G1 X106.869 Y95.832 E4.66569
G1 X105.968 Y95.832 E4.69405
G1 X97.632 Y104.168 E5.06559
G1 X96.732 Y104.168 E5.09395
G1 X105.068 Y95.832 E5.46548
G1 X104.168 Y95.832 E5.49384
G1 X95.832 Y104.168 E5.86538
G1 X94.932 Y104.168 E5.89374
G1 X103.268 Y95.832 E6.26527
G1 X102.368 Y95.832 E6.29363
G1 X94.032 Y104.168 E6.66517
G1 X93.131 Y104.168 E6.69353
G1 X101.468 Y95.832 E7.06506
G1 X100.568 Y95.832 E7.09342
G1 X92.231 Y104.168 E7.46496
G1 X91.982 Y104.168 E7.47283
G1 X91.982 Y103.518 E7.49332
G1 X99.668 Y95.832 E7.83587
G1 X98.768 Y95.832 E7.86424
G1 X91.982 Y102.618 E8.16668
G1 X91.982 Y101.718 E8.19504
G1 X97.868 Y95.832 E8.45738
G1 X96.968 Y95.832 E8.48574
G1 X91.982 Y100.818 E8.70796
G1 X91.982 Y99.918 E8.73632
G1 X96.068 Y95.832 E8.91844
G1 X95.168 Y95.832 E8.94680
G1 X91.982 Y99.018 E9.08880
G1 X91.982 Y98.118 E9.11716
G1 X94.268 Y95.832 E9.21905
G1 X93.368 Y95.832 E9.24741
G1 X91.982 Y97.218 E9.30919
G1 X91.982 Y96.318 E9.33755
G1 X92.468 Y95.832 E9.35922
G1 Z0.650 F7800.000
G1 X108.529 Y104.679 F7800.000
G1 F3600.000
G1 X91.471 Y104.679 E9.81937
G1 X91.471 Y95.321 E10.07181
G1 X108.529 Y95.321 E10.53196
G1 X108.529 Y104.604 E10.78237
G1 X109.164 Y105.314 F7800.000
G1 F3600.000
G1 X90.836 Y105.314 E11.27682
G1 X90.836 Y94.686 E11.56355
G1 X109.164 Y94.686 E12.05799
G1 X109.164 Y105.239 E12.34270
G1 X109.725 Y105.875 F7800.000
G1 F1800.000
G1 X90.275 Y105.875 E12.74357
G1 X90.275 Y94.125 E12.98574
G1 X109.725 Y94.125 E13.38661
G1 X109.725 Y105.800 E13.62723
G1 X109.233 Y105.785 F7800.000
G1 X108.140 Y96.204 F7800.000
G1 F1200.000
G1 X107.646 Y95.710 E13.64651
G1 X106.728 Y95.710 E13.67181
G1 X108.140 Y97.122 E13.72686
G1 X108.140 Y98.041 E13.75216
G1 X105.809 Y95.710 E13.84299
G1 X104.891 Y95.710 E13.86829
G1 X108.140 Y98.959 E13.99490
G1 X108.140 Y99.877 E14.02020
G1 X103.973 Y95.710 E14.18258
G1 X103.055 Y95.710 E14.20788
G1 X108.140 Y100.795 E14.40605
G1 X108.140 Y101.713 E14.43135
G1 X102.137 Y95.710 E14.66530
G1 X101.219 Y95.710 E14.69060
G1 X108.140 Y102.631 E14.96033
G1 X108.140 Y103.550 E14.98563
G1 X100.300 Y95.710 E15.29113
G1 X99.382 Y95.710 E15.31643
G1 X107.963 Y104.290 E15.65081
G1 X107.045 Y104.290 E15.67611
G1 X98.464 Y95.710 E16.01049
G1 X97.546 Y95.710 E16.03579
G1 X106.127 Y104.290 E16.37016
G1 X105.209 Y104.290 E16.39546
G1 X96.628 Y95.710 E16.72984
G1 X95.710 Y95.710 E16.75514
G1 X104.290 Y104.290 E17.08951
G1 X103.372 Y104.290 E17.11481
G1 X94.791 Y95.710 E17.44919
G1 X93.873 Y95.710 E17.47449
G1 X102.454 Y104.290 E17.80886
G1 X101.536 Y104.290 E17.83416
G1 X92.955 Y95.710 E18.16854
G1 X92.037 Y95.710 E18.19384
G1 X100.618 Y104.290 E18.52822
G1 X99.700 Y104.290 E18.55352
G1 X91.860 Y96.450 E18.85902
G1 X91.860 Y97.369 E18.88432
G1 X98.781 Y104.290 E19.15405
G1 X97.863 Y104.290 E19.17935
G1 X91.860 Y98.287 E19.41330
G1 X91.860 Y99.205 E19.43860
G1 X96.945 Y104.290 E19.63677
G1 X96.027 Y104.290 E19.66207
G1 X91.860 Y100.123 E19.82445
G1 X91.860 Y101.041 E19.84975
G1 X95.109 Y104.290 E19.97636
G1 X94.191 Y104.290 E20.00166
G1 X91.860 Y101.959 E20.09249
G1 X91.860 Y102.878 E20.11779
G1 X93.272 Y104.290 E20.17284
G1 X92.354 Y104.290 E20.19814
G1 X91.860 Y103.796 E20.21742
G1 Z0.950 F7800.000
G1 X108.529 Y104.679 F7800.000
G1 F3600.000
G1 X91.471 Y104.679 E20.67757
G1 X91.471 Y95.321 E20.93000
G1 X108.529 Y95.321 E21.39015
G1 X108.529 Y104.604 E21.64057
G1 X109.164 Y105.314 F7800.000
G1 F3600.000
G1 X90.836 Y105.314 E22.13501
G1 X90.836 Y94.686 E22.42174
G1 X109.164 Y94.686 E22.91618
G1 X109.164 Y105.239 E23.20089
G1 X109.725 Y105.875 F7800.000
G1 F1800.000
G1 X90.275 Y105.875 E23.60176
G1 X90.275 Y94.125 E23.84393
G1 X109.725 Y94.125 E24.24480
G1 X109.725 Y105.800 E24.48543
G1 X109.233 Y105.785 F7800.000
G1 X107.646 Y104.290 F7800.000
G1 F1200.000
G1 X108.140 Y103.796 E24.50470
G1 X108.140 Y102.878 E24.53000
G1 X106.728 Y104.290 E24.58505
G1 X105.809 Y104.290 E24.61035
G1 X108.140 Y101.959 E24.70118
G1 X108.140 Y101.041 E24.72648
G1 X104.891 Y104.290 E24.85309
G1 X103.973 Y104.290 E24.87839
G1 X108.140 Y100.123 E25.04078
G1 X108.140 Y99.205 E25.06608
G1 X103.055 Y104.290 E25.26424
G1 X102.137 Y104.290 E25.28954
G1 X108.140 Y98.287 E25.52349
G1 X108.140 Y97.369 E25.54879
G1 X101.219 Y104.290 E25.81852
G1 X100.300 Y104.290 E25.84382
G1 X108.140 Y96.450 E26.14932
G1 X108.140 Y95.710 E26.16974
G1 X107.963 Y95.710 E26.17462
G1 X99.382 Y104.290 E26.50900
G1 X98.464 Y104.290 E26.53430
G1 X107.045 Y95.710 E26.86867
G1 X106.127 Y95.710 E26.89397
G1 X97.546 Y104.290 E27.22835
G1 X96.628 Y104.290 E27.25365
G1 X105.209 Y95.710 E27.58802
G1 X104.290 Y95.710 E27.61332
G1 X95.710 Y104.290 E27.94770
G1 X94.791 Y104.290 E27.97300
G1 X103.372 Y95.710 E28.30737
G1 X102.454 Y95.710 E28.33267
G1 X93.873 Y104.290 E28.66705
G1 X92.955 Y104.290 E28.69235
G1 X101.536 Y95.710 E29.02672
G1 X100.618 Y95.710 E29.05202
G1 X92.037 Y104.290 E29.38640
G1 X91.860 Y104.290 E29.39129
G1 X91.860 Y103.550 E29.41170
G1 X99.700 Y95.710 E29.71721
G1 X98.781 Y95.710 E29.74251
G1 X91.860 Y102.631 E30.01223
G1 X91.860 Y101.713 E30.03753
G1 X97.863 Y95.710 E30.27148
G1 X96.945 Y95.710 E30.29678
G1 X91.860 Y100.795 E30.49495
G1 X91.860 Y99.877 E30.52025
G1 X96.027 Y95.710 E30.68264
G1 X95.109 Y95.710 E30.70794
G1 X91.860 Y98.959 E30.83455
G1 X91.860 Y98.041 E30.85985
G1 X94.191 Y95.710 E30.95068
G1 X93.272 Y95.710 E30.97598
G1 X91.860 Y97.122 E31.03103
G1 X91.860 Y96.204 E31.05633
G1 X92.354 Y95.710 E31.07561
M106 S255
G1 Z1.250 F7800.000
G1 X108.529 Y104.679 F7800.000
G1 F3289.127
G1 X91.471 Y104.679 E31.53576
G1 X91.471 Y95.321 E31.78819
G1 X108.529 Y95.321 E32.24835
G1 X108.529 Y104.604 E32.49876
G1 X109.164 Y105.314 F7800.000
G1 F3289.127
G1 X90.836 Y105.314 E32.99320
G1 X90.836 Y94.686 E33.27993
G1 X109.164 Y94.686 E33.77438
G1 X109.164 Y105.239 E34.05908
G1 X109.725 Y105.875 F7800.000
G1 F1800.000
G1 X90.275 Y105.875 E34.45995
G1 X90.275 Y94.125 E34.70212
G1 X109.725 Y94.125 E35.10299
G1 X109.725 Y105.800 E35.34362
G1 X109.233 Y105.785 F7800.000
G1 X107.527 Y104.398 F7800.000
G1 F4385.503
G1 X108.016 Y102.576 E35.38852
G1 X108.248 Y102.143 F7800.000
G1 F4385.503
G1 X100.699 Y104.166 E35.57449
G1 X98.821 Y104.398 F7800.000
G1 F4385.503
G1 X101.179 Y95.602 E35.79118
G1 X99.301 Y95.834 F7800.000
G1 F4385.503
G1 X91.752 Y97.857 E35.97716
G1 X91.984 Y97.424 F7800.000
G1 F4385.503
G1 X92.473 Y95.602 E36.02206
G1 X91.837 Y103.729 F7800.000
G1 F4385.503
G1 X92.421 Y104.313 E36.04171
G1 X104.313 Y104.313 E36.32467
G1 X95.687 Y95.687 E36.61495
G1 X107.579 Y95.687 E36.89791
G1 X108.163 Y96.271 E36.91756
G1 Z1.550 F7800.000
G1 X108.529 Y104.679 F7800.000
G1 F3289.127
G1 X91.471 Y104.679 E37.37772
G1 X91.471 Y95.321 E37.63015
G1 X108.529 Y95.321 E38.09030
G1 X108.529 Y104.604 E38.34071
G1 X109.164 Y105.314 F7800.000
G1 F3289.127
G1 X90.836 Y105.314 E38.83516
G1 X90.836 Y94.686 E39.12189
G1 X109.164 Y94.686 E39.61633
G1 X109.164 Y105.239 E39.90104
G1 X109.725 Y105.875 F7800.000
G1 F1800.000
G1 X90.275 Y105.875 E40.30191
G1 X90.275 Y94.125 E40.54408
G1 X109.725 Y94.125 E40.94495
G1 X109.725 Y105.800 E41.18558
G1 X109.233 Y105.785 F7800.000
G1 X107.527 Y104.398 F7800.000
G1 F4385.503
G1 X108.016 Y102.576 E41.23048
G1 X108.248 Y102.143 F7800.000
G1 F4385.503
G1 X100.699 Y104.166 E41.41645
G1 X98.821 Y104.398 F7800.000
G1 F4385.503
G1 X101.179 Y95.602 E41.63314
G1 X99.301 Y95.834 F7800.000
G1 F4385.503
G1 X91.752 Y97.857 E41.81911
G1 X91.984 Y97.424 F7800.000
G1 F4385.503
G1 X92.473 Y95.602 E41.86402
G1 X91.837 Y103.729 F7800.000
G1 F4385.503
G1 X92.421 Y104.313 E41.88367
G1 X104.313 Y104.313 E42.16663
G1 X95.687 Y95.687 E42.45690
G1 X107.579 Y95.687 E42.73987
G1 X108.163 Y96.271 E42.75952
G1 Z1.850 F7800.000
G1 X108.529 Y104.679 F7800.000
G1 F3289.127
G1 X91.471 Y104.679 E43.21967
G1 X91.471 Y95.321 E43.47211
G1 X108.529 Y95.321 E43.93226
G1 X108.529 Y104.604 E44.18267
G1 X109.164 Y105.314 F7800.000
G1 F3289.127
G1 X90.836 Y105.314 E44.67712
G1 X90.836 Y94.686 E44.96384
G1 X109.164 Y94.686 E45.45829
G1 X109.164 Y105.239 E45.74299
G1 X109.725 Y105.875 F7800.000
G1 F1800.000
G1 X90.275 Y105.875 E46.14386
G1 X90.275 Y94.125 E46.38604
G1 X109.725 Y94.125 E46.78691
G1 X109.725 Y105.800 E47.02753
G1 X109.233 Y105.785 F7800.000
G1 X107.527 Y104.398 F7800.000
G1 F4385.503
G1 X108.016 Y102.576 E47.07243
G1 X108.248 Y102.143 F7800.000
G1 F4385.503
G1 X100.699 Y104.166 E47.25841
G1 X98.821 Y104.398 F7800.000
G1 F4385.503
G1 X101.179 Y95.602 E47.47510
G1 X99.301 Y95.834 F7800.000
G1 F4385.503
G1 X91.752 Y97.857 E47.66107
G1 X91.984 Y97.424 F7800.000
G1 F4385.503
G1 X92.473 Y95.602 E47.70597
G1 X91.837 Y103.729 F7800.000
G1 F4385.503
G1 X92.421 Y104.313 E47.72562
G1 X104.313 Y104.313 E48.00859
G1 X95.687 Y95.687 E48.29886
G1 X107.579 Y95.687 E48.58183
G1 X108.163 Y96.271 E48.60148
G1 Z2.150 F7800.000
G1 X108.529 Y104.679 F7800.000
G1 F3289.127
G1 X91.471 Y104.679 E49.06163
G1 X91.471 Y95.321 E49.31406
G1 X108.529 Y95.321 E49.77422
G1 X108.529 Y104.604 E50.02463
G1 X109.164 Y105.314 F7800.000
G1 F3289.127
G1 X90.836 Y105.314 E50.51907
G1 X90.836 Y94.686 E50.80580
G1 X109.164 Y94.686 E51.30025
G1 X109.164 Y105.239 E51.58495
G1 X109.725 Y105.875 F7800.000
G1 F1800.000
G1 X90.275 Y105.875 E51.98582
G1 X90.275 Y94.125 E52.22799
G1 X109.725 Y94.125 E52.62886
G1 X109.725 Y105.800 E52.86949
G1 X109.233 Y105.785 F7800.000
G1 X107.527 Y104.398 F7800.000
G1 F4385.503
G1 X108.016 Y102.576 E52.91439
G1 X108.248 Y102.143 F7800.000
G1 F4385.503
G1 X100.699 Y104.166 E53.10036
G1 X98.821 Y104.398 F7800.000
G1 F4385.503
G1 X101.179 Y95.602 E53.31705
G1 X99.301 Y95.834 F7800.000
G1 F4385.503
G1 X91.752 Y97.857 E53.50303
G1 X91.984 Y97.424 F7800.000
G1 F4385.503
G1 X92.473 Y95.602 E53.54793
G1 X91.837 Y103.729 F7800.000
G1 F4385.503
G1 X92.421 Y104.313 E53.56758
G1 X104.313 Y104.313 E53.85054
G1 X95.687 Y95.687 E54.14082
G1 X107.579 Y95.687 E54.42378
G1 X108.163 Y96.271 E54.44343
G1 Z2.450 F7800.000
G1 X108.529 Y104.679 F7800.000
G1 F3289.127
G1 X91.471 Y104.679 E54.90359
G1 X91.471 Y95.321 E55.15602
G1 X108.529 Y95.321 E55.61617
G1 X108.529 Y104.604 E55.86658
G1 X109.164 Y105.314 F7800.000
G1 F3289.127
G1 X90.836 Y105.314 E56.36103
G1 X90.836 Y94.686 E56.64776
G1 X109.164 Y94.686 E57.14220
G1 X109.164 Y105.239 E57.42691
G1 X109.725 Y105.875 F7800.000
G1 F1800.000
G1 X90.275 Y105.875 E57.82778
G1 X90.275 Y94.125 E58.06995
G1 X109.725 Y94.125 E58.47082
G1 X109.725 Y105.800 E58.71145
G1 X109.233 Y105.785 F7800.000
G1 X107.527 Y104.398 F7800.000
G1 F4385.503
G1 X108.016 Y102.576 E58.75635
G1 X108.248 Y102.143 F7800.000
G1 F4385.503
G1 X100.699 Y104.166 E58.94232
G1 X98.821 Y104.398 F7800.000
G1 F4385.503
G1 X101.179 Y95.602 E59.15901
G1 X99.301 Y95.834 F7800.000
G1 F4385.503
G1 X91.752 Y97.857 E59.34499
G1 X91.984 Y97.424 F7800.000
G1 F4385.503
G1 X92.473 Y95.602 E59.38989
G1 X91.837 Y103.729 F7800.000
G1 F4385.503
G1 X92.421 Y104.313 E59.40954
G1 X104.313 Y104.313 E59.69250
G1 X95.687 Y95.687 E59.98278
G1 X107.579 Y95.687 E60.26574
G1 X108.163 Y96.271 E60.28539
G1 Z2.750 F7800.000
G1 X108.529 Y104.679 F7800.000
G1 F3289.127
G1 X91.471 Y104.679 E60.74554
G1 X91.471 Y95.321 E60.99798
G1 X108.529 Y95.321 E61.45813
G1 X108.529 Y104.604 E61.70854
G1 X109.164 Y105.314 F7800.000
G1 F3289.127
G1 X90.836 Y105.314 E62.20299
G1 X90.836 Y94.686 E62.48971
G1 X109.164 Y94.686 E62.98416
G1 X109.164 Y105.239 E63.26886
G1 X109.725 Y105.875 F7800.000
G1 F1800.000
G1 X90.275 Y105.875 E63.66973
G1 X90.275 Y94.125 E63.91191
G1 X109.725 Y94.125 E64.31278
G1 X109.725 Y105.800 E64.55340
G1 X109.233 Y105.785 F7800.000
G1 X107.527 Y104.398 F7800.000
G1 F4385.503
G1 X108.016 Y102.576 E64.59830
G1 X108.248 Y102.143 F7800.000
G1 F4385.503
G1 X100.699 Y104.166 E64.78428
G1 X98.821 Y104.398 F7800.000
G1 F4385.503
G1 X101.179 Y95.602 E65.00097
G1 X99.301 Y95.834 F7800.000
G1 F4385.503
G1 X91.752 Y97.857 E65.18694
G1 X91.984 Y97.424 F7800.000
G1 F4385.503
G1 X92.473 Y95.602 E65.23184
G1 X91.837 Y103.729 F7800.000
G1 F4385.503
G1 X92.421 Y104.313 E65.25149
G1 X104.313 Y104.313 E65.53446
G1 X95.687 Y95.687 E65.82473
G1 X107.579 Y95.687 E66.10770
G1 X108.163 Y96.271 E66.12735
G1 Z3.050 F7800.000
G1 X108.529 Y104.679 F7800.000
G1 F3289.127
G1 X91.471 Y104.679 E66.58750
G1 X91.471 Y95.321 E66.83993
G1 X108.529 Y95.321 E67.30009
G1 X108.529 Y104.604 E67.55050
G1 X109.164 Y105.314 F7800.000
G1 F3289.127
G1 X90.836 Y105.314 E68.04494
G1 X90.836 Y94.686 E68.33167
G1 X109.164 Y94.686 E68.82612
G1 X109.164 Y105.239 E69.11082
G1 X109.725 Y105.875 F7800.000
G1 F1800.000
G1 X90.275 Y105.875 E69.51169
G1 X90.275 Y94.125 E69.75386
G1 X109.725 Y94.125 E70.15473
G1 X109.725 Y105.800 E70.39536
G1 X109.233 Y105.785 F7800.000
G1 X107.527 Y104.398 F7800.000
G1 F4385.503
G1 X108.016 Y102.576 E70.44026
G1 X108.248 Y102.143 F7800.000
G1 F4385.503
G1 X100.699 Y104.166 E70.62623
G1 X98.821 Y104.398 F7800.000
G1 F4385.503
G1 X101.179 Y95.602 E70.84292
G1 X99.301 Y95.834 F7800.000
G1 F4385.503
G1 X91.752 Y97.857 E71.02890
G1 X91.984 Y97.424 F7800.000
G1 F4385.503
G1 X92.473 Y95.602 E71.07380
G1 X91.837 Y103.729 F7800.000
G1 F4385.503
G1 X92.421 Y104.313 E71.09345
G1 X104.313 Y104.313 E71.37642
G1 X95.687 Y95.687 E71.66669
G1 X107.579 Y95.687 E71.94965
G1 X108.163 Y96.271 E71.96930
G1 Z3.350 F7800.000
G1 X108.529 Y104.679 F7800.000
G1 F3289.127
G1 X91.471 Y104.679 E72.42946
G1 X91.471 Y95.321 E72.68189
G1 X108.529 Y95.321 E73.14204
G1 X108.529 Y104.604 E73.39245
