; generated by Slic3r 1.3.1-dev (Build adea0d9) on 2019-12-16 at 00:49:57

; external perimeters extrusion width = 0.44mm (2.86mm^3/s)
; perimeters extrusion width = 0.56mm (4.14mm^3/s)
; infill extrusion width = 0.50mm (3.66mm^3/s)
; solid infill extrusion width = 0.56mm (3.10mm^3/s)
; top infill extrusion width = 0.56mm (3.10mm^3/s)

M107
G92 E0
;D3D:START:START
T0
M104 S215 T0

G21
G90
M107
T0
G28
G29
M109 T0 S215 T0
G0 F3000
M107
T0
G92 E0
G0 X0 Y149 Z0.1 F3600
G1 Y49 E6.5 F1200
G0 Z1
G92 E0
; Filament gcode

G21 ; set units to millimeters
G90 ; use absolute coordinates
M82 ; use absolute distances for extrusion
G92 E0
G1 Z0.300 F7800.000
G1 E-2.00000 F2400.00000
G92 E0
G1 X65.696 Y69.546 F7800.000
G1 E2.00000 F2400.00000
G1 F1800.000
G1 X84.304 Y69.546 E2.61646
G1 X84.304 Y80.454 E2.97782
G1 X65.696 Y80.454 E3.59428
G1 X65.696 Y69.606 E3.95365
G1 X65.431 Y69.281 F7800.000
G1 F1800.000
G1 X84.569 Y69.281 E4.58771
G1 X84.569 Y80.719 E4.96667
G1 X65.431 Y80.719 E5.60073
G1 X65.431 Y69.341 E5.97770
G1 X65.165 Y69.015 F7800.000
G1 F1800.000
G1 X84.835 Y69.015 E6.62936
G1 X84.835 Y80.985 E7.02592
G1 X65.165 Y80.985 E7.67758
G1 X65.165 Y69.075 E8.07215
G1 X65.859 Y69.915 F7800.000
G1 F1800.000
G1 X66.065 Y69.709 E8.08193
G1 X66.445 Y69.709 E8.09462
G1 X65.859 Y70.295 E8.12235
G1 X65.859 Y70.674 E8.13505
G1 X66.824 Y69.709 E8.18073
G1 X67.203 Y69.709 E8.19342
G1 X65.859 Y71.053 E8.25706
G1 X65.859 Y71.433 E8.26975
G1 X67.583 Y69.709 E8.35134
G1 X67.962 Y69.709 E8.36403
G1 X65.859 Y71.812 E8.46357
G1 X65.859 Y72.192 E8.47626
G1 X68.342 Y69.709 E8.59375
G1 X68.721 Y69.709 E8.60644
G1 X65.859 Y72.571 E8.74187
G1 X65.859 Y72.950 E8.75457
G1 X69.100 Y69.709 E8.90795
G1 X69.480 Y69.709 E8.92065
G1 X65.859 Y73.330 E9.09198
G1 X65.859 Y73.709 E9.10467
G1 X69.859 Y69.709 E9.29396
G1 X70.238 Y69.709 E9.30665
G1 X65.859 Y74.088 E9.51389
G1 X65.859 Y74.468 E9.52658
G1 X70.618 Y69.709 E9.75177
G1 X70.997 Y69.709 E9.76446
G1 X65.859 Y74.847 E10.00760
G1 X65.859 Y75.226 E10.02029
G1 X71.376 Y69.709 E10.28138
G1 X71.756 Y69.709 E10.29407
G1 X65.859 Y75.606 E10.57311
G1 X65.859 Y75.985 E10.58580
G1 X72.135 Y69.709 E10.88279
G1 X72.515 Y69.709 E10.89548
G1 X65.859 Y76.365 E11.21042
G1 X65.859 Y76.744 E11.22311
G1 X72.894 Y69.709 E11.55600
G1 X73.273 Y69.709 E11.56869
G1 X65.859 Y77.123 E11.91953
G1 X65.859 Y77.503 E11.93222
G1 X73.653 Y69.709 E12.30101
G1 X74.032 Y69.709 E12.31370
G1 X65.859 Y77.882 E12.70044
G1 X65.859 Y78.261 E12.71314
G1 X74.411 Y69.709 E13.11782
G1 X74.791 Y69.709 E13.13052
G1 X65.859 Y78.641 E13.55315
G1 X65.859 Y79.020 E13.56585
G1 X75.170 Y69.709 E14.00644
G1 X75.549 Y69.709 E14.01913
G1 X65.859 Y79.399 E14.47767
G1 X65.859 Y79.779 E14.49036
G1 X75.929 Y69.709 E14.96685
G1 X76.308 Y69.709 E14.97954
G1 X65.859 Y80.158 E15.47398
G1 X65.859 Y80.291 E15.47844
G1 X66.105 Y80.291 E15.48667
G1 X76.688 Y69.709 E15.98742
G1 X77.067 Y69.709 E16.00011
G1 X66.484 Y80.291 E16.50086
G1 X66.863 Y80.291 E16.51355
G1 X77.446 Y69.709 E17.01430
G1 X77.826 Y69.709 E17.02699
G1 X67.243 Y80.291 E17.52774
G1 X67.622 Y80.291 E17.54043
G1 X78.205 Y69.709 E18.04118
G1 X78.584 Y69.709 E18.05387
G1 X68.001 Y80.291 E18.55461
G1 X68.381 Y80.291 E18.56731
G1 X78.964 Y69.709 E19.06805
G1 X79.343 Y69.709 E19.08075
G1 X68.760 Y80.291 E19.58149
G1 X69.140 Y80.291 E19.59418
G1 X79.722 Y69.709 E20.09493
G1 X80.102 Y69.709 E20.10762
G1 X69.519 Y80.291 E20.60837
G1 X69.898 Y80.291 E20.62106
G1 X80.481 Y69.709 E21.12181
G1 X80.861 Y69.709 E21.13450
G1 X70.278 Y80.291 E21.63525
G1 X70.657 Y80.291 E21.64794
G1 X81.240 Y69.709 E22.14869
G1 X81.619 Y69.709 E22.16138
G1 X71.036 Y80.291 E22.66213
G1 X71.416 Y80.291 E22.67482
G1 X81.999 Y69.709 E23.17556
G1 X82.378 Y69.709 E23.18826
G1 X71.795 Y80.291 E23.68900
G1 X72.174 Y80.291 E23.70170
G1 X82.757 Y69.709 E24.20244
G1 X83.137 Y69.709 E24.21514
G1 X72.554 Y80.291 E24.71588
G1 X72.933 Y80.291 E24.72857
G1 X83.516 Y69.709 E25.22932
G1 X83.895 Y69.709 E25.24201
G1 X73.313 Y80.291 E25.74276
G1 X73.692 Y80.291 E25.75545
G1 X84.141 Y69.842 E26.24989
G1 X84.141 Y70.221 E26.26258
G1 X74.071 Y80.291 E26.73907
G1 X74.451 Y80.291 E26.75176
G1 X84.141 Y70.601 E27.21030
G1 X84.141 Y70.980 E27.22299
G1 X74.830 Y80.291 E27.66357
G1 X75.209 Y80.291 E27.67627
G1 X84.141 Y71.359 E28.09890
G1 X84.141 Y71.739 E28.11160
G1 X75.589 Y80.291 E28.51628
G1 X75.968 Y80.291 E28.52897
G1 X84.141 Y72.118 E28.91571
G1 X84.141 Y72.497 E28.92840
G1 X76.347 Y80.291 E29.29719
G1 X76.727 Y80.291 E29.30988
G1 X84.141 Y72.877 E29.66071
G1 X84.141 Y73.256 E29.67341
G1 X77.106 Y80.291 E30.00629
G1 X77.486 Y80.291 E30.01898
G1 X84.141 Y73.636 E30.33392
G1 X84.141 Y74.015 E30.34661
G1 X77.865 Y80.291 E30.64360
G1 X78.244 Y80.291 E30.65629
G1 X84.141 Y74.394 E30.93532
G1 X84.141 Y74.774 E30.94802
G1 X78.624 Y80.291 E31.20910
G1 X79.003 Y80.291 E31.22179
G1 X84.141 Y75.153 E31.46493
G1 X84.141 Y75.532 E31.47762
G1 X79.382 Y80.291 E31.70281
G1 X79.762 Y80.291 E31.71550
G1 X84.141 Y75.912 E31.92273
G1 X84.141 Y76.291 E31.93542
G1 X80.141 Y80.291 E32.12471
G1 X80.520 Y80.291 E32.13740
G1 X84.141 Y76.670 E32.30873
G1 X84.141 Y77.050 E32.32143
G1 X80.900 Y80.291 E32.47481
G1 X81.279 Y80.291 E32.48750
G1 X84.141 Y77.429 E32.62294
G1 X84.141 Y77.809 E32.63563
G1 X81.659 Y80.291 E32.75311
G1 X82.038 Y80.291 E32.76581
G1 X84.141 Y78.188 E32.86534
G1 X84.141 Y78.567 E32.87803
G1 X82.417 Y80.291 E32.95961
G1 X82.797 Y80.291 E32.97231
G1 X84.141 Y78.947 E33.03594
G1 X84.141 Y79.326 E33.04863
G1 X83.176 Y80.291 E33.09432
G1 X83.555 Y80.291 E33.10701
G1 X84.141 Y79.705 E33.13474
G1 X84.141 Y80.085 E33.14743
G1 X83.935 Y80.291 E33.15722
M106 S255
G1 Z0.500 F7800.000
G1 E31.15722 F2400.00000
G92 E0
G1 X65.677 Y69.527 F7800.000
G1 E2.00000 F2400.00000
G1 F2400.000
G1 X84.323 Y69.527 E2.80168
G1 X84.323 Y80.473 E3.27230
G1 X65.677 Y80.473 E4.07399
G1 X65.677 Y69.587 E4.54203
G1 X65.220 Y69.070 F7800.000
G1 F2160.000
G1 X84.780 Y69.070 E5.18785
G1 X84.780 Y80.930 E5.57943
G1 X65.220 Y80.930 E6.22525
G1 X65.220 Y69.130 E6.61486
G1 E4.61486 F2400.00000
G92 E0
G1 X66.395 Y80.157 F7800.000
G1 E2.00000 F2400.00000
G1 F1800.000
G1 X65.993 Y79.755 E2.02488
G1 X65.993 Y79.011 E2.05741
G1 X67.139 Y80.157 E2.12831
G1 X67.883 Y80.157 E2.16084
G1 X65.993 Y78.267 E2.27775
G1 X65.993 Y77.523 E2.31028
G1 X68.627 Y80.157 E2.47320
G1 X69.371 Y80.157 E2.50574
G1 X65.993 Y76.779 E2.71466
G1 X65.993 Y76.035 E2.74720
G1 X70.115 Y80.157 E3.00214
G1 X70.859 Y80.157 E3.03467
G1 X65.993 Y75.291 E3.33562
G1 X65.993 Y74.548 E3.36816
G1 X71.602 Y80.157 E3.71512
G1 X72.346 Y80.157 E3.74765
G1 X65.993 Y73.804 E4.14062
G1 X65.993 Y73.060 E4.17316
G1 X73.090 Y80.157 E4.61214
G1 X73.834 Y80.157 E4.64467
G1 X65.993 Y72.316 E5.12966
G1 X65.993 Y71.572 E5.16220
G1 X74.578 Y80.157 E5.69320
G1 X75.322 Y80.157 E5.72573
G1 X65.993 Y70.828 E6.30275
G1 X65.993 Y70.084 E6.33528
G1 X76.066 Y80.157 E6.95830
G1 X76.810 Y80.157 E6.99084
G1 X66.496 Y69.843 E7.62878
G1 X67.240 Y69.843 E7.66132
G1 X77.553 Y80.157 E8.29927
G1 X78.297 Y80.157 E8.33180
G1 X67.983 Y69.843 E8.96975
G1 X68.727 Y69.843 E9.00228
G1 X79.041 Y80.157 E9.64023
G1 X79.785 Y80.157 E9.67276
G1 X69.471 Y69.843 E10.31071
G1 X70.215 Y69.843 E10.34324
G1 X80.529 Y80.157 E10.98119
G1 X81.273 Y80.157 E11.01372
G1 X70.959 Y69.843 E11.65167
G1 X71.703 Y69.843 E11.68421
G1 X82.017 Y80.157 E12.32215
G1 X82.761 Y80.157 E12.35469
G1 X72.447 Y69.843 E12.99263
G1 X73.190 Y69.843 E13.02517
G1 X83.504 Y80.157 E13.66312
G1 X84.007 Y80.157 E13.68510
G1 X84.007 Y79.916 E13.69565
G1 X73.934 Y69.843 E14.31867
G1 X74.678 Y69.843 E14.35121
G1 X84.007 Y79.172 E14.92822
G1 X84.007 Y78.428 E14.96075
G1 X75.422 Y69.843 E15.49175
G1 X76.166 Y69.843 E15.52429
G1 X84.007 Y77.684 E16.00928
G1 X84.007 Y76.940 E16.04181
G1 X76.910 Y69.843 E16.48079
G1 X77.654 Y69.843 E16.51333
G1 X84.007 Y76.196 E16.90630
G1 X84.007 Y75.452 E16.93883
G1 X78.398 Y69.843 E17.28579
G1 X79.141 Y69.843 E17.31833
G1 X84.007 Y74.709 E17.61928
G1 X84.007 Y73.965 E17.65181
G1 X79.885 Y69.843 E17.90675
G1 X80.629 Y69.843 E17.93928
G1 X84.007 Y73.221 E18.14821
G1 X84.007 Y72.477 E18.18074
G1 X81.373 Y69.843 E18.34366
G1 X82.117 Y69.843 E18.37620
G1 X84.007 Y71.733 E18.49310
G1 X84.007 Y70.989 E18.52564
G1 X82.861 Y69.843 E18.59653
G1 X83.605 Y69.843 E18.62907
G1 X84.007 Y70.245 E18.65395
G1 Z0.700 F7800.000
G1 E16.65395 F2400.00000
G92 E0
G1 X65.677 Y69.527 F7800.000
G1 E2.00000 F2400.00000
G1 F2400.000
G1 X84.323 Y69.527 E2.80168
G1 X84.323 Y80.473 E3.27230
G1 X65.677 Y80.473 E4.07399
G1 X65.677 Y69.587 E4.54203
G1 X65.220 Y69.070 F7800.000
G1 F2160.000
G1 X84.780 Y69.070 E5.18785
G1 X84.780 Y80.930 E5.57943
G1 X65.220 Y80.930 E6.22525
G1 X65.220 Y69.130 E6.61486
G1 X65.993 Y70.245 F7800.000
G1 F1800.000
G1 X66.395 Y69.843 E6.63973
G1 X67.139 Y69.843 E6.67227
G1 X65.993 Y70.989 E6.74316
G1 X65.993 Y71.733 E6.77570
G1 X67.883 Y69.843 E6.89261
G1 X68.627 Y69.843 E6.92514
G1 X65.993 Y72.477 E7.08806
G1 X65.993 Y73.221 E7.12059
G1 X69.371 Y69.843 E7.32952
G1 X70.115 Y69.843 E7.36206
G1 X65.993 Y73.965 E7.61699
G1 X65.993 Y74.709 E7.64953
G1 X70.859 Y69.843 E7.95048
G1 X71.602 Y69.843 E7.98301
G1 X65.993 Y75.452 E8.32997
G1 X65.993 Y76.196 E8.36251
G1 X72.346 Y69.843 E8.75548
G1 X73.090 Y69.843 E8.78801
G1 X65.993 Y76.940 E9.22699
G1 X65.993 Y77.684 E9.25953
G1 X73.834 Y69.843 E9.74452
G1 X74.578 Y69.843 E9.77705
G1 X65.993 Y78.428 E10.30806
G1 X65.993 Y79.172 E10.34059
G1 X75.322 Y69.843 E10.91760
G1 X76.066 Y69.843 E10.95014
G1 X65.993 Y79.916 E11.57316
G1 X65.993 Y80.157 E11.58371
G1 X66.496 Y80.157 E11.60569
G1 X76.810 Y69.843 E12.24364
G1 X77.553 Y69.843 E12.27618
G1 X67.240 Y80.157 E12.91412
G1 X67.983 Y80.157 E12.94666
G1 X78.297 Y69.843 E13.58460
G1 X79.041 Y69.843 E13.61714
G1 X68.727 Y80.157 E14.25508
G1 X69.471 Y80.157 E14.28762
G1 X79.785 Y69.843 E14.92557
G1 X80.529 Y69.843 E14.95810
G1 X70.215 Y80.157 E15.59605
G1 X70.959 Y80.157 E15.62858
G1 X81.273 Y69.843 E16.26653
G1 X82.017 Y69.843 E16.29906
G1 X71.703 Y80.157 E16.93701
G1 X72.447 Y80.157 E16.96954
G1 X82.761 Y69.843 E17.60749
G1 X83.504 Y69.843 E17.64003
G1 X73.190 Y80.157 E18.27797
G1 X73.934 Y80.157 E18.31051
G1 X84.007 Y70.084 E18.93353
G1 X84.007 Y70.828 E18.96606
G1 X74.678 Y80.157 E19.54308
G1 X75.422 Y80.157 E19.57561
G1 X84.007 Y71.572 E20.10661
G1 X84.007 Y72.316 E20.13915
G1 X76.166 Y80.157 E20.62414
G1 X76.910 Y80.157 E20.65667
G1 X84.007 Y73.060 E21.09565
G1 X84.007 Y73.804 E21.12819
G1 X77.654 Y80.157 E21.52116
G1 X78.398 Y80.157 E21.55369
G1 X84.007 Y74.548 E21.90065
G1 X84.007 Y75.291 E21.93318
G1 X79.141 Y80.157 E22.23413
G1 X79.885 Y80.157 E22.26667
G1 X84.007 Y76.035 E22.52160
G1 X84.007 Y76.779 E22.55414
G1 X80.629 Y80.157 E22.76307
G1 X81.373 Y80.157 E22.79560
G1 X84.007 Y77.523 E22.95852
G1 X84.007 Y78.267 E22.99105
G1 X82.117 Y80.157 E23.10796
G1 X82.861 Y80.157 E23.14049
G1 X84.007 Y79.011 E23.21139
G1 X84.007 Y79.755 E23.24392
G1 X83.605 Y80.157 E23.26881
G1 Z0.900 F7800.000
G1 E21.26881 F2400.00000
G92 E0
G1 X65.677 Y69.527 F7800.000
G1 E2.00000 F2400.00000
G1 F2400.000
G1 X84.323 Y69.527 E2.80168
G1 X84.323 Y80.473 E3.27230
G1 X65.677 Y80.473 E4.07399
G1 X65.677 Y69.587 E4.54203
G1 X65.220 Y69.070 F7800.000
G1 F2160.000
G1 X84.780 Y69.070 E5.18785
G1 X84.780 Y80.930 E5.57943
G1 X65.220 Y80.930 E6.22525
G1 X65.220 Y69.130 E6.61486
G1 E4.61486 F2400.00000
G92 E0
G1 X66.395 Y80.157 F7800.000
G1 E2.00000 F2400.00000
G1 F1800.000
G1 X65.993 Y79.755 E2.02488
G1 X65.993 Y79.011 E2.05741
G1 X67.139 Y80.157 E2.12831
G1 X67.883 Y80.157 E2.16084
G1 X65.993 Y78.267 E2.27775
G1 X65.993 Y77.523 E2.31028
G1 X68.627 Y80.157 E2.47320
G1 X69.371 Y80.157 E2.50574
G1 X65.993 Y76.779 E2.71466
G1 X65.993 Y76.035 E2.74720
G1 X70.115 Y80.157 E3.00214
G1 X70.859 Y80.157 E3.03467
G1 X65.993 Y75.291 E3.33562
G1 X65.993 Y74.548 E3.36816
G1 X71.602 Y80.157 E3.71512
G1 X72.346 Y80.157 E3.74765
G1 X65.993 Y73.804 E4.14062
G1 X65.993 Y73.060 E4.17316
G1 X73.090 Y80.157 E4.61214
G1 X73.834 Y80.157 E4.64467
G1 X65.993 Y72.316 E5.12966
G1 X65.993 Y71.572 E5.16220
G1 X74.578 Y80.157 E5.69320
G1 X75.322 Y80.157 E5.72573
G1 X65.993 Y70.828 E6.30275
G1 X65.993 Y70.084 E6.33528
G1 X76.066 Y80.157 E6.95830
G1 X76.810 Y80.157 E6.99084
G1 X66.496 Y69.843 E7.62878
G1 X67.240 Y69.843 E7.66132
G1 X77.553 Y80.157 E8.29927
G1 X78.297 Y80.157 E8.33180
G1 X67.983 Y69.843 E8.96975
G1 X68.727 Y69.843 E9.00228
G1 X79.041 Y80.157 E9.64023
G1 X79.785 Y80.157 E9.67276
G1 X69.471 Y69.843 E10.31071
G1 X70.215 Y69.843 E10.34324
G1 X80.529 Y80.157 E10.98119
G1 X81.273 Y80.157 E11.01372
G1 X70.959 Y69.843 E11.65167
G1 X71.703 Y69.843 E11.68421
G1 X82.017 Y80.157 E12.32215
G1 X82.761 Y80.157 E12.35469
G1 X72.447 Y69.843 E12.99263
G1 X73.190 Y69.843 E13.02517
G1 X83.504 Y80.157 E13.66312
G1 X84.007 Y80.157 E13.68510
G1 X84.007 Y79.916 E13.69565
G1 X73.934 Y69.843 E14.31867
G1 X74.678 Y69.843 E14.35121
G1 X84.007 Y79.172 E14.92822
G1 X84.007 Y78.428 E14.96075
G1 X75.422 Y69.843 E15.49175
G1 X76.166 Y69.843 E15.52429
G1 X84.007 Y77.684 E16.00928
G1 X84.007 Y76.940 E16.04181
G1 X76.910 Y69.843 E16.48079
G1 X77.654 Y69.843 E16.51333
G1 X84.007 Y76.196 E16.90630
G1 X84.007 Y75.452 E16.93883
G1 X78.398 Y69.843 E17.28579
G1 X79.141 Y69.843 E17.31833
G1 X84.007 Y74.709 E17.61928
G1 X84.007 Y73.965 E17.65181
G1 X79.885 Y69.843 E17.90675
G1 X80.629 Y69.843 E17.93928
G1 X84.007 Y73.221 E18.14821
G1 X84.007 Y72.477 E18.18074
G1 X81.373 Y69.843 E18.34366
G1 X82.117 Y69.843 E18.37620
G1 X84.007 Y71.733 E18.49310
G1 X84.007 Y70.989 E18.52564
G1 X82.861 Y69.843 E18.59653
G1 X83.605 Y69.843 E18.62907
G1 X84.007 Y70.245 E18.65395
G1 Z1.100 F7800.000
G1 E16.65395 F2400.00000
G92 E0
G1 X65.677 Y69.527 F7800.000
G1 E2.00000 F2400.00000
G1 F2352.261
G1 X84.323 Y69.527 E2.80168
G1 X84.323 Y80.473 E3.27230
G1 X65.677 Y80.473 E4.07399
G1 X65.677 Y69.587 E4.54203
G1 X65.220 Y69.070 F7800.000
G1 F2160.000
G1 X84.780 Y69.070 E5.18785
G1 X84.780 Y80.930 E5.57943
G1 X65.220 Y80.930 E6.22525
G1 X65.220 Y69.130 E6.61486
G1 E4.61486 F2400.00000
G92 E0
G1 X65.905 Y71.566 F7800.000
G1 E2.00000 F2400.00000
G1 F2352.261
G1 X71.956 Y69.945 E2.23807
G1 E0.23807 F2400.00000
G92 E0
G1 X68.080 Y69.755 F7800.000
G1 E2.00000 F2400.00000
G1 F2352.261
G1 X66.095 Y77.164 E2.29152
G1 E0.29152 F2400.00000
G92 E0
G1 X66.354 Y74.373 F7800.000
G1 E2.00000 F2400.00000
G1 F2352.261
G1 X66.354 Y80.175 E2.22051
G1 X72.156 Y80.175 E2.44102
G1 X65.975 Y73.994 E2.77324
G1 X65.975 Y69.825 E2.93172
G1 X81.197 Y69.825 E3.51027
G1 X84.025 Y72.653 E3.66227
G1 E1.66227 F2400.00000
G92 E0
G1 X82.276 Y69.755 F7800.000
G1 E2.00000 F2400.00000
G1 F2352.261
G1 X79.466 Y80.245 E2.41272
G1 Z1.300 F7800.000
G1 E0.41272 F2400.00000
G92 E0
G1 X65.677 Y69.527 F7800.000
G1 E2.00000 F2400.00000
G1 F2341.838
G1 X84.323 Y69.527 E2.80168
G1 X84.323 Y80.473 E3.27230
G1 X65.677 Y80.473 E4.07399
G1 X65.677 Y69.587 E4.54203
G1 X65.220 Y69.070 F7800.000
G1 F2160.000
G1 X84.780 Y69.070 E5.18785
G1 X84.780 Y80.930 E5.57943
G1 X65.220 Y80.930 E6.22525
G1 X65.220 Y69.130 E6.61486
G1 E4.61486 F2400.00000
G92 E0
G1 X65.905 Y71.359 F7800.000
G1 E2.00000 F2400.00000
G1 F2341.838
G1 X71.183 Y69.945 E2.20767
G1 E0.20767 F2400.00000
G92 E0
G1 X68.287 Y69.755 F7800.000
G1 E2.00000 F2400.00000
G1 F2341.838
G1 X66.095 Y77.937 E2.32193
G1 E0.32193 F2400.00000
G92 E0
G1 X66.354 Y74.656 F7800.000
G1 E2.00000 F2400.00000
G1 F2341.838
G1 X66.354 Y80.175 E2.20976
G1 X71.873 Y80.175 E2.41953
G1 X65.975 Y74.277 E2.73654
G1 X65.975 Y69.825 E2.90576
G1 X80.914 Y69.825 E3.47356
G1 X84.025 Y72.936 E3.64077
G1 E1.64077 F2400.00000
G92 E0
G1 X82.483 Y69.755 F7800.000
G1 E2.00000 F2400.00000
G1 F2341.838
G1 X79.673 Y80.245 E2.41272
G1 Z1.500 F7800.000
G1 E0.41272 F2400.00000
G92 E0
G1 X65.677 Y69.527 F7800.000
G1 E2.00000 F2400.00000
G1 F2331.414
G1 X84.323 Y69.527 E2.80168
G1 X84.323 Y80.473 E3.27230
G1 X65.677 Y80.473 E4.07399
G1 X65.677 Y69.587 E4.54203
G1 X65.220 Y69.070 F7800.000
G1 F2160.000
G1 X84.780 Y69.070 E5.18785
G1 X84.780 Y80.930 E5.57943
G1 X65.220 Y80.930 E6.22525
G1 X65.220 Y69.130 E6.61486
G1 E4.61486 F2400.00000
G92 E0
G1 X65.905 Y71.152 F7800.000
