; generated by Slic3r 1.3.1-dev (Build 4f5b935) on 2019-11-26 at 14:50:45

; external perimeters extrusion width = 0.55mm (1.90mm^3/s)
; perimeters extrusion width = 0.70mm (2.71mm^3/s)
; infill extrusion width = 0.62mm (2.41mm^3/s)
; solid infill extrusion width = 0.70mm (2.04mm^3/s)
; top infill extrusion width = 0.70mm (2.04mm^3/s)

M107
G92 E0
;D3D:START:START
T0
M104 S215 T0

G21
G90
M107
T0
G28
G29
M109 T0 S215 T0
G0 F3000
M107
T0
G92 E0
G0 X0 Y149 Z0.1 F3600
G1 Y49 E6.5 F1200
G0 Z1
G92 E0
; Filament gcode

G21 ; set units to millimeters
G90 ; use absolute coordinates
M82 ; use absolute distances for extrusion
G92 E0
G1 Z0.090 F7800.000
G1 E-2.00000 F2400.00000
G92 E0
G1 X69.829 Y66.551 F7800.000
G1 E2.00000 F2400.00000
G1 F1800.000
G1 X70.287 Y66.093 E2.00193
G1 X70.760 Y65.667 E2.00383
G1 X71.264 Y65.259 E2.00576
G1 X71.778 Y64.885 E2.00766
G1 X72.322 Y64.532 E2.00959
G1 X72.873 Y64.214 E2.01149
G1 X73.450 Y63.920 E2.01342
G1 X74.032 Y63.661 E2.01532
G1 X74.636 Y63.429 E2.01725
G1 X75.242 Y63.232 E2.01915
G1 X75.868 Y63.064 E2.02108
G1 X76.490 Y62.932 E2.02298
G1 X77.631 Y62.773 E2.02641
G1 X78.432 Y62.729 E2.02880
G1 X79.068 Y62.729 E2.03070
G1 X79.716 Y62.763 E2.03264
G1 X80.349 Y62.829 E2.03453
G1 X80.990 Y62.931 E2.03647
G1 X81.619 Y63.064 E2.03839
G1 X82.245 Y63.232 E2.04032
G1 X82.850 Y63.429 E2.04221
G1 X83.455 Y63.661 E2.04415
G1 X84.036 Y63.920 E2.04604
G1 X84.614 Y64.214 E2.04798
G1 X85.164 Y64.532 E2.04987
G1 X85.708 Y64.885 E2.05180
G1 X86.223 Y65.259 E2.05370
G1 X86.726 Y65.667 E2.05563
G1 X87.200 Y66.093 E2.05753
G1 X87.658 Y66.552 E2.05947
G1 X88.084 Y67.024 E2.06136
G1 X88.475 Y67.507 E2.06322
G1 X89.526 Y69.436 E2.06976
G1 X89.830 Y71.333 E2.07549
G1 X89.830 Y78.667 E2.09736
G1 X89.433 Y80.827 E2.10391
G1 X88.475 Y82.493 E2.10964
G1 X88.083 Y82.977 E2.11150
G1 X87.657 Y83.450 E2.11339
G1 X87.199 Y83.908 E2.11532
G1 X86.726 Y84.333 E2.11722
G1 X86.223 Y84.741 E2.11915
G1 X85.708 Y85.115 E2.12105
G1 X85.164 Y85.468 E2.12298
G1 X84.614 Y85.786 E2.12488
G1 X84.036 Y86.080 E2.12681
G1 X83.455 Y86.339 E2.12871
G1 X82.850 Y86.571 E2.13064
G1 X82.245 Y86.768 E2.13254
G1 X81.341 Y87.003 E2.13532
G1 X80.349 Y87.171 E2.13832
G1 X79.716 Y87.237 E2.14022
G1 X79.068 Y87.271 E2.14215
G1 X78.432 Y87.271 E2.14405
G1 X77.784 Y87.237 E2.14599
G1 X77.130 Y87.169 E2.14795
G1 X76.490 Y87.068 E2.14988
G1 X75.867 Y86.935 E2.15178
G1 X75.241 Y86.768 E2.15371
G1 X74.636 Y86.571 E2.15561
G1 X74.031 Y86.339 E2.15754
G1 X73.450 Y86.080 E2.15944
G1 X72.873 Y85.786 E2.16137
G1 X72.321 Y85.468 E2.16327
G1 X71.778 Y85.115 E2.16520
G1 X71.263 Y84.741 E2.16709
G1 X70.760 Y84.333 E2.16903
G1 X70.287 Y83.907 E2.17092
G1 X69.828 Y83.449 E2.17286
G1 X69.402 Y82.976 E2.17476
G1 X68.994 Y82.472 E2.17669
G1 X68.620 Y81.957 E2.17859
G1 X68.267 Y81.413 E2.18052
G1 X67.949 Y80.862 E2.18242
G1 X67.655 Y80.284 E2.18435
G1 X67.396 Y79.703 E2.18625
G1 X67.164 Y79.098 E2.18818
G1 X66.967 Y78.492 E2.19008
G1 X66.799 Y77.865 E2.19201
G1 X66.667 Y77.242 E2.19391
G1 X66.565 Y76.599 E2.19585
G1 X66.499 Y75.966 E2.19775
G1 X66.465 Y75.316 E2.19969
G1 X66.465 Y74.680 E2.20159
G1 X66.499 Y74.030 E2.20353
G1 X66.566 Y73.396 E2.20543
G1 X66.668 Y72.754 E2.20737
G1 X66.800 Y72.132 E2.20926
G1 X66.968 Y71.506 E2.21120
G1 X67.164 Y70.901 E2.21309
G1 X67.397 Y70.296 E2.21503
G1 X67.655 Y69.715 E2.21692
G1 X67.950 Y69.137 E2.21886
G1 X68.268 Y68.586 E2.22075
G1 X68.621 Y68.042 E2.22269
G1 X68.995 Y67.527 E2.22458
G1 X69.403 Y67.024 E2.22652
G1 X69.779 Y66.607 E2.22819
G1 E0.22819 F2400.00000
G92 E0
G1 X82.039 Y79.382 F7800.000
G1 E2.00000 F2400.00000
G1 F1800.000
G1 X81.691 Y79.635 E2.00128
G1 X81.087 Y79.967 E2.00334
G1 X80.446 Y80.220 E2.00539
G1 X79.779 Y80.392 E2.00745
G1 X79.095 Y80.478 E2.00950
G1 X78.405 Y80.478 E2.01156
G1 X77.721 Y80.392 E2.01361
G1 X77.054 Y80.220 E2.01567
G1 X76.413 Y79.967 E2.01772
G1 X75.809 Y79.635 E2.01978
G1 X75.461 Y79.382 E2.02106
G1 X75.461 Y70.618 E2.04719
G1 X75.809 Y70.365 E2.04847
G1 X76.413 Y70.033 E2.05053
G1 X77.054 Y69.780 E2.05258
G1 X77.721 Y69.608 E2.05464
G1 X78.405 Y69.522 E2.05669
G1 X79.095 Y69.522 E2.05875
G1 X79.779 Y69.608 E2.06080
G1 X80.446 Y69.780 E2.06286
G1 X81.087 Y70.033 E2.06491
G1 X81.691 Y70.365 E2.06697
G1 X82.039 Y70.618 E2.06825
G1 X82.039 Y79.307 E2.09416
G1 X81.959 Y79.342 F7800.000
G1 F1800.000
G1 X81.648 Y79.567 E2.09530
G1 X81.053 Y79.894 E2.09733
G1 X80.422 Y80.145 E2.09935
G1 X79.764 Y80.313 E2.10138
G1 X79.090 Y80.399 E2.10340
G1 X78.410 Y80.399 E2.10543
G1 X77.736 Y80.313 E2.10746
G1 X77.078 Y80.145 E2.10948
G1 X76.447 Y79.894 E2.11151
G1 X75.852 Y79.567 E2.11353
G1 X75.541 Y79.342 E2.11468
G1 X75.541 Y70.658 E2.14057
G1 X75.852 Y70.433 E2.14171
G1 X76.447 Y70.106 E2.14374
G1 X77.078 Y69.855 E2.14576
G1 X77.736 Y69.687 E2.14779
G1 X78.410 Y69.601 E2.14981
G1 X79.090 Y69.601 E2.15184
G1 X79.764 Y69.687 E2.15386
G1 X80.422 Y69.855 E2.15589
G1 X81.053 Y70.106 E2.15791
G1 X81.648 Y70.433 E2.15994
G1 X81.959 Y70.658 E2.16108
G1 X81.959 Y79.267 E2.18675
G1 X81.879 Y79.301 F7800.000
G1 F1800.000
G1 X81.606 Y79.500 E2.18776
G1 X81.019 Y79.822 E2.18975
G1 X80.397 Y80.069 E2.19175
G1 X79.749 Y80.235 E2.19375
G1 X79.085 Y80.319 E2.19574
G1 X78.415 Y80.319 E2.19774
G1 X77.751 Y80.235 E2.19973
G1 X77.103 Y80.069 E2.20173
G1 X76.481 Y79.822 E2.20372
G1 X75.894 Y79.500 E2.20572
G1 X75.621 Y79.301 E2.20673
G1 X75.621 Y70.699 E2.23238
G1 X75.894 Y70.500 E2.23338
G1 X76.481 Y70.178 E2.23538
G1 X77.103 Y69.931 E2.23738
G1 X77.751 Y69.765 E2.23937
G1 X78.415 Y69.681 E2.24137
G1 X79.085 Y69.681 E2.24336
G1 X79.749 Y69.765 E2.24536
G1 X80.397 Y69.931 E2.24735
G1 X81.019 Y70.178 E2.24935
G1 X81.606 Y70.500 E2.25134
G1 X81.879 Y70.699 E2.25235
G1 X81.879 Y79.226 E2.27778
G1 X81.799 Y79.260 F7800.000
G1 F1800.000
G1 X81.563 Y79.432 E2.27865
G1 X80.985 Y79.750 E2.28061
G1 X80.372 Y79.993 E2.28258
G1 X79.734 Y80.157 E2.28455
G1 X79.080 Y80.239 E2.28651
G1 X78.420 Y80.239 E2.28848
G1 X77.766 Y80.157 E2.29044
G1 X77.128 Y79.993 E2.29241
G1 X76.515 Y79.750 E2.29437
G1 X75.937 Y79.432 E2.29634
G1 X75.701 Y79.260 E2.29721
G1 X75.701 Y70.740 E2.32262
G1 X75.937 Y70.568 E2.32349
G1 X76.515 Y70.250 E2.32546
G1 X77.128 Y70.007 E2.32742
G1 X77.766 Y69.843 E2.32939
G1 X78.420 Y69.761 E2.33135
G1 X79.080 Y69.761 E2.33332
G1 X79.734 Y69.843 E2.33528
G1 X80.372 Y70.007 E2.33725
G1 X80.985 Y70.250 E2.33922
G1 X81.563 Y70.568 E2.34118
G1 X81.799 Y70.740 E2.34205
G1 X81.799 Y79.185 E2.36724
G1 X81.921 Y79.527 F7800.000
G1 X82.165 Y79.823 F7800.000
G1 F1800.000
G1 X81.709 Y80.119 E2.36886
G1 X81.159 Y80.399 E2.37070
G1 X80.582 Y80.621 E2.37254
G1 X79.985 Y80.780 E2.37438
G1 X79.368 Y80.879 E2.37625
G1 X78.750 Y80.911 E2.37809
G1 X78.112 Y80.877 E2.38000
G1 X77.501 Y80.780 E2.38184
G1 X76.904 Y80.621 E2.38368
G1 X76.328 Y80.399 E2.38552
G1 X75.777 Y80.119 E2.38737
G1 X75.259 Y79.782 E2.38921
G1 X74.779 Y79.393 E2.39105
G1 X74.342 Y78.957 E2.39289
G1 X73.953 Y78.476 E2.39473
G1 X73.617 Y77.958 E2.39658
G1 X73.336 Y77.407 E2.39842
G1 X73.115 Y76.830 E2.40026
G1 X72.954 Y76.232 E2.40211
G1 X72.858 Y75.619 E2.40396
G1 X72.825 Y74.999 E2.40581
G1 X72.858 Y74.379 E2.40766
G1 X72.955 Y73.766 E2.40951
G1 X73.115 Y73.169 E2.41135
G1 X73.336 Y72.592 E2.41320
G1 X73.617 Y72.042 E2.41504
G1 X73.954 Y71.523 E2.41688
G1 X74.343 Y71.043 E2.41873
G1 X74.779 Y70.607 E2.42057
G1 X75.259 Y70.218 E2.42241
G1 X75.777 Y69.881 E2.42425
G1 X76.328 Y69.601 E2.42609
G1 X76.904 Y69.379 E2.42793
G1 X77.501 Y69.220 E2.42978
G1 X78.134 Y69.121 E2.43169
G1 X78.750 Y69.089 E2.43353
G1 X79.368 Y69.121 E2.43537
G1 X79.979 Y69.218 E2.43722
G1 X80.582 Y69.379 E2.43908
G1 X81.159 Y69.601 E2.44092
G1 X81.709 Y69.881 E2.44276
G1 X82.227 Y70.217 E2.44460
G1 X82.707 Y70.606 E2.44644
G1 X83.144 Y71.044 E2.44829
G1 X83.461 Y71.435 E2.44979
G1 X83.461 Y78.565 E2.47105
G1 X83.143 Y78.957 E2.47255
G1 X82.707 Y79.394 E2.47439
G1 X82.228 Y79.782 E2.47623
G1 X82.208 Y79.890 F7800.000
G1 F1800.000
G1 X81.749 Y80.188 E2.47787
G1 X81.191 Y80.472 E2.47973
G1 X80.607 Y80.696 E2.48160
G1 X80.002 Y80.859 E2.48346
G1 X79.376 Y80.958 E2.48535
G1 X78.750 Y80.991 E2.48722
G1 X78.103 Y80.956 E2.48916
G1 X77.484 Y80.858 E2.49102
G1 X76.880 Y80.696 E2.49289
G1 X76.295 Y80.472 E2.49476
G1 X75.737 Y80.188 E2.49662
G1 X75.212 Y79.847 E2.49849
G1 X74.726 Y79.453 E2.50036
G1 X74.283 Y79.010 E2.50222
G1 X73.889 Y78.523 E2.50409
G1 X73.548 Y77.998 E2.50596
G1 X73.263 Y77.440 E2.50783
G1 X73.039 Y76.855 E2.50970
G1 X72.876 Y76.248 E2.51157
G1 X72.778 Y75.627 E2.51344
G1 X72.745 Y74.999 E2.51532
G1 X72.778 Y74.371 E2.51719
G1 X72.877 Y73.750 E2.51907
G1 X73.039 Y73.145 E2.52094
G1 X73.264 Y72.560 E2.52280
G1 X73.548 Y72.002 E2.52467
G1 X73.889 Y71.476 E2.52654
G1 X74.283 Y70.990 E2.52841
G1 X74.726 Y70.547 E2.53027
G1 X75.213 Y70.153 E2.53214
G1 X75.737 Y69.812 E2.53401
G1 X76.295 Y69.528 E2.53587
G1 X76.880 Y69.304 E2.53774
G1 X77.484 Y69.142 E2.53961
G1 X78.126 Y69.042 E2.54154
G1 X78.750 Y69.009 E2.54341
G1 X79.376 Y69.042 E2.54527
G1 X79.996 Y69.140 E2.54714
G1 X80.607 Y69.304 E2.54903
G1 X81.191 Y69.528 E2.55090
G1 X81.749 Y69.812 E2.55276
G1 X82.274 Y70.153 E2.55463
G1 X82.760 Y70.547 E2.55650
G1 X83.203 Y70.990 E2.55837
G1 X83.541 Y71.407 E2.55997
G1 X83.541 Y78.593 E2.58139
G1 X83.203 Y79.011 E2.58299
G1 X82.760 Y79.453 E2.58486
G1 X82.271 Y79.849 E2.58674
G1 X82.252 Y79.957 F7800.000
G1 F1800.000
G1 X81.789 Y80.257 E2.58838
G1 X81.224 Y80.545 E2.59027
G1 X80.631 Y80.772 E2.59216
G1 X80.019 Y80.937 E2.59405
G1 X79.385 Y81.037 E2.59597
G1 X78.750 Y81.071 E2.59786
G1 X78.095 Y81.036 E2.59982
G1 X77.468 Y80.936 E2.60171
G1 X76.855 Y80.772 E2.60360
G1 X76.263 Y80.545 E2.60550
G1 X75.698 Y80.257 E2.60739
G1 X75.165 Y79.911 E2.60928
G1 X74.672 Y79.512 E2.61117
G1 X74.224 Y79.063 E2.61306
G1 X73.824 Y78.570 E2.61496
G1 X73.479 Y78.038 E2.61685
G1 X73.190 Y77.472 E2.61874
G1 X72.963 Y76.879 E2.62063
G1 X72.798 Y76.265 E2.62253
G1 X72.699 Y75.636 E2.62443
G1 X72.666 Y74.999 E2.62633
G1 X72.699 Y74.362 E2.62823
G1 X72.799 Y73.733 E2.63013
G1 X72.963 Y73.120 E2.63202
G1 X73.191 Y72.527 E2.63392
G1 X73.479 Y71.962 E2.63581
G1 X73.824 Y71.430 E2.63770
G1 X74.224 Y70.936 E2.63959
G1 X74.672 Y70.488 E2.64149
G1 X75.166 Y70.089 E2.64338
G1 X75.698 Y69.743 E2.64527
G1 X76.263 Y69.455 E2.64716
G1 X76.855 Y69.228 E2.64905
G1 X77.468 Y69.063 E2.65094
G1 X78.118 Y68.962 E2.65291
G1 X78.750 Y68.929 E2.65479
G1 X79.385 Y68.963 E2.65669
G1 X80.012 Y69.062 E2.65858
G1 X80.631 Y69.228 E2.66049
G1 X81.224 Y69.455 E2.66238
G1 X81.789 Y69.743 E2.66427
G1 X82.321 Y70.088 E2.66617
G1 X82.814 Y70.488 E2.66806
G1 X83.263 Y70.937 E2.66995
G1 X83.621 Y71.379 E2.67165
G1 X83.621 Y78.621 E2.69324
G1 X83.262 Y79.064 E2.69494
G1 X82.814 Y79.512 E2.69683
G1 X82.314 Y79.916 E2.69875
G1 X82.295 Y80.023 F7800.000
G1 F1800.000
G1 X81.829 Y80.326 E2.70040
G1 X81.256 Y80.618 E2.70232
G1 X80.656 Y80.848 E2.70424
G1 X80.035 Y81.015 E2.70615
G1 X79.393 Y81.117 E2.70809
G1 X78.750 Y81.150 E2.71001
G1 X78.086 Y81.115 E2.71199
G1 X77.451 Y81.015 E2.71391
G1 X76.831 Y80.848 E2.71583
G1 X76.230 Y80.618 E2.71774
G1 X75.658 Y80.326 E2.71966
G1 X75.118 Y79.976 E2.72158
G1 X74.619 Y79.571 E2.72349
G1 X74.164 Y79.117 E2.72541
G1 X73.760 Y78.617 E2.72733
G1 X73.409 Y78.077 E2.72924
G1 X73.117 Y77.504 E2.73116
G1 X72.887 Y76.904 E2.73308
G1 X72.720 Y76.282 E2.73500
G1 X72.619 Y75.644 E2.73693
G1 X72.586 Y74.999 E2.73885
G1 X72.620 Y74.354 E2.74078
G1 X72.721 Y73.717 E2.74270
G1 X72.887 Y73.095 E2.74462
G1 X73.118 Y72.495 E2.74654
G1 X73.410 Y71.922 E2.74845
G1 X73.760 Y71.383 E2.75037
G1 X74.165 Y70.883 E2.75229
G1 X74.619 Y70.429 E2.75420
G1 X75.119 Y70.024 E2.75612
G1 X75.658 Y69.674 E2.75804
G1 X76.231 Y69.382 E2.75996
G1 X76.831 Y69.152 E2.76187
G1 X77.452 Y68.985 E2.76379
G1 X78.110 Y68.883 E2.76577
G1 X78.750 Y68.850 E2.76769
G1 X79.393 Y68.883 E2.76961
G1 X80.029 Y68.984 E2.77153
G1 X80.656 Y69.152 E2.77346
G1 X81.256 Y69.382 E2.77538
G1 X81.829 Y69.674 E2.77729
G1 X82.368 Y70.024 E2.77921
G1 X82.867 Y70.428 E2.78113
G1 X83.322 Y70.883 E2.78304
G1 X83.701 Y71.351 E2.78484
G1 X83.701 Y78.649 E2.80660
G1 X83.321 Y79.117 E2.80840
G1 X82.867 Y79.572 E2.81031
G1 X82.358 Y79.983 E2.81226
G1 X81.843 Y79.810 F7800.000
G1 X82.087 Y79.449 F7800.000
G1 F1800.000
G1 X83.413 Y78.123 E2.81786
G1 X83.413 Y78.010 E2.81820
G1 X82.087 Y79.336 E2.82380
G1 X82.087 Y79.223 E2.82414
G1 X83.413 Y77.897 E2.82974
G1 X83.413 Y77.784 E2.83008
G1 X82.087 Y79.110 E2.83568
G1 X82.087 Y78.997 E2.83602
G1 X83.413 Y77.672 E2.84162
G1 X83.413 Y77.559 E2.84196
G1 X82.087 Y78.884 E2.84756
G1 X82.087 Y78.771 E2.84790
G1 X83.413 Y77.446 E2.85350
G1 X83.413 Y77.333 E2.85384
G1 X82.087 Y78.658 E2.85944
G1 X82.087 Y78.545 E2.85978
G1 X83.413 Y77.220 E2.86538
G1 X83.413 Y77.107 E2.86571
G1 X82.087 Y78.432 E2.87132
G1 X82.087 Y78.319 E2.87165
G1 X83.413 Y76.994 E2.87726
G1 X83.413 Y76.881 E2.87759
G1 X82.087 Y78.206 E2.88319
G1 X82.087 Y78.094 E2.88353
G1 X83.413 Y76.768 E2.88913
G1 X83.413 Y76.655 E2.88947
G1 X82.087 Y77.981 E2.89507
G1 X82.087 Y77.868 E2.89541
G1 X83.413 Y76.542 E2.90101
G1 X83.413 Y76.429 E2.90135
G1 X82.087 Y77.755 E2.90695
G1 X82.087 Y77.642 E2.90729
G1 X83.413 Y76.316 E2.91289
G1 X83.413 Y76.203 E2.91323
G1 X82.087 Y77.529 E2.91883
G1 X82.087 Y77.416 E2.91917
G1 X83.413 Y76.090 E2.92477
G1 X83.413 Y75.977 E2.92511
G1 X82.087 Y77.303 E2.93071
G1 X82.087 Y77.190 E2.93105
G1 X83.413 Y75.864 E2.93665
G1 X83.413 Y75.752 E2.93698
G1 X82.087 Y77.077 E2.94259
G1 X82.087 Y76.964 E2.94292
G1 X83.413 Y75.639 E2.94853
G1 X83.413 Y75.526 E2.94886
G1 X82.087 Y76.851 E2.95447
G1 X82.087 Y76.738 E2.95480
G1 X83.413 Y75.413 E2.96040
G1 X83.413 Y75.300 E2.96074
G1 X82.087 Y76.625 E2.96634
G1 X82.087 Y76.512 E2.96668
G1 X83.413 Y75.187 E2.97228
G1 X83.413 Y75.074 E2.97262
G1 X82.087 Y76.399 E2.97822
G1 X82.087 Y76.287 E2.97856
G1 X83.413 Y74.961 E2.98416
G1 X83.413 Y74.848 E2.98450
G1 X82.087 Y76.174 E2.99010
G1 X82.087 Y76.061 E2.99044
G1 X83.413 Y74.735 E2.99604
G1 X83.413 Y74.622 E2.99638
G1 X82.087 Y75.948 E3.00198
G1 X82.087 Y75.835 E3.00232
G1 X83.413 Y74.509 E3.00792
G1 X83.413 Y74.396 E3.00826
G1 X82.087 Y75.722 E3.01386
G1 X82.087 Y75.609 E3.01419
G1 X83.413 Y74.283 E3.01980
G1 X83.413 Y74.170 E3.02013
G1 X82.087 Y75.496 E3.02574
G1 X82.087 Y75.383 E3.02607
G1 X83.413 Y74.057 E3.03167
G1 X83.413 Y73.945 E3.03201
G1 X82.087 Y75.270 E3.03761
G1 X82.087 Y75.157 E3.03795
G1 X83.413 Y73.832 E3.04355
G1 X83.413 Y73.719 E3.04389
G1 X82.087 Y75.044 E3.04949
G1 X82.087 Y74.931 E3.04983
G1 X83.413 Y73.606 E3.05543
G1 X83.413 Y73.493 E3.05577
G1 X82.087 Y74.818 E3.06137
G1 X82.087 Y74.705 E3.06171
G1 X83.413 Y73.380 E3.06731
G1 X83.413 Y73.267 E3.06765
G1 X82.087 Y74.592 E3.07325
G1 X82.087 Y74.479 E3.07359
G1 X83.413 Y73.154 E3.07919
G1 X83.413 Y73.041 E3.07953
G1 X82.087 Y74.367 E3.08513
G1 X82.087 Y74.254 E3.08546
G1 X83.413 Y72.928 E3.09107
G1 X83.413 Y72.815 E3.09140
G1 X82.087 Y74.141 E3.09701
G1 X82.087 Y74.028 E3.09734
G1 X83.413 Y72.702 E3.10294
G1 X83.413 Y72.589 E3.10328
G1 X82.087 Y73.915 E3.10888
G1 X82.087 Y73.802 E3.10922
G1 X83.413 Y72.476 E3.11482
G1 X83.413 Y72.363 E3.11516
G1 X82.087 Y73.689 E3.12076
G1 X82.087 Y73.576 E3.12110
G1 X83.413 Y72.250 E3.12670
G1 X83.413 Y72.137 E3.12704
G1 X82.087 Y73.463 E3.13264
G1 X82.087 Y73.350 E3.13298
G1 X83.413 Y72.025 E3.13858
G1 X83.413 Y71.912 E3.13892
G1 X82.087 Y73.237 E3.14452
G1 X82.087 Y73.124 E3.14486
G1 X83.413 Y71.799 E3.15046
G1 X83.413 Y71.686 E3.15080
G1 X82.087 Y73.011 E3.15640
G1 X82.087 Y72.898 E3.15673
G1 X83.413 Y71.573 E3.16234
G1 X83.413 Y71.460 E3.16267
G1 X82.087 Y72.785 E3.16828
G1 X82.087 Y72.672 E3.16861
G1 X83.374 Y71.385 E3.17405
G1 X83.324 Y71.323 E3.17429
G1 X82.087 Y72.559 E3.17952
G1 X82.087 Y72.447 E3.17986
G1 X83.273 Y71.260 E3.18487
G1 X83.223 Y71.198 E3.18511
G1 X82.087 Y72.334 E3.18991
G1 X82.087 Y72.221 E3.19024
G1 X83.172 Y71.136 E3.19483
G1 X83.122 Y71.073 E3.19507
G1 X82.087 Y72.108 E3.19944
G1 X82.087 Y71.995 E3.19978
G1 X83.066 Y71.016 E3.20391
G1 X83.009 Y70.960 E3.20415
G1 X82.087 Y71.882 E3.20805
G1 X82.087 Y71.769 E3.20839
G1 X82.953 Y70.903 E3.21205
