; generated by Slic3r 1.3.1-dev (Build adea0d9) on 2019-12-16 at 00:49:50

; external perimeters extrusion width = 0.44mm (2.86mm^3/s)
; perimeters extrusion width = 0.56mm (4.14mm^3/s)
; infill extrusion width = 0.50mm (3.66mm^3/s)
; solid infill extrusion width = 0.56mm (3.10mm^3/s)
; top infill extrusion width = 0.56mm (3.10mm^3/s)

M107
G92 E0
;D3D:START:START
T0
M104 S215 T0

G21
G90
M107
T0
G28
G29
M109 T0 S215 T0
G0 F3000
M107
T0
G92 E0
G0 X0 Y149 Z0.1 F3600
G1 Y49 E6.5 F1200
G0 Z1
G92 E0
; Filament gcode

G21 ; set units to millimeters
G90 ; use absolute coordinates
M82 ; use absolute distances for extrusion
G92 E0
G1 Z0.300 F7800.000
G1 E-2.00000 F2400.00000
G92 E0
G1 X71.202 Y71.202 F7800.000
G1 E2.00000 F2400.00000
G1 F1800.000
G1 X71.511 Y70.915 E2.01397
G1 X71.843 Y70.654 E2.02795
G1 X72.193 Y70.420 E2.04192
G1 X72.561 Y70.214 E2.05589
G1 X72.944 Y70.037 E2.06987
G1 X73.340 Y69.891 E2.08384
G1 X73.746 Y69.777 E2.09782
G1 X74.160 Y69.694 E2.11179
G1 X74.579 Y69.645 E2.12576
G1 X75.000 Y69.628 E2.13974
G1 X75.421 Y69.645 E2.15371
G1 X75.840 Y69.694 E2.16768
G1 X76.254 Y69.777 E2.18166
G1 X76.660 Y69.891 E2.19563
G1 X77.056 Y70.037 E2.20961
G1 X77.439 Y70.214 E2.22358
G1 X77.807 Y70.420 E2.23755
G1 X78.157 Y70.654 E2.25153
G1 X78.489 Y70.915 E2.26550
G1 X78.798 Y71.202 E2.27947
G1 X79.085 Y71.511 E2.29345
G1 X79.346 Y71.843 E2.30742
G1 X79.580 Y72.193 E2.32140
G1 X79.786 Y72.561 E2.33537
G1 X79.963 Y72.944 E2.34934
G1 X80.109 Y73.340 E2.36332
G1 X80.223 Y73.746 E2.37729
G1 X80.306 Y74.160 E2.39126
G1 X80.355 Y74.579 E2.40524
G1 X80.372 Y75.000 E2.41921
G1 X80.355 Y75.421 E2.43318
G1 X80.306 Y75.840 E2.44716
G1 X80.223 Y76.254 E2.46113
G1 X80.109 Y76.660 E2.47511
G1 X79.963 Y77.056 E2.48908
G1 X79.786 Y77.439 E2.50305
G1 X79.580 Y77.807 E2.51703
G1 X79.346 Y78.157 E2.53100
G1 X79.085 Y78.489 E2.54497
G1 X78.798 Y78.798 E2.55895
G1 X78.489 Y79.085 E2.57292
G1 X78.157 Y79.346 E2.58690
G1 X77.807 Y79.580 E2.60087
G1 X77.439 Y79.786 E2.61484
G1 X77.056 Y79.963 E2.62882
G1 X76.660 Y80.109 E2.64279
G1 X76.254 Y80.223 E2.65676
G1 X75.840 Y80.306 E2.67074
G1 X75.421 Y80.355 E2.68471
G1 X75.000 Y80.372 E2.69868
G1 X74.579 Y80.355 E2.71266
G1 X74.160 Y80.306 E2.72663
G1 X73.746 Y80.223 E2.74061
G1 X73.340 Y80.109 E2.75458
G1 X72.944 Y79.963 E2.76855
G1 X72.561 Y79.786 E2.78253
G1 X72.193 Y79.580 E2.79650
G1 X71.843 Y79.346 E2.81047
G1 X71.511 Y79.085 E2.82445
G1 X71.202 Y78.798 E2.83842
G1 X70.915 Y78.489 E2.85240
G1 X70.654 Y78.157 E2.86637
G1 X70.420 Y77.807 E2.88034
G1 X70.214 Y77.439 E2.89432
G1 X70.037 Y77.056 E2.90829
G1 X69.891 Y76.660 E2.92226
G1 X69.777 Y76.254 E2.93624
G1 X69.694 Y75.840 E2.95021
G1 X69.645 Y75.421 E2.96419
G1 X69.628 Y75.000 E2.97816
G1 X69.645 Y74.579 E2.99213
G1 X69.694 Y74.160 E3.00611
G1 X69.777 Y73.746 E3.02008
G1 X69.891 Y73.340 E3.03405
G1 X70.037 Y72.944 E3.04803
G1 X70.214 Y72.561 E3.06200
G1 X70.420 Y72.193 E3.07597
G1 X70.654 Y71.843 E3.08995
G1 X70.915 Y71.511 E3.10392
G1 X71.161 Y71.246 E3.11591
G1 X71.390 Y71.390 F7800.000
G1 F1800.000
G1 X71.684 Y71.117 E3.12919
G1 X71.999 Y70.869 E3.14247
G1 X72.332 Y70.646 E3.15575
G1 X72.682 Y70.451 E3.16904
G1 X73.046 Y70.283 E3.18232
G1 X73.422 Y70.144 E3.19560
G1 X73.808 Y70.035 E3.20888
G1 X74.201 Y69.957 E3.22217
G1 X74.599 Y69.910 E3.23545
G1 X75.000 Y69.894 E3.24873
G1 X75.401 Y69.910 E3.26201
G1 X75.799 Y69.957 E3.27529
G1 X76.192 Y70.035 E3.28858
G1 X76.578 Y70.144 E3.30186
G1 X76.954 Y70.283 E3.31514
G1 X77.318 Y70.451 E3.32842
G1 X77.668 Y70.646 E3.34171
G1 X78.001 Y70.869 E3.35499
G1 X78.316 Y71.117 E3.36827
G1 X78.610 Y71.390 E3.38155
G1 X78.883 Y71.684 E3.39483
G1 X79.131 Y71.999 E3.40812
G1 X79.354 Y72.332 E3.42140
G1 X79.549 Y72.682 E3.43468
G1 X79.717 Y73.046 E3.44796
G1 X79.856 Y73.422 E3.46125
G1 X79.965 Y73.808 E3.47453
G1 X80.043 Y74.201 E3.48781
G1 X80.090 Y74.599 E3.50109
G1 X80.106 Y75.000 E3.51437
G1 X80.090 Y75.401 E3.52766
G1 X80.043 Y75.799 E3.54094
G1 X79.965 Y76.192 E3.55422
G1 X79.856 Y76.578 E3.56750
G1 X79.717 Y76.954 E3.58079
G1 X79.549 Y77.318 E3.59407
G1 X79.354 Y77.668 E3.60735
G1 X79.131 Y78.001 E3.62063
G1 X78.883 Y78.316 E3.63391
G1 X78.610 Y78.610 E3.64720
G1 X78.316 Y78.883 E3.66048
G1 X78.001 Y79.131 E3.67376
G1 X77.668 Y79.354 E3.68704
G1 X77.318 Y79.549 E3.70033
G1 X76.954 Y79.717 E3.71361
G1 X76.578 Y79.856 E3.72689
G1 X76.192 Y79.965 E3.74017
G1 X75.799 Y80.043 E3.75345
G1 X75.401 Y80.090 E3.76674
G1 X75.000 Y80.106 E3.78002
G1 X74.599 Y80.090 E3.79330
G1 X74.201 Y80.043 E3.80658
G1 X73.808 Y79.965 E3.81986
G1 X73.422 Y79.856 E3.83315
G1 X73.046 Y79.717 E3.84643
G1 X72.682 Y79.549 E3.85971
G1 X72.332 Y79.354 E3.87299
G1 X71.999 Y79.131 E3.88628
G1 X71.684 Y78.883 E3.89956
G1 X71.390 Y78.610 E3.91284
G1 X71.117 Y78.316 E3.92612
G1 X70.869 Y78.001 E3.93940
G1 X70.646 Y77.668 E3.95269
G1 X70.451 Y77.318 E3.96597
G1 X70.283 Y76.954 E3.97925
G1 X70.144 Y76.578 E3.99253
G1 X70.035 Y76.192 E4.00582
G1 X69.957 Y75.799 E4.01910
G1 X69.910 Y75.401 E4.03238
G1 X69.894 Y75.000 E4.04566
G1 X69.910 Y74.599 E4.05894
G1 X69.957 Y74.201 E4.07223
G1 X70.035 Y73.808 E4.08551
G1 X70.144 Y73.422 E4.09879
G1 X70.283 Y73.046 E4.11207
G1 X70.451 Y72.682 E4.12536
G1 X70.646 Y72.332 E4.13864
G1 X70.869 Y71.999 E4.15192
G1 X71.117 Y71.684 E4.16520
G1 X71.349 Y71.434 E4.17650
G1 X71.578 Y71.578 F7800.000
G1 F1800.000
G1 X71.857 Y71.320 E4.18909
G1 X72.155 Y71.084 E4.20168
G1 X72.471 Y70.873 E4.21427
G1 X72.803 Y70.687 E4.22686
G1 X73.148 Y70.528 E4.23945
G1 X73.504 Y70.397 E4.25204
G1 X73.870 Y70.294 E4.26463
G1 X74.243 Y70.219 E4.27722
G1 X74.620 Y70.175 E4.28981
G1 X75.000 Y70.160 E4.30240
G1 X75.380 Y70.175 E4.31499
G1 X75.757 Y70.219 E4.32759
G1 X76.130 Y70.294 E4.34018
G1 X76.496 Y70.397 E4.35277
G1 X76.852 Y70.528 E4.36536
G1 X77.197 Y70.687 E4.37795
G1 X77.529 Y70.873 E4.39054
G1 X77.845 Y71.084 E4.40313
G1 X78.143 Y71.320 E4.41572
G1 X78.422 Y71.578 E4.42831
G1 X78.680 Y71.857 E4.44090
G1 X78.916 Y72.155 E4.45349
G1 X79.127 Y72.471 E4.46608
G1 X79.313 Y72.803 E4.47867
G1 X79.472 Y73.148 E4.49126
G1 X79.603 Y73.504 E4.50386
G1 X79.706 Y73.870 E4.51645
G1 X79.781 Y74.243 E4.52904
G1 X79.825 Y74.620 E4.54163
G1 X79.840 Y75.000 E4.55422
G1 X79.825 Y75.380 E4.56681
G1 X79.781 Y75.757 E4.57940
G1 X79.706 Y76.130 E4.59199
G1 X79.603 Y76.496 E4.60458
G1 X79.472 Y76.852 E4.61717
G1 X79.313 Y77.197 E4.62976
G1 X79.127 Y77.529 E4.64235
G1 X78.916 Y77.845 E4.65494
G1 X78.680 Y78.143 E4.66753
G1 X78.422 Y78.422 E4.68013
G1 X78.143 Y78.680 E4.69272
G1 X77.845 Y78.916 E4.70531
G1 X77.529 Y79.127 E4.71790
G1 X77.197 Y79.313 E4.73049
G1 X76.852 Y79.472 E4.74308
G1 X76.496 Y79.603 E4.75567
G1 X76.130 Y79.706 E4.76826
G1 X75.757 Y79.781 E4.78085
G1 X75.380 Y79.825 E4.79344
G1 X75.000 Y79.840 E4.80603
G1 X74.620 Y79.825 E4.81862
G1 X74.243 Y79.781 E4.83121
G1 X73.870 Y79.706 E4.84380
G1 X73.504 Y79.603 E4.85640
G1 X73.148 Y79.472 E4.86899
G1 X72.803 Y79.313 E4.88158
G1 X72.471 Y79.127 E4.89417
G1 X72.155 Y78.916 E4.90676
G1 X71.857 Y78.680 E4.91935
G1 X71.578 Y78.422 E4.93194
G1 X71.320 Y78.143 E4.94453
G1 X71.084 Y77.845 E4.95712
G1 X70.873 Y77.529 E4.96971
G1 X70.687 Y77.197 E4.98230
G1 X70.528 Y76.852 E4.99489
G1 X70.397 Y76.496 E5.00748
G1 X70.294 Y76.130 E5.02007
G1 X70.219 Y75.757 E5.03267
G1 X70.175 Y75.380 E5.04526
G1 X70.160 Y75.000 E5.05785
G1 X70.175 Y74.620 E5.07044
G1 X70.219 Y74.243 E5.08303
G1 X70.294 Y73.870 E5.09562
G1 X70.397 Y73.504 E5.10821
G1 X70.528 Y73.148 E5.12080
G1 X70.687 Y72.803 E5.13339
G1 X70.873 Y72.471 E5.14598
G1 X71.084 Y72.155 E5.15857
G1 X71.320 Y71.857 E5.17116
G1 X71.537 Y71.622 E5.18177
G1 X70.897 Y70.897 F7800.000
G1 F1800.000
G1 X71.231 Y70.587 E5.19686
G1 X71.589 Y70.305 E5.21196
G1 X71.968 Y70.052 E5.22705
G1 X72.365 Y69.829 E5.24215
G1 X72.779 Y69.639 E5.25725
G1 X73.207 Y69.481 E5.27234
G1 X73.645 Y69.357 E5.28744
G1 X74.092 Y69.268 E5.30253
G1 X74.545 Y69.215 E5.31763
G1 X75.000 Y69.197 E5.33273
G1 X75.455 Y69.215 E5.34782
G1 X75.908 Y69.268 E5.36292
G1 X76.355 Y69.357 E5.37801
G1 X76.793 Y69.481 E5.39311
G1 X77.221 Y69.639 E5.40821
G1 X77.635 Y69.829 E5.42330
G1 X78.032 Y70.052 E5.43840
G1 X78.411 Y70.305 E5.45349
G1 X78.769 Y70.587 E5.46859
G1 X79.103 Y70.897 E5.48369
G1 X79.413 Y71.231 E5.49878
G1 X79.695 Y71.589 E5.51388
G1 X79.948 Y71.968 E5.52897
G1 X80.171 Y72.365 E5.54407
G1 X80.361 Y72.779 E5.55917
G1 X80.519 Y73.207 E5.57426
G1 X80.643 Y73.645 E5.58936
G1 X80.732 Y74.092 E5.60445
G1 X80.785 Y74.545 E5.61955
G1 X80.803 Y75.000 E5.63465
G1 X80.785 Y75.455 E5.64974
G1 X80.732 Y75.908 E5.66484
G1 X80.643 Y76.355 E5.67993
G1 X80.519 Y76.793 E5.69503
G1 X80.361 Y77.221 E5.71013
G1 X80.171 Y77.635 E5.72522
G1 X79.948 Y78.032 E5.74032
G1 X79.695 Y78.411 E5.75541
G1 X79.413 Y78.769 E5.77051
G1 X79.103 Y79.103 E5.78561
G1 X78.769 Y79.413 E5.80070
G1 X78.411 Y79.695 E5.81580
G1 X78.032 Y79.948 E5.83090
G1 X77.635 Y80.171 E5.84599
G1 X77.221 Y80.361 E5.86109
G1 X76.793 Y80.519 E5.87618
G1 X76.355 Y80.643 E5.89128
G1 X75.908 Y80.732 E5.90638
G1 X75.455 Y80.785 E5.92147
G1 X75.000 Y80.803 E5.93657
G1 X74.545 Y80.785 E5.95166
G1 X74.092 Y80.732 E5.96676
G1 X73.645 Y80.643 E5.98186
G1 X73.207 Y80.519 E5.99695
G1 X72.779 Y80.361 E6.01205
G1 X72.365 Y80.171 E6.02714
G1 X71.968 Y79.948 E6.04224
G1 X71.589 Y79.695 E6.05734
G1 X71.231 Y79.413 E6.07243
G1 X70.897 Y79.103 E6.08753
G1 X70.587 Y78.769 E6.10262
G1 X70.305 Y78.411 E6.11772
G1 X70.052 Y78.032 E6.13282
G1 X69.829 Y77.635 E6.14791
G1 X69.639 Y77.221 E6.16301
G1 X69.481 Y76.793 E6.17810
G1 X69.357 Y76.355 E6.19320
G1 X69.268 Y75.908 E6.20830
G1 X69.215 Y75.455 E6.22339
G1 X69.197 Y75.000 E6.23849
G1 X69.215 Y74.545 E6.25358
G1 X69.268 Y74.092 E6.26868
G1 X69.357 Y73.645 E6.28378
G1 X69.481 Y73.207 E6.29887
G1 X69.639 Y72.779 E6.31397
G1 X69.829 Y72.365 E6.32906
G1 X70.052 Y71.968 E6.34416
G1 X70.305 Y71.589 E6.35926
G1 X70.587 Y71.231 E6.37435
G1 X70.856 Y70.941 E6.38746
G1 X70.709 Y70.709 F7800.000
G1 F1800.000
G1 X71.058 Y70.385 E6.40325
G1 X71.433 Y70.090 E6.41904
G1 X71.829 Y69.825 E6.43482
G1 X72.245 Y69.592 E6.45061
G1 X72.677 Y69.393 E6.46640
G1 X73.125 Y69.228 E6.48219
G1 X73.583 Y69.099 E6.49797
G1 X74.051 Y69.006 E6.51376
G1 X74.524 Y68.950 E6.52955
G1 X75.000 Y68.931 E6.54534
G1 X75.476 Y68.950 E6.56112
G1 X75.949 Y69.006 E6.57691
G1 X76.417 Y69.099 E6.59270
G1 X76.875 Y69.228 E6.60849
G1 X77.323 Y69.393 E6.62427
G1 X77.755 Y69.592 E6.64006
G1 X78.171 Y69.825 E6.65585
G1 X78.567 Y70.090 E6.67164
G1 X78.942 Y70.385 E6.68742
G1 X79.291 Y70.709 E6.70321
G1 X79.615 Y71.058 E6.71900
G1 X79.910 Y71.433 E6.73479
G1 X80.175 Y71.829 E6.75057
G1 X80.408 Y72.245 E6.76636
G1 X80.607 Y72.677 E6.78215
G1 X80.772 Y73.125 E6.79794
G1 X80.901 Y73.583 E6.81372
G1 X80.994 Y74.051 E6.82951
G1 X81.050 Y74.524 E6.84530
G1 X81.069 Y75.000 E6.86109
G1 X81.050 Y75.476 E6.87687
G1 X80.994 Y75.949 E6.89266
G1 X80.901 Y76.417 E6.90845
G1 X80.772 Y76.875 E6.92424
G1 X80.607 Y77.323 E6.94002
G1 X80.408 Y77.755 E6.95581
G1 X80.175 Y78.171 E6.97160
G1 X79.910 Y78.567 E6.98739
G1 X79.615 Y78.942 E7.00317
G1 X79.291 Y79.291 E7.01896
G1 X78.942 Y79.615 E7.03475
G1 X78.567 Y79.910 E7.05054
G1 X78.171 Y80.175 E7.06632
G1 X77.755 Y80.408 E7.08211
G1 X77.323 Y80.607 E7.09790
G1 X76.875 Y80.772 E7.11369
G1 X76.417 Y80.901 E7.12947
G1 X75.949 Y80.994 E7.14526
G1 X75.476 Y81.050 E7.16105
G1 X75.000 Y81.069 E7.17684
G1 X74.524 Y81.050 E7.19262
G1 X74.051 Y80.994 E7.20841
G1 X73.583 Y80.901 E7.22420
G1 X73.125 Y80.772 E7.23999
G1 X72.677 Y80.607 E7.25577
G1 X72.245 Y80.408 E7.27156
G1 X71.829 Y80.175 E7.28735
G1 X71.433 Y79.910 E7.30314
G1 X71.058 Y79.615 E7.31892
G1 X70.709 Y79.291 E7.33471
G1 X70.385 Y78.942 E7.35050
G1 X70.090 Y78.567 E7.36629
G1 X69.825 Y78.171 E7.38207
G1 X69.592 Y77.755 E7.39786
G1 X69.393 Y77.323 E7.41365
G1 X69.228 Y76.875 E7.42944
G1 X69.099 Y76.417 E7.44522
G1 X69.006 Y75.949 E7.46101
G1 X68.950 Y75.476 E7.47680
G1 X68.931 Y75.000 E7.49259
G1 X68.950 Y74.524 E7.50837
G1 X69.006 Y74.051 E7.52416
G1 X69.099 Y73.583 E7.53995
G1 X69.228 Y73.125 E7.55574
G1 X69.393 Y72.677 E7.57152
G1 X69.592 Y72.245 E7.58731
G1 X69.825 Y71.829 E7.60310
G1 X70.090 Y71.433 E7.61889
G1 X70.385 Y71.058 E7.63467
G1 X70.668 Y70.753 E7.64847
G1 X70.521 Y70.521 F7800.000
G1 F1800.000
G1 X70.886 Y70.183 E7.66495
G1 X71.276 Y69.875 E7.68143
G1 X71.690 Y69.599 E7.69791
G1 X72.124 Y69.356 E7.71439
G1 X72.576 Y69.147 E7.73087
G1 X73.042 Y68.975 E7.74735
G1 X73.521 Y68.840 E7.76383
G1 X74.009 Y68.743 E7.78031
G1 X74.503 Y68.685 E7.79679
G1 X75.000 Y68.665 E7.81326
G1 X75.497 Y68.685 E7.82974
G1 X75.991 Y68.743 E7.84622
G1 X76.479 Y68.840 E7.86270
G1 X76.958 Y68.975 E7.87918
G1 X77.424 Y69.147 E7.89566
G1 X77.876 Y69.356 E7.91214
G1 X78.310 Y69.599 E7.92862
G1 X78.724 Y69.875 E7.94510
G1 X79.114 Y70.183 E7.96158
G1 X79.479 Y70.521 E7.97805
G1 X79.817 Y70.886 E7.99453
G1 X80.125 Y71.276 E8.01101
G1 X80.401 Y71.690 E8.02749
G1 X80.644 Y72.124 E8.04397
G1 X80.853 Y72.576 E8.06045
G1 X81.025 Y73.042 E8.07693
G1 X81.160 Y73.521 E8.09341
G1 X81.257 Y74.009 E8.10989
G1 X81.315 Y74.503 E8.12637
G1 X81.335 Y75.000 E8.14284
G1 X81.315 Y75.497 E8.15932
G1 X81.257 Y75.991 E8.17580
G1 X81.160 Y76.479 E8.19228
G1 X81.025 Y76.958 E8.20876
G1 X80.853 Y77.424 E8.22524
G1 X80.644 Y77.876 E8.24172
G1 X80.401 Y78.310 E8.25820
G1 X80.125 Y78.724 E8.27468
G1 X79.817 Y79.114 E8.29116
G1 X79.479 Y79.479 E8.30763
G1 X79.114 Y79.817 E8.32411
G1 X78.724 Y80.125 E8.34059
G1 X78.310 Y80.401 E8.35707
G1 X77.876 Y80.644 E8.37355
G1 X77.424 Y80.853 E8.39003
G1 X76.958 Y81.025 E8.40651
G1 X76.479 Y81.160 E8.42299
G1 X75.991 Y81.257 E8.43947
G1 X75.497 Y81.315 E8.45595
G1 X75.000 Y81.335 E8.47242
G1 X74.503 Y81.315 E8.48890
G1 X74.009 Y81.257 E8.50538
G1 X73.521 Y81.160 E8.52186
G1 X73.042 Y81.025 E8.53834
G1 X72.576 Y80.853 E8.55482
G1 X72.124 Y80.644 E8.57130
G1 X71.690 Y80.401 E8.58778
G1 X71.276 Y80.125 E8.60426
G1 X70.886 Y79.817 E8.62074
G1 X70.521 Y79.479 E8.63722
G1 X70.183 Y79.114 E8.65369
G1 X69.875 Y78.724 E8.67017
G1 X69.599 Y78.310 E8.68665
G1 X69.356 Y77.876 E8.70313
G1 X69.147 Y77.424 E8.71961
G1 X68.975 Y76.958 E8.73609
G1 X68.840 Y76.479 E8.75257
G1 X68.743 Y75.991 E8.76905
G1 X68.685 Y75.497 E8.78553
G1 X68.665 Y75.000 E8.80201
G1 X68.685 Y74.503 E8.81848
G1 X68.743 Y74.009 E8.83496
G1 X68.840 Y73.521 E8.85144
G1 X68.975 Y73.042 E8.86792
G1 X69.147 Y72.576 E8.88440
G1 X69.356 Y72.124 E8.90088
G1 X69.599 Y71.690 E8.91736
G1 X69.875 Y71.276 E8.93384
G1 X70.183 Y70.886 E8.95032
G1 X70.480 Y70.565 E8.96481
G1 X71.049 Y71.049 F7800.000
G1 F1800.000
G1 X71.374 Y70.749 E8.97038
G1 X71.716 Y70.480 E8.97588
G1 X72.078 Y70.238 E8.98138
G1 X72.463 Y70.022 E8.98695
G1 X72.862 Y69.838 E8.99249
G1 X73.273 Y69.686 E8.99803
G1 X73.699 Y69.566 E9.00360
G1 X74.126 Y69.481 E9.00910
G1 X74.558 Y69.430 E9.01459
G1 X75.000 Y69.413 E9.02017
G1 X75.442 Y69.430 E9.02575
G1 X75.874 Y69.481 E9.03125
G1 X76.301 Y69.566 E9.03674
G1 X76.727 Y69.686 E9.04232
G1 X77.138 Y69.838 E9.04785
G1 X77.537 Y70.022 E9.05339
G1 X77.922 Y70.238 E9.05897
G1 X78.284 Y70.480 E9.06446
G1 X78.626 Y70.749 E9.06996
G1 X78.951 Y71.049 E9.07554
G1 X79.251 Y71.374 E9.08111
G1 X79.520 Y71.716 E9.08661
G1 X79.762 Y72.078 E9.09211
G1 X79.978 Y72.463 E9.09768
G1 X80.162 Y72.862 E9.10322
G1 X80.315 Y73.276 E9.10880
G1 X80.433 Y73.696 E9.11429
G1 X80.518 Y74.123 E9.11979
G1 X80.570 Y74.562 E9.12537
G1 X80.587 Y75.000 E9.13090
G1 X80.570 Y75.438 E9.13644
G1 X80.518 Y75.877 E9.14202
G1 X80.433 Y76.304 E9.14751
G1 X80.315 Y76.723 E9.15301
G1 X80.162 Y77.138 E9.15858
G1 X79.978 Y77.537 E9.16412
G1 X79.762 Y77.922 E9.16970
G1 X79.520 Y78.284 E9.17519
G1 X79.251 Y78.626 E9.18069
G1 X78.951 Y78.951 E9.18627
G1 X78.629 Y79.249 E9.19180
G1 X78.282 Y79.522 E9.19738
G1 X77.919 Y79.764 E9.20288
G1 X77.540 Y79.977 E9.20837
G1 X77.138 Y80.162 E9.21395
G1 X76.723 Y80.315 E9.21953
G1 X76.304 Y80.433 E9.22502
G1 X75.877 Y80.518 E9.23052
G1 X75.438 Y80.570 E9.23609
G1 X75.000 Y80.587 E9.24163
G1 X74.562 Y80.570 E9.24717
G1 X74.123 Y80.518 E9.25275
G1 X73.696 Y80.433 E9.25824
G1 X73.276 Y80.315 E9.26374
G1 X72.862 Y80.162 E9.26931
