; generated by Slic3r 1.3.1-dev (Build 2ef957d) on 2019-11-25 at 09:21:54

; external perimeters extrusion width = 0.55mm (4.37mm^3/s)
; perimeters extrusion width = 0.70mm (11.44mm^3/s)
; infill extrusion width = 0.62mm (13.45mm^3/s)
; solid infill extrusion width = 0.70mm (3.81mm^3/s)
; top infill extrusion width = 0.70mm (2.86mm^3/s)

M107
G92 E0
M104 S200 ; set temperature
G28 ; home all axes
G1 Z5 F5000 ; lift nozzle

; Filament gcode

M109 S200 ; set temperature and wait for it to be reached
G21 ; set units to millimeters
G90 ; use absolute coordinates
M82 ; use absolute distances for extrusion
G92 E0
G1 Z0.350 F7800.000
G1 E-2.00000 F2400.00000
G92 E0
G1 X92.038 Y-8.866 F7800.000
G1 E2.00000 F2400.00000
G1 F1800.000
G1 X92.038 Y-15.000 E2.18979
G1 X92.435 Y-17.259 E2.26075
G1 X93.578 Y-19.247 E2.33172
G1 X95.331 Y-20.726 E2.40268
G1 X97.483 Y-21.519 E2.47364
G1 X98.663 Y-21.625 E2.51029
G1 X101.337 Y-21.625 E2.59304
G1 X103.596 Y-21.228 E2.66400
G1 X105.584 Y-20.085 E2.73496
G1 X107.063 Y-18.332 E2.80593
G1 X107.856 Y-16.180 E2.87689
G1 X107.962 Y-15.000 E2.91354
G1 X107.962 Y215.000 E10.03004
G1 X107.565 Y217.259 E10.10100
G1 X106.422 Y219.247 E10.17197
G1 X104.669 Y220.726 E10.24293
G1 X102.517 Y221.519 E10.31389
G1 X101.337 Y221.625 E10.35054
G1 X98.663 Y221.625 E10.43329
G1 X96.404 Y221.228 E10.50425
G1 X94.416 Y220.085 E10.57521
G1 X92.937 Y218.332 E10.64618
G1 X92.144 Y216.180 E10.71714
G1 X92.038 Y215.000 E10.75379
G1 X92.038 Y-8.791 E17.67818
G1 E15.67818 F2400.00000
G92 E0
G1 X100.362 Y210.566 F7800.000
G1 E2.00000 F2400.00000
G1 F1800.000
G1 X100.362 Y214.025 E2.10703
G1 X99.638 Y214.025 E2.12945
G1 X99.638 Y210.566 E2.23648
G1 X100.287 Y210.566 E2.25658
G1 X100.987 Y209.686 F7800.000
G1 F1800.000
G1 X100.987 Y214.650 E2.41018
G1 X99.013 Y214.650 E2.47127
G1 X99.013 Y209.686 E2.62487
G1 X99.397 Y209.857 E2.63789
G1 X99.796 Y209.941 E2.65051
G1 X100.204 Y209.941 E2.66312
G1 X100.603 Y209.857 E2.67574
G1 X100.919 Y209.716 E2.68643
G1 X100.784 Y210.143 F7800.000
G1 X100.000 Y210.878 F7800.000
G1 F1800.000
G1 X100.000 Y213.713 E2.68989
G1 E0.68989 F2400.00000
G92 E0
G1 X100.362 Y205.434 F7800.000
G1 E2.00000 F2400.00000
G1 F1800.000
G1 X99.638 Y205.434 E2.02242
G1 X99.638 Y102.566 E5.20529
G1 X100.362 Y102.566 E5.22771
G1 X100.362 Y205.359 E8.40826
G1 X100.987 Y206.314 F7800.000
G1 F1800.000
G1 X100.603 Y206.143 E8.42128
G1 X100.204 Y206.059 E8.43390
G1 X99.796 Y206.059 E8.44651
G1 X99.397 Y206.143 E8.45913
G1 X99.013 Y206.314 E8.47214
G1 X99.013 Y101.685 E11.70950
G1 X99.397 Y101.856 E11.72250
G1 X99.796 Y101.941 E11.73513
G1 X100.204 Y101.941 E11.74776
G1 X100.603 Y101.856 E11.76038
G1 X100.987 Y101.685 E11.77339
G1 X100.987 Y206.239 E15.00842
G1 X100.695 Y206.012 F7800.000
G1 X100.000 Y205.122 F7800.000
G1 F1800.000
G1 X100.000 Y102.879 E15.13302
G1 E13.13302 F2400.00000
G92 E0
G1 X100.362 Y97.434 F7800.000
G1 E2.00000 F2400.00000
G1 F1800.000
G1 X99.638 Y97.434 E2.02242
G1 X99.638 Y-5.434 E5.20529
G1 X100.362 Y-5.434 E5.22771
G1 X100.362 Y97.359 E8.40826
G1 X100.987 Y98.315 F7800.000
G1 F1800.000
G1 X100.603 Y98.144 E8.42127
G1 X100.204 Y98.059 E8.43389
G1 X99.796 Y98.059 E8.44652
G1 X99.397 Y98.144 E8.45915
G1 X99.013 Y98.315 E8.47215
G1 X99.013 Y-6.314 E11.70951
G1 X99.397 Y-6.143 E11.72252
G1 X99.796 Y-6.059 E11.73514
G1 X100.204 Y-6.059 E11.74775
G1 X100.603 Y-6.143 E11.76037
G1 X100.987 Y-6.314 E11.77339
G1 X100.987 Y98.240 E15.00842
G1 X100.695 Y98.013 F7800.000
G1 X100.000 Y97.121 F7800.000
G1 F1800.000
G1 X100.000 Y-5.122 E15.13302
G1 E13.13302 F2400.00000
G92 E0
G1 X100.362 Y-10.566 F7800.000
G1 E2.00000 F2400.00000
G1 F1800.000
G1 X99.638 Y-10.566 E2.02242
G1 X99.638 Y-14.025 E2.12945
G1 X100.362 Y-14.025 E2.15187
G1 X100.362 Y-10.641 E2.25658
G1 X100.987 Y-9.686 F7800.000
G1 F1800.000
G1 X100.603 Y-9.857 E2.26960
G1 X100.204 Y-9.941 E2.28222
G1 X99.796 Y-9.941 E2.29483
G1 X99.397 Y-9.857 E2.30745
G1 X99.013 Y-9.686 E2.32047
G1 X99.013 Y-14.650 E2.47407
G1 X100.987 Y-14.650 E2.53516
G1 X100.987 Y-9.761 E2.68643
G1 X100.659 Y-9.949 F7800.000
G1 X100.000 Y-10.878 F7800.000
G1 F1800.000
G1 X100.000 Y-13.713 E2.68989
G1 Z0.650 F7800.000
G1 E0.68989 F2400.00000
G92 E0
G1 X100.771 Y210.967 F7800.000
G1 E2.00000 F2400.00000
G1 F900.000
G1 X100.771 Y213.529 E2.06910
G1 X99.229 Y213.529 E2.11068
G1 X99.229 Y210.967 E2.17978
G1 X99.679 Y211.062 E2.19219
G1 X100.321 Y211.062 E2.20949
G1 X100.697 Y210.983 E2.21988
G1 X101.406 Y210.031 F7800.000
G1 F900.000
G1 X101.406 Y214.164 E2.33139
G1 X98.594 Y214.164 E2.40727
G1 X98.594 Y210.031 E2.51878
G1 X99.247 Y210.321 E2.53806
G1 X99.746 Y210.427 E2.55181
G1 X100.254 Y210.427 E2.56554
G1 X100.753 Y210.321 E2.57930
G1 X101.338 Y210.061 E2.59655
G1 X101.967 Y208.758 F7800.000

G1 F3600.000
G1 X101.967 Y214.725 E2.76231
G1 X101.587 Y214.725 E2.77286

G1 F1800.000
G1 X98.413 Y214.725 E2.83829

G1 F3600.000
G1 X98.033 Y214.725 E2.84884
G1 X98.033 Y208.758 E3.01460
G1 X98.249 Y208.700 E3.02080
G1 X98.413 Y208.983 E3.02990

G1 F1800.000
G1 X98.482 Y209.103 E3.03274
G1 X98.744 Y209.394 E3.04083
G1 X99.062 Y209.625 E3.04892
G1 X99.420 Y209.785 E3.05701
G1 X99.804 Y209.866 E3.06509
G1 X100.196 Y209.866 E3.07317
G1 X100.580 Y209.785 E3.08125
G1 X100.938 Y209.625 E3.08935
G1 X101.256 Y209.394 E3.09744
G1 X101.518 Y209.103 E3.10552
G1 X101.587 Y208.983 E3.10837

G1 F3600.000
G1 X101.751 Y208.700 E3.11746
G1 X101.895 Y208.738 E3.12159

G1 X101.883 Y208.735 F7800.000
G1 F1800.000
G1 X101.920 Y208.034 E3.13914
G1 X101.883 Y207.265 E3.15836
G1 E1.15836 F2400.00000
G92 E0
G1 X100.771 Y205.033 F7800.000
G1 E2.00000 F2400.00000
G1 F3600.000
G1 X100.321 Y204.938 E2.01241
G1 X99.679 Y204.938 E2.02971
G1 X99.229 Y205.033 E2.04212
G1 X99.229 Y102.967 E4.79549
G1 X99.678 Y103.062 E4.80787
G1 X100.322 Y103.062 E4.82524
G1 X100.771 Y102.967 E4.83762
G1 X100.771 Y204.958 E7.58897
G1 X101.406 Y205.969 F7800.000
G1 F3600.000
G1 X100.753 Y205.679 E7.60825
G1 X100.254 Y205.573 E7.62201
G1 X99.746 Y205.573 E7.63574
G1 X99.247 Y205.679 E7.64949
G1 X98.594 Y205.969 E7.66877
G1 X98.594 Y102.030 E10.47268
G1 X99.246 Y102.321 E10.49195
G1 X99.745 Y102.427 E10.50571
G1 X100.255 Y102.427 E10.51947
G1 X100.754 Y102.321 E10.53323
G1 X101.406 Y102.030 E10.55249
G1 X101.406 Y205.894 E13.35438
G1 X101.967 Y207.242 F7800.000

G1 F3600.000
G1 X101.751 Y207.300 E13.36059
G1 X101.587 Y207.017 E13.36968

G1 F1800.000
G1 X101.518 Y206.897 E13.37253
G1 X101.256 Y206.606 E13.38061
G1 X100.938 Y206.375 E13.38870
G1 X100.580 Y206.215 E13.39680
G1 X100.196 Y206.134 E13.40488
G1 X99.804 Y206.134 E13.41296
G1 X99.420 Y206.215 E13.42104
G1 X99.062 Y206.375 E13.42913
G1 X98.744 Y206.606 E13.43722
G1 X98.482 Y206.897 E13.44531
G1 X98.413 Y207.017 E13.44815

G1 F3600.000
G1 X98.249 Y207.300 E13.45725
G1 X98.033 Y207.242 E13.46345
G1 X98.033 Y100.757 E16.42137
G1 X98.249 Y100.700 E16.42758
G1 X98.413 Y100.983 E16.43668

G1 F1800.000
G1 X98.482 Y101.103 E16.43953
G1 X98.744 Y101.395 E16.44761
G1 X99.062 Y101.625 E16.45570
G1 X99.420 Y101.785 E16.46378
G1 X99.804 Y101.866 E16.47187
G1 X100.196 Y101.866 E16.47995
G1 X100.580 Y101.785 E16.48804
G1 X100.938 Y101.625 E16.49612
G1 X101.256 Y101.395 E16.50421
G1 X101.518 Y101.103 E16.51229
G1 X101.587 Y100.983 E16.51514

G1 F3600.000
G1 X101.751 Y100.700 E16.52424
G1 X101.967 Y100.757 E16.53045
G1 X101.967 Y207.167 E19.48628

G1 E17.48628 F2400.00000
G92 E0
G1 X98.117 Y207.265 F7800.000
G1 E2.00000 F2400.00000
G1 F1800.000
G1 X98.080 Y208.034 E2.01923
G1 X98.117 Y208.735 E2.03678
G1 E0.03678 F2400.00000
G92 E0
G1 X98.117 Y100.735 F7800.000
G1 E2.00000 F2400.00000
G1 F1800.000
G1 X98.080 Y100.034 E2.01754
G1 X98.117 Y99.265 E2.03676
G1 E0.03676 F2400.00000
G92 E0
G1 X100.771 Y97.033 F7800.000
G1 E2.00000 F2400.00000
G1 F3600.000
G1 X100.322 Y96.938 E2.01238
G1 X99.678 Y96.938 E2.02975
G1 X99.229 Y97.033 E2.04213
G1 X99.229 Y-5.033 E4.79550
G1 X99.679 Y-4.938 E4.80791
G1 X100.321 Y-4.938 E4.82521
G1 X100.771 Y-5.033 E4.83762
G1 X100.771 Y96.958 E7.58897
G1 X101.406 Y97.970 F7800.000
G1 F3600.000
G1 X100.754 Y97.679 E7.60823
G1 X100.255 Y97.573 E7.62200
G1 X99.745 Y97.573 E7.63576
G1 X99.246 Y97.679 E7.64952
G1 X98.594 Y97.970 E7.66878
G1 X98.594 Y-5.969 E10.47269
G1 X99.247 Y-5.679 E10.49197
G1 X99.746 Y-5.573 E10.50573
G1 X100.254 Y-5.573 E10.51946
G1 X100.753 Y-5.679 E10.53321
G1 X101.406 Y-5.969 E10.55249
G1 X101.406 Y97.895 E13.35438
G1 X101.967 Y99.243 F7800.000

G1 F3600.000
G1 X101.751 Y99.300 E13.36059
G1 X101.587 Y99.017 E13.36969

G1 F1800.000
G1 X101.518 Y98.897 E13.37254
G1 X101.256 Y98.605 E13.38063
G1 X100.938 Y98.375 E13.38871
G1 X100.580 Y98.215 E13.39680
G1 X100.196 Y98.134 E13.40488
G1 X99.804 Y98.134 E13.41297
G1 X99.420 Y98.215 E13.42105
G1 X99.062 Y98.375 E13.42914
G1 X98.744 Y98.605 E13.43722
G1 X98.482 Y98.897 E13.44531
G1 X98.413 Y99.017 E13.44816

G1 F3600.000
G1 X98.249 Y99.300 E13.45726
G1 X98.033 Y99.243 E13.46347
G1 X98.033 Y-7.242 E16.42138
G1 X98.249 Y-7.300 E16.42759
G1 X98.413 Y-7.017 E16.43668

G1 F1800.000
G1 X98.482 Y-6.897 E16.43953
G1 X98.744 Y-6.606 E16.44761
G1 X99.062 Y-6.375 E16.45570
G1 X99.420 Y-6.215 E16.46380
G1 X99.804 Y-6.134 E16.47188
G1 X100.196 Y-6.134 E16.47996
G1 X100.580 Y-6.215 E16.48804
G1 X100.938 Y-6.375 E16.49613
G1 X101.256 Y-6.606 E16.50422
G1 X101.518 Y-6.897 E16.51231
G1 X101.587 Y-7.017 E16.51515

G1 F3600.000
G1 X101.751 Y-7.300 E16.52425
G1 X101.967 Y-7.242 E16.53045
G1 X101.967 Y99.168 E19.48628

G1 X101.883 Y99.265 F7800.000
G1 F1800.000
G1 X101.920 Y100.034 E19.50550
G1 X101.883 Y100.735 E19.52305
G1 E17.52305 F2400.00000
G92 E0
G1 X101.883 Y-7.265 F7800.000
G1 E2.00000 F2400.00000
G1 F1800.000
G1 X101.920 Y-7.966 E2.01755
G1 X101.883 Y-8.735 E2.03678
G1 E0.03678 F2400.00000
G92 E0
G1 X100.771 Y-10.967 F7800.000
G1 E2.00000 F2400.00000
G1 F900.000
G1 X100.321 Y-11.062 E2.01241
G1 X99.679 Y-11.062 E2.02971
G1 X99.229 Y-10.967 E2.04212
G1 X99.229 Y-13.529 E2.11122
G1 X100.771 Y-13.529 E2.15280
G1 X100.771 Y-11.042 E2.21988
G1 X101.406 Y-10.031 F7800.000
G1 F900.000
G1 X100.753 Y-10.321 E2.23916
G1 X100.254 Y-10.427 E2.25291
G1 X99.746 Y-10.427 E2.26664
G1 X99.247 Y-10.321 E2.28040
G1 X98.594 Y-10.031 E2.29968
G1 X98.594 Y-14.164 E2.41119
G1 X101.406 Y-14.164 E2.48707
G1 X101.406 Y-10.106 E2.59655
G1 X101.967 Y-8.758 F7800.000

G1 F3600.000
G1 X101.751 Y-8.700 E2.60276
G1 X101.587 Y-8.983 E2.61186

G1 F1800.000
G1 X101.518 Y-9.103 E2.61470
G1 X101.256 Y-9.394 E2.62279
G1 X100.938 Y-9.625 E2.63088
G1 X100.580 Y-9.785 E2.63897
G1 X100.196 Y-9.866 E2.64705
G1 X99.804 Y-9.866 E2.65513
G1 X99.420 Y-9.785 E2.66321
G1 X99.062 Y-9.625 E2.67130
G1 X98.744 Y-9.394 E2.67940
G1 X98.482 Y-9.103 E2.68748
G1 X98.413 Y-8.983 E2.69033

G1 F3600.000
G1 X98.249 Y-8.700 E2.69942
G1 X98.033 Y-8.758 E2.70563
G1 X98.033 Y-14.725 E2.87139
G1 X98.413 Y-14.725 E2.88194

G1 F1800.000
G1 X101.587 Y-14.725 E2.94736

G1 F3600.000
G1 X101.967 Y-14.725 E2.95791
G1 X101.967 Y-8.833 E3.12159

G1 E1.12159 F2400.00000
G92 E0
G1 X98.117 Y-8.735 F7800.000
G1 E2.00000 F2400.00000
G1 F1800.000
G1 X98.080 Y-7.966 E2.01923
G1 X98.117 Y-7.265 E2.03678
G1 X98.313 Y-6.497 F7800.000
G1 F1200.000
G1 X98.611 Y-6.310 E2.03724
G1 E0.03724 F2400.00000
G92 E0
G1 X100.000 Y-4.620 F7800.000
G1 E2.00000 F2400.00000
G1 F1200.000
G1 X100.000 Y96.620 E5.61573
G1 E3.61573 F2400.00000
G92 E0
G1 X101.391 Y98.311 F7800.000
G1 E2.00000 F2400.00000
G1 F1200.000
G1 X101.687 Y98.497 E2.00050
G1 E0.00050 F2400.00000
G92 E0
G1 X101.687 Y101.503 F7800.000
G1 E2.00000 F2400.00000
G1 F1200.000
G1 X101.391 Y101.689 E2.00050
G1 E0.00050 F2400.00000
G92 E0
G1 X100.000 Y103.380 F7800.000
G1 E2.00000 F2400.00000
G1 F1200.000
G1 X100.000 Y204.620 E5.61573
G1 E3.61573 F2400.00000
G92 E0
G1 X101.389 Y206.310 F7800.000
G1 E2.00000 F2400.00000
G1 F1200.000
G1 X101.687 Y206.497 E2.00051
G1 E0.00051 F2400.00000
G92 E0
G1 X101.687 Y209.503 F7800.000
G1 E2.00000 F2400.00000
G1 F1200.000
G1 X101.389 Y209.690 E2.00051
G1 E0.00051 F2400.00000
G92 E0
G1 X100.000 Y211.380 F7800.000
G1 E2.00000 F2400.00000
G1 F1200.000
G1 X100.000 Y213.211 E2.06539
G1 E0.06539 F2400.00000
G92 E0
G1 X98.611 Y209.690 F7800.000
G1 E2.00000 F2400.00000
G1 F1200.000
G1 X98.313 Y209.503 E2.00046
G1 E0.00046 F2400.00000
G92 E0
G1 X98.313 Y206.497 F7800.000
G1 E2.00000 F2400.00000
G1 F1200.000
G1 X98.611 Y206.310 E2.00046
G1 E0.00046 F2400.00000
G92 E0
G1 X98.609 Y101.689 F7800.000
G1 E2.00000 F2400.00000
G1 F1200.000
G1 X98.313 Y101.503 E2.00045
G1 E0.00045 F2400.00000
G92 E0
G1 X98.313 Y98.497 F7800.000
G1 E2.00000 F2400.00000
G1 F1200.000
G1 X98.609 Y98.311 E2.00045
G1 E0.00045 F2400.00000
G92 E0
G1 X101.389 Y-6.310 F7800.000
G1 E2.00000 F2400.00000
G1 F1200.000
G1 X101.687 Y-6.497 E2.00051
G1 E0.00051 F2400.00000
G92 E0
G1 X101.687 Y-9.503 F7800.000
G1 E2.00000 F2400.00000
G1 F1200.000
G1 X101.389 Y-9.690 E2.00051
G1 E0.00051 F2400.00000
G92 E0
G1 X100.000 Y-11.380 F7800.000
G1 E2.00000 F2400.00000
G1 F1200.000
G1 X100.000 Y-13.211 E2.06539
G1 E0.06539 F2400.00000
G92 E0
G1 X98.611 Y-9.690 F7800.000
G1 E2.00000 F2400.00000
G1 F1200.000
G1 X98.313 Y-9.503 E2.00046
G1 Z0.950 F7800.000
G1 E0.00046 F2400.00000
G92 E0
G1 X100.196 Y206.134 F7800.000
G1 E2.00000 F2400.00000
G1 F900.000
G1 X100.580 Y206.215 E2.00808
G1 X100.938 Y206.375 E2.01617
G1 X101.256 Y206.606 E2.02427
G1 X101.518 Y206.897 E2.03235
G1 X101.714 Y207.236 E2.04042
G1 X101.836 Y207.609 E2.04851
G1 X101.877 Y208.000 E2.05660
G1 X101.836 Y208.391 E2.06470
G1 X101.714 Y208.764 E2.07278
G1 X101.518 Y209.103 E2.08085
G1 X101.256 Y209.394 E2.08894
G1 X100.938 Y209.625 E2.09703
G1 X100.580 Y209.785 E2.10512
G1 X100.196 Y209.866 E2.11321
G1 X99.804 Y209.866 E2.12128
G1 X99.420 Y209.785 E2.12937
G1 X99.062 Y209.625 E2.13746
G1 X98.744 Y209.394 E2.14555
G1 X98.482 Y209.103 E2.15364
G1 X98.286 Y208.764 E2.16171
G1 X98.164 Y208.391 E2.16979
G1 X98.123 Y208.000 E2.17789
G1 X98.164 Y207.609 E2.18598
G1 X98.286 Y207.236 E2.19407
G1 X98.482 Y206.897 E2.20214
G1 X98.744 Y206.606 E2.21022
G1 X99.062 Y206.375 E2.21832
G1 X99.420 Y206.215 E2.22641
G1 X99.804 Y206.134 E2.23449
G1 X100.121 Y206.134 E2.24102
G1 X100.196 Y206.134 F7800.000
G1 X101.316 Y205.233 F7800.000
G1 F3600.000
G1 X100.950 Y205.071 E2.25182
G1 X100.321 Y204.938 E2.26918
G1 X99.679 Y204.938 E2.28648
G1 X99.050 Y205.071 E2.30384
G1 X98.684 Y205.233 E2.31464
G1 X98.684 Y102.766 E5.07885
G1 X99.048 Y102.929 E5.08961
G1 X99.678 Y103.062 E5.10698
G1 X100.322 Y103.062 E5.12434
G1 X100.952 Y102.929 E5.14171
G1 X101.316 Y102.766 E5.15247
G1 X101.316 Y205.158 E7.91466
G1 X101.952 Y206.419 F7800.000
G1 F3600.000
G1 X101.220 Y205.886 E7.93906
G1 X100.753 Y205.679 E7.95285
G1 X100.254 Y205.573 E7.96660
G1 X99.746 Y205.573 E7.98033
G1 X99.247 Y205.679 E7.99409
G1 X98.780 Y205.886 E8.00788
G1 X98.048 Y206.419 E8.03228
G1 X98.048 Y101.582 E10.86042
G1 X98.780 Y102.113 E10.88482
G1 X99.246 Y102.321 E10.89858
G1 X99.745 Y102.427 E10.91234
G1 X100.255 Y102.427 E10.92610
G1 X100.754 Y102.321 E10.93987
G1 X101.220 Y102.113 E10.95363
G1 X101.952 Y101.582 E10.97802
G1 X101.952 Y206.344 E13.80414
G1 X101.316 Y210.767 F7800.000
G1 F900.000
G1 X101.316 Y213.529 E13.87865
G1 X98.684 Y213.529 E13.94966
G1 X98.684 Y210.767 E14.02417
G1 X99.050 Y210.929 E14.03497
G1 X99.679 Y211.062 E14.05233
G1 X100.321 Y211.062 E14.06963
G1 X100.950 Y210.929 E14.08700
G1 X101.248 Y210.797 E14.09577
G1 X101.952 Y209.581 F7800.000
G1 F900.000
G1 X101.952 Y214.164 E14.21941
G1 X98.048 Y214.164 E14.32471
G1 X98.048 Y209.581 E14.44835
G1 X98.780 Y210.114 E14.47275
G1 X99.247 Y210.321 E14.48654
G1 X99.746 Y210.427 E14.50030
G1 X100.254 Y210.427 E14.51403
G1 X100.753 Y210.321 E14.52779
G1 X101.220 Y210.114 E14.54158
G1 X101.891 Y209.625 E14.56395
G1 E12.56395 F2400.00000
G92 E0
G1 X101.316 Y97.234 F7800.000
G1 E2.00000 F2400.00000
G1 F3600.000
G1 X100.952 Y97.071 E2.01076
G1 X100.322 Y96.938 E2.02813
G1 X99.678 Y96.938 E2.04550
G1 X99.048 Y97.071 E2.06286
G1 X98.684 Y97.234 E2.07363
G1 X98.684 Y-5.233 E4.83783
G1 X99.050 Y-5.071 E4.84863
G1 X99.679 Y-4.938 E4.86599
G1 X100.321 Y-4.938 E4.88329
G1 X100.950 Y-5.071 E4.90065
