; generated by Slic3r Prusa Edition 1.39.0 on 2019-10-17 at 22:12:16

; 

; external perimeters extrusion width = 0.45mm
; perimeters extrusion width = 0.45mm
; infill extrusion width = 0.45mm
; solid infill extrusion width = 0.45mm
; top infill extrusion width = 0.40mm
; first layer extrusion width = 0.42mm

M107
M104 S213 ; set temperature
G28 ; home all axes
G1 Z5 F5000 ; lift nozzle
; Filament gcode
M109 S213 ; set temperature and wait for it to be reached
G21 ; set units to millimeters
G90 ; use absolute coordinates
M82 ; use absolute distances for extrusion
G92 E0
G1 Z0.350 F7800.000
G1 E-2.00000 F2400.00000
G92 E0
G1 X77.063 Y77.924 F7800.000
G1 E2.00000 F2400.00000
G1 F1800
G1 X79.706 Y75.459 E2.18136
G1 X82.668 Y73.293 E2.36551
G1 X86.807 Y71.028 E2.60233
G1 X90.189 Y69.704 E2.78458
G1 X94.032 Y68.719 E2.98371
G1 X97.969 Y68.220 E3.18285
G1 X101.607 Y68.205 E3.36545
G1 X106.307 Y68.794 E3.60315
G1 X109.864 Y69.721 E3.78762
G1 X113.519 Y71.167 E3.98489
G1 X117.387 Y73.332 E4.20736
G1 X120.322 Y75.483 E4.38996
G1 X123.209 Y78.196 E4.58878
G1 X125.745 Y81.257 E4.78825
G1 X127.703 Y84.316 E4.97053
G1 X129.622 Y88.311 E5.19299
G1 X130.838 Y92.056 E5.39058
G1 X131.539 Y95.658 E5.57474
G1 X131.835 Y100.354 E5.81089
G1 X131.594 Y103.991 E5.99381
G1 X130.917 Y107.604 E6.17827
G1 X129.450 Y112.089 E6.41508
G1 X127.891 Y115.368 E6.59734
G1 X125.763 Y118.718 E6.79647
G1 X123.236 Y121.776 E6.99561
G1 X120.579 Y124.290 E7.17915
G1 X116.759 Y127.069 E7.41622
G1 X113.537 Y128.825 E7.60038
G1 X109.882 Y130.273 E7.79766
G1 X105.580 Y131.342 E8.02012
G1 X101.975 Y131.784 E8.20241
G1 X98.044 Y131.785 E8.39968
G1 X93.651 Y131.196 E8.62216
G1 X90.130 Y130.277 E8.80475
G1 X86.442 Y128.814 E9.00389
G1 X82.963 Y126.904 E9.20303
G1 X80.016 Y124.781 E9.38532
G1 X76.765 Y121.777 E9.60747
G1 X74.252 Y118.738 E9.80538
G1 X72.294 Y115.679 E9.98765
G1 X70.378 Y111.689 E10.20981
G1 X69.162 Y107.944 E10.40740
G1 X68.461 Y104.342 E10.59156
G1 X68.165 Y99.646 E10.82771
G1 X68.406 Y96.009 E11.01062
G1 X69.076 Y92.433 E11.19321
G1 X70.419 Y88.208 E11.41570
G1 X72.082 Y84.681 E11.61141
G1 X74.040 Y81.570 E11.79588
G1 X77.024 Y77.970 E12.03056
G1 E10.03056 F2400.00000
G92 E0
G1 X117.469 Y103.758 F7800.000
G1 E2.00000 F2400.00000
G1 F1800
G1 X113.131 Y103.758 E2.21776
G1 X111.926 Y101.671 E2.33867
G1 X111.673 Y102.997 E2.40641
G1 X111.205 Y104.436 E2.48236
G1 X110.561 Y105.806 E2.55832
G1 X109.750 Y107.084 E2.63427
G1 X108.785 Y108.250 E2.71022
G1 X107.682 Y109.286 E2.78618
G1 X106.458 Y110.175 E2.86213
G1 X105.131 Y110.905 E2.93808
G1 X103.724 Y111.462 E3.01404
G1 X102.258 Y111.838 E3.08999
G1 X100.757 Y112.028 E3.16595
G1 X99.243 Y112.028 E3.24190
G1 X97.742 Y111.838 E3.31785
G1 X96.276 Y111.462 E3.39381
G1 X95.681 Y111.226 E3.42593
G1 X95.585 Y111.337 E3.43331
G1 X96.689 Y113.250 E3.54416
G1 X94.519 Y117.008 E3.76191
G1 X90.181 Y117.008 E3.97967
G1 X88.011 Y113.250 E4.19742
G1 X90.181 Y109.493 E4.41518
G1 X92.359 Y109.493 E4.52452
G1 X92.406 Y109.350 E4.53206
G1 X92.318 Y109.286 E4.53750
G1 X91.215 Y108.250 E4.61345
G1 X90.250 Y107.084 E4.68941
G1 X89.439 Y105.806 E4.76536
G1 X88.795 Y104.436 E4.84131
G1 X88.327 Y102.996 E4.91734
G1 X88.041 Y101.475 E4.99501
G1 X87.948 Y100.000 E5.06916
G1 X88.043 Y98.490 E5.14512
G1 X88.327 Y97.003 E5.22107
G1 X88.795 Y95.564 E5.29702
G1 X89.439 Y94.194 E5.37298
G1 X90.250 Y92.916 E5.44893
G1 X91.215 Y91.750 E5.52488
G1 X92.318 Y90.714 E5.60084
G1 X92.406 Y90.650 E5.60627
G1 X92.359 Y90.507 E5.61382
G1 X90.181 Y90.507 E5.72316
G1 X88.011 Y86.750 E5.94091
G1 X90.181 Y82.992 E6.15867
G1 X94.519 Y82.992 E6.37643
G1 X96.689 Y86.750 E6.59418
G1 X95.585 Y88.663 E6.70503
G1 X95.681 Y88.774 E6.71241
G1 X96.276 Y88.538 E6.74453
G1 X97.742 Y88.162 E6.82049
G1 X99.243 Y87.972 E6.89644
G1 X100.757 Y87.972 E6.97239
G1 X102.258 Y88.162 E7.04835
G1 X103.724 Y88.538 E7.12430
G1 X105.131 Y89.095 E7.20025
G1 X106.458 Y89.825 E7.27621
G1 X107.682 Y90.714 E7.35216
G1 X108.785 Y91.750 E7.42812
G1 X109.750 Y92.916 E7.50407
G1 X110.561 Y94.194 E7.58002
G1 X111.205 Y95.564 E7.65598
G1 X111.673 Y97.004 E7.73200
G1 X111.923 Y98.334 E7.79990
G1 X113.131 Y96.242 E7.92111
G1 X117.469 Y96.242 E8.13887
G1 X119.639 Y100.000 E8.35662
G1 X117.499 Y103.706 E8.57137
G1 X117.270 Y103.413 F7800.000
G1 F1800
G1 X113.330 Y103.413 E8.76914
G1 X111.805 Y100.772 E8.92218
G1 X111.655 Y100.807 E8.92989
G1 X111.614 Y101.467 E8.96310
G1 X111.338 Y102.911 E9.03687
G1 X110.884 Y104.309 E9.11065
G1 X110.258 Y105.639 E9.18442
G1 X109.470 Y106.881 E9.25820
G1 X108.533 Y108.013 E9.33197
G1 X107.462 Y109.020 E9.40575
G1 X106.272 Y109.884 E9.47953
G1 X104.984 Y110.592 E9.55330
G1 X103.617 Y111.133 E9.62708
G1 X102.193 Y111.499 E9.70085
G1 X100.735 Y111.683 E9.77463
G1 X99.265 Y111.683 E9.84840
G1 X97.807 Y111.499 E9.92218
G1 X96.383 Y111.133 E9.99596
G1 X95.016 Y110.592 E10.06973
G1 X94.891 Y110.523 E10.07688
G1 X94.781 Y110.635 E10.08476
G1 X96.291 Y113.250 E10.23629
G1 X94.320 Y116.663 E10.43406
G1 X90.380 Y116.663 E10.63182
G1 X88.409 Y113.250 E10.82959
G1 X90.380 Y109.837 E11.02736
G1 X93.421 Y109.837 E11.17998
G1 X93.467 Y109.694 E11.18753
G1 X92.538 Y109.020 E11.24514
G1 X91.467 Y108.013 E11.31892
G1 X90.530 Y106.881 E11.39269
G1 X89.742 Y105.639 E11.46647
G1 X89.116 Y104.309 E11.54024
G1 X88.662 Y102.910 E11.61406
G1 X88.384 Y101.432 E11.68956
G1 X88.294 Y100.000 E11.76156
G1 X88.386 Y98.533 E11.83533
G1 X88.662 Y97.089 E11.90911
G1 X89.116 Y95.691 E11.98289
G1 X89.742 Y94.361 E12.05666
G1 X90.530 Y93.119 E12.13044
G1 X91.467 Y91.987 E12.20421
G1 X92.538 Y90.980 E12.27799
G1 X93.467 Y90.306 E12.33561
G1 X93.421 Y90.163 E12.34315
G1 X90.380 Y90.163 E12.49577
G1 X88.409 Y86.750 E12.69354
G1 X90.380 Y83.337 E12.89131
G1 X94.320 Y83.337 E13.08908
G1 X96.291 Y86.750 E13.28685
G1 X94.781 Y89.365 E13.43838
G1 X94.891 Y89.477 E13.44628
G1 X95.015 Y89.408 E13.45338
G1 X96.383 Y88.867 E13.52720
G1 X97.807 Y88.501 E13.60098
G1 X99.265 Y88.317 E13.67475
G1 X100.735 Y88.317 E13.74853
G1 X102.193 Y88.501 E13.82230
G1 X103.617 Y88.867 E13.89608
G1 X104.984 Y89.408 E13.96985
G1 X106.272 Y90.116 E14.04363
G1 X107.462 Y90.980 E14.11741
G1 X108.533 Y91.987 E14.19118
G1 X109.470 Y93.119 E14.26496
G1 X110.258 Y94.361 E14.33873
G1 X110.884 Y95.691 E14.41251
G1 X111.338 Y97.090 E14.48633
G1 X111.616 Y98.568 E14.56182
G1 X111.655 Y99.193 E14.59325
G1 X111.805 Y99.228 E14.60096
G1 X113.330 Y96.587 E14.75401
G1 X117.270 Y96.587 E14.95178
G1 X119.241 Y100.000 E15.14955
G1 X117.300 Y103.361 E15.34430
G1 E13.34430 F2400.00000
G92 E0
G1 X95.892 Y113.250 F7800.000
G1 E2.00000 F2400.00000
G1 F1800
G1 X94.121 Y116.318 E2.17778
G1 X90.579 Y116.318 E2.35557
G1 X88.808 Y113.250 E2.53335
G1 X90.579 Y110.182 E2.71113
G1 X94.121 Y110.182 E2.88892
G1 X95.862 Y113.198 E3.06369
G1 X96.239 Y113.450 F7800.000
G1 E1.06369 F2400.00000
G92 E0
G1 X96.518 Y110.812 F7800.000
G1 E2.00000 F2400.00000
G1 F1800
G1 X95.163 Y110.279 E2.07309
G1 X93.913 Y109.592 E2.14469
G1 X92.759 Y108.753 E2.21629
G1 X91.719 Y107.777 E2.28789
G1 X90.809 Y106.677 E2.35948
G1 X90.045 Y105.473 E2.43108
G1 X89.437 Y104.182 E2.50268
G1 X88.996 Y102.825 E2.57429
G1 X88.727 Y101.389 E2.64761
G1 X88.640 Y100.000 E2.71746
G1 X88.729 Y98.576 E2.78906
G1 X88.996 Y97.175 E2.86066
G1 X89.437 Y95.818 E2.93225
G1 X90.045 Y94.527 E3.00385
G1 X90.809 Y93.323 E3.07545
G1 X91.719 Y92.223 E3.14705
G1 X92.759 Y91.247 E3.21864
G1 X93.885 Y90.429 E3.28849
G1 X95.163 Y89.721 E3.36181
G1 X96.489 Y89.196 E3.43343
G1 X97.871 Y88.841 E3.50502
G1 X99.287 Y88.662 E3.57662
G1 X100.713 Y88.662 E3.64822
G1 X102.129 Y88.841 E3.71982
G1 X103.511 Y89.196 E3.79141
G1 X104.837 Y89.721 E3.86301
G1 X106.087 Y90.408 E3.93461
G1 X107.241 Y91.247 E4.00621
G1 X108.281 Y92.223 E4.07781
G1 X109.191 Y93.323 E4.14940
G1 X109.955 Y94.527 E4.22100
G1 X110.563 Y95.818 E4.29260
G1 X111.004 Y97.175 E4.36421
G1 X111.273 Y98.611 E4.43753
G1 X111.360 Y100.000 E4.50738
G1 X111.271 Y101.424 E4.57898
G1 X111.003 Y102.825 E4.65058
G1 X110.563 Y104.182 E4.72217
G1 X109.955 Y105.473 E4.79377
G1 X109.191 Y106.677 E4.86537
G1 X108.281 Y107.777 E4.93697
G1 X107.241 Y108.753 E5.00856
G1 X106.087 Y109.592 E5.08016
G1 X104.837 Y110.279 E5.15176
G1 X103.511 Y110.804 E5.22336
G1 X102.129 Y111.159 E5.29496
G1 X100.713 Y111.338 E5.36655
G1 X99.287 Y111.338 E5.43815
G1 X97.871 Y111.159 E5.50975
G1 X96.577 Y110.827 E5.57683
G1 X96.222 Y111.080 F7800.000
G1 E3.57683 F2400.00000
G92 E0
G1 X94.121 Y89.818 F7800.000
G1 E2.00000 F2400.00000
G1 F1800
G1 X90.579 Y89.818 E2.17778
G1 X88.808 Y86.750 E2.35557
G1 X90.579 Y83.682 E2.53335
G1 X94.121 Y83.682 E2.71113
G1 X95.892 Y86.750 E2.88892
G1 X94.151 Y89.766 E3.06369
G1 X94.121 Y90.218 F7800.000
G1 E1.06369 F2400.00000
G92 E0
G1 X111.758 Y100.000 F7800.000
G1 E2.00000 F2400.00000
G1 F1800
G1 X113.529 Y96.932 E2.17778
G1 X117.071 Y96.932 E2.35557
G1 X118.842 Y100.000 E2.53335
G1 X117.071 Y103.068 E2.71113
G1 X113.529 Y103.068 E2.88891
G1 X111.788 Y100.052 E3.06369
G1 X111.411 Y99.800 F7800.000
G1 E1.06369 F2400.00000
G92 E0
G1 X124.598 Y100.000 F7800.000
G1 E2.00000 F2400.00000
G1 F1800
G1 X124.404 Y103.083 E2.15503
G1 X123.826 Y106.117 E2.31006
G1 X122.871 Y109.055 E2.46509
G1 X121.556 Y111.850 E2.62012
G1 X119.901 Y114.459 E2.77515
G1 X117.931 Y116.839 E2.93018
G1 X115.680 Y118.953 E3.08521
G1 X113.181 Y120.769 E3.24023
G1 X110.474 Y122.257 E3.39526
G1 X107.601 Y123.394 E3.55029
G1 X104.609 Y124.163 E3.70532
G1 X101.545 Y124.550 E3.86035
G1 X98.455 Y124.550 E4.01538
G1 X95.391 Y124.163 E4.17041
G1 X92.399 Y123.394 E4.32544
G1 X89.526 Y122.257 E4.48047
G1 X86.819 Y120.769 E4.63550
G1 X84.320 Y118.953 E4.79052
G1 X82.069 Y116.839 E4.94555
G1 X80.099 Y114.459 E5.10058
G1 X78.444 Y111.850 E5.25561
G1 X77.129 Y109.055 E5.41064
G1 X76.174 Y106.117 E5.56567
G1 X75.596 Y103.083 E5.72070
G1 X75.402 Y100.000 E5.87573
G1 X75.596 Y96.917 E6.03076
G1 X76.174 Y93.883 E6.18579
G1 X77.129 Y90.945 E6.34082
G1 X78.444 Y88.150 E6.49585
G1 X80.099 Y85.541 E6.65088
G1 X82.069 Y83.161 E6.80591
G1 X84.320 Y81.047 E6.96094
G1 X86.819 Y79.231 E7.11596
G1 X89.526 Y77.743 E7.27099
G1 X92.399 Y76.606 E7.42602
G1 X95.391 Y75.837 E7.58105
G1 X98.455 Y75.450 E7.73608
G1 X101.545 Y75.450 E7.89111
G1 X104.609 Y75.837 E8.04614
G1 X107.601 Y76.606 E8.20117
G1 X110.474 Y77.743 E8.35620
G1 X113.181 Y79.231 E8.51123
G1 X115.680 Y81.047 E8.66626
G1 X117.931 Y83.161 E8.82128
G1 X119.901 Y85.541 E8.97631
G1 X121.556 Y88.150 E9.13134
G1 X122.871 Y90.945 E9.28637
G1 X123.826 Y93.883 E9.44140
G1 X124.404 Y96.917 E9.59643
G1 X124.595 Y99.940 E9.74845
G1 X124.943 Y100.022 F7800.000
G1 F1800
G1 X124.747 Y103.126 E9.90457
G1 X124.160 Y106.203 E10.06177
G1 X123.192 Y109.183 E10.21898
G1 X121.859 Y112.017 E10.37619
G1 X120.180 Y114.662 E10.53340
G1 X118.183 Y117.075 E10.69060
G1 X115.900 Y119.220 E10.84781
G1 X113.298 Y121.098 E11.00886
G1 X110.621 Y122.570 E11.16219
G1 X107.708 Y123.723 E11.31940
G1 X104.674 Y124.502 E11.47661
G1 X101.566 Y124.895 E11.63382
G1 X98.434 Y124.895 E11.79102
G1 X95.251 Y124.483 E11.95207
G1 X92.292 Y123.723 E12.10541
G1 X89.379 Y122.570 E12.26262
G1 X86.634 Y121.061 E12.41982
G1 X84.100 Y119.220 E12.57703
G1 X81.817 Y117.075 E12.73423
G1 X79.820 Y114.662 E12.89144
G1 X78.141 Y112.017 E13.04865
G1 X76.808 Y109.183 E13.20586
G1 X75.840 Y106.203 E13.36306
G1 X75.253 Y103.126 E13.52027
G1 X75.056 Y100.000 E13.67748
G1 X75.253 Y96.874 E13.83469
G1 X75.840 Y93.797 E13.99189
G1 X76.808 Y90.817 E14.14910
G1 X78.141 Y87.983 E14.30631
G1 X79.820 Y85.338 E14.46351
G1 X81.817 Y82.925 E14.62072
G1 X84.100 Y80.780 E14.77793
G1 X86.634 Y78.939 E14.93514
G1 X89.379 Y77.430 E15.09234
G1 X92.292 Y76.277 E15.24955
G1 X95.326 Y75.498 E15.40676
G1 X98.434 Y75.105 E15.56396
G1 X101.566 Y75.105 E15.72117
G1 X104.674 Y75.498 E15.87838
G1 X107.708 Y76.277 E16.03559
G1 X110.621 Y77.430 E16.19279
G1 X113.366 Y78.939 E16.35000
G1 X115.900 Y80.780 E16.50721
G1 X118.183 Y82.925 E16.66441
G1 X120.180 Y85.338 E16.82162
G1 X121.859 Y87.983 E16.97883
G1 X123.192 Y90.817 E17.13604
G1 X124.160 Y93.797 E17.29324
G1 X124.747 Y96.874 E17.45045
G1 X124.942 Y99.962 E17.60573
G1 X125.287 Y100.043 F7800.000
G1 F1800
G1 X125.090 Y103.170 E17.76294
G1 X124.495 Y106.289 E17.92233
G1 X123.514 Y109.310 E18.08171
G1 X122.161 Y112.183 E18.24110
G1 X120.460 Y114.865 E18.40048
G1 X118.435 Y117.312 E18.55987
G1 X116.120 Y119.486 E18.71925
G1 X113.464 Y121.400 E18.88356
G1 X110.768 Y122.883 E19.03798
G1 X107.815 Y124.052 E19.19737
G1 X104.739 Y124.842 E19.35675
G1 X101.588 Y125.240 E19.51614
G1 X98.412 Y125.240 E19.67552
G1 X95.165 Y124.817 E19.83983
G1 X92.185 Y124.052 E19.99426
G1 X89.232 Y122.883 E20.15364
G1 X86.449 Y121.353 E20.31303
G1 X83.880 Y119.486 E20.47241
G1 X81.565 Y117.312 E20.63180
G1 X79.540 Y114.865 E20.79118
G1 X77.839 Y112.183 E20.95057
G1 X76.486 Y109.310 E21.10995
G1 X75.505 Y106.289 E21.26934
G1 X74.910 Y103.170 E21.42872
G1 X74.710 Y100.000 E21.58811
G1 X74.910 Y96.830 E21.74749
G1 X75.505 Y93.711 E21.90688
G1 X76.486 Y90.690 E22.06626
G1 X77.839 Y87.817 E22.22565
G1 X79.540 Y85.135 E22.38503
G1 X81.565 Y82.688 E22.54442
G1 X83.880 Y80.514 E22.70380
G1 X86.449 Y78.647 E22.86319
G1 X89.232 Y77.117 E23.02257
G1 X92.185 Y75.948 E23.18196
G1 X95.261 Y75.158 E23.34134
G1 X98.412 Y74.760 E23.50073
G1 X101.588 Y74.760 E23.66011
G1 X104.739 Y75.158 E23.81950
G1 X107.815 Y75.948 E23.97888
G1 X110.768 Y77.117 E24.13827
G1 X113.551 Y78.647 E24.29765
G1 X116.120 Y80.514 E24.45704
G1 X118.435 Y82.688 E24.61642
G1 X120.460 Y85.135 E24.77581
G1 X122.161 Y87.817 E24.93519
G1 X123.514 Y90.690 E25.09458
G1 X124.495 Y93.711 E25.25396
G1 X125.090 Y96.830 E25.41335
G1 X125.289 Y99.983 E25.57190
G1 X124.940 Y100.243 F7800.000
G1 E23.57190 F2400.00000
G92 E0
G1 X124.301 Y103.073 F7800.000
G1 E2.00000 F2400.00000
G1 F1800
G1 X117.751 Y96.523 E2.46514
G1 X118.417 Y97.677 F7800.000
G1 F1800
G1 X124.223 Y103.483 E2.87739
G1 X124.145 Y103.893 F7800.000
G1 F1800
G1 X119.508 Y99.256 E3.20664
G1 X119.938 Y100.000 E3.24978
G1 X119.874 Y100.110 E3.25616
G1 X123.934 Y104.170 E3.54445
G1 X123.856 Y104.580 E3.56540
G1 X119.695 Y100.419 E3.86081
G1 X119.517 Y100.729 E3.87875
G1 X123.778 Y104.989 E4.18130
G1 X123.699 Y105.399 E4.20225
G1 X119.338 Y101.038 E4.51194
G1 X119.160 Y101.348 E4.52988
G1 X123.621 Y105.809 E4.84669
G1 X123.526 Y106.202 E4.86700
G1 X118.981 Y101.657 E5.18975
G1 X118.802 Y101.966 E5.20769
G1 X123.407 Y106.570 E5.53463
G1 X123.287 Y106.939 E5.55408
G1 X118.624 Y102.276 E5.88521
G1 X118.445 Y102.585 E5.90314
G1 X123.167 Y107.307 E6.23846
G1 X123.047 Y107.675 E6.25790
G1 X118.267 Y102.894 E6.59740
G1 X118.088 Y103.204 E6.61534
G1 X122.928 Y108.044 E6.95902
G1 X122.808 Y108.412 E6.97847
G1 X117.909 Y103.513 E7.32634
G1 X117.731 Y103.823 E7.34428
G1 X122.688 Y108.780 E7.69633
G1 X122.550 Y109.130 E7.71521
G1 X117.436 Y104.016 E8.07834
G1 X116.948 Y104.016 E8.10284
G1 X122.394 Y109.462 E8.48953
G1 X122.238 Y109.794 E8.50795
G1 X116.460 Y104.016 E8.91821
G1 X115.972 Y104.016 E8.94271
G1 X122.082 Y110.126 E9.37653
G1 X121.925 Y110.457 E9.39495
G1 X115.484 Y104.016 E9.85233
G1 X114.996 Y104.016 E9.87683
G1 X121.769 Y110.789 E10.35778
G1 X121.613 Y111.121 E10.37620
G1 X114.508 Y104.016 E10.88071
G1 X114.020 Y104.016 E10.90522
G1 X121.457 Y111.453 E11.43330
G1 X121.295 Y111.779 E11.45157
G1 X113.377 Y103.861 E12.01382
G1 X112.652 Y103.136 F7800.000
G1 F1800
G1 X112.029 Y102.513 E12.05810
G1 X111.950 Y102.922 E12.07905
G1 X121.105 Y112.077 E12.72915
G1 X120.916 Y112.376 E12.74690
G1 X111.845 Y103.305 E13.39104
G1 X111.725 Y103.673 E13.41049
G1 X120.726 Y112.674 E14.04967
G1 X120.537 Y112.973 E14.06743
G1 X111.606 Y104.042 E14.70166
G1 X111.486 Y104.410 E14.72110
G1 X120.348 Y113.272 E15.35038
G1 X120.158 Y113.570 E15.36813
G1 X111.342 Y104.754 E15.99418
G1 X111.186 Y105.086 E16.01260
G1 X119.969 Y113.869 E16.63629
G1 X119.779 Y114.167 E16.65404
G1 X111.029 Y105.417 E17.27536
G1 X110.873 Y105.749 E17.29378
G1 X119.573 Y114.449 E17.91154
G1 X119.352 Y114.716 E17.92894
G1 X110.702 Y106.066 E18.54318
G1 X110.513 Y106.365 E18.56093
G1 X119.131 Y114.983 E19.17293
G1 X118.910 Y115.250 E19.19034
