; generated by Slic3r 1.3.1-dev (Build adea0d9) on 2019-12-16 at 00:52:07

; external perimeters extrusion width = 0.44mm (2.86mm^3/s)
; perimeters extrusion width = 0.56mm (4.14mm^3/s)
; infill extrusion width = 0.50mm (3.66mm^3/s)
; solid infill extrusion width = 0.56mm (3.10mm^3/s)
; top infill extrusion width = 0.56mm (3.10mm^3/s)

M107
G92 E0
;D3D:START:START
T0
M104 S215 T0

G21
G90
M107
T0
G28
G29
M109 T0 S215 T0
G0 F3000
M107
T0
G92 E0
G0 X0 Y149 Z0.1 F3600
G1 Y49 E6.5 F1200
G0 Z1
G92 E0
; Filament gcode

G21 ; set units to millimeters
G90 ; use absolute coordinates
M82 ; use absolute distances for extrusion
G92 E0
G1 Z0.300 F7800.000
G1 E-2.00000 F2400.00000
G92 E0
G1 X75.993 Y67.781 F7800.000
G1 E2.00000 F2400.00000
G1 F1190.886
G1 X76.368 Y67.633 E2.01333
G1 X76.368 Y82.367 E2.50149
G1 X75.993 Y82.219 E2.51481
G1 X75.993 Y67.841 E2.99118
G1 X75.728 Y67.600 F7800.000
G1 F1190.886
G1 X76.633 Y67.242 E3.02343
G1 X76.633 Y82.758 E3.53748
G1 X75.728 Y82.400 E3.56973
G1 X75.728 Y67.660 E4.05806
G1 X75.462 Y67.419 F7800.000
G1 F1800.000
G1 X76.899 Y66.851 E4.10924
G1 X76.899 Y83.149 E4.64917
G1 X75.462 Y82.581 E4.70035
G1 X75.462 Y67.479 E5.20065
G1 X76.181 Y67.849 F7800.000
G1 F1190.886
G1 X76.181 Y82.151 E5.27942
M106 S255
G1 Z0.500 F7800.000
G1 E3.27942 F2400.00000
G92 E0
G1 X74.888 Y68.007 F7800.000
G1 E2.00000 F2400.00000
M106 S255

G1 F2400.000
G1 X75.097 Y67.924 E2.01177
M106 S255

G1 F666.701
G1 X77.205 Y67.091 E2.10924
G1 X77.205 Y82.909 E2.78937
G1 X75.097 Y82.076 E2.88684
M106 S255

G1 F2400.000
G1 X74.888 Y81.993 E2.89861
G1 X74.888 Y68.067 E3.62616
M106 S255

G1 X74.431 Y67.696 F7800.000
M106 S255

G1 F2400.000
G1 X75.097 Y67.433 E3.66361
M106 S255

G1 F2160.000
G1 X77.264 Y66.576 E3.74054
M106 S255

G1 F2400.000
G1 X77.662 Y66.418 E3.76293
G1 X77.662 Y83.582 E4.65962
G1 X77.264 Y83.424 E4.68201
M106 S255

G1 F2160.000
G1 X75.097 Y82.567 E4.75893
M106 S255

G1 F2400.000
G1 X74.431 Y82.304 E4.79638
G1 X74.431 Y67.756 E5.55641
M106 S255

G1 E3.55641 F2400.00000
G92 E0
G1 X76.988 Y67.802 F7800.000
G1 E2.00000 F2400.00000
M106 S255

G1 F2400.000
G1 X76.456 Y67.802 E2.02984
G1 X75.281 Y68.266 E2.10065
G1 X76.988 Y68.266 E2.19634
G1 X76.988 Y68.731 E2.22238
G1 X75.105 Y68.731 E2.32793
G1 X75.105 Y69.195 E2.35397
G1 X76.988 Y69.195 E2.45953
G1 X76.988 Y69.659 E2.48557
G1 X75.105 Y69.659 E2.59112
G1 X75.105 Y70.124 E2.61716
G1 X76.988 Y70.124 E2.72271
G1 X76.988 Y70.588 E2.74875
G1 X75.105 Y70.588 E2.85431
G1 X75.105 Y71.053 E2.88035
G1 X76.988 Y71.053 E2.98590
G1 X76.988 Y71.517 E3.01194
G1 X75.105 Y71.517 E3.11750
G1 X75.105 Y71.981 E3.14353
G1 X76.988 Y71.981 E3.24909
G1 X76.988 Y72.446 E3.27513
G1 X75.105 Y72.446 E3.38068
G1 X75.105 Y72.910 E3.40672
G1 X76.988 Y72.910 E3.51228
G1 X76.988 Y73.375 E3.53832
G1 X75.105 Y73.375 E3.64387
G1 X75.105 Y73.839 E3.66991
G1 X76.988 Y73.839 E3.77546
G1 X76.988 Y74.303 E3.80150
G1 X75.105 Y74.303 E3.90706
G1 X75.105 Y74.768 E3.93310
G1 X76.988 Y74.768 E4.03865
G1 X76.988 Y75.232 E4.06469
G1 X75.105 Y75.232 E4.17024
G1 X75.105 Y75.697 E4.19628
G1 X76.988 Y75.697 E4.30184
G1 X76.988 Y76.161 E4.32788
G1 X75.105 Y76.161 E4.43343
G1 X75.105 Y76.625 E4.45947
G1 X76.988 Y76.625 E4.56503
G1 X76.988 Y77.090 E4.59107
G1 X75.105 Y77.090 E4.69662
G1 X75.105 Y77.554 E4.72266
G1 X76.988 Y77.554 E4.82821
G1 X76.988 Y78.019 E4.85425
G1 X75.105 Y78.019 E4.95981
G1 X75.105 Y78.483 E4.98585
G1 X76.988 Y78.483 E5.09140
G1 X76.988 Y78.947 E5.11744
G1 X75.105 Y78.947 E5.22299
G1 X75.105 Y79.412 E5.24903
G1 X76.988 Y79.412 E5.35459
G1 X76.988 Y79.876 E5.38063
G1 X75.105 Y79.876 E5.48618
G1 X75.105 Y80.341 E5.51222
G1 X76.988 Y80.341 E5.61778
G1 X76.988 Y80.805 E5.64382
G1 X75.105 Y80.805 E5.74937
G1 X75.105 Y81.269 E5.77541
G1 X76.988 Y81.269 E5.88096
G1 X76.988 Y81.734 E5.90700
G1 X75.281 Y81.734 E6.00270
G1 X76.456 Y82.198 E6.07351
G1 X76.987 Y82.198 E6.10333
M106 S255

G1 Z0.700 F7800.000
G1 E4.10333 F2400.00000
G92 E0
G1 X74.532 Y67.995 F7800.000
G1 E2.00000 F2400.00000
G1 F1800.000
G1 X77.512 Y66.817 E2.13775
G1 X77.512 Y83.183 E2.84139
G1 X74.532 Y82.005 E2.97914
G1 X74.532 Y68.055 E3.57888
G1 X74.075 Y67.685 F7800.000
G1 F1800.000
G1 X77.969 Y66.145 E3.71712
G1 X77.969 Y83.855 E4.30186
G1 X74.075 Y82.315 E4.44010
G1 X74.075 Y67.745 E4.92118
G1 X74.849 Y68.548 F7800.000
G1 F1800.000
G1 X75.251 Y68.146 E4.94669
G1 X76.513 Y67.647 E5.00755
G1 X74.848 Y69.311 E5.11312
G1 X74.848 Y70.074 E5.14734
G1 X77.196 Y67.727 E5.29625
G1 X77.196 Y68.489 E5.33046
G1 X74.848 Y70.837 E5.47937
G1 X74.848 Y71.600 E5.51359
G1 X77.196 Y69.252 E5.66249
G1 X77.196 Y70.015 E5.69671
G1 X74.848 Y72.363 E5.84562
G1 X74.848 Y73.125 E5.87983
G1 X77.196 Y70.778 E6.02874
G1 X77.196 Y71.541 E6.06296
G1 X74.848 Y73.888 E6.21186
G1 X74.848 Y74.651 E6.24608
G1 X77.196 Y72.304 E6.39499
G1 X77.196 Y73.067 E6.42921
G1 X74.848 Y75.414 E6.57811
G1 X74.848 Y76.177 E6.61233
G1 X77.196 Y73.829 E6.76124
G1 X77.196 Y74.592 E6.79545
G1 X74.848 Y76.940 E6.94436
G1 X74.848 Y77.703 E6.97858
G1 X77.196 Y75.355 E7.12748
G1 X77.196 Y76.118 E7.16170
G1 X74.848 Y78.466 E7.31061
G1 X74.848 Y79.228 E7.34482
G1 X77.196 Y76.881 E7.49373
G1 X77.196 Y77.644 E7.52795
G1 X74.848 Y79.991 E7.67685
G1 X74.848 Y80.754 E7.71107
G1 X77.196 Y78.407 E7.85998
G1 X77.196 Y79.169 E7.89420
G1 X74.848 Y81.517 E8.04310
G1 X74.848 Y81.854 E8.05822
G1 X75.154 Y81.975 E8.07294
G1 X77.196 Y79.932 E8.20249
G1 X77.196 Y80.695 E8.23671
G1 X75.700 Y82.191 E8.33158
G1 X76.247 Y82.407 E8.35795
G1 X77.196 Y81.458 E8.41814
G1 X77.196 Y82.221 E8.45236
G1 X76.794 Y82.623 E8.47788
G1 Z0.900 F7800.000
G1 E6.47788 F2400.00000
G92 E0
G1 X74.205 Y67.973 F7800.000
G1 E2.00000 F2400.00000
G1 F1800.000
G1 X77.818 Y66.544 E2.16707
G1 X77.818 Y83.456 E2.89421
G1 X74.205 Y82.027 E3.06128
G1 X74.205 Y68.033 E3.66297
G1 X73.748 Y67.662 F7800.000
G1 F2160.000
G1 X78.276 Y65.872 E3.82372
G1 X78.276 Y84.128 E4.42651
G1 X73.748 Y82.338 E4.58726
G1 X73.748 Y67.722 E5.06983
G1 E3.06983 F2400.00000
G92 E0
G1 X77.503 Y67.506 F7800.000
G1 E2.00000 F2400.00000
G1 F1800.000
G1 X77.100 Y67.103 E2.02465
G1 X76.572 Y67.312 E2.04926
G1 X77.503 Y68.243 E2.10627
G1 X77.503 Y68.980 E2.13821
G1 X76.044 Y67.521 E2.22759
G1 X75.516 Y67.730 E2.25219
G1 X77.503 Y69.717 E2.37393
G1 X77.503 Y70.454 E2.40587
G1 X74.988 Y67.939 E2.55997
G1 X74.521 Y68.123 E2.58172
G1 X74.521 Y68.209 E2.58543
G1 X77.503 Y71.191 E2.76814
G1 X77.503 Y71.928 E2.80007
G1 X74.521 Y68.946 E2.98278
G1 X74.521 Y69.683 E3.01472
G1 X77.503 Y72.664 E3.19743
G1 X77.503 Y73.401 E3.22936
G1 X74.521 Y70.420 E3.41207
G1 X74.521 Y71.157 E3.44400
G1 X77.503 Y74.138 E3.62672
G1 X77.503 Y74.875 E3.65865
G1 X74.521 Y71.894 E3.84136
G1 X74.521 Y72.631 E3.87329
G1 X77.503 Y75.612 E4.05600
G1 X77.503 Y76.349 E4.08794
G1 X74.521 Y73.368 E4.27065
G1 X74.521 Y74.105 E4.30258
G1 X77.503 Y77.086 E4.48529
G1 X77.503 Y77.823 E4.51723
G1 X74.521 Y74.842 E4.69994
G1 X74.521 Y75.579 E4.73187
G1 X77.503 Y78.560 E4.91458
G1 X77.503 Y79.297 E4.94651
G1 X74.521 Y76.316 E5.12922
G1 X74.521 Y77.052 E5.16116
G1 X77.503 Y80.034 E5.34387
G1 X77.503 Y80.771 E5.37580
G1 X74.521 Y77.789 E5.55851
G1 X74.521 Y78.526 E5.59045
G1 X77.503 Y81.508 E5.77316
G1 X77.503 Y82.245 E5.80509
G1 X74.521 Y79.263 E5.98780
G1 X74.521 Y80.000 E6.01973
G1 X77.361 Y82.841 E6.19379
G1 X76.142 Y82.359 E6.25059
G1 X74.521 Y80.737 E6.34995
G1 X74.521 Y81.025 E6.36242
G1 X74.615 Y81.041 E6.36654
G1 X74.521 Y81.291 E6.37812
G1 X74.521 Y81.474 E6.38607
G1 X74.923 Y81.876 E6.41071
G1 Z1.100 F7800.000
G1 E4.41071 F2400.00000
G92 E0
G1 X73.877 Y67.950 F7800.000
G1 E2.00000 F2400.00000
G1 F1800.000
G1 X78.125 Y66.271 E2.19639
G1 X78.125 Y83.729 E2.94704
G1 X73.877 Y82.050 E3.14343
G1 X73.877 Y68.010 E3.74705
G1 X73.420 Y67.640 F7800.000
G1 F2160.000
G1 X78.582 Y65.598 E3.93032
G1 X78.582 Y84.402 E4.55116
G1 X73.420 Y82.360 E4.73443
G1 X73.420 Y67.700 E5.21849
G1 X74.596 Y68.101 F7800.000
G1 F1800.000
G1 X74.193 Y68.503 E5.24342
G1 X74.193 Y69.248 E5.27605
G1 X75.828 Y67.613 E5.37733
G1 X77.060 Y67.126 E5.43537
G1 X74.193 Y69.993 E5.61298
G1 X74.193 Y70.738 E5.64562
G1 X77.809 Y67.122 E5.86961
G1 X77.809 Y67.867 E5.90224
G1 X74.193 Y71.483 E6.12623
G1 X74.193 Y72.228 E6.15887
G1 X77.809 Y68.612 E6.38286
G1 X77.809 Y69.357 E6.41549
G1 X74.193 Y72.973 E6.63949
G1 X74.193 Y73.718 E6.67212
G1 X77.809 Y70.102 E6.89611
G1 X77.809 Y70.847 E6.92875
G1 X74.193 Y74.463 E7.15274
G1 X74.193 Y75.208 E7.18537
G1 X77.809 Y71.592 E7.40936
G1 X77.809 Y72.337 E7.44200
G1 X74.193 Y75.953 E7.66599
G1 X74.193 Y76.698 E7.69862
G1 X77.809 Y73.082 E7.92261
G1 X77.809 Y73.827 E7.95525
G1 X74.193 Y77.443 E8.17924
G1 X74.193 Y78.188 E8.21187
G1 X77.809 Y74.573 E8.43586
G1 X77.809 Y75.318 E8.46850
G1 X74.193 Y78.933 E8.69249
G1 X74.193 Y79.678 E8.72512
G1 X77.809 Y76.063 E8.94912
G1 X77.809 Y76.808 E8.98175
G1 X74.193 Y80.423 E9.20574
G1 X74.193 Y81.168 E9.23838
G1 X77.809 Y77.553 E9.46237
G1 X77.809 Y78.298 E9.49500
G1 X74.203 Y81.903 E9.71836
G1 X74.737 Y82.114 E9.74351
G1 X77.809 Y79.043 E9.93380
G1 X77.809 Y79.788 E9.96643
G1 X75.271 Y82.325 E10.12364
G1 X75.805 Y82.537 E10.14879
G1 X77.809 Y80.533 E10.27293
G1 X77.809 Y81.278 E10.30557
G1 X76.339 Y82.748 E10.39663
G1 X76.873 Y82.959 E10.42178
G1 X77.809 Y82.023 E10.47977
G1 X77.809 Y82.768 E10.51241
G1 X77.407 Y83.170 E10.53733
G1 Z1.300 F7800.000
G1 E8.53733 F2400.00000
G92 E0
G1 X73.550 Y67.928 F7800.000
G1 E2.00000 F2400.00000
G1 F2400.000
G1 X78.272 Y66.060 E2.21836
G1 X78.269 Y83.938 E2.98703
G1 X73.550 Y82.072 E3.20523
G1 X73.550 Y67.988 E3.81079
G1 X73.093 Y67.617 F7800.000
G1 F2160.000
G1 X78.730 Y65.388 E4.01093
G1 X78.726 Y84.611 E4.64561
G1 X73.093 Y82.383 E4.84562
G1 X73.093 Y67.677 E5.33117
G1 E3.33117 F2400.00000
G92 E0
G1 X77.407 Y66.830 F7800.000
G1 E2.00000 F2400.00000
G1 F1800.000
G1 X77.809 Y67.232 E2.02540
G1 X77.809 Y67.992 F7800.000
G1 F1800.000
G1 X76.753 Y66.936 E2.09208
G1 X76.209 Y67.152 E2.11822
G1 X77.809 Y68.752 E2.21927
G1 X77.809 Y69.511 E2.25320
G1 X75.665 Y67.367 E2.38863
G1 X75.120 Y67.582 E2.41478
G1 X77.809 Y70.271 E2.58459
G1 X77.809 Y71.030 E2.61852
G1 X74.576 Y67.797 E2.82272
G1 X74.032 Y68.013 E2.84886
G1 X77.809 Y71.790 E3.08744
G1 X77.809 Y72.550 E3.12136
G1 X73.866 Y68.606 E3.37043
G1 X73.866 Y69.366 E3.40436
G1 X77.809 Y73.309 E3.65343
G1 X77.809 Y74.069 E3.68735
G1 X73.866 Y70.125 E3.93642
G1 X73.866 Y70.885 E3.97034
G1 X77.809 Y74.828 E4.21941
G1 X77.809 Y75.588 E4.25334
G1 X73.866 Y71.645 E4.50240
G1 X73.866 Y72.404 E4.53633
G1 X77.809 Y76.348 E4.78540
G1 X77.809 Y77.107 E4.81932
G1 X73.866 Y73.164 E5.06839
G1 X73.866 Y73.923 E5.10231
G1 X77.809 Y77.867 E5.35138
G1 X77.809 Y78.626 E5.38531
G1 X73.866 Y74.683 E5.63438
G1 X73.866 Y75.443 E5.66830
G1 X77.809 Y79.386 E5.91737
G1 X77.809 Y80.146 E5.95129
G1 X73.866 Y76.202 E6.20036
G1 X73.866 Y76.962 E6.23429
G1 X77.809 Y80.905 E6.48335
G1 X77.809 Y81.665 E6.51728
G1 X73.866 Y77.721 E6.76635
G1 X73.866 Y78.481 E6.80027
G1 X77.809 Y82.424 E7.04934
G1 X77.809 Y83.170 E7.08264
G1 X73.866 Y79.241 E7.33127
G1 X73.866 Y80.000 E7.36519
G1 X76.781 Y82.915 E7.54933
G1 X75.525 Y82.419 E7.60967
G1 X73.866 Y80.760 E7.71445
G1 X73.866 Y81.519 E7.74837
G1 X74.268 Y81.922 E7.77377
G1 Z1.500 F7800.000
G1 E5.77377 F2400.00000
G92 E0
G1 X73.235 Y67.900 F7800.000
G1 E2.00000 F2400.00000
G1 F2400.000
G1 X78.377 Y65.867 E2.23770
G1 X78.368 Y84.130 E3.02291
G1 X73.235 Y82.100 E3.26023
G1 X73.235 Y67.960 E3.86818
G1 X72.778 Y67.589 F7800.000
G1 F2160.000
G1 X78.829 Y65.197 E4.08299
G1 X78.825 Y84.802 E4.73030
G1 X72.778 Y82.411 E4.94500
G1 X72.778 Y67.649 E5.43238
G1 X73.954 Y68.050 F7800.000
G1 F1800.000
G1 X73.551 Y68.453 E5.45711
G1 X73.551 Y69.192 E5.48923
G1 X75.176 Y67.567 E5.58910
G1 X76.399 Y67.084 E5.64623
G1 X73.551 Y69.931 E5.82123
G1 X73.551 Y70.670 E5.85335
G1 X77.621 Y66.600 E6.10348
G1 X78.060 Y66.427 E6.12398
G1 X78.060 Y66.901 E6.14458
G1 X73.551 Y71.409 E6.42167
G1 X73.551 Y72.148 E6.45379
G1 X78.060 Y67.640 E6.73085
G1 X78.060 Y67.982 E6.74569
G1 X77.809 Y68.081 E6.75739
G1 X77.809 Y68.630 E6.78126
G1 X73.551 Y72.887 E7.04292
G1 X73.551 Y73.627 E7.07504
G1 X77.809 Y69.369 E7.33670
G1 X77.809 Y70.108 E7.36882
G1 X73.551 Y74.366 E7.63049
G1 X73.551 Y75.105 E7.66261
G1 X77.809 Y70.847 E7.92427
G1 X77.809 Y71.586 E7.95639
G1 X73.551 Y75.844 E8.21805
G1 X73.551 Y76.583 E8.25017
G1 X77.809 Y72.325 E8.51183
G1 X77.809 Y73.064 E8.54395
G1 X73.551 Y77.322 E8.80561
G1 X73.551 Y78.061 E8.83773
G1 X77.809 Y73.804 E9.09940
G1 X77.809 Y74.543 E9.13152
G1 X73.551 Y78.800 E9.39318
G1 X73.551 Y79.539 E9.42530
G1 X77.809 Y75.282 E9.68696
G1 X77.809 Y76.021 E9.71908
G1 X73.551 Y80.279 E9.98074
G1 X73.551 Y81.018 E10.01286
G1 X77.809 Y76.760 E10.27452
G1 X77.809 Y77.499 E10.30664
G1 X73.551 Y81.757 E10.56831
G1 X73.551 Y81.949 E10.57668
G1 X73.943 Y82.104 E10.59498
G1 X77.809 Y78.238 E10.83258
G1 X77.809 Y78.977 E10.86470
G1 X74.473 Y82.314 E11.06975
G1 X75.002 Y82.523 E11.09450
G1 X77.809 Y79.716 E11.26700
G1 X77.809 Y80.455 E11.29912
G1 X75.532 Y82.733 E11.43907
G1 X76.062 Y82.942 E11.46382
G1 X77.809 Y81.195 E11.57121
G1 X77.809 Y81.517 E11.58523
G1 X78.054 Y81.614 E11.59666
G1 X78.053 Y81.689 E11.59993
G1 X76.591 Y83.152 E11.68980
G1 X77.121 Y83.361 E11.71455
G1 X78.053 Y82.429 E11.77185
G1 X78.053 Y83.168 E11.80398
G1 X77.651 Y83.570 E11.82870
G1 Z1.700 F7800.000
G1 E9.82870 F2400.00000
G92 E0
G1 X73.070 Y67.813 F7800.000
G1 E2.00000 F2400.00000
G1 F2400.000
G1 X78.478 Y65.675 E2.25001
G1 X78.468 Y84.321 E3.05171
G1 X73.070 Y82.187 E3.30127
G1 X73.070 Y67.873 E3.91668
G1 X72.613 Y67.503 F7800.000
G1 F2160.000
G1 X78.928 Y65.006 E4.14088
G1 X78.925 Y84.993 E4.80082
G1 X72.613 Y82.497 E5.02491
G1 X72.613 Y67.563 E5.51802
G1 E3.51802 F2400.00000
G92 E0
G1 X78.164 Y66.636 F7800.000
G1 E2.00000 F2400.00000
G1 F1800.000
G1 X77.762 Y66.233 E2.02450
G1 X77.237 Y66.441 E2.04881
G1 X78.164 Y67.368 E2.10525
G1 X78.163 Y68.100 E2.13677
G1 X76.712 Y66.649 E2.22515
G1 X76.187 Y66.856 E2.24945
G1 X78.163 Y68.832 E2.36977
G1 X78.162 Y69.563 E2.40129
G1 X75.662 Y67.064 E2.55354
G1 X75.138 Y67.271 E2.57785
G1 X78.058 Y70.191 E2.75568
G1 X77.533 Y70.399 E2.77999
G1 X74.613 Y67.479 E2.95783
G1 X74.088 Y67.686 E2.98214
G1 X77.513 Y71.112 E3.19076
G1 X77.513 Y71.844 E3.22230
G1 X73.563 Y67.894 E3.46289
G1 X73.386 Y67.964 E3.47107
G1 X73.386 Y68.450 E3.49200
G1 X77.513 Y72.577 E3.74335
G1 X77.513 Y73.309 E3.77489
G1 X73.386 Y69.182 E4.02624
G1 X73.386 Y69.915 E4.05778
G1 X77.513 Y74.042 E4.30913
G1 X77.513 Y74.774 E4.34067
G1 X73.386 Y70.647 E4.59202
G1 X73.386 Y71.380 E4.62356
G1 X77.513 Y75.506 E4.87491
G1 X77.513 Y76.239 E4.90645
G1 X73.386 Y72.112 E5.15780
G1 X73.386 Y72.844 E5.18934
G1 X77.513 Y76.971 E5.44069
G1 X77.513 Y77.704 E5.47224
G1 X73.386 Y73.577 E5.72358
G1 X73.386 Y74.309 E5.75513
G1 X77.513 Y78.436 E6.00647
G1 X77.513 Y79.169 E6.03802
G1 X73.386 Y75.042 E6.28936
G1 X73.386 Y75.774 E6.32091
G1 X77.513 Y79.901 E6.57226
G1 X77.513 Y79.996 E6.57633
G1 X77.670 Y80.058 E6.58357
G1 X78.155 Y80.543 E6.61312
G1 X78.154 Y81.275 E6.64464
G1 X73.386 Y76.507 E6.93503
G1 X73.386 Y77.239 E6.96657
G1 X78.154 Y82.007 E7.25693
G1 X78.153 Y82.739 E7.28845
G1 X73.386 Y77.972 E7.57878
G1 X73.386 Y78.704 E7.61032
G1 X78.153 Y83.471 E7.90062
G1 X78.152 Y83.762 E7.91317
G1 X77.423 Y83.474 E7.94694
G1 X73.386 Y79.437 E8.19281
G1 X73.386 Y80.169 E8.22436
G1 X76.212 Y82.995 E8.39644
G1 X75.000 Y82.515 E8.45255
G1 X73.386 Y80.901 E8.55085
G1 X73.386 Y81.634 E8.58239
G1 X73.788 Y82.036 E8.60689
G1 Z1.900 F7800.000
G1 E6.60689 F2400.00000
G92 E0
G1 X72.905 Y67.727 F7800.000
G1 E2.00000 F2400.00000
G1 F2400.000
G1 X78.577 Y65.484 E2.26224
G1 X78.577 Y84.516 E3.08055
G1 X72.905 Y82.273 E3.34279
G1 X72.905 Y67.787 E3.96566
G1 X72.448 Y67.416 F7800.000
G1 F2160.000
G1 X79.027 Y64.814 E4.19925
G1 X79.027 Y85.186 E4.87186
G1 X72.448 Y82.584 E5.10545
G1 X72.448 Y67.476 E5.60429
G1 X73.623 Y67.877 F7800.000
G1 F1800.000
G1 X73.221 Y68.279 E5.62947
G1 X73.221 Y69.032 E5.66276
G1 X74.823 Y67.430 E5.76297
G1 X74.823 Y67.555 E5.76849
G1 X75.861 Y67.144 E5.81788
G1 X73.221 Y69.784 E5.98305
G1 E3.98305 F2400.00000
G92 E0
