; generated by Slic3r 1.3.1-dev (Build 2ef957d) on 2019-11-25 at 09:21:15

; external perimeters extrusion width = 0.55mm (4.37mm^3/s)
; perimeters extrusion width = 0.70mm (11.44mm^3/s)
; infill extrusion width = 0.62mm (13.45mm^3/s)
; solid infill extrusion width = 0.70mm (3.81mm^3/s)
; top infill extrusion width = 0.70mm (2.86mm^3/s)

M107
G92 E0
M104 S200 ; set temperature
G28 ; home all axes
G1 Z5 F5000 ; lift nozzle

; Filament gcode

M109 S200 ; set temperature and wait for it to be reached
G21 ; set units to millimeters
G90 ; use absolute coordinates
M82 ; use absolute distances for extrusion
G92 E0
G1 Z0.350 F7800.000
G1 E-2.00000 F2400.00000
G92 E0
G1 X78.665 Y76.653 F7800.000
G1 E2.00000 F2400.00000
G1 F1800.000
G1 X80.418 Y75.174 E2.07096
G1 X82.570 Y74.381 E2.14192
G1 X83.750 Y74.275 E2.17858
G1 X116.250 Y74.275 E3.18417
G1 X118.509 Y74.672 E3.25513
G1 X120.497 Y75.815 E3.32609
G1 X121.976 Y77.568 E3.39706
G1 X122.769 Y79.720 E3.46802
G1 X122.875 Y80.900 E3.50467
G1 X122.875 Y119.100 E4.68663
G1 X122.478 Y121.359 E4.75759
G1 X121.335 Y123.347 E4.82855
G1 X119.582 Y124.826 E4.89951
G1 X117.430 Y125.619 E4.97048
G1 X116.250 Y125.725 E5.00713
G1 X83.750 Y125.725 E6.01272
G1 X81.491 Y125.328 E6.08368
G1 X79.503 Y124.185 E6.15464
G1 X78.024 Y122.432 E6.22561
G1 X77.231 Y120.280 E6.29657
G1 X77.125 Y119.100 E6.33322
G1 X77.125 Y80.900 E7.51518
G1 X77.522 Y78.641 E7.58614
G1 X78.628 Y76.718 E7.65478
G1 E5.65478 F2400.00000
G92 E0
G1 X113.649 Y101.581 F7800.000
G1 E2.00000 F2400.00000
G1 F1800.000
G1 X113.104 Y101.859 E2.01892
G1 X112.500 Y101.954 E2.03784
G1 X111.896 Y101.859 E2.05676
G1 X111.351 Y101.581 E2.07568
G1 X110.919 Y101.149 E2.09460
G1 X110.641 Y100.604 E2.11352
G1 X110.546 Y100.000 E2.13244
G1 X110.641 Y99.396 E2.15136
G1 X110.919 Y98.851 E2.17028
G1 X111.351 Y98.419 E2.18919
G1 X111.896 Y98.141 E2.20812
G1 X112.500 Y98.046 E2.22703
G1 X113.104 Y98.141 E2.24595
G1 X113.649 Y98.419 E2.26487
G1 X114.081 Y98.851 E2.28379
G1 X114.359 Y99.396 E2.30271
G1 X114.454 Y100.000 E2.32163
G1 X114.359 Y100.604 E2.34055
G1 X114.081 Y101.149 E2.35947
G1 X113.702 Y101.528 E2.37607
G1 X113.649 Y101.581 F7800.000
G1 E0.37607 F2400.00000
G92 E0
G1 X110.975 Y111.561 F7800.000
G1 E2.00000 F2400.00000
G1 F1800.000
G1 X111.719 Y111.940 E2.02584
G1 X112.310 Y112.531 E2.05169
G1 X112.689 Y113.275 E2.07754
G1 X112.820 Y114.100 E2.10338
G1 X112.689 Y114.925 E2.12922
G1 X112.310 Y115.669 E2.15507
G1 X111.719 Y116.260 E2.18092
G1 X110.975 Y116.639 E2.20676
G1 X110.150 Y116.770 E2.23260
G1 X109.325 Y116.639 E2.25845
G1 X108.581 Y116.260 E2.28429
G1 X107.990 Y115.669 E2.31014
G1 X107.611 Y114.925 E2.33598
G1 X107.480 Y114.100 E2.36183
G1 X107.611 Y113.275 E2.38767
G1 X107.990 Y112.531 E2.41352
G1 X108.581 Y111.940 E2.43936
G1 X109.325 Y111.561 E2.46521
G1 X110.150 Y111.430 E2.49105
G1 X110.901 Y111.549 E2.51457
G1 X110.779 Y112.163 F7800.000
G1 F1800.000
G1 X111.347 Y112.452 E2.53429
G1 X111.798 Y112.903 E2.55401
G1 X112.087 Y113.471 E2.57373
G1 X112.187 Y114.100 E2.59345
G1 X112.087 Y114.729 E2.61317
G1 X111.798 Y115.297 E2.63289
G1 X111.347 Y115.748 E2.65261
G1 X110.779 Y116.037 E2.67233
G1 X110.150 Y116.137 E2.69205
G1 X109.521 Y116.037 E2.71177
G1 X108.953 Y115.748 E2.73149
G1 X108.502 Y115.297 E2.75121
G1 X108.213 Y114.730 E2.77093
G1 X108.113 Y114.100 E2.79065
G1 X108.213 Y113.470 E2.81037
G1 X108.502 Y112.903 E2.83009
G1 X108.953 Y112.452 E2.84981
G1 X109.521 Y112.163 E2.86953
G1 X110.150 Y112.063 E2.88925
G1 X110.705 Y112.151 E2.90665
G1 X110.584 Y112.764 F7800.000
G1 F1800.000
G1 X110.975 Y112.964 E2.92024
G1 X111.286 Y113.275 E2.93384
G1 X111.486 Y113.666 E2.94743
G1 X111.554 Y114.100 E2.96103
G1 X111.486 Y114.534 E2.97462
G1 X111.286 Y114.925 E2.98822
G1 X110.975 Y115.236 E3.00181
G1 X110.584 Y115.436 E3.01541
G1 X110.150 Y115.504 E3.02900
G1 X109.716 Y115.436 E3.04260
G1 X109.325 Y115.236 E3.05619
G1 X109.014 Y114.925 E3.06979
G1 X108.814 Y114.534 E3.08338
G1 X108.746 Y114.100 E3.09698
G1 X108.814 Y113.666 E3.11057
G1 X109.014 Y113.275 E3.12417
G1 X109.325 Y112.964 E3.13777
G1 X109.716 Y112.764 E3.15136
G1 X110.150 Y112.696 E3.16495
G1 X110.510 Y112.753 E3.17623
G1 X110.584 Y112.764 F7800.000
G1 E1.17623 F2400.00000
G92 E0
G1 X110.150 Y88.570 F7800.000
G1 E2.00000 F2400.00000
G1 F1800.000
G1 X109.325 Y88.439 E2.02584
G1 X108.581 Y88.060 E2.05169
G1 X107.990 Y87.469 E2.07753
G1 X107.611 Y86.725 E2.10338
G1 X107.480 Y85.900 E2.12922
G1 X107.611 Y85.075 E2.15507
G1 X107.990 Y84.331 E2.18091
G1 X108.581 Y83.740 E2.20676
G1 X109.325 Y83.361 E2.23260
G1 X110.150 Y83.230 E2.25844
G1 X110.975 Y83.361 E2.28429
G1 X111.719 Y83.740 E2.31013
G1 X112.310 Y84.331 E2.33598
G1 X112.689 Y85.075 E2.36182
G1 X112.820 Y85.900 E2.38767
G1 X112.689 Y86.725 E2.41351
G1 X112.310 Y87.469 E2.43935
G1 X111.719 Y88.060 E2.46520
G1 X110.975 Y88.439 E2.49105
G1 X110.224 Y88.558 E2.51457
G1 X110.150 Y87.937 F7800.000
G1 F1800.000
G1 X109.521 Y87.837 E2.53429
G1 X108.953 Y87.548 E2.55401
G1 X108.502 Y87.097 E2.57373
G1 X108.213 Y86.530 E2.59345
G1 X108.113 Y85.900 E2.61317
G1 X108.213 Y85.270 E2.63289
G1 X108.502 Y84.703 E2.65261
G1 X108.953 Y84.252 E2.67233
G1 X109.521 Y83.963 E2.69205
G1 X110.150 Y83.863 E2.71177
G1 X110.779 Y83.963 E2.73149
G1 X111.347 Y84.252 E2.75121
G1 X111.798 Y84.703 E2.77093
G1 X112.087 Y85.271 E2.79065
G1 X112.187 Y85.900 E2.81037
G1 X112.087 Y86.529 E2.83009
G1 X111.798 Y87.097 E2.84981
G1 X111.347 Y87.548 E2.86953
G1 X110.779 Y87.837 E2.88925
G1 X110.224 Y87.925 E2.90665
G1 X110.150 Y87.304 F7800.000
G1 F1800.000
G1 X109.716 Y87.236 E2.92024
G1 X109.325 Y87.036 E2.93384
G1 X109.014 Y86.725 E2.94743
G1 X108.814 Y86.334 E2.96103
G1 X108.746 Y85.900 E2.97462
G1 X108.814 Y85.466 E2.98822
G1 X109.014 Y85.075 E3.00181
G1 X109.325 Y84.764 E3.01541
G1 X109.716 Y84.564 E3.02900
G1 X110.150 Y84.496 E3.04260
G1 X110.584 Y84.564 E3.05619
G1 X110.975 Y84.764 E3.06979
G1 X111.286 Y85.075 E3.08338
G1 X111.486 Y85.466 E3.09698
G1 X111.554 Y85.900 E3.11057
G1 X111.486 Y86.334 E3.12417
G1 X111.286 Y86.725 E3.13776
G1 X110.975 Y87.036 E3.15136
G1 X110.584 Y87.236 E3.16495
G1 X110.224 Y87.293 E3.17623
G1 X110.150 Y87.304 F7800.000
G1 E1.17623 F2400.00000
G92 E0
G1 X114.650 Y82.500 F7800.000
G1 E2.00000 F2400.00000
G1 F1800.000
G1 X114.650 Y97.526 E2.46494
G1 X113.495 Y96.938 E2.50506
G1 X112.500 Y96.780 E2.53623
G1 X111.505 Y96.938 E2.56740
G1 X110.607 Y97.395 E2.59857
G1 X109.895 Y98.108 E2.62974
G1 X109.438 Y99.005 E2.66090
G1 X109.280 Y100.000 E2.69207
G1 X109.438 Y100.995 E2.72324
G1 X109.895 Y101.892 E2.75441
G1 X110.607 Y102.605 E2.78558
G1 X111.505 Y103.062 E2.81675
G1 X112.500 Y103.220 E2.84792
G1 X113.495 Y103.062 E2.87908
G1 X114.650 Y102.474 E2.91920
G1 X114.650 Y117.500 E3.38415
G1 X85.350 Y117.500 E4.29074
G1 X85.350 Y102.474 E4.75569
G1 X86.505 Y103.062 E4.79581
G1 X87.500 Y103.220 E4.82697
G1 X88.495 Y103.062 E4.85814
G1 X89.393 Y102.605 E4.88931
G1 X90.105 Y101.892 E4.92048
G1 X90.562 Y100.995 E4.95165
G1 X90.720 Y100.000 E4.98282
G1 X90.562 Y99.005 E5.01399
G1 X90.105 Y98.108 E5.04515
G1 X89.393 Y97.395 E5.07632
G1 X88.495 Y96.938 E5.10749
G1 X87.500 Y96.780 E5.13866
G1 X86.505 Y96.938 E5.16983
G1 X85.350 Y97.526 E5.20995
G1 X85.350 Y82.500 E5.67489
G1 X114.575 Y82.500 E6.57917
G1 X115.275 Y81.875 F7800.000
G1 F1800.000
G1 X115.275 Y99.185 E7.11477
G1 X114.988 Y99.254 E7.12391
G1 X114.593 Y98.479 E7.15081
G1 X114.021 Y97.907 E7.17586
G1 X113.299 Y97.540 E7.20090
G1 X112.500 Y97.413 E7.22595
G1 X111.701 Y97.540 E7.25099
G1 X110.979 Y97.907 E7.27604
G1 X110.407 Y98.479 E7.30108
G1 X110.040 Y99.201 E7.32612
G1 X109.913 Y100.000 E7.35117
G1 X110.040 Y100.799 E7.37621
G1 X110.407 Y101.521 E7.40125
G1 X110.979 Y102.093 E7.42630
G1 X111.701 Y102.460 E7.45134
G1 X112.500 Y102.587 E7.47639
G1 X113.299 Y102.460 E7.50143
G1 X114.021 Y102.093 E7.52648
G1 X114.593 Y101.521 E7.55152
G1 X114.988 Y100.746 E7.57842
G1 X115.275 Y100.815 E7.58757
G1 X115.275 Y118.125 E8.12317
G1 X84.725 Y118.125 E9.06843
G1 X84.725 Y100.815 E9.60403
G1 X85.012 Y100.746 E9.61318
G1 X85.407 Y101.521 E9.64008
G1 X85.979 Y102.093 E9.66512
G1 X86.701 Y102.460 E9.69017
G1 X87.500 Y102.587 E9.71521
G1 X88.299 Y102.460 E9.74025
G1 X89.021 Y102.093 E9.76530
G1 X89.593 Y101.521 E9.79034
G1 X89.960 Y100.799 E9.81539
G1 X90.087 Y100.000 E9.84043
G1 X89.960 Y99.201 E9.86548
G1 X89.593 Y98.479 E9.89052
G1 X89.021 Y97.907 E9.91556
G1 X88.299 Y97.540 E9.94061
G1 X87.500 Y97.413 E9.96565
G1 X86.701 Y97.540 E9.99069
G1 X85.979 Y97.907 E10.01574
G1 X85.407 Y98.479 E10.04078
G1 X85.012 Y99.254 E10.06769
G1 X84.725 Y99.185 E10.07683
G1 X84.725 Y81.875 E10.61243
G1 X115.200 Y81.875 E11.55538
G1 E9.55538 F2400.00000
G92 E0
G1 X89.081 Y98.851 F7800.000
G1 E2.00000 F2400.00000
G1 F1800.000
G1 X89.359 Y99.396 E2.01892
G1 X89.454 Y100.000 E2.03784
G1 X89.359 Y100.604 E2.05676
G1 X89.081 Y101.149 E2.07568
G1 X88.649 Y101.581 E2.09460
G1 X88.104 Y101.859 E2.11352
G1 X87.500 Y101.954 E2.13244
G1 X86.896 Y101.859 E2.15135
G1 X86.351 Y101.581 E2.17028
G1 X85.919 Y101.149 E2.18919
G1 X85.641 Y100.604 E2.20811
G1 X85.546 Y100.000 E2.22703
G1 X85.641 Y99.396 E2.24595
G1 X85.919 Y98.851 E2.26487
G1 X86.351 Y98.419 E2.28379
G1 X86.896 Y98.141 E2.30271
G1 X87.500 Y98.046 E2.32163
G1 X88.104 Y98.141 E2.34055
G1 X88.649 Y98.419 E2.35947
G1 X89.028 Y98.798 E2.37607
G1 X89.081 Y98.851 F7800.000
G1 E0.37607 F2400.00000
G92 E0
G1 X84.100 Y81.250 F7800.000
G1 E2.00000 F2400.00000
G1 F1800.000
G1 X115.900 Y81.250 E2.98393
G1 X115.900 Y118.750 E4.14423
G1 X84.100 Y118.750 E5.12817
G1 X84.100 Y81.325 E6.28615
G1 X84.579 Y81.393 F7800.000
G1 E4.28615 F2400.00000
G92 E0
G1 X85.610 Y97.784 F7800.000
G1 E2.00000 F2400.00000
G1 F1800.000
G1 X85.324 Y97.992 E2.00086
G1 F1800.000
G1 X85.037 Y98.200 E2.00314
G1 E0.00314 F2400.00000
G92 E0
G1 X85.037 Y101.800 F7800.000
G1 E2.00000 F2400.00000
G1 F1800.000
G1 X85.324 Y102.008 E2.00227
G1 F1800.000
G1 X85.610 Y102.216 E2.00314
G1 X85.885 Y103.815 F7800.000
G1 F1800.000
G1 X85.732 Y103.736 E2.00855
G1 X85.732 Y103.968 E2.01582
G1 X86.371 Y103.328 E2.04419
G1 X86.553 Y103.421 E2.05057
G1 X87.090 Y103.506 E2.06762
G1 X85.732 Y104.864 E2.12785
G1 X85.732 Y105.760 E2.15594
G1 X87.908 Y103.583 E2.25246
G1 X88.933 Y103.421 E2.28501
G1 X89.000 Y103.387 E2.28736
G1 X85.732 Y106.655 E2.43230
G1 E0.43230 F2400.00000
G92 E0
G1 X85.732 Y114.716 F7800.000
G1 E2.00000 F2400.00000
G1 F1800.000
G1 X111.896 Y88.552 E3.16036
G1 X111.413 Y88.798 E3.17734
G1 X110.630 Y88.922 E3.20220
G1 X85.732 Y113.821 E4.30643
G1 X85.732 Y112.925 E4.33452
G1 X109.792 Y88.864 E5.40158
G1 X109.373 Y88.798 E5.41491
G1 X109.101 Y88.660 E5.42446
G1 X85.732 Y112.029 E6.46088
G1 X85.732 Y111.134 E6.48897
G1 X108.508 Y88.357 E7.49907
G1 X108.452 Y88.329 E7.50104
G1 X108.046 Y87.923 E7.51903
G1 X85.732 Y110.238 E8.50866
G1 X85.732 Y109.342 E8.53675
G1 X107.638 Y87.435 E9.50829
G1 X107.336 Y86.842 E9.52918
G1 X85.732 Y108.447 E10.48731
G1 X85.732 Y107.551 E10.51540
G1 X107.164 Y86.119 E11.46589
G1 X107.091 Y85.657 E11.48055
G1 X107.159 Y85.228 E11.49416
G1 X90.887 Y101.500 E12.21579
G1 X90.921 Y101.434 E12.21812
G1 X91.083 Y100.408 E12.25068
G1 X107.665 Y83.826 E12.98608
G1 X107.721 Y83.716 E12.98995
G1 X108.167 Y83.270 E13.00970
G1 X107.894 Y82.896 E13.02423
G1 X107.914 Y82.882 E13.02498
G1 X107.714 Y82.882 E13.03124
G1 X91.006 Y99.590 E13.77223
G1 X90.921 Y99.053 E13.78928
G1 X90.828 Y98.871 E13.79566
G1 X106.818 Y82.882 E14.50478
G1 X105.923 Y82.882 E14.53287
G1 X90.526 Y98.278 E15.21569
G1 X90.374 Y97.979 E15.22622
G1 X90.152 Y97.757 E15.23606
G1 X105.027 Y82.882 E15.89576
G1 X104.131 Y82.882 E15.92385
G1 X89.704 Y97.309 E16.56368
G1 X89.521 Y97.126 E16.57178
G1 X89.170 Y96.947 E16.58415
G1 X103.236 Y82.882 E17.20794
G1 X102.340 Y82.882 E17.23603
G1 X88.576 Y96.645 E17.84642
G1 X88.447 Y96.579 E17.85097
G1 X87.842 Y96.483 E17.87017
G1 X101.444 Y82.882 E18.47340
G1 X100.549 Y82.882 E18.50148
G1 X86.999 Y96.432 E19.10241
G1 X86.067 Y96.579 E19.13200
G1 X85.840 Y96.695 E19.13999
G1 X99.653 Y82.882 E19.75259
G1 X98.757 Y82.882 E19.78067
G1 X85.732 Y95.907 E20.35834
G1 X85.732 Y95.012 E20.38643
G1 X97.862 Y82.882 E20.92438
G1 X96.966 Y82.882 E20.95247
G1 X85.732 Y94.116 E21.45069
G1 X85.732 Y93.220 E21.47878
G1 X96.070 Y82.882 E21.93728
G1 X95.175 Y82.882 E21.96537
G1 X85.732 Y92.325 E22.38416
G1 X85.732 Y91.429 E22.41224
G1 X94.279 Y82.882 E22.79130
G1 X93.383 Y82.882 E22.81939
G1 X85.732 Y90.533 E23.15873
G1 X85.732 Y89.638 E23.18682
G1 X92.488 Y82.882 E23.48643
G1 X91.592 Y82.882 E23.51452
G1 X85.732 Y88.742 E23.77442
G1 X85.732 Y87.846 E23.80250
G1 X90.696 Y82.882 E24.02268
G1 X89.801 Y82.882 E24.05077
G1 X85.732 Y86.951 E24.23122
G1 X85.732 Y86.055 E24.25930
G1 X88.905 Y82.882 E24.40003
G1 X88.009 Y82.882 E24.42812
G1 X85.732 Y85.159 E24.52913
G1 X85.732 Y84.264 E24.55722
G1 X87.114 Y82.882 E24.61850
G1 X86.218 Y82.882 E24.64659
G1 X85.732 Y83.368 E24.66815
G1 E22.66815 F2400.00000
G92 E0
G1 X113.088 Y82.882 F7800.000
G1 E2.00000 F2400.00000
G1 F1800.000
G1 X112.173 Y83.796 E2.04057
G1 X112.579 Y84.202 E2.05856
G1 X112.607 Y84.258 E2.06053
G1 X113.984 Y82.882 E2.12156
G1 X114.268 Y82.882 E2.13049
G1 X114.268 Y83.492 E2.14965
G1 X112.910 Y84.851 E2.20991
G1 X113.048 Y85.123 E2.21946
G1 X113.114 Y85.542 E2.23279
G1 X114.268 Y84.388 E2.28397
G1 X114.268 Y85.284 E2.31206
G1 X113.172 Y86.380 E2.36070
G1 X113.048 Y87.163 E2.38556
G1 X112.802 Y87.646 E2.40254
G1 X114.268 Y86.179 E2.46757
G1 X114.268 Y87.075 E2.49566
G1 X85.732 Y115.612 E3.76123
G1 X85.732 Y116.508 E3.78932
G1 X114.268 Y87.971 E5.05489
G1 X114.268 Y88.866 E5.08298
G1 X86.016 Y117.118 E6.33592
G1 X86.912 Y117.118 E6.36401
G1 X114.268 Y89.762 E7.57723
G1 X114.268 Y90.658 E7.60531
G1 X87.808 Y117.118 E8.77881
G1 X88.703 Y117.118 E8.80690
G1 X114.268 Y91.553 E9.94067
G1 X114.268 Y92.449 E9.96876
G1 X89.599 Y117.118 E11.06281
G1 E9.06281 F2400.00000
G92 E0
G1 X106.617 Y117.118 F7800.000
G1 E2.00000 F2400.00000
G1 F1800.000
G1 X107.829 Y115.906 E2.05377
G1 X107.721 Y115.798 E2.05855
G1 X107.492 Y115.348 E2.07441
G1 X105.721 Y117.118 E2.15293
G1 X104.826 Y117.118 E2.18102
G1 X107.227 Y114.717 E2.28752
G1 X107.104 Y113.944 E2.31207
G1 X103.930 Y117.118 E2.45286
G1 X103.034 Y117.118 E2.48094
G1 X107.240 Y112.912 E2.66748
G1 E0.66748 F2400.00000
G92 E0
G1 X113.782 Y117.118 F7800.000
G1 E2.00000 F2400.00000
G1 F1800.000
G1 X114.268 Y116.632 E2.02156
G1 X114.268 Y115.737 E2.04965
G1 X112.887 Y117.118 E2.11093
G1 X112.344 Y117.118 E2.12794
G1 X112.391 Y117.084 E2.12976
G1 X112.237 Y116.872 E2.13798
G1 X114.268 Y114.841 E2.22807
G1 X114.268 Y113.945 E2.25616
G1 X113.085 Y115.129 E2.30865
G1 X113.209 Y114.343 E2.33359
G1 X113.177 Y114.141 E2.34002
G1 X114.268 Y113.050 E2.38840
G1 X114.268 Y112.154 E2.41649
G1 X113.055 Y113.367 E2.47031
G1 X113.048 Y113.323 E2.47173
G1 X112.763 Y112.764 E2.49141
G1 X114.268 Y111.258 E2.55817
G1 X114.268 Y110.363 E2.58626
G1 X112.404 Y112.227 E2.66895
G1 X111.956 Y111.779 E2.68881
G1 X114.268 Y109.467 E2.79136
G1 X114.268 Y108.571 E2.81945
G1 X111.398 Y111.442 E2.94676
G1 X110.927 Y111.202 E2.96331
G1 X110.767 Y111.177 E2.96841
G1 X114.268 Y107.676 E3.12369
G1 X114.268 Y106.780 E3.15177
G1 X109.994 Y111.054 E3.34135
G1 X109.907 Y111.041 E3.34410
G1 X108.962 Y111.190 E3.37410
G1 X114.268 Y105.884 E3.60942
G1 X114.268 Y104.989 E3.63751
G1 X102.139 Y117.118 E4.17545
G1 X101.243 Y117.118 E4.20354
G1 X114.268 Y104.093 E4.78121
G1 X114.268 Y103.250 E4.80764
G1 X114.160 Y103.305 E4.81144
G1 X100.347 Y117.118 E5.42404
G1 X99.451 Y117.118 E5.45212
G1 X113.001 Y103.568 E6.05305
G1 X112.743 Y103.609 E6.06126
G1 X112.158 Y103.517 E6.07984
G1 X98.556 Y117.118 E6.68307
G1 X97.660 Y117.118 E6.71115
G1 X111.424 Y103.355 E7.32154
G1 X110.830 Y103.053 E7.34243
G1 X96.764 Y117.118 E7.96622
G1 X95.869 Y117.118 E7.99431
G1 X110.296 Y102.691 E8.63415
G1 X109.848 Y102.243 E8.65401
G1 X94.973 Y117.118 E9.31370
G1 X94.077 Y117.118 E9.34179
G1 X109.474 Y101.722 E10.02460
G1 X109.172 Y101.129 E10.04549
G1 X93.182 Y117.118 E10.75461
G1 X92.286 Y117.118 E10.78270
G1 X108.994 Y100.410 E11.52368
G1 X108.891 Y99.757 E11.54443
