; generated by Slic3r 1.3.1-dev (Build adea0d9) on 2019-12-16 at 00:49:59

; external perimeters extrusion width = 0.44mm (2.86mm^3/s)
; perimeters extrusion width = 0.56mm (4.14mm^3/s)
; infill extrusion width = 0.50mm (3.66mm^3/s)
; solid infill extrusion width = 0.56mm (3.10mm^3/s)
; top infill extrusion width = 0.56mm (3.10mm^3/s)

M107
G92 E0
;D3D:START:START
T0
M104 S215 T0

G21
G90
M107
T0
G28
G29
M109 T0 S215 T0
G0 F3000
M107
T0
G92 E0
G0 X0 Y149 Z0.1 F3600
G1 Y49 E6.5 F1200
G0 Z1
G92 E0
; Filament gcode

G21 ; set units to millimeters
G90 ; use absolute coordinates
M82 ; use absolute distances for extrusion
G92 E0
G1 Z0.300 F7800.000
G1 E-2.00000 F2400.00000
G92 E0
G1 X71.440 Y71.872 F7800.000
G1 E2.00000 F2400.00000
G1 F1800.000
G1 X73.299 Y70.589 E2.07480
G1 X75.540 Y70.317 E2.14960
G1 X77.651 Y71.118 E2.22439
G1 X79.148 Y72.808 E2.29919
G1 X79.688 Y75.000 E2.37399
G1 X79.148 Y77.192 E2.44879
G1 X77.651 Y78.882 E2.52358
G1 X75.540 Y79.683 E2.59838
G1 X73.299 Y79.411 E2.67318
G1 X71.440 Y78.128 E2.74798
G1 X70.391 Y76.129 E2.82278
G1 X70.391 Y73.871 E2.89757
G1 X71.413 Y71.925 E2.97038
G1 X71.645 Y72.053 F7800.000
G1 F1800.000
G1 X73.396 Y70.845 E3.04084
G1 X75.507 Y70.589 E3.11130
G1 X77.495 Y71.343 E3.18176
G1 X78.906 Y72.935 E3.25222
G1 X79.415 Y75.000 E3.32268
G1 X78.906 Y77.065 E3.39314
G1 X77.495 Y78.657 E3.46360
G1 X75.507 Y79.411 E3.53406
G1 X73.396 Y79.155 E3.60452
G1 X71.645 Y77.947 E3.67498
G1 X70.657 Y76.063 E3.74544
G1 X70.657 Y73.937 E3.81590
G1 X71.617 Y72.107 E3.88437
G1 X71.850 Y72.235 F7800.000
G1 F1800.000
G1 X73.493 Y71.101 E3.95050
G1 X75.474 Y70.860 E4.01662
G1 X77.340 Y71.568 E4.08274
G1 X78.664 Y73.062 E4.14886
G1 X79.141 Y75.000 E4.21498
G1 X78.664 Y76.938 E4.28111
G1 X77.340 Y78.432 E4.34723
G1 X75.474 Y79.140 E4.41335
G1 X73.493 Y78.899 E4.47947
G1 X71.850 Y77.765 E4.54559
G1 X70.922 Y75.998 E4.61172
G1 X70.922 Y74.002 E4.67784
G1 X71.822 Y72.288 E4.74197
G1 E2.74197 F2400.00000
G92 E0
G1 X69.619 Y69.327 F7800.000
G1 E2.00000 F2400.00000
G1 F1800.000
G1 X71.072 Y68.246 E2.05999
G1 X72.734 Y67.529 E2.11998
G1 X74.518 Y67.214 E2.17997
G1 X76.326 Y67.319 E2.23997
G1 X78.060 Y67.839 E2.29996
G1 X79.629 Y68.744 E2.35995
G1 X80.946 Y69.987 E2.41994
G1 X81.941 Y71.500 E2.47993
G1 X82.560 Y73.201 E2.53993
G1 X82.770 Y75.000 E2.59992
G1 X82.560 Y76.799 E2.65991
G1 X81.941 Y78.500 E2.71990
G1 X80.946 Y80.013 E2.77989
G1 X79.629 Y81.256 E2.83988
G1 X78.060 Y82.161 E2.89988
G1 X76.326 Y82.681 E2.95987
G1 X74.518 Y82.786 E3.01986
G1 X72.734 Y82.471 E3.07985
G1 X71.072 Y81.754 E3.13984
G1 X69.619 Y80.673 E3.19983
G1 X68.455 Y79.286 E3.25983
G1 X67.643 Y77.667 E3.31982
G1 X67.225 Y75.905 E3.37981
G1 X67.225 Y74.095 E3.43980
G1 X67.643 Y72.333 E3.49979
G1 X68.455 Y70.714 E3.55978
G1 X69.581 Y69.373 E3.61779
G1 X69.436 Y69.133 F7800.000
G1 F1800.000
G1 X70.938 Y68.014 E3.67984
G1 X72.658 Y67.272 E3.74189
G1 X74.502 Y66.947 E3.80393
G1 X76.372 Y67.056 E3.86598
G1 X78.166 Y67.593 E3.92803
G1 X79.788 Y68.530 E3.99008
G1 X81.151 Y69.815 E4.05213
G1 X82.180 Y71.380 E4.11418
G1 X82.820 Y73.140 E4.17623
G1 X83.038 Y75.000 E4.23828
G1 X82.820 Y76.860 E4.30032
G1 X82.180 Y78.620 E4.36237
G1 X81.151 Y80.185 E4.42442
G1 X79.788 Y81.470 E4.48647
G1 X78.166 Y82.407 E4.54852
G1 X76.372 Y82.944 E4.61057
G1 X74.502 Y83.053 E4.67262
G1 X72.658 Y82.728 E4.73467
G1 X70.938 Y81.986 E4.79672
G1 X69.436 Y80.867 E4.85876
G1 X68.232 Y79.433 E4.92081
G1 X67.391 Y77.759 E4.98286
G1 X66.959 Y75.936 E5.04491
G1 X66.959 Y74.064 E5.10696
G1 X67.391 Y72.241 E5.16901
G1 X68.232 Y70.567 E5.23106
G1 X69.397 Y69.179 E5.29112
G1 X69.252 Y68.938 F7800.000
G1 F1800.000
G1 X70.804 Y67.783 E5.35522
G1 X72.581 Y67.016 E5.41933
G1 X74.487 Y66.680 E5.48344
G1 X76.418 Y66.793 E5.54754
G1 X78.272 Y67.348 E5.61165
G1 X79.948 Y68.315 E5.67575
G1 X81.355 Y69.643 E5.73986
G1 X82.419 Y71.260 E5.80397
G1 X83.080 Y73.078 E5.86807
G1 X83.305 Y75.000 E5.93218
G1 X83.080 Y76.922 E5.99628
G1 X82.419 Y78.740 E6.06039
G1 X81.355 Y80.357 E6.12449
G1 X79.948 Y81.685 E6.18860
G1 X78.272 Y82.652 E6.25271
G1 X76.418 Y83.207 E6.31681
G1 X74.487 Y83.320 E6.38092
G1 X72.581 Y82.984 E6.44502
G1 X70.804 Y82.217 E6.50913
G1 X69.252 Y81.062 E6.57324
G1 X68.008 Y79.580 E6.63734
G1 X67.140 Y77.850 E6.70145
G1 X66.694 Y75.968 E6.76555
G1 X66.694 Y74.032 E6.82966
G1 X67.140 Y72.150 E6.89377
G1 X68.008 Y70.420 E6.95787
G1 X69.214 Y68.984 E7.01999
G1 X69.907 Y69.418 F7800.000
G1 F1800.000
G1 X69.699 Y69.626 E7.02983
G1 X68.575 Y70.965 E7.08834
G1 X68.410 Y71.294 E7.10070
G1 X71.346 Y68.358 E7.23973
G1 X72.014 Y68.070 E7.26406
G1 X68.027 Y72.057 E7.45283
G1 X67.791 Y72.527 E7.47045
G1 X67.745 Y72.718 E7.47701
G1 X72.681 Y67.782 E7.71070
G1 X72.914 Y67.681 E7.71920
G1 X73.214 Y67.629 E7.72940
G1 X67.627 Y73.216 E7.99391
G1 X67.510 Y73.713 E8.01103
G1 X73.675 Y67.547 E8.30294
G1 X74.136 Y67.466 E8.31861
G1 X67.392 Y74.211 E8.63793
G1 X67.387 Y74.594 E8.65078
G1 X74.597 Y67.385 E8.99212
G1 X74.964 Y67.397 E9.00443
G1 X67.387 Y74.974 E9.36318
G1 X67.387 Y75.354 E9.37588
G1 X75.323 Y67.418 E9.75161
G1 X75.682 Y67.439 E9.76364
G1 X71.759 Y71.361 E9.94935
G1 X72.985 Y70.515 E9.99920
G1 X76.041 Y67.460 E10.14387
G1 X76.396 Y67.484 E10.15580
G1 X73.490 Y70.389 E10.29338
G1 X73.922 Y70.337 E10.30795
G1 X76.688 Y67.571 E10.43890
G1 X76.980 Y67.659 E10.44911
G1 X74.354 Y70.284 E10.57343
G1 X74.787 Y70.232 E10.58800
G1 X77.273 Y67.746 E10.70570
G1 X77.565 Y67.833 E10.71591
G1 X75.219 Y70.180 E10.82699
G1 X75.470 Y70.149 E10.83545
G1 X75.585 Y70.193 E10.83958
G1 X77.857 Y67.921 E10.94715
G1 X78.058 Y67.981 E10.95417
G1 X78.133 Y68.024 E10.95707
G1 X75.860 Y70.297 E11.06468
G1 X76.135 Y70.402 E11.07453
G1 X78.374 Y68.163 E11.18050
G1 X78.614 Y68.302 E11.18980
G1 X76.411 Y70.506 E11.29413
G1 X76.686 Y70.610 E11.30399
G1 X78.855 Y68.441 E11.40668
G1 X79.095 Y68.580 E11.41598
G1 X76.961 Y70.715 E11.51704
G1 X77.236 Y70.819 E11.52690
G1 X79.336 Y68.719 E11.62632
G1 X79.576 Y68.859 E11.63561
G1 X77.511 Y70.923 E11.73335
G1 X77.703 Y70.996 E11.74021
G1 X77.757 Y71.057 E11.74295
G1 X79.771 Y69.043 E11.83830
G1 X79.967 Y69.228 E11.84729
G1 X77.935 Y71.259 E11.94345
G1 X78.114 Y71.460 E11.95246
G1 X80.162 Y69.412 E12.04942
G1 X80.357 Y69.596 E12.05841
G1 X78.292 Y71.661 E12.15618
G1 X78.470 Y71.862 E12.16519
G1 X80.552 Y69.780 E12.26376
G1 X80.748 Y69.965 E12.27275
G1 X78.649 Y72.064 E12.37213
G1 X78.827 Y72.265 E12.38113
G1 X80.920 Y70.172 E12.48025
G1 X81.071 Y70.401 E12.48942
G1 X79.005 Y72.466 E12.58722
G1 X79.184 Y72.668 E12.59623
G1 X81.222 Y70.630 E12.69271
G1 X81.372 Y70.859 E12.70189
G1 X79.319 Y72.912 E12.79913
G1 X79.394 Y73.217 E12.80963
G1 X81.523 Y71.088 E12.91044
G1 X81.674 Y71.316 E12.91961
G1 X79.469 Y73.521 E13.02400
G1 X79.544 Y73.826 E13.03450
G1 X81.818 Y71.552 E13.14217
G1 X81.919 Y71.830 E13.15209
G1 X79.619 Y74.130 E13.26100
G1 X79.694 Y74.435 E13.27150
G1 X82.020 Y72.108 E13.38165
G1 X82.122 Y72.387 E13.39157
G1 X79.769 Y74.739 E13.50296
G1 X79.844 Y75.044 E13.51346
G1 X82.223 Y72.665 E13.62610
G1 X82.324 Y72.943 E13.63602
G1 X79.759 Y75.509 E13.75749
G1 X79.634 Y76.013 E13.77486
G1 X82.412 Y73.235 E13.90637
G1 X82.452 Y73.575 E13.91782
G1 X79.510 Y76.517 E14.05709
G1 X79.386 Y77.020 E14.07446
G1 X82.491 Y73.915 E14.22148
G1 X82.531 Y74.255 E14.23293
G1 X78.693 Y78.093 E14.41465
G1 E12.41465 F2400.00000
G92 E0
G1 X80.635 Y79.947 F7800.000
G1 E2.00000 F2400.00000
G1 F1800.000
G1 X80.844 Y79.738 E2.00991
G1 X81.574 Y78.629 E2.05435
G1 X78.637 Y81.565 E2.19338
G1 X77.851 Y82.019 E2.22377
G1 X77.784 Y82.039 E2.22613
G1 X81.953 Y77.869 E2.42356
G1 X82.171 Y77.272 E2.44482
G1 X77.242 Y82.201 E2.67818
G1 X76.700 Y82.364 E2.69711
G1 X82.388 Y76.676 E2.96641
G1 X82.450 Y76.234 E2.98134
G1 X76.163 Y82.521 E3.27900
G1 X75.760 Y82.545 E3.29252
G1 X82.500 Y75.804 E3.61165
G1 X82.550 Y75.374 E3.62614
G1 X75.357 Y82.568 E3.96673
G1 X74.953 Y82.592 E3.98025
G1 X82.601 Y74.945 E4.34230
G1 X82.571 Y74.595 E4.35406
G1 X74.550 Y82.615 E4.73379
G1 X74.430 Y82.622 E4.73783
G1 X74.204 Y82.582 E4.74552
G1 X77.704 Y79.082 E4.91125
G1 X77.093 Y79.314 E4.93315
G1 X73.881 Y82.525 E5.08520
G1 X73.558 Y82.468 E5.09617
G1 X76.481 Y79.546 E5.23456
G1 X75.870 Y79.778 E5.25645
G1 X73.236 Y82.412 E5.38116
G1 X72.913 Y82.355 E5.39213
G1 X75.445 Y79.823 E5.51200
G1 X75.106 Y79.782 E5.52342
G1 X72.611 Y82.277 E5.64154
G1 X72.346 Y82.162 E5.65121
G1 X74.768 Y79.741 E5.76587
G1 X74.429 Y79.700 E5.77729
G1 X72.081 Y82.048 E5.88848
G1 X71.816 Y81.934 E5.89815
G1 X74.091 Y79.658 E6.00587
G1 X73.752 Y79.617 E6.01728
G1 X71.550 Y81.819 E6.12153
G1 X71.285 Y81.705 E6.13120
G1 X73.414 Y79.576 E6.23198
G1 X73.305 Y79.563 E6.23565
G1 X73.153 Y79.458 E6.24185
G1 X71.035 Y81.576 E6.34212
G1 X70.817 Y81.414 E6.35120
G1 X72.928 Y79.303 E6.45113
G1 X72.703 Y79.148 E6.46027
G1 X70.600 Y81.252 E6.55988
G1 X70.382 Y81.090 E6.56896
G1 X72.479 Y78.993 E6.66824
G1 X72.254 Y78.838 E6.67737
G1 X70.164 Y80.928 E6.77632
G1 X69.947 Y80.766 E6.78540
G1 X72.030 Y78.683 E6.88402
G1 X71.805 Y78.528 E6.89315
G1 X69.729 Y80.604 E6.99144
G1 X69.699 Y80.582 E6.99268
G1 X69.550 Y80.403 E7.00047
G1 X71.580 Y78.373 E7.09660
G1 X71.356 Y78.218 E7.10574
G1 X69.377 Y80.197 E7.19945
G1 X69.204 Y79.991 E7.20847
G1 X71.218 Y77.976 E7.30385
G1 X71.088 Y77.727 E7.31326
G1 X69.030 Y79.784 E7.41066
G1 X68.857 Y79.578 E7.41968
G1 X70.957 Y77.478 E7.51910
G1 X70.826 Y77.229 E7.52851
G1 X68.684 Y79.371 E7.62994
G1 X68.575 Y79.242 E7.63559
G1 X68.528 Y79.148 E7.63913
G1 X70.696 Y76.980 E7.74175
G1 X70.565 Y76.731 E7.75116
G1 X68.401 Y78.895 E7.85361
G1 X68.274 Y78.642 E7.86307
G1 X70.434 Y76.482 E7.96534
G1 X70.304 Y76.233 E7.97476
G1 X68.147 Y78.390 E8.07685
G1 X68.020 Y78.137 E8.08631
G1 X70.229 Y75.928 E8.19088
G1 X70.229 Y75.549 E8.20359
G1 X67.893 Y77.884 E8.31416
G1 X67.777 Y77.621 E8.32379
G1 X70.229 Y75.169 E8.43989
G1 X70.229 Y74.790 E8.45260
G1 X67.704 Y77.314 E8.57214
G1 X67.631 Y77.008 E8.58269
G1 X70.229 Y74.410 E8.70568
G1 X70.229 Y74.030 E8.71839
G1 X67.559 Y76.701 E8.84481
G1 X67.486 Y76.394 E8.85537
G1 X70.286 Y73.594 E8.98794
G1 X70.705 Y72.795 E9.01814
G1 X67.413 Y76.087 E9.17401
G1 X67.387 Y75.978 E9.17777
G1 X67.387 Y75.733 E9.18595
G1 X71.125 Y71.996 E9.36289
M106 S255
G1 Z0.500 F7800.000
G1 X71.455 Y71.885 F7800.000
G1 F1800.000
G1 X73.306 Y70.608 E9.45956
G1 X75.537 Y70.337 E9.55622
G1 X77.640 Y71.134 E9.65289
G1 X79.131 Y72.817 E9.74955
G1 X79.669 Y75.000 E9.84622
G1 X79.131 Y77.183 E9.94289
G1 X77.640 Y78.866 E10.03955
G1 X75.537 Y79.663 E10.13622
G1 X73.306 Y79.392 E10.23289
G1 X71.455 Y78.115 E10.32955
G1 X70.410 Y76.124 E10.42622
G1 X70.410 Y73.876 E10.52288
G1 X71.427 Y71.938 E10.61697
G1 X71.808 Y72.197 F7800.000
G1 F1800.000
G1 X73.472 Y71.048 E10.68376
G1 X75.481 Y70.804 E10.75056
G1 X77.372 Y71.522 E10.81735
G1 X78.714 Y73.036 E10.88414
G1 X79.198 Y75.000 E10.95094
G1 X78.714 Y76.964 E11.01773
G1 X77.372 Y78.478 E11.08452
G1 X75.481 Y79.196 E11.15132
G1 X73.472 Y78.952 E11.21811
G1 X71.808 Y77.803 E11.28490
G1 X70.867 Y76.011 E11.35170
G1 X70.867 Y73.989 E11.41849
G1 X71.780 Y72.250 E11.48330
G1 E9.48330 F2400.00000
G92 E0
G1 X69.606 Y69.313 F7800.000
G1 E2.00000 F2400.00000
G1 F2400.000
G1 X71.062 Y68.229 E2.07805
G1 X72.729 Y67.510 E2.15610
G1 X74.517 Y67.195 E2.23415
G1 X76.329 Y67.300 E2.31220
G1 X78.068 Y67.821 E2.39025
G1 X79.640 Y68.729 E2.46830
G1 X80.960 Y69.974 E2.54635
G1 X81.958 Y71.491 E2.62440
G1 X82.579 Y73.197 E2.70245
G1 X82.790 Y75.000 E2.78050
G1 X82.579 Y76.803 E2.85854
G1 X81.958 Y78.509 E2.93659
G1 X80.960 Y80.026 E3.01464
G1 X79.640 Y81.271 E3.09269
G1 X78.068 Y82.179 E3.17074
G1 X76.329 Y82.700 E3.24879
G1 X74.517 Y82.805 E3.32684
G1 X72.729 Y82.490 E3.40489
G1 X71.062 Y81.771 E3.48294
G1 X69.606 Y80.687 E3.56099
G1 X68.439 Y79.296 E3.63904
G1 X67.624 Y77.674 E3.71709
G1 X67.206 Y75.908 E3.79514
G1 X67.206 Y74.092 E3.87319
G1 X67.624 Y72.326 E3.95124
G1 X68.439 Y70.704 E4.02929
G1 X69.567 Y69.359 E4.10476
G1 X69.290 Y68.978 F7800.000
G1 F2160.000
G1 X70.832 Y67.831 E4.16822
G1 X72.597 Y67.069 E4.23169
G1 X74.490 Y66.736 E4.29515
G1 X76.409 Y66.847 E4.35861
G1 X78.250 Y67.399 E4.42208
G1 X79.915 Y68.360 E4.48554
G1 X81.313 Y69.679 E4.54901
G1 X82.369 Y71.285 E4.61247
G1 X83.027 Y73.091 E4.67594
G1 X83.250 Y75.000 E4.73940
G1 X83.027 Y76.909 E4.80286
G1 X82.369 Y78.715 E4.86633
G1 X81.313 Y80.321 E4.92979
G1 X79.915 Y81.640 E4.99326
G1 X78.250 Y82.601 E5.05672
G1 X76.409 Y83.153 E5.12019
G1 X74.490 Y83.264 E5.18365
G1 X72.597 Y82.931 E5.24711
G1 X70.832 Y82.169 E5.31058
G1 X69.290 Y81.022 E5.37404
G1 X68.055 Y79.549 E5.43751
G1 X67.192 Y77.831 E5.50097
G1 X66.749 Y75.961 E5.56444
G1 X66.749 Y74.039 E5.62790
G1 X67.192 Y72.169 E5.69136
G1 X68.055 Y70.451 E5.75483
G1 X69.252 Y69.024 E5.81631
G1 E3.81631 F2400.00000
G92 E0
G1 X69.761 Y80.106 F7800.000
G1 E2.00000 F2400.00000
G1 F1800.000
G1 X70.165 Y80.510 E2.02469
G1 X71.523 Y81.521 E2.09794
G1 X72.207 Y81.816 E2.13012
G1 X68.141 Y77.751 E2.37878
G1 X67.913 Y77.295 E2.40084
G1 X67.754 Y76.628 E2.43048
G1 X73.370 Y82.243 E2.77395
G1 X74.263 Y82.401 E2.81318
G1 X67.526 Y75.664 E3.22526
G1 X67.522 Y74.924 E3.25726
G1 X71.248 Y78.650 E3.48516
G1 X70.435 Y77.102 E3.56078
G1 X67.522 Y74.188 E3.73898
G1 X67.522 Y73.952 E3.74923
G1 X67.617 Y73.548 E3.76715
G1 X70.094 Y76.026 E3.91867
G1 X70.094 Y75.290 E3.95048
G1 X67.758 Y72.954 E4.09338
G1 X67.899 Y72.359 E4.11981
G1 X70.094 Y74.554 E4.25408
G1 X70.094 Y73.950 E4.28024
G1 X70.139 Y73.864 E4.28443
G1 X68.135 Y71.859 E4.40703
G1 X68.381 Y71.370 E4.43073
G1 X70.393 Y73.381 E4.55376
G1 X70.646 Y72.899 E4.57733
G1 X68.627 Y70.880 E4.70081
G1 X68.673 Y70.789 E4.70523
G1 X68.946 Y70.463 E4.72360
G1 X70.899 Y72.416 E4.84306
G1 X71.152 Y71.934 E4.86663
G1 X69.282 Y70.063 E4.98105
G1 X69.617 Y69.663 E5.00363
G1 X71.512 Y71.558 E5.11950
G1 X71.947 Y71.257 E5.14238
G1 X70.002 Y69.312 E5.26135
G1 X70.423 Y68.998 E5.28409
G1 X72.382 Y70.957 E5.40389
G1 X72.817 Y70.657 E5.42676
G1 X70.845 Y68.684 E5.54739
G1 X71.121 Y68.479 E5.56228
G1 X71.299 Y68.402 E5.57063
G1 X73.252 Y70.356 E5.69014
G1 X73.318 Y70.311 E5.69357
G1 X73.875 Y70.243 E5.71786
G1 X71.813 Y68.181 E5.84403
G1 X72.326 Y67.959 E5.86824
G1 X74.531 Y70.164 E6.00309
G1 X75.187 Y70.084 E6.03167
G1 X72.876 Y67.773 E6.17305
G1 X73.501 Y67.662 E6.20052
G1 X75.876 Y70.037 E6.34576
G1 X77.061 Y70.486 E6.40058
G1 X74.127 Y67.552 E6.58006
G1 X74.346 Y67.514 E6.58969
G1 X74.853 Y67.543 E6.61166
G1 X82.465 Y75.155 E7.07724
G1 X82.367 Y74.322 E7.11352
G1 X75.634 Y67.589 E7.52536
G1 X76.037 Y67.612 E7.54284
G1 X76.545 Y67.764 E7.56576
G1 X82.259 Y73.477 E7.91523
G1 X81.838 Y72.321 E7.96846
G1 X77.595 Y68.078 E8.22795
G1 X77.661 Y68.098 E8.23091
G1 X79.128 Y68.945 E8.30419
G1 X80.763 Y70.511 E8.40209
G1 E6.40209 F2400.00000
G92 E0
G1 X82.397 Y75.823 F7800.000
G1 E2.00000 F2400.00000
G1 F1800.000
G1 X79.551 Y72.977 E2.17411
G1 X79.791 Y73.953 E2.21760
G1 X82.320 Y76.482 E2.37229
G1 X82.273 Y76.884 E2.38981
G1 X82.197 Y77.094 E2.39947
G1 X79.981 Y74.878 E2.53503
G1 X79.835 Y75.468 E2.56132
G1 X82.001 Y77.633 E2.69378
G1 X81.804 Y78.173 E2.71860
G1 X79.690 Y76.058 E2.84795
G1 X79.544 Y76.648 E2.87424
G1 X81.566 Y78.670 E2.99792
G1 X81.275 Y79.114 E3.02089
G1 X79.396 Y77.235 E3.13581
G1 X79.050 Y77.625 E3.15835
G1 X80.983 Y79.558 E3.27654
G1 X80.763 Y79.892 E3.29385
G1 X80.669 Y79.980 E3.29940
G1 X78.705 Y78.015 E3.41958
G1 X78.359 Y78.405 E3.44212
G1 X80.291 Y80.337 E3.56028
G1 X79.912 Y80.694 E3.58278
G1 X78.014 Y78.795 E3.69893
G1 X77.741 Y79.103 E3.71670
G1 X77.628 Y79.146 E3.72192
G1 X79.534 Y81.051 E3.83848
G1 X79.068 Y81.321 E3.86175
G1 X77.095 Y79.348 E3.98246
G1 X76.562 Y79.550 E4.00713
G1 X78.602 Y81.591 E4.13193
G1 X78.136 Y81.860 E4.15523
G1 X76.028 Y79.753 E4.28413
G1 X75.495 Y79.955 E4.30880
G1 X77.585 Y82.045 E4.43665
G1 X77.019 Y82.214 E4.46221
G1 X74.712 Y79.907 E4.60335
G1 X73.874 Y79.805 E4.63983
G1 X76.453 Y82.384 E4.79756
G1 X76.440 Y82.388 E4.79816
G1 X75.761 Y82.427 E4.82756
G1 X73.037 Y79.704 E4.99417
G1 X72.916 Y79.689 E4.99946
G1 X70.885 Y78.287 E5.10618
G1 X75.066 Y82.468 E5.36191
G1 X74.748 Y82.486 E5.37567
