; Gcode updated with 'stl_info' on 2019-12-09 21:18:12.932580

; stl_min_x = -16.25
; stl_max_x = 16.25
; stl_min_y = -19.100000381469727
; stl_max_y = 19.100000381469727
; stl_min_z = 0.0

; generated by Slic3r 1.3.1-dev (Build adea0d9) on 2019-12-09 at 21:18:12

; external perimeters extrusion width = 0.44mm (2.86mm^3/s)
; perimeters extrusion width = 0.56mm (4.14mm^3/s)
; infill extrusion width = 0.50mm (3.66mm^3/s)
; solid infill extrusion width = 0.56mm (3.10mm^3/s)
; top infill extrusion width = 0.56mm (3.10mm^3/s)

M107
G92 E0
;D3D:START:START
T0
M104 S215 T0

G21
G90
M107
T0
G28
G29
M109 T0 S215 T0
G0 F3000
M107
T0
G92 E0
G0 X0 Y149 Z0.1 F3600
G1 Y49 E6.5 F1200
G0 Z1
G92 E0
; Filament gcode

G21 ; set units to millimeters
G90 ; use absolute coordinates
M82 ; use absolute distances for extrusion
G92 E0
G1 Z0.300 F7800.000
G1 E-2.00000 F2400.00000
G92 E0
G1 X84.119 Y87.680 F7800.000
G1 E2.00000 F2400.00000
G1 F1800.000
G1 X84.608 Y87.431 E2.01819
G1 X85.150 Y87.345 E2.03638
G1 X85.692 Y87.431 E2.05457
G1 X86.182 Y87.680 E2.07276
G1 X86.570 Y88.068 E2.09095
G1 X86.819 Y88.558 E2.10914
G1 X86.905 Y89.100 E2.12733
G1 X86.819 Y89.642 E2.14552
G1 X86.570 Y90.132 E2.16371
G1 X86.182 Y90.520 E2.18190
G1 X85.692 Y90.769 E2.20009
G1 X85.150 Y90.855 E2.21828
G1 X84.608 Y90.769 E2.23647
G1 X84.119 Y90.520 E2.25466
G1 X83.730 Y90.132 E2.27285
G1 X83.481 Y89.642 E2.29104
G1 X83.395 Y89.100 E2.30923
G1 X83.481 Y88.558 E2.32742
G1 X83.730 Y88.068 E2.34561
G1 X84.076 Y87.723 E2.36182
G1 X84.277 Y87.898 F7800.000
G1 F1800.000
G1 X84.691 Y87.687 E2.37722
G1 X85.150 Y87.614 E2.39262
G1 X85.609 Y87.687 E2.40802
G1 X86.023 Y87.898 E2.42342
G1 X86.352 Y88.227 E2.43883
G1 X86.563 Y88.641 E2.45423
G1 X86.636 Y89.100 E2.46963
G1 X86.563 Y89.559 E2.48504
G1 X86.352 Y89.973 E2.50044
G1 X86.023 Y90.302 E2.51584
G1 X85.609 Y90.513 E2.53124
G1 X85.150 Y90.586 E2.54665
G1 X84.691 Y90.513 E2.56205
G1 X84.277 Y90.302 E2.57745
G1 X83.948 Y89.973 E2.59285
G1 X83.737 Y89.559 E2.60826
G1 X83.664 Y89.100 E2.62366
G1 X83.737 Y88.641 E2.63906
G1 X83.948 Y88.227 E2.65447
G1 X84.234 Y87.940 E2.66788
G1 X84.435 Y88.115 F7800.000
G1 F1800.000
G1 X84.774 Y87.943 E2.68050
G1 X85.150 Y87.883 E2.69311
G1 X85.526 Y87.943 E2.70573
G1 X85.865 Y88.115 E2.71834
G1 X86.135 Y88.385 E2.73096
G1 X86.307 Y88.724 E2.74357
G1 X86.367 Y89.100 E2.75619
G1 X86.307 Y89.476 E2.76880
G1 X86.135 Y89.815 E2.78142
G1 X85.865 Y90.085 E2.79403
G1 X85.526 Y90.257 E2.80665
G1 X85.150 Y90.317 E2.81926
G1 X84.774 Y90.257 E2.83188
G1 X84.435 Y90.085 E2.84449
G1 X84.165 Y89.815 E2.85711
G1 X83.993 Y89.476 E2.86972
G1 X83.933 Y89.100 E2.88234
G1 X83.993 Y88.724 E2.89495
G1 X84.165 Y88.385 E2.90757
G1 X84.392 Y88.158 E2.91820
G1 E0.91820 F2400.00000
G92 E0
G1 X86.788 Y77.192 F7800.000
G1 E2.00000 F2400.00000
G1 F1800.000
G1 X86.145 Y76.865 E2.02389
G1 X85.635 Y76.355 E2.04778
G1 X85.308 Y75.712 E2.07167
G1 X85.195 Y75.000 E2.09557
G1 X85.308 Y74.288 E2.11946
G1 X85.635 Y73.645 E2.14335
G1 X86.145 Y73.135 E2.16724
G1 X86.788 Y72.808 E2.19113
G1 X87.500 Y72.695 E2.21502
G1 X88.212 Y72.808 E2.23891
G1 X88.855 Y73.135 E2.26280
G1 X89.365 Y73.645 E2.28669
G1 X89.692 Y74.288 E2.31058
G1 X89.805 Y75.000 E2.33447
G1 X89.692 Y75.712 E2.35837
G1 X89.365 Y76.355 E2.38226
G1 X88.855 Y76.865 E2.40615
G1 X88.212 Y77.192 E2.43004
G1 X87.500 Y77.305 E2.45393
G1 X86.847 Y77.201 E2.47583
G1 X86.871 Y76.936 F7800.000
G1 F1800.000
G1 X86.303 Y76.647 E2.49694
G1 X85.853 Y76.197 E2.51804
G1 X85.564 Y75.629 E2.53914
G1 X85.464 Y75.000 E2.56025
G1 X85.564 Y74.371 E2.58135
G1 X85.853 Y73.803 E2.60245
G1 X86.303 Y73.353 E2.62355
G1 X86.871 Y73.064 E2.64466
G1 X87.500 Y72.964 E2.66576
G1 X88.129 Y73.064 E2.68687
G1 X88.697 Y73.353 E2.70797
G1 X89.147 Y73.803 E2.72907
G1 X89.436 Y74.371 E2.75018
G1 X89.536 Y75.000 E2.77128
G1 X89.436 Y75.629 E2.79238
G1 X89.147 Y76.197 E2.81349
G1 X88.697 Y76.647 E2.83459
G1 X88.129 Y76.936 E2.85570
G1 X87.500 Y77.036 E2.87680
G1 X86.930 Y76.946 E2.89591
G1 X86.954 Y76.681 F7800.000
G1 F1800.000
G1 X86.461 Y76.430 E2.91423
G1 X86.070 Y76.039 E2.93254
G1 X85.819 Y75.546 E2.95086
G1 X85.733 Y75.000 E2.96918
G1 X85.819 Y74.454 E2.98749
G1 X86.070 Y73.961 E3.00581
G1 X86.461 Y73.570 E3.02412
G1 X86.954 Y73.319 E3.04244
G1 X87.500 Y73.233 E3.06076
G1 X88.046 Y73.319 E3.07907
G1 X88.539 Y73.570 E3.09739
G1 X88.930 Y73.961 E3.11570
G1 X89.181 Y74.454 E3.13402
G1 X89.267 Y75.000 E3.15234
G1 X89.181 Y75.546 E3.17065
G1 X88.930 Y76.039 E3.18897
G1 X88.539 Y76.430 E3.20728
G1 X88.046 Y76.681 E3.22560
G1 X87.500 Y76.767 E3.24391
G1 X87.013 Y76.690 E3.26024
G1 E1.26024 F2400.00000
G92 E0
G1 X85.150 Y62.655 F7800.000
G1 E2.00000 F2400.00000
G1 F1800.000
G1 X84.608 Y62.569 E2.01819
G1 X84.119 Y62.320 E2.03638
G1 X83.730 Y61.932 E2.05457
G1 X83.481 Y61.442 E2.07276
G1 X83.395 Y60.900 E2.09095
G1 X83.481 Y60.358 E2.10914
G1 X83.730 Y59.868 E2.12733
G1 X84.119 Y59.480 E2.14552
G1 X84.608 Y59.231 E2.16371
G1 X85.150 Y59.145 E2.18190
G1 X85.692 Y59.231 E2.20009
G1 X86.182 Y59.480 E2.21828
G1 X86.570 Y59.868 E2.23647
G1 X86.819 Y60.358 E2.25466
G1 X86.905 Y60.900 E2.27285
G1 X86.819 Y61.442 E2.29104
G1 X86.570 Y61.932 E2.30923
G1 X86.182 Y62.320 E2.32742
G1 X85.692 Y62.569 E2.34561
G1 X85.209 Y62.646 E2.36182
G1 X85.150 Y62.386 F7800.000
G1 F1800.000
G1 X84.691 Y62.313 E2.37722
G1 X84.277 Y62.102 E2.39262
G1 X83.948 Y61.773 E2.40802
G1 X83.737 Y61.359 E2.42343
G1 X83.664 Y60.900 E2.43883
G1 X83.737 Y60.441 E2.45423
G1 X83.948 Y60.027 E2.46964
G1 X84.277 Y59.698 E2.48504
G1 X84.691 Y59.487 E2.50044
G1 X85.150 Y59.414 E2.51584
G1 X85.609 Y59.487 E2.53125
G1 X86.023 Y59.698 E2.54665
G1 X86.352 Y60.027 E2.56205
G1 X86.563 Y60.441 E2.57745
G1 X86.636 Y60.900 E2.59286
G1 X86.563 Y61.359 E2.60826
G1 X86.352 Y61.773 E2.62366
G1 X86.023 Y62.102 E2.63907
G1 X85.609 Y62.313 E2.65447
G1 X85.209 Y62.377 E2.66788
G1 X85.150 Y62.117 F7800.000
G1 F1800.000
G1 X84.774 Y62.057 E2.68050
G1 X84.435 Y61.885 E2.69311
G1 X84.165 Y61.615 E2.70573
G1 X83.993 Y61.276 E2.71834
G1 X83.933 Y60.900 E2.73096
G1 X83.993 Y60.524 E2.74357
G1 X84.165 Y60.185 E2.75619
G1 X84.435 Y59.915 E2.76880
G1 X84.774 Y59.743 E2.78142
G1 X85.150 Y59.683 E2.79403
G1 X85.526 Y59.743 E2.80665
G1 X85.865 Y59.915 E2.81926
G1 X86.135 Y60.185 E2.83188
G1 X86.307 Y60.524 E2.84449
G1 X86.367 Y60.900 E2.85711
G1 X86.307 Y61.276 E2.86973
G1 X86.135 Y61.615 E2.88234
G1 X85.865 Y61.885 E2.89496
G1 X85.526 Y62.057 E2.90757
G1 X85.209 Y62.108 E2.91820
G1 E0.91820 F2400.00000
G92 E0
G1 X64.365 Y73.645 F7800.000
G1 E2.00000 F2400.00000
G1 F1800.000
G1 X64.692 Y74.288 E2.02389
G1 X64.805 Y75.000 E2.04778
G1 X64.692 Y75.712 E2.07167
G1 X64.365 Y76.355 E2.09556
G1 X63.855 Y76.865 E2.11945
G1 X63.212 Y77.192 E2.14335
G1 X62.500 Y77.305 E2.16724
G1 X61.788 Y77.192 E2.19113
G1 X61.145 Y76.865 E2.21502
G1 X60.635 Y76.355 E2.23891
G1 X60.308 Y75.712 E2.26280
G1 X60.195 Y75.000 E2.28669
G1 X60.308 Y74.288 E2.31058
G1 X60.635 Y73.645 E2.33447
G1 X61.145 Y73.135 E2.35836
G1 X61.788 Y72.808 E2.38226
G1 X62.500 Y72.695 E2.40615
G1 X63.212 Y72.808 E2.43004
G1 X63.855 Y73.135 E2.45393
G1 X64.322 Y73.603 E2.47583
G1 X64.147 Y73.803 F7800.000
G1 F1800.000
G1 X64.436 Y74.371 E2.49693
G1 X64.536 Y75.000 E2.51804
G1 X64.436 Y75.629 E2.53914
G1 X64.147 Y76.197 E2.56024
G1 X63.697 Y76.647 E2.58135
G1 X63.129 Y76.936 E2.60245
G1 X62.500 Y77.036 E2.62356
G1 X61.871 Y76.936 E2.64466
G1 X61.303 Y76.647 E2.66576
G1 X60.853 Y76.197 E2.68687
G1 X60.564 Y75.629 E2.70797
G1 X60.464 Y75.000 E2.72907
G1 X60.564 Y74.371 E2.75018
G1 X60.853 Y73.803 E2.77128
G1 X61.303 Y73.353 E2.79238
G1 X61.871 Y73.064 E2.81349
G1 X62.500 Y72.964 E2.83459
G1 X63.129 Y73.064 E2.85569
G1 X63.697 Y73.353 E2.87680
G1 X64.105 Y73.761 E2.89591
G1 X63.930 Y73.961 F7800.000
G1 F1800.000
G1 X64.181 Y74.454 E2.91423
G1 X64.267 Y75.000 E2.93254
G1 X64.181 Y75.546 E2.95086
G1 X63.930 Y76.039 E2.96918
G1 X63.539 Y76.430 E2.98749
G1 X63.046 Y76.681 E3.00581
G1 X62.500 Y76.767 E3.02412
G1 X61.954 Y76.681 E3.04244
G1 X61.461 Y76.430 E3.06076
G1 X61.070 Y76.039 E3.07907
G1 X60.819 Y75.546 E3.09739
G1 X60.733 Y75.000 E3.11570
G1 X60.819 Y74.454 E3.13402
G1 X61.070 Y73.961 E3.15234
G1 X61.461 Y73.570 E3.17065
G1 X61.954 Y73.319 E3.18897
G1 X62.500 Y73.233 E3.20728
G1 X63.046 Y73.319 E3.22560
G1 X63.539 Y73.570 E3.24392
G1 X63.887 Y73.919 E3.26024
G1 E1.26024 F2400.00000
G92 E0
G1 X59.446 Y56.596 F7800.000
G1 E2.00000 F2400.00000
G1 F1800.000
G1 X90.554 Y56.596 E3.03058
G1 X90.554 Y93.404 E4.24999
G1 X59.446 Y93.404 E5.28057
G1 X59.446 Y56.656 E6.49800
G1 X59.181 Y56.331 F7800.000
G1 F1800.000
G1 X90.819 Y56.331 E7.54618
G1 X90.819 Y93.669 E8.78319
G1 X59.181 Y93.669 E9.83137
G1 X59.181 Y56.391 E11.06640
G1 X58.915 Y56.065 F7800.000
G1 F1800.000
G1 X91.085 Y56.065 E12.13217
G1 X91.085 Y93.935 E13.38679
G1 X58.915 Y93.935 E14.45256
G1 X58.915 Y56.125 E15.70519
G1 X59.609 Y56.965 F7800.000
G1 F1800.000
G1 X59.815 Y56.759 E15.71492
G1 X60.193 Y56.759 E15.72751
G1 X59.609 Y57.343 E15.75504
G1 X59.609 Y57.721 E15.76762
G1 X60.571 Y56.759 E15.81295
G1 X60.948 Y56.759 E15.82553
G1 X59.609 Y58.098 E15.88865
G1 X59.609 Y58.476 E15.90123
G1 X61.326 Y56.759 E15.98214
G1 X61.704 Y56.759 E15.99472
G1 X59.609 Y58.854 E16.09343
G1 X59.609 Y59.231 E16.10601
G1 X62.081 Y56.759 E16.22250
G1 X62.459 Y56.759 E16.23509
G1 X59.609 Y59.609 E16.36938
G1 X59.609 Y59.987 E16.38196
G1 X62.837 Y56.759 E16.53404
G1 X63.215 Y56.759 E16.54662
G1 X59.609 Y60.365 E16.71650
G1 X59.609 Y60.742 E16.72908
G1 X63.592 Y56.759 E16.91675
G1 X63.970 Y56.759 E16.92933
G1 X59.609 Y61.120 E17.13479
G1 X59.609 Y61.498 E17.14737
G1 X64.348 Y56.759 E17.37062
G1 X64.725 Y56.759 E17.38320
G1 X59.609 Y61.875 E17.62425
G1 X59.609 Y62.253 E17.63683
G1 X65.103 Y56.759 E17.89567
G1 X65.481 Y56.759 E17.90825
G1 X59.609 Y62.631 E18.18488
G1 X59.609 Y63.008 E18.19746
G1 X65.858 Y56.759 E18.49189
G1 X66.236 Y56.759 E18.50447
G1 X59.609 Y63.386 E18.81669
G1 X59.609 Y63.764 E18.82927
G1 X66.614 Y56.759 E19.15928
G1 X66.992 Y56.759 E19.17186
G1 X59.609 Y64.142 E19.51966
G1 X59.609 Y64.519 E19.53224
G1 X67.369 Y56.759 E19.89784
G1 X67.747 Y56.759 E19.91042
G1 X59.609 Y64.897 E20.29381
G1 X59.609 Y65.275 E20.30639
G1 X68.125 Y56.759 E20.70757
G1 X68.502 Y56.759 E20.72015
G1 X59.609 Y65.652 E21.13912
G1 X59.609 Y66.030 E21.15170
G1 X68.880 Y56.759 E21.58847
G1 X69.258 Y56.759 E21.60105
G1 X59.609 Y66.408 E22.05561
G1 X59.609 Y66.785 E22.06819
G1 X69.635 Y56.759 E22.54054
G1 X70.013 Y56.759 E22.55312
G1 X59.609 Y67.163 E23.04327
G1 X59.609 Y67.541 E23.05585
G1 X70.391 Y56.759 E23.56379
G1 X70.769 Y56.759 E23.57637
G1 X59.609 Y67.919 E24.10210
G1 X59.609 Y68.296 E24.11468
G1 X71.146 Y56.759 E24.65820
G1 X71.524 Y56.759 E24.67078
G1 X59.609 Y68.674 E25.23210
G1 X59.609 Y69.052 E25.24468
G1 X71.902 Y56.759 E25.82378
G1 X72.279 Y56.759 E25.83637
G1 X59.609 Y69.429 E26.43327
G1 X59.609 Y69.807 E26.44585
G1 X72.657 Y56.759 E27.06054
G1 X73.035 Y56.759 E27.07312
G1 X59.609 Y70.185 E27.70561
G1 X59.609 Y70.562 E27.71819
G1 X73.412 Y56.759 E28.36847
G1 X73.790 Y56.759 E28.38105
G1 X59.609 Y70.940 E29.04912
G1 X59.609 Y71.318 E29.06170
G1 X74.168 Y56.759 E29.74756
G1 X74.545 Y56.759 E29.76015
G1 X59.609 Y71.695 E30.46380
G1 X59.609 Y72.073 E30.47638
G1 X74.923 Y56.759 E31.19783
G1 X75.301 Y56.759 E31.21041
G1 X59.609 Y72.451 E31.94966
G1 X59.609 Y72.829 E31.96224
G1 X75.679 Y56.759 E32.71927
G1 X76.056 Y56.759 E32.73185
G1 X59.609 Y73.206 E33.50668
G1 X59.609 Y73.584 E33.51926
G1 X76.434 Y56.759 E34.31188
G1 X76.812 Y56.759 E34.32446
G1 X59.609 Y73.962 E35.13488
G1 X59.609 Y74.339 E35.14746
G1 X60.270 Y73.678 E35.17861
G1 X60.314 Y73.590 E35.18188
G1 X60.884 Y73.021 E35.20871
G1 X60.972 Y72.976 E35.21199
G1 X77.189 Y56.759 E35.97598
G1 X77.567 Y56.759 E35.98857
G1 X61.683 Y72.642 E36.73683
G1 X62.132 Y72.571 E36.75197
G1 X77.945 Y56.759 E37.49689
G1 X78.322 Y56.759 E37.50947
G1 X62.530 Y72.551 E38.25341
G1 X62.856 Y72.602 E38.26441
G1 X78.700 Y56.759 E39.01078
G1 X79.078 Y56.759 E39.02336
G1 X63.182 Y72.654 E39.77217
G1 X63.435 Y72.779 E39.78156
G1 X79.456 Y56.759 E40.53627
G1 X79.833 Y56.759 E40.54885
G1 X63.685 Y72.907 E41.30956
G1 X63.929 Y73.040 E41.31883
G1 X80.211 Y56.759 E42.08584
G1 X80.589 Y56.759 E42.09842
G1 X64.118 Y73.229 E42.87434
G1 X64.307 Y73.418 E42.88323
G1 X80.966 Y56.759 E43.66804
G1 X81.344 Y56.759 E43.68062
G1 X64.490 Y73.612 E44.47458
G1 X64.618 Y73.863 E44.48394
G1 X81.722 Y56.759 E45.28969
G1 X82.099 Y56.759 E45.30227
G1 X64.745 Y74.113 E46.11980
G1 X64.845 Y74.308 E46.12709
G1 X64.856 Y74.380 E46.12952
G1 X82.477 Y56.759 E46.95962
G1 X82.855 Y56.759 E46.97220
G1 X64.908 Y74.706 E47.81767
G1 X64.959 Y75.032 E47.82867
G1 X83.233 Y56.759 E48.68950
G1 X83.610 Y56.759 E48.70208
G1 X64.915 Y75.454 E49.58278
G1 X64.841 Y75.905 E49.59802
G1 X83.988 Y56.759 E50.49999
G1 X84.366 Y56.759 E50.51257
G1 X59.609 Y81.516 E51.67883
G1 X59.609 Y81.893 E51.69142
G1 X84.743 Y56.759 E52.87548
G1 X85.121 Y56.759 E52.88806
G1 X59.609 Y82.271 E54.08991
G1 X59.609 Y82.649 E54.10249
G1 X85.499 Y56.759 E55.32214
G1 X85.876 Y56.759 E55.33472
G1 X59.609 Y83.026 E56.57215
G1 X59.609 Y83.404 E56.58474
G1 X86.254 Y56.759 E57.83997
G1 X86.632 Y56.759 E57.85255
G1 X84.198 Y59.192 E57.96720
G1 X84.421 Y59.079 E57.97554
G1 X84.740 Y59.028 E57.98629
G1 X87.009 Y56.759 E58.09320
G1 X87.387 Y56.759 E58.10578
G1 X85.150 Y58.996 E58.21118
G1 X85.476 Y59.047 E58.22218
G1 X87.765 Y56.759 E58.33000
G1 X88.143 Y56.759 E58.34259
G1 X85.772 Y59.129 E58.45427
G1 X86.022 Y59.257 E58.46362
G1 X88.520 Y56.759 E58.58131
G1 X88.898 Y56.759 E58.59389
G1 X86.263 Y59.393 E58.71800
G1 X86.452 Y59.582 E58.72690
G1 X89.276 Y56.759 E58.85991
G1 X89.653 Y56.759 E58.87249
G1 X86.641 Y59.771 E59.01439
G1 X86.684 Y59.814 E59.01641
G1 X86.783 Y60.007 E59.02364
G1 X90.031 Y56.759 E59.17667
G1 X90.391 Y56.759 E59.18868
G1 X86.910 Y60.257 E59.35309
G1 X86.971 Y60.378 E59.35760
G1 X86.998 Y60.547 E59.36330
G1 X90.391 Y57.154 E59.52315
G1 X90.391 Y57.531 E59.53573
G1 X87.050 Y60.873 E59.69315
G1 X87.071 Y61.003 E59.69755
G1 X87.028 Y61.273 E59.70663
G1 X90.391 Y57.909 E59.86508
G1 X90.391 Y58.287 E59.87766
G1 X86.891 Y61.788 E60.04258
G1 E58.04258 F2400.00000
G92 E0
G1 X83.442 Y59.948 F7800.000
G1 E2.00000 F2400.00000
G1 F1800.000
G1 X59.609 Y83.782 E3.12277
G1 X59.609 Y84.159 E3.13535
G1 X83.278 Y60.490 E4.25038
G1 X83.229 Y60.797 E4.26073
G1 X83.246 Y60.900 E4.26421
G1 X59.609 Y84.537 E5.37772
G1 X59.609 Y84.915 E5.39030
G1 X83.297 Y61.226 E6.50625
G1 X83.329 Y61.422 E6.51287
G1 X83.379 Y61.522 E6.51659
G1 X59.609 Y85.293 E7.63640
G1 X59.609 Y85.670 E7.64898
G1 X83.507 Y61.772 E8.77479
G1 X83.643 Y62.013 E8.78402
G1 X59.609 Y86.048 E9.91625
G1 X59.609 Y86.426 E9.92884
G1 X83.832 Y62.202 E11.06996
G1 X84.021 Y62.391 E11.07886
G1 X59.609 Y86.803 E12.22888
G1 X59.609 Y87.181 E12.24146
G1 X84.257 Y62.533 E13.40262
G1 X84.507 Y62.660 E13.41197
G1 X59.609 Y87.559 E14.58491
G1 X59.609 Y87.936 E14.59749
G1 X84.797 Y62.748 E15.78407
G1 X85.123 Y62.800 E15.79507
G1 X59.609 Y88.314 E16.99701
G1 X59.609 Y88.692 E17.00959
G1 X85.523 Y62.778 E18.23035
G1 X85.879 Y62.721 E18.24237
G1 X86.038 Y62.641 E18.24831
G1 X59.609 Y89.070 E19.49334
G1 X59.609 Y89.447 E19.50592
G1 X90.391 Y58.664 E20.95605
G1 X90.391 Y59.042 E20.96863
G1 X59.609 Y89.825 E22.41877
G1 X59.609 Y90.203 E22.43135
G1 X90.391 Y59.420 E23.88149
G1 X90.391 Y59.797 E23.89407
G1 X59.609 Y90.580 E25.34420
G1 X59.609 Y90.958 E25.35678
G1 X90.391 Y60.175 E26.80692
G1 X90.391 Y60.553 E26.81950
G1 X59.609 Y91.336 E28.26964
G1 X59.609 Y91.713 E28.28222
G1 X90.391 Y60.930 E29.73235
G1 X90.391 Y61.308 E29.74493
G1 X59.609 Y92.091 E31.19507
G1 X59.609 Y92.469 E31.20765
G1 X90.391 Y61.686 E32.65779
G1 X90.391 Y62.064 E32.67037
G1 X59.609 Y92.847 E34.12050
G1 X59.609 Y93.224 E34.13308
G1 X90.391 Y62.441 E35.58322
G1 X90.391 Y62.819 E35.59580
G1 X59.969 Y93.241 E37.02896
G1 X60.347 Y93.241 E37.04154
G1 X90.391 Y63.197 E38.45690
G1 X90.391 Y63.574 E38.46948
G1 X60.724 Y93.241 E39.86705
G1 X61.102 Y93.241 E39.87963
G1 X90.391 Y63.952 E41.25941
G1 X90.391 Y64.330 E41.27199
