; generated by Slic3r 1.3.1-dev (Build adea0d9) on 2019-12-16 at 00:50:12

; external perimeters extrusion width = 0.44mm (2.86mm^3/s)
; perimeters extrusion width = 0.56mm (4.14mm^3/s)
; infill extrusion width = 0.50mm (3.66mm^3/s)
; solid infill extrusion width = 0.56mm (3.10mm^3/s)
; top infill extrusion width = 0.56mm (3.10mm^3/s)

M107
G92 E0
;D3D:START:START
T0
M104 S215 T0

G21
G90
M107
T0
G28
G29
M109 T0 S215 T0
G0 F3000
M107
T0
G92 E0
G0 X0 Y149 Z0.1 F3600
G1 Y49 E6.5 F1200
G0 Z1
G92 E0
; Filament gcode

G21 ; set units to millimeters
G90 ; use absolute coordinates
M82 ; use absolute distances for extrusion
G92 E0
G1 Z0.300 F7800.000
G1 E-2.00000 F2400.00000
G92 E0
G1 X147.222 Y96.973 F7800.000
G1 E2.00000 F2400.00000
G1 F1800.000
G1 X182.778 Y96.973 E3.17797
G1 X182.695 Y97.500 E3.19564
G1 X182.778 Y98.027 E3.21331
G1 X147.222 Y98.027 E4.39128
G1 X147.305 Y97.500 E4.40896
G1 X147.231 Y97.032 E4.42464
G1 X146.853 Y96.707 F7800.000
G1 F1800.000
G1 X183.147 Y96.707 E5.62702
G1 X183.063 Y96.871 E5.63310
G1 X182.964 Y97.500 E5.65420
G1 X183.063 Y98.129 E5.67531
G1 X183.147 Y98.293 E5.68138
G1 X146.853 Y98.293 E6.88377
G1 X146.937 Y98.129 E6.88984
G1 X147.036 Y97.500 E6.91095
G1 X146.937 Y96.871 E6.93205
G1 X146.881 Y96.761 E6.93614
G1 X146.419 Y96.442 F7800.000
G1 F1800.000
G1 X183.581 Y96.442 E8.16728
G1 X183.319 Y96.954 E8.18633
G1 X183.233 Y97.500 E8.20465
G1 X183.319 Y98.046 E8.22296
G1 X183.581 Y98.558 E8.24201
G1 X146.419 Y98.558 E9.47316
G1 X146.681 Y98.046 E9.49221
G1 X146.767 Y97.500 E9.51053
G1 X146.681 Y96.954 E9.52884
G1 X146.447 Y96.495 E9.54590
G1 X147.429 Y97.342 F7800.000
G1 F1800.000
G1 X147.636 Y97.135 E9.55562
G1 X148.013 Y97.135 E9.56817
G1 X147.456 Y97.692 E9.59437
G1 X147.429 Y97.865 E9.60017
G1 X147.661 Y97.865 E9.60789
G1 X148.390 Y97.135 E9.64220
G1 X148.768 Y97.135 E9.65475
G1 X148.038 Y97.865 E9.68905
G1 X148.416 Y97.865 E9.70160
G1 X149.145 Y97.135 E9.73591
G1 X149.522 Y97.135 E9.74846
G1 X148.793 Y97.865 E9.78276
G1 X149.170 Y97.865 E9.79531
G1 X149.899 Y97.135 E9.82962
G1 X150.276 Y97.135 E9.84216
G1 X149.547 Y97.865 E9.87647
G1 X149.924 Y97.865 E9.88902
G1 X150.654 Y97.135 E9.92333
G1 X151.031 Y97.135 E9.93587
G1 X150.302 Y97.865 E9.97018
G1 X150.679 Y97.865 E9.98273
G1 X151.408 Y97.135 E10.01704
G1 X151.785 Y97.135 E10.02958
G1 X151.056 Y97.865 E10.06389
G1 X151.433 Y97.865 E10.07644
G1 X152.162 Y97.135 E10.11075
G1 X152.540 Y97.135 E10.12329
G1 X151.810 Y97.865 E10.15760
G1 X152.188 Y97.865 E10.17015
G1 X152.917 Y97.135 E10.20445
G1 X153.294 Y97.135 E10.21700
G1 X152.565 Y97.865 E10.25131
G1 X152.942 Y97.865 E10.26386
G1 X153.671 Y97.135 E10.29816
G1 X154.048 Y97.135 E10.31071
G1 X153.319 Y97.865 E10.34502
G1 X153.696 Y97.865 E10.35757
G1 X154.426 Y97.135 E10.39187
G1 X154.803 Y97.135 E10.40442
G1 X154.074 Y97.865 E10.43873
G1 X154.451 Y97.865 E10.45128
G1 X155.180 Y97.135 E10.48558
G1 X155.557 Y97.135 E10.49813
G1 X154.828 Y97.865 E10.53244
G1 X155.205 Y97.865 E10.54499
G1 X155.934 Y97.135 E10.57929
G1 X156.312 Y97.135 E10.59184
G1 X155.582 Y97.865 E10.62615
G1 X155.960 Y97.865 E10.63870
G1 X156.689 Y97.135 E10.67300
G1 X157.066 Y97.135 E10.68555
G1 X156.337 Y97.865 E10.71986
G1 X156.714 Y97.865 E10.73240
G1 X157.443 Y97.135 E10.76671
G1 X157.821 Y97.135 E10.77926
G1 X157.091 Y97.865 E10.81356
G1 X157.469 Y97.865 E10.82611
G1 X158.198 Y97.135 E10.86042
G1 X158.575 Y97.135 E10.87297
G1 X157.846 Y97.865 E10.90727
G1 X158.223 Y97.865 E10.91982
G1 X158.952 Y97.135 E10.95413
G1 X159.329 Y97.135 E10.96668
G1 X158.600 Y97.865 E11.00098
G1 X158.977 Y97.865 E11.01353
G1 X159.707 Y97.135 E11.04784
G1 X160.084 Y97.135 E11.06039
G1 X159.355 Y97.865 E11.09469
G1 X159.732 Y97.865 E11.10724
G1 X160.461 Y97.135 E11.14155
G1 X160.838 Y97.135 E11.15410
G1 X160.109 Y97.865 E11.18840
G1 X160.486 Y97.865 E11.20095
G1 X161.215 Y97.135 E11.23526
G1 X161.593 Y97.135 E11.24781
G1 X160.863 Y97.865 E11.28211
G1 X161.241 Y97.865 E11.29466
G1 X161.970 Y97.135 E11.32897
G1 X162.347 Y97.135 E11.34151
G1 X161.618 Y97.865 E11.37582
G1 X161.995 Y97.865 E11.38837
G1 X162.724 Y97.135 E11.42268
G1 X163.101 Y97.135 E11.43522
G1 X162.372 Y97.865 E11.46953
G1 X162.749 Y97.865 E11.48208
G1 X163.479 Y97.135 E11.51638
G1 X163.856 Y97.135 E11.52893
G1 X163.127 Y97.865 E11.56324
G1 X163.504 Y97.865 E11.57579
G1 X164.233 Y97.135 E11.61009
G1 X164.610 Y97.135 E11.62264
G1 X163.881 Y97.865 E11.65695
G1 X164.258 Y97.865 E11.66950
G1 X164.987 Y97.135 E11.70380
G1 X165.365 Y97.135 E11.71635
G1 X164.635 Y97.865 E11.75066
G1 X165.013 Y97.865 E11.76321
G1 X165.742 Y97.135 E11.79751
G1 X166.119 Y97.135 E11.81006
G1 X165.390 Y97.865 E11.84437
G1 X165.767 Y97.865 E11.85691
G1 X166.496 Y97.135 E11.89122
G1 X166.873 Y97.135 E11.90377
G1 X166.144 Y97.865 E11.93808
G1 X166.521 Y97.865 E11.95062
G1 X167.251 Y97.135 E11.98493
G1 X167.628 Y97.135 E11.99748
G1 X166.899 Y97.865 E12.03178
G1 X167.276 Y97.865 E12.04433
G1 X168.005 Y97.135 E12.07864
G1 X168.382 Y97.135 E12.09119
G1 X167.653 Y97.865 E12.12549
G1 X168.030 Y97.865 E12.13804
G1 X168.759 Y97.135 E12.17235
G1 X169.137 Y97.135 E12.18490
G1 X168.407 Y97.865 E12.21920
G1 X168.785 Y97.865 E12.23175
G1 X169.514 Y97.135 E12.26606
G1 X169.891 Y97.135 E12.27861
G1 X169.162 Y97.865 E12.31291
G1 X169.539 Y97.865 E12.32546
G1 X170.268 Y97.135 E12.35977
G1 X170.645 Y97.135 E12.37232
G1 X169.916 Y97.865 E12.40662
G1 X170.293 Y97.865 E12.41917
G1 X171.023 Y97.135 E12.45348
G1 X171.400 Y97.135 E12.46602
G1 X170.671 Y97.865 E12.50033
G1 X171.048 Y97.865 E12.51288
G1 X171.777 Y97.135 E12.54719
G1 X172.154 Y97.135 E12.55973
G1 X171.425 Y97.865 E12.59404
G1 X171.802 Y97.865 E12.60659
G1 X172.531 Y97.135 E12.64090
G1 X172.909 Y97.135 E12.65344
G1 X172.180 Y97.865 E12.68775
G1 X172.557 Y97.865 E12.70030
G1 X173.286 Y97.135 E12.73460
G1 X173.663 Y97.135 E12.74715
G1 X172.934 Y97.865 E12.78146
G1 X173.311 Y97.865 E12.79401
G1 X174.040 Y97.135 E12.82831
G1 X174.418 Y97.135 E12.84086
G1 X173.688 Y97.865 E12.87517
G1 X174.066 Y97.865 E12.88772
G1 X174.795 Y97.135 E12.92202
G1 X175.172 Y97.135 E12.93457
G1 X174.443 Y97.865 E12.96888
G1 X174.820 Y97.865 E12.98143
G1 X175.549 Y97.135 E13.01573
G1 X175.926 Y97.135 E13.02828
G1 X175.197 Y97.865 E13.06259
G1 X175.574 Y97.865 E13.07514
G1 X176.304 Y97.135 E13.10944
G1 X176.681 Y97.135 E13.12199
G1 X175.952 Y97.865 E13.15630
G1 X176.329 Y97.865 E13.16884
G1 X177.058 Y97.135 E13.20315
G1 X177.435 Y97.135 E13.21570
G1 X176.706 Y97.865 E13.25001
G1 X177.083 Y97.865 E13.26255
G1 X177.812 Y97.135 E13.29686
G1 X178.190 Y97.135 E13.30941
G1 X177.460 Y97.865 E13.34371
G1 X177.838 Y97.865 E13.35626
G1 X178.567 Y97.135 E13.39057
G1 X178.944 Y97.135 E13.40312
G1 X178.215 Y97.865 E13.43742
G1 X178.592 Y97.865 E13.44997
G1 X179.321 Y97.135 E13.48428
G1 X179.698 Y97.135 E13.49683
G1 X178.969 Y97.865 E13.53113
G1 X179.346 Y97.865 E13.54368
G1 X180.076 Y97.135 E13.57799
G1 X180.453 Y97.135 E13.59054
G1 X179.724 Y97.865 E13.62484
G1 X180.101 Y97.865 E13.63739
G1 X180.830 Y97.135 E13.67170
G1 X181.207 Y97.135 E13.68425
G1 X180.478 Y97.865 E13.71855
G1 X180.855 Y97.865 E13.73110
G1 X181.584 Y97.135 E13.76541
G1 X181.962 Y97.135 E13.77795
G1 X181.232 Y97.865 E13.81226
G1 X181.610 Y97.865 E13.82481
G1 X182.339 Y97.135 E13.85912
G1 X182.571 Y97.135 E13.86683
G1 X182.544 Y97.308 E13.87264
G1 X181.987 Y97.865 E13.89883
G1 X182.364 Y97.865 F7800.000
G1 F1800.000
G1 X182.571 Y97.658 E13.90855
G1 E11.90855 F2400.00000
G92 E0
G1 X142.778 Y96.973 F7800.000
G1 E2.00000 F2400.00000
G1 F1800.000
G1 X142.695 Y97.500 E2.01767
G1 X142.778 Y98.027 E2.03534
G1 X107.222 Y98.027 E3.21331
G1 X107.305 Y97.500 E3.23098
G1 X107.222 Y96.973 E3.24866
G1 X142.718 Y96.973 E4.42464
G1 X143.063 Y96.871 F7800.000
G1 F1800.000
G1 X142.964 Y97.500 E4.44574
G1 X143.063 Y98.129 E4.46685
G1 X143.147 Y98.293 E4.47292
G1 X106.853 Y98.293 E5.67531
G1 X106.937 Y98.129 E5.68138
G1 X107.036 Y97.500 E5.70249
G1 X106.937 Y96.871 E5.72359
G1 X106.853 Y96.707 E5.72967
G1 X143.147 Y96.707 E6.93205
G1 X143.091 Y96.817 E6.93614
G1 X143.581 Y96.442 F7800.000
G1 F1800.000
G1 X143.319 Y96.954 E6.95519
G1 X143.233 Y97.500 E6.97350
G1 X143.319 Y98.046 E6.99182
G1 X143.581 Y98.558 E7.01087
G1 X106.419 Y98.558 E8.24201
G1 X106.681 Y98.046 E8.26107
G1 X106.767 Y97.500 E8.27938
G1 X106.681 Y96.954 E8.29770
G1 X106.419 Y96.442 E8.31675
G1 X143.521 Y96.442 E9.54590
G1 X142.571 Y97.658 F7800.000
G1 F1800.000
G1 X142.364 Y97.865 E9.55562
G1 X141.987 Y97.865 F7800.000
G1 F1800.000
G1 X142.544 Y97.308 E9.58182
G1 X142.571 Y97.135 E9.58762
G1 X142.339 Y97.135 E9.59534
G1 X141.610 Y97.865 E9.62965
G1 X141.232 Y97.865 E9.64220
G1 X141.962 Y97.135 E9.67650
G1 X141.584 Y97.135 E9.68905
G1 X140.855 Y97.865 E9.72336
G1 X140.478 Y97.865 E9.73591
G1 X141.207 Y97.135 E9.77021
G1 X140.830 Y97.135 E9.78276
G1 X140.101 Y97.865 E9.81707
G1 X139.724 Y97.865 E9.82962
G1 X140.453 Y97.135 E9.86392
G1 X140.076 Y97.135 E9.87647
G1 X139.346 Y97.865 E9.91078
G1 X138.969 Y97.865 E9.92333
G1 X139.698 Y97.135 E9.95763
G1 X139.321 Y97.135 E9.97018
G1 X138.592 Y97.865 E10.00449
G1 X138.215 Y97.865 E10.01703
G1 X138.944 Y97.135 E10.05134
G1 X138.567 Y97.135 E10.06389
G1 X137.838 Y97.865 E10.09820
G1 X137.460 Y97.865 E10.11074
G1 X138.190 Y97.135 E10.14505
G1 X137.812 Y97.135 E10.15760
G1 X137.083 Y97.865 E10.19190
G1 X136.706 Y97.865 E10.20445
G1 X137.435 Y97.135 E10.23876
G1 X137.058 Y97.135 E10.25131
G1 X136.329 Y97.865 E10.28561
G1 X135.952 Y97.865 E10.29816
G1 X136.681 Y97.135 E10.33247
G1 X136.304 Y97.135 E10.34502
G1 X135.574 Y97.865 E10.37932
G1 X135.197 Y97.865 E10.39187
G1 X135.926 Y97.135 E10.42618
G1 X135.549 Y97.135 E10.43873
G1 X134.820 Y97.865 E10.47303
G1 X134.443 Y97.865 E10.48558
G1 X135.172 Y97.135 E10.51989
G1 X134.795 Y97.135 E10.53243
G1 X134.066 Y97.865 E10.56674
G1 X133.688 Y97.865 E10.57929
G1 X134.418 Y97.135 E10.61360
G1 X134.040 Y97.135 E10.62614
G1 X133.311 Y97.865 E10.66045
G1 X132.934 Y97.865 E10.67300
G1 X133.663 Y97.135 E10.70731
G1 X133.286 Y97.135 E10.71985
G1 X132.557 Y97.865 E10.75416
G1 X132.180 Y97.865 E10.76671
G1 X132.909 Y97.135 E10.80102
G1 X132.531 Y97.135 E10.81356
G1 X131.802 Y97.865 E10.84787
G1 X131.425 Y97.865 E10.86042
G1 X132.154 Y97.135 E10.89472
G1 X131.777 Y97.135 E10.90727
G1 X131.048 Y97.865 E10.94158
G1 X130.671 Y97.865 E10.95413
G1 X131.400 Y97.135 E10.98843
G1 X131.023 Y97.135 E11.00098
G1 X130.293 Y97.865 E11.03529
G1 X129.916 Y97.865 E11.04784
G1 X130.645 Y97.135 E11.08214
G1 X130.268 Y97.135 E11.09469
G1 X129.539 Y97.865 E11.12900
G1 X129.162 Y97.865 E11.14155
G1 X129.891 Y97.135 E11.17585
G1 X129.514 Y97.135 E11.18840
G1 X128.785 Y97.865 E11.22271
G1 X128.407 Y97.865 E11.23526
G1 X129.137 Y97.135 E11.26956
G1 X128.759 Y97.135 E11.28211
G1 X128.030 Y97.865 E11.31642
G1 X127.653 Y97.865 E11.32897
G1 X128.382 Y97.135 E11.36327
G1 X128.005 Y97.135 E11.37582
G1 X127.276 Y97.865 E11.41013
G1 X126.899 Y97.865 E11.42268
G1 X127.628 Y97.135 E11.45698
G1 X127.251 Y97.135 E11.46953
G1 X126.521 Y97.865 E11.50384
G1 X126.144 Y97.865 E11.51639
G1 X126.873 Y97.135 E11.55069
G1 X126.496 Y97.135 E11.56324
G1 X125.767 Y97.865 E11.59755
G1 X125.390 Y97.865 E11.61010
G1 X126.119 Y97.135 E11.64440
G1 X125.742 Y97.135 E11.65695
G1 X125.013 Y97.865 E11.69126
G1 X124.635 Y97.865 E11.70380
G1 X125.365 Y97.135 E11.73811
G1 X124.987 Y97.135 E11.75066
G1 X124.258 Y97.865 E11.78497
G1 X123.881 Y97.865 E11.79751
G1 X124.610 Y97.135 E11.83182
G1 X124.233 Y97.135 E11.84437
G1 X123.504 Y97.865 E11.87868
G1 X123.127 Y97.865 E11.89122
G1 X123.856 Y97.135 E11.92553
G1 X123.479 Y97.135 E11.93808
G1 X122.749 Y97.865 E11.97238
G1 X122.372 Y97.865 E11.98493
G1 X123.101 Y97.135 E12.01924
G1 X122.724 Y97.135 E12.03179
G1 X121.995 Y97.865 E12.06609
G1 X121.618 Y97.865 E12.07864
G1 X122.347 Y97.135 E12.11295
G1 X121.970 Y97.135 E12.12550
G1 X121.241 Y97.865 E12.15980
G1 X120.863 Y97.865 E12.17235
G1 X121.593 Y97.135 E12.20666
G1 X121.215 Y97.135 E12.21921
G1 X120.486 Y97.865 E12.25351
G1 X120.109 Y97.865 E12.26606
G1 X120.838 Y97.135 E12.30037
G1 X120.461 Y97.135 E12.31292
G1 X119.732 Y97.865 E12.34722
G1 X119.355 Y97.865 E12.35977
G1 X120.084 Y97.135 E12.39408
G1 X119.707 Y97.135 E12.40663
G1 X118.977 Y97.865 E12.44093
G1 X118.600 Y97.865 E12.45348
G1 X119.329 Y97.135 E12.48779
G1 X118.952 Y97.135 E12.50034
G1 X118.223 Y97.865 E12.53464
G1 X117.846 Y97.865 E12.54719
G1 X118.575 Y97.135 E12.58150
G1 X118.198 Y97.135 E12.59404
G1 X117.469 Y97.865 E12.62835
G1 X117.091 Y97.865 E12.64090
G1 X117.820 Y97.135 E12.67521
G1 X117.443 Y97.135 E12.68775
G1 X116.714 Y97.865 E12.72206
G1 X116.337 Y97.865 E12.73461
G1 X117.066 Y97.135 E12.76891
G1 X116.689 Y97.135 E12.78146
G1 X115.960 Y97.865 E12.81577
G1 X115.582 Y97.865 E12.82832
G1 X116.312 Y97.135 E12.86262
G1 X115.934 Y97.135 E12.87517
G1 X115.205 Y97.865 E12.90948
G1 X114.828 Y97.865 E12.92203
G1 X115.557 Y97.135 E12.95633
G1 X115.180 Y97.135 E12.96888
G1 X114.451 Y97.865 E13.00319
G1 X114.074 Y97.865 E13.01574
G1 X114.803 Y97.135 E13.05004
G1 X114.426 Y97.135 E13.06259
G1 X113.696 Y97.865 E13.09690
G1 X113.319 Y97.865 E13.10945
G1 X114.048 Y97.135 E13.14375
G1 X113.671 Y97.135 E13.15630
G1 X112.942 Y97.865 E13.19061
G1 X112.565 Y97.865 E13.20315
G1 X113.294 Y97.135 E13.23746
G1 X112.917 Y97.135 E13.25001
G1 X112.188 Y97.865 E13.28432
G1 X111.810 Y97.865 E13.29686
G1 X112.540 Y97.135 E13.33117
G1 X112.162 Y97.135 E13.34372
G1 X111.433 Y97.865 E13.37802
G1 X111.056 Y97.865 E13.39057
G1 X111.785 Y97.135 E13.42488
G1 X111.408 Y97.135 E13.43743
G1 X110.679 Y97.865 E13.47173
G1 X110.302 Y97.865 E13.48428
G1 X111.031 Y97.135 E13.51859
G1 X110.654 Y97.135 E13.53114
G1 X109.924 Y97.865 E13.56544
G1 X109.547 Y97.865 E13.57799
G1 X110.276 Y97.135 E13.61230
G1 X109.899 Y97.135 E13.62485
G1 X109.170 Y97.865 E13.65915
G1 X108.793 Y97.865 E13.67170
G1 X109.522 Y97.135 E13.70601
G1 X109.145 Y97.135 E13.71856
G1 X108.416 Y97.865 E13.75286
G1 X108.038 Y97.865 E13.76541
G1 X108.768 Y97.135 E13.79972
G1 X108.390 Y97.135 E13.81226
G1 X107.661 Y97.865 E13.84657
G1 X107.429 Y97.865 E13.85429
G1 X107.456 Y97.692 E13.86009
G1 X108.013 Y97.135 E13.88629
G1 X107.636 Y97.135 E13.89884
G1 X107.429 Y97.342 E13.90856
G1 E11.90856 F2400.00000
G92 E0
G1 X102.778 Y96.973 F7800.000
G1 E2.00000 F2400.00000
G1 F1800.000
G1 X102.695 Y97.500 E2.01767
G1 X102.778 Y98.027 E2.03534
G1 X67.222 Y98.027 E3.21331
G1 X67.305 Y97.500 E3.23098
G1 X67.222 Y96.973 E3.24866
G1 X102.718 Y96.973 E4.42464
G1 X103.063 Y96.871 F7800.000
G1 F1800.000
G1 X102.964 Y97.500 E4.44574
G1 X103.063 Y98.129 E4.46685
G1 X103.147 Y98.293 E4.47292
G1 X66.853 Y98.293 E5.67531
G1 X66.937 Y98.129 E5.68138
G1 X67.036 Y97.500 E5.70249
G1 X66.937 Y96.871 E5.72359
G1 X66.853 Y96.707 E5.72967
G1 X103.147 Y96.707 E6.93205
G1 X103.091 Y96.817 E6.93614
G1 X103.581 Y96.442 F7800.000
G1 F1800.000
G1 X103.319 Y96.954 E6.95519
G1 X103.233 Y97.500 E6.97350
G1 X103.319 Y98.046 E6.99182
G1 X103.581 Y98.558 E7.01087
G1 X66.419 Y98.558 E8.24201
G1 X66.681 Y98.046 E8.26107
G1 X66.767 Y97.500 E8.27938
G1 X66.681 Y96.954 E8.29770
G1 X66.419 Y96.442 E8.31675
G1 X103.521 Y96.442 E9.54590
G1 X102.571 Y97.658 F7800.000
G1 F1800.000
G1 X102.364 Y97.865 E9.55562
G1 X101.987 Y97.865 F7800.000
G1 F1800.000
G1 X102.544 Y97.308 E9.58182
G1 X102.571 Y97.135 E9.58763
G1 X102.339 Y97.135 E9.59534
G1 X101.610 Y97.865 E9.62965
G1 X101.232 Y97.865 E9.64220
G1 X101.962 Y97.135 E9.67650
G1 X101.584 Y97.135 E9.68905
G1 X100.855 Y97.865 E9.72336
G1 X100.478 Y97.865 E9.73591
G1 X101.207 Y97.135 E9.77021
G1 X100.830 Y97.135 E9.78276
G1 X100.101 Y97.865 E9.81707
G1 X99.724 Y97.865 E9.82962
G1 X100.453 Y97.135 E9.86392
G1 X100.076 Y97.135 E9.87647
G1 X99.346 Y97.865 E9.91078
G1 X98.969 Y97.865 E9.92333
G1 X99.698 Y97.135 E9.95763
G1 X99.321 Y97.135 E9.97018
G1 X98.592 Y97.865 E10.00449
G1 X98.215 Y97.865 E10.01704
G1 X98.944 Y97.135 E10.05134
G1 X98.567 Y97.135 E10.06389
G1 X97.838 Y97.865 E10.09820
G1 X97.460 Y97.865 E10.11074
G1 X98.190 Y97.135 E10.14505
G1 X97.812 Y97.135 E10.15760
G1 X97.083 Y97.865 E10.19191
G1 X96.706 Y97.865 E10.20445
G1 X97.435 Y97.135 E10.23876
G1 X97.058 Y97.135 E10.25131
