; generated by Slic3r 1.3.1-dev (Build 2ef957d) on 2019-11-25 at 09:20:31

; external perimeters extrusion width = 0.55mm (4.37mm^3/s)
; perimeters extrusion width = 0.70mm (11.44mm^3/s)
; infill extrusion width = 0.62mm (13.45mm^3/s)
; solid infill extrusion width = 0.70mm (3.81mm^3/s)
; top infill extrusion width = 0.70mm (2.86mm^3/s)

M107
G92 E0
M104 S200 ; set temperature
G28 ; home all axes
G1 Z5 F5000 ; lift nozzle

; Filament gcode

M109 S200 ; set temperature and wait for it to be reached
G21 ; set units to millimeters
G90 ; use absolute coordinates
M82 ; use absolute distances for extrusion
G92 E0
G1 Z0.350 F7800.000
G1 E-2.00000 F2400.00000
G92 E0
G1 X65.066 Y93.820 F7800.000
G1 E2.00000 F2400.00000
G1 F1800.000
G1 X67.218 Y93.027 E2.07096
G1 X68.398 Y92.921 E2.10761
G1 X111.602 Y92.921 E3.44440
G1 X113.861 Y93.318 E3.51536
G1 X115.849 Y94.461 E3.58632
G1 X117.328 Y96.214 E3.65728
G1 X118.121 Y98.366 E3.72825
G1 X118.227 Y99.546 E3.76490
G1 X118.227 Y135.300 E4.87118
G1 X117.830 Y137.559 E4.94214
G1 X116.686 Y139.547 E5.01311
G1 X114.934 Y141.026 E5.08407
G1 X112.782 Y141.819 E5.15503
G1 X111.602 Y141.925 E5.19168
G1 X68.398 Y141.925 E6.52847
G1 X66.139 Y141.528 E6.59943
G1 X64.151 Y140.385 E6.67039
G1 X62.672 Y138.632 E6.74135
G1 X61.879 Y136.480 E6.81232
G1 X61.773 Y135.300 E6.84897
G1 X61.773 Y99.546 E7.95525
G1 X62.170 Y97.287 E8.02621
G1 X63.314 Y95.299 E8.09717
G1 X65.009 Y93.868 E8.16582
G1 E6.16582 F2400.00000
G92 E0
G1 X87.092 Y121.118 F7800.000
G1 E2.00000 F2400.00000
G1 F1800.000
G1 X87.060 Y115.205 E2.18296
G1 X96.898 Y115.257 E2.48738
G1 X96.930 Y121.170 E2.67034
G1 X87.167 Y121.118 E2.97244
G1 X87.713 Y120.496 F7800.000
G1 F1800.000
G1 X87.688 Y115.833 E3.11673
G1 X96.277 Y115.879 E3.38247
G1 X96.302 Y120.542 E3.52676
G1 X87.788 Y120.497 E3.79019
G1 X88.335 Y119.875 F7800.000
G1 F1800.000
G1 X88.316 Y116.461 E3.89581
G1 X95.655 Y116.500 E4.12288
G1 X95.674 Y119.914 E4.22850
G1 X88.410 Y119.875 E4.45325
G1 X87.840 Y119.948 F7800.000
G1 E2.45325 F2400.00000
G92 E0
G1 X99.500 Y119.358 F7800.000
G1 E2.00000 F2400.00000
G1 F1800.000
G1 X99.500 Y110.442 E2.27585
G1 X105.400 Y110.442 E2.45839
G1 X105.400 Y119.358 E2.73425
G1 X99.575 Y119.358 E2.91446
G1 X100.125 Y118.733 F7800.000
G1 F1800.000
G1 X100.125 Y111.067 E3.15165
G1 X104.775 Y111.067 E3.29552
G1 X104.775 Y118.733 E3.53270
G1 X100.200 Y118.733 E3.67425
G1 X100.750 Y118.108 F7800.000
G1 F1800.000
G1 X100.750 Y111.692 E3.87276
G1 X104.150 Y111.692 E3.97796
G1 X104.150 Y118.108 E4.17648
G1 X100.825 Y118.108 E4.27936
G1 X100.282 Y118.285 F7800.000
G1 E2.27936 F2400.00000
G92 E0
G1 X80.500 Y119.358 F7800.000
G1 E2.00000 F2400.00000
G1 F1800.000
G1 X74.600 Y119.358 E2.18254
G1 X74.600 Y110.442 E2.45839
G1 X80.500 Y110.442 E2.64093
G1 X80.500 Y119.283 E2.91446
G1 X79.875 Y118.733 F7800.000
G1 F1800.000
G1 X75.225 Y118.733 E3.05833
G1 X75.225 Y111.067 E3.29552
G1 X79.875 Y111.067 E3.43939
G1 X79.875 Y118.658 E3.67425
G1 X79.250 Y118.108 F7800.000
G1 F1800.000
G1 X75.850 Y118.108 E3.77945
G1 X75.850 Y111.692 E3.97796
G1 X79.250 Y111.692 E4.08316
G1 X79.250 Y118.033 E4.27936
G1 X79.331 Y118.601 F7800.000
G1 E2.27936 F2400.00000
G92 E0
G1 X69.998 Y133.700 F7800.000
G1 E2.00000 F2400.00000
G1 F1800.000
G1 X69.998 Y101.146 E3.00728
G1 X110.002 Y101.146 E4.24507
G1 X110.002 Y133.700 E5.25235
G1 X70.073 Y133.700 E6.48782
G1 X69.373 Y134.325 F7800.000
G1 F1800.000
G1 X69.373 Y100.521 E7.53377
G1 X110.627 Y100.521 E8.81023
G1 X110.627 Y134.325 E9.85618
G1 X69.448 Y134.325 E11.13031
G1 X68.748 Y134.950 F7800.000
G1 F1800.000
G1 X68.748 Y99.896 E12.21494
G1 X111.252 Y99.896 E13.53006
G1 X111.252 Y134.950 E14.61469
G1 X68.823 Y134.950 E15.92749
G1 X68.893 Y134.471 F7800.000
G1 E13.92749 F2400.00000
G92 E0
G1 X70.380 Y112.656 F7800.000
G1 E2.00000 F2400.00000
G1 F1800.000
G1 X70.380 Y113.542 E2.02754
G1 X74.218 Y109.704 E2.19610
G1 X74.218 Y110.590 E2.22363
G1 X70.380 Y114.429 E2.39219
G1 X70.380 Y115.316 E2.41973
G1 X74.218 Y111.477 E2.58829
G1 X74.218 Y112.364 E2.61583
G1 X70.380 Y116.203 E2.78439
G1 X70.380 Y117.090 E2.81192
G1 X74.218 Y113.251 E2.98048
G1 X74.218 Y114.138 E3.00802
G1 X70.380 Y117.976 E3.17658
G1 X70.380 Y118.863 E3.20412
G1 X74.218 Y115.025 E3.37268
G1 X74.218 Y115.911 E3.40021
G1 X70.380 Y119.750 E3.56877
G1 X70.380 Y120.637 E3.59631
G1 X74.218 Y116.798 E3.76487
G1 X74.218 Y117.685 E3.79241
G1 X70.380 Y121.524 E3.96097
G1 X70.380 Y122.411 E3.98850
G1 X74.218 Y118.572 E4.15706
G1 X74.218 Y119.459 E4.18460
G1 X70.380 Y123.297 E4.35316
G1 X70.380 Y124.184 E4.38070
G1 X74.824 Y119.740 E4.57587
G1 X75.711 Y119.740 E4.60341
G1 X70.380 Y125.071 E4.83752
G1 X70.380 Y125.958 E4.86506
G1 X76.598 Y119.740 E5.13811
G1 X77.485 Y119.740 E5.16565
G1 X70.380 Y126.845 E5.47765
G1 X70.380 Y127.732 E5.50518
G1 X78.372 Y119.740 E5.85612
G1 X79.259 Y119.740 E5.88366
G1 X70.380 Y128.618 E6.27354
G1 X70.380 Y129.505 E6.30107
G1 X80.145 Y119.740 E6.72989
G1 X81.032 Y119.740 E6.75743
G1 X70.380 Y130.392 E7.22519
G1 X70.380 Y131.279 E7.25273
G1 X86.678 Y114.980 E7.96841
G1 X86.683 Y115.863 E7.99580
G1 X70.380 Y132.166 E8.71168
G1 X70.380 Y133.053 E8.73922
G1 X86.688 Y116.745 E9.45532
G1 X86.692 Y117.627 E9.48271
G1 X71.001 Y133.318 E10.17174
G1 X71.887 Y133.318 E10.19928
G1 X86.697 Y118.509 E10.84958
G1 X86.702 Y119.391 E10.87697
G1 X72.774 Y133.318 E11.48854
G1 X73.661 Y133.318 E11.51608
G1 X86.707 Y120.273 E12.08892
G1 X86.711 Y121.155 E12.11631
G1 X74.548 Y133.318 E12.65041
G1 X75.435 Y133.318 E12.67795
G1 X87.254 Y121.499 E13.19695
G1 X88.136 Y121.504 E13.22434
G1 X76.322 Y133.318 E13.74313
G1 X77.208 Y133.318 E13.77066
G1 X89.018 Y121.509 E14.28924
G1 X89.900 Y121.513 E14.31663
G1 X78.095 Y133.318 E14.83501
G1 X78.982 Y133.318 E14.86254
G1 X90.782 Y121.518 E15.38071
G1 X91.665 Y121.523 E15.40810
G1 X79.869 Y133.318 E15.92606
G1 X80.756 Y133.318 E15.95359
G1 X92.547 Y121.527 E16.47134
G1 X93.429 Y121.532 E16.49873
G1 X81.643 Y133.318 E17.01628
G1 X82.529 Y133.318 E17.04381
G1 X94.311 Y121.537 E17.56115
G1 X95.193 Y121.542 E17.58854
G1 X83.416 Y133.318 E18.10567
G1 X84.303 Y133.318 E18.13320
G1 X96.075 Y121.546 E18.65012
G1 X96.957 Y121.551 E18.67751
G1 X85.190 Y133.318 E19.19422
G1 X86.077 Y133.318 E19.22176
G1 X99.656 Y119.740 E19.81802
G1 X100.542 Y119.740 E19.84556
G1 X86.963 Y133.318 E20.44182
G1 X87.850 Y133.318 E20.46935
G1 X101.429 Y119.740 E21.06562
G1 X102.316 Y119.740 E21.09315
G1 X88.737 Y133.318 E21.68941
G1 X89.624 Y133.318 E21.71695
G1 X103.203 Y119.740 E22.31321
G1 X104.090 Y119.740 E22.34075
G1 X90.511 Y133.318 E22.93701
G1 X91.398 Y133.318 E22.96454
G1 X104.976 Y119.740 E23.56081
G1 X105.863 Y119.740 E23.58834
G1 X92.284 Y133.318 E24.18460
G1 E22.18460 F2400.00000
G92 E0
G1 X97.311 Y121.197 F7800.000
G1 E2.00000 F2400.00000
G1 F1800.000
G1 X99.118 Y119.390 E2.07938
G1 X99.118 Y118.503 E2.10691
G1 X97.306 Y120.315 E2.18649
G1 X97.301 Y119.433 E2.21388
G1 X99.118 Y117.616 E2.29367
G1 X99.118 Y116.729 E2.32121
G1 X97.297 Y118.551 E2.40121
G1 X97.292 Y117.669 E2.42860
G1 X99.118 Y115.843 E2.50881
G1 X99.118 Y114.956 E2.53634
G1 X97.287 Y116.787 E2.61676
G1 X97.282 Y115.905 E2.64415
G1 X99.118 Y114.069 E2.72477
G1 X99.118 Y113.182 E2.75231
G1 X97.278 Y115.023 E2.83314
G1 X97.277 Y114.879 E2.83761
G1 X96.539 Y114.875 E2.86053
G1 X99.118 Y112.295 E2.97380
G1 X99.118 Y111.408 E3.00134
G1 X95.657 Y114.870 E3.15335
G1 X94.775 Y114.865 E3.18073
G1 X99.118 Y110.522 E3.37147
G1 X99.118 Y109.635 E3.39901
G1 X93.892 Y114.861 E3.62848
G1 X93.010 Y114.856 E3.65587
G1 E1.65587 F2400.00000
G92 E0
G1 X109.134 Y133.318 F7800.000
G1 E2.00000 F2400.00000
G1 F1800.000
G1 X109.620 Y132.832 E2.02135
G1 X109.620 Y131.945 E2.04888
G1 X108.247 Y133.318 E2.10918
G1 X107.360 Y133.318 E2.13671
G1 X109.620 Y131.059 E2.23594
G1 X109.620 Y130.172 E2.26348
G1 X106.474 Y133.318 E2.40165
G1 X105.587 Y133.318 E2.42919
G1 X109.620 Y129.285 E2.60630
G1 X109.620 Y128.398 E2.63384
G1 X104.700 Y133.318 E2.84989
G1 X103.813 Y133.318 E2.87743
G1 X109.620 Y127.511 E3.13243
G1 X109.620 Y126.624 E3.15996
G1 X102.926 Y133.318 E3.45390
G1 X102.040 Y133.318 E3.48144
G1 X109.620 Y125.738 E3.81432
G1 X109.620 Y124.851 E3.84185
G1 X101.153 Y133.318 E4.21368
G1 X100.266 Y133.318 E4.24121
G1 X109.620 Y123.964 E4.65197
G1 X109.620 Y123.077 E4.67951
G1 X99.379 Y133.318 E5.12921
G1 X98.492 Y133.318 E5.15675
G1 X109.620 Y122.190 E5.64540
G1 X109.620 Y121.303 E5.67293
G1 X97.605 Y133.318 E6.20052
G1 X96.719 Y133.318 E6.22805
G1 X109.620 Y120.417 E6.79458
G1 X109.620 Y119.530 E6.82212
G1 X95.832 Y133.318 E7.42759
G1 X94.945 Y133.318 E7.45512
G1 X109.620 Y118.643 E8.09954
G1 X109.620 Y117.756 E8.12707
G1 X94.058 Y133.318 E8.81042
G1 X93.171 Y133.318 E8.83796
G1 X109.620 Y116.869 E9.56025
G1 X109.620 Y115.983 E9.58779
G1 X105.782 Y119.821 E9.75635
G1 X105.782 Y118.934 E9.78389
G1 X109.620 Y115.096 E9.95245
G1 X109.620 Y114.209 E9.97998
G1 X105.782 Y118.048 E10.14854
G1 X105.782 Y117.161 E10.17608
G1 X109.620 Y113.322 E10.34464
G1 X109.620 Y112.435 E10.37218
G1 X105.782 Y116.274 E10.54074
G1 X105.782 Y115.387 E10.56827
G1 X109.620 Y111.548 E10.73683
G1 X109.620 Y110.662 E10.76437
G1 X105.782 Y114.500 E10.93293
G1 X105.782 Y113.613 E10.96047
G1 X109.620 Y109.775 E11.12903
G1 X109.620 Y108.888 E11.15656
G1 X105.782 Y112.727 E11.32512
G1 X105.782 Y111.840 E11.35266
G1 X109.620 Y108.001 E11.52122
G1 X109.620 Y107.114 E11.54876
G1 X105.782 Y110.953 E11.71732
G1 X105.782 Y110.066 E11.74485
G1 X109.620 Y106.227 E11.91341
G1 X109.620 Y105.341 E11.94095
G1 X104.900 Y110.060 E12.14820
G1 X104.014 Y110.060 E12.17574
G1 X109.620 Y104.454 E12.42194
G1 X109.620 Y103.567 E12.44947
G1 X103.127 Y110.060 E12.73461
G1 X102.240 Y110.060 E12.76214
G1 X109.620 Y102.680 E13.08622
G1 X109.620 Y101.793 E13.11376
G1 X101.353 Y110.060 E13.47678
G1 X100.466 Y110.060 E13.50431
G1 X108.999 Y101.527 E13.87901
G1 X108.113 Y101.527 E13.90654
G1 X99.579 Y110.060 E14.28124
G1 X98.693 Y110.060 E14.30877
G1 X107.226 Y101.527 E14.68346
G1 X106.339 Y101.527 E14.71100
G1 X93.010 Y114.856 E15.29627
G1 X92.128 Y114.851 E15.32366
G1 X105.452 Y101.527 E15.90871
G1 X104.565 Y101.527 E15.93625
G1 X91.246 Y114.846 E16.52110
G1 X90.364 Y114.842 E16.54849
G1 X103.678 Y101.527 E17.13313
G1 X102.792 Y101.527 E17.16067
G1 X89.482 Y114.837 E17.74511
G1 X88.600 Y114.832 E17.77250
G1 X101.905 Y101.527 E18.35672
G1 X101.018 Y101.527 E18.38426
G1 X87.718 Y114.828 E18.96828
G1 X86.836 Y114.823 E18.99567
G1 X100.131 Y101.527 E19.57948
G1 X99.244 Y101.527 E19.60702
G1 X80.882 Y119.890 E20.41334
G1 X80.882 Y119.003 E20.44088
G1 X98.357 Y101.527 E21.20826
G1 X97.471 Y101.527 E21.23579
G1 X80.882 Y118.116 E21.96423
G1 X80.882 Y117.230 E21.99177
G1 X96.584 Y101.527 E22.68127
G1 X95.697 Y101.527 E22.70880
G1 X80.882 Y116.343 E23.35936
G1 X80.882 Y115.456 E23.38690
G1 X94.810 Y101.527 E23.99851
G1 X93.923 Y101.527 E24.02605
G1 X80.882 Y114.569 E24.59872
G1 X80.882 Y113.682 E24.62626
G1 X93.037 Y101.527 E25.15999
G1 X92.150 Y101.527 E25.18753
G1 X80.882 Y112.796 E25.68232
G1 X80.882 Y111.909 E25.70986
G1 X91.263 Y101.527 E26.16571
G1 X90.376 Y101.527 E26.19324
G1 X80.882 Y111.022 E26.61015
G1 X80.882 Y110.135 E26.63769
G1 X89.489 Y101.527 E27.01566
G1 X88.602 Y101.527 E27.04319
G1 X80.069 Y110.060 E27.41789
G1 X79.183 Y110.060 E27.44542
G1 X87.716 Y101.527 E27.82012
G1 X86.829 Y101.527 E27.84765
G1 X78.296 Y110.060 E28.22235
G1 X77.409 Y110.060 E28.24989
G1 X85.942 Y101.527 E28.62458
G1 X85.055 Y101.527 E28.65212
G1 X76.522 Y110.060 E29.02681
G1 X75.635 Y110.060 E29.05435
G1 X84.168 Y101.527 E29.42904
G1 X83.281 Y101.527 E29.45658
G1 X74.748 Y110.060 E29.83127
G1 X73.862 Y110.060 E29.85881
G1 X82.395 Y101.527 E30.23351
G1 X81.508 Y101.527 E30.26104
G1 X70.380 Y112.656 E30.74969
G1 X70.380 Y111.769 E30.77722
G1 X80.621 Y101.527 E31.22693
G1 X79.734 Y101.527 E31.25447
G1 X70.380 Y110.882 E31.66523
G1 X70.380 Y109.995 E31.69277
G1 X78.847 Y101.527 E32.06459
G1 X77.961 Y101.527 E32.09212
G1 X70.380 Y109.108 E32.42501
G1 X70.380 Y108.221 E32.45254
G1 X77.074 Y101.527 E32.74648
G1 X76.187 Y101.527 E32.77402
G1 X70.380 Y107.335 E33.02902
G1 X70.380 Y106.448 E33.05655
G1 X75.300 Y101.527 E33.27261
G1 X74.413 Y101.527 E33.30015
G1 X70.380 Y105.561 E33.47726
G1 X70.380 Y104.674 E33.50480
G1 X73.526 Y101.527 E33.64297
G1 X72.640 Y101.527 E33.67051
G1 X70.380 Y103.787 E33.76974
G1 X70.380 Y102.900 E33.79728
G1 X71.753 Y101.527 E33.85757
G1 X70.866 Y101.527 E33.88511
G1 X70.380 Y102.013 E33.90645
G1 Z0.650 F7800.000
G1 X87.184 Y120.957 F7800.000
G1 F900.000
G1 X87.154 Y115.301 E34.05903
G1 X96.735 Y115.353 E34.31751
G1 X96.766 Y121.009 E34.47009
G1 X87.259 Y120.958 E34.72654
G1 X87.816 Y120.325 F7800.000
G1 F900.000
G1 X87.793 Y115.940 E34.84482
G1 X96.103 Y115.985 E35.06900
G1 X96.126 Y120.370 E35.18729
G1 X87.891 Y120.325 E35.40944
G1 X88.374 Y119.767 F7800.000
G1 F900.000
G1 X88.357 Y116.504 E35.47671
G1 X95.545 Y116.543 E35.62487
G1 X95.563 Y119.806 E35.69213
G1 X88.449 Y119.768 E35.83875
G1 X87.879 Y119.839 F7800.000
G1 E33.83875 F2400.00000
G92 E0
G1 X99.629 Y119.229 F7800.000
G1 E2.00000 F2400.00000
G1 F900.000
G1 X99.629 Y110.571 E2.23357
G1 X105.271 Y110.571 E2.38578
G1 X105.271 Y119.229 E2.61935
G1 X99.704 Y119.229 E2.76955
G1 X100.264 Y118.594 F7800.000
G1 F900.000
G1 X100.264 Y111.206 E2.96882
G1 X104.636 Y111.206 E3.08674
G1 X104.636 Y118.594 E3.28602
G1 X100.339 Y118.594 E3.40192
G1 X100.825 Y118.033 F7800.000
G1 F900.000
G1 X100.825 Y111.767 E3.53106
G1 X104.075 Y111.767 E3.59804
G1 X104.075 Y118.033 E3.72718
G1 X100.900 Y118.033 E3.79262
G1 X100.358 Y118.211 F7800.000
G1 E1.79262 F2400.00000
G92 E0
G1 X80.371 Y119.229 F7800.000
G1 E2.00000 F2400.00000
G1 F900.000
G1 X74.729 Y119.229 E2.15221
G1 X74.729 Y110.571 E2.38578
G1 X80.371 Y110.571 E2.53800
G1 X80.371 Y119.154 E2.76955
G1 X79.736 Y118.594 F7800.000
G1 F900.000
G1 X75.364 Y118.594 E2.88747
G1 X75.364 Y111.206 E3.08674
G1 X79.736 Y111.206 E3.20466
G1 X79.736 Y118.519 E3.40192
G1 X79.175 Y118.033 F7800.000
G1 F900.000
G1 X75.925 Y118.033 E3.46890
G1 X75.925 Y111.767 E3.59804
G1 X79.175 Y111.767 E3.66502
G1 X79.175 Y117.958 E3.79262
G1 X79.254 Y118.527 F7800.000
G1 X68.771 Y133.829 F7800.000
G1 F3600.000
G1 X68.771 Y101.205 E4.67270
G1 X111.229 Y101.205 E5.81805
G1 X111.229 Y133.829 E6.69814
G1 X68.846 Y133.829 E7.84147
G1 E5.84147 F2400.00000
G92 E0
G1 X111.852 Y134.464 F7800.000
G1 E2.00000 F2400.00000
G1 F3600.000
G1 X68.148 Y134.464 E3.17898

G1 F3600.000
G1 X68.148 Y100.569 E4.12051

G1 F3600.000
G1 X111.852 Y100.569 E5.29949

G1 F3600.000
G1 X111.864 Y134.402 E6.23929

G1 X112.425 Y135.025 F7800.000

G1 F3600.000
G1 X111.852 Y135.025 E6.25520

G1 F1800.000
G1 X68.148 Y135.025 E7.15596

G1 F3600.000
G1 X67.575 Y135.025 E7.17187
G1 X67.575 Y100.008 E8.14455
G1 X68.148 Y100.008 E8.16047

G1 F1800.000
G1 X111.852 Y100.008 E9.06122

G1 F3600.000
G1 X112.425 Y100.008 E9.07713
G1 X112.425 Y134.950 E10.04773

G1 E8.04773 F2400.00000
G92 E0
G1 X97.763 Y133.440 F7800.000
G1 E2.00000 F2400.00000
G1 F1200.000
G1 X98.670 Y133.440 E2.02467
G1 X86.573 Y121.344 E2.49019
G1 X87.485 Y121.349 E2.51499
G1 X99.577 Y133.440 E2.98032
G1 X100.483 Y133.440 E3.00499
G1 X88.396 Y121.354 E3.47013
G1 X89.308 Y121.358 E3.49493
G1 X101.390 Y133.440 E3.95988
G1 X102.297 Y133.440 E3.98456
G1 X90.220 Y121.363 E4.44932
G1 X91.131 Y121.368 E4.47412
G1 X103.203 Y133.440 E4.93870
G1 X104.110 Y133.440 E4.96337
G1 X92.043 Y121.373 E5.42775
G1 X92.955 Y121.378 E5.45256
G1 X105.017 Y133.440 E5.91676
G1 X105.924 Y133.440 E5.94143
G1 X93.866 Y121.383 E6.40544
G1 X94.778 Y121.388 E6.43024
G1 X106.830 Y133.440 E6.89406
G1 X107.737 Y133.440 E6.91874
G1 X95.689 Y121.393 E7.38237
G1 X96.601 Y121.398 E7.40718
G1 X108.644 Y133.440 E7.87062
G1 X109.551 Y133.440 E7.89529
G1 X97.155 Y121.045 E8.37229
G1 X97.151 Y120.134 E8.39710
G1 X110.457 Y133.440 E8.90918
G1 X110.840 Y133.440 E8.91960
G1 X110.840 Y132.917 E8.93386
G1 X97.146 Y119.222 E9.46086
G1 X97.141 Y118.310 E9.48567
G1 X110.840 Y132.010 E10.01287
G1 X110.840 Y131.103 E10.03754
G1 X99.355 Y119.618 E10.47954
G1 X100.261 Y119.618 E10.50421
G1 X110.840 Y130.196 E10.91132
