; generated by Slic3r 1.3.1-dev (Build adea0d9) on 2019-12-16 at 00:48:42

; external perimeters extrusion width = 0.44mm (2.86mm^3/s)
; perimeters extrusion width = 0.56mm (4.14mm^3/s)
; infill extrusion width = 0.50mm (3.66mm^3/s)
; solid infill extrusion width = 0.56mm (3.10mm^3/s)
; top infill extrusion width = 0.56mm (3.10mm^3/s)

M107
G92 E0
;D3D:START:START
T0
M104 S215 T0

G21
G90
M107
T0
G28
G29
M109 T0 S215 T0
G0 F3000
M107
T0
G92 E0
G0 X0 Y149 Z0.1 F3600
G1 Y49 E6.5 F1200
G0 Z1
G92 E0
; Filament gcode

G21 ; set units to millimeters
G90 ; use absolute coordinates
M82 ; use absolute distances for extrusion
G92 E0
G1 Z0.300 F7800.000
G1 E-2.00000 F2400.00000
G92 E0
G1 X74.444 Y77.225 F7800.000
G1 E2.00000 F2400.00000
G1 F1800.000
G1 X74.856 Y77.293 E2.01382
G1 X75.144 Y77.293 E2.02338
G1 X75.556 Y77.225 E2.03719
G1 X75.556 Y199.304 E6.08161
G1 X74.444 Y199.304 E6.11843
G1 X74.444 Y77.285 E10.16086
G1 X74.179 Y76.855 F7800.000
G1 F1800.000
G1 X74.372 Y76.932 E10.16776
G1 X74.619 Y76.995 E10.17621
G1 X74.872 Y77.027 E10.18466
G1 X75.128 Y77.027 E10.19311
G1 X75.381 Y76.995 E10.20156
G1 X75.628 Y76.932 E10.21002
G1 X75.821 Y76.855 E10.21691
G1 X75.821 Y199.569 E14.28237
G1 X74.179 Y199.569 E14.33679
G1 X74.179 Y76.915 E18.40025
G1 X73.913 Y76.388 F7800.000
G1 F1800.000
G1 X74.248 Y76.597 E18.41335
G1 X74.454 Y76.679 E18.42069
G1 X74.669 Y76.734 E18.42804
G1 X74.889 Y76.762 E18.43538
G1 X75.111 Y76.762 E18.44272
G1 X75.331 Y76.734 E18.45007
G1 X75.546 Y76.679 E18.45741
G1 X75.752 Y76.597 E18.46476
G1 X76.087 Y76.388 E18.47785
G1 X76.087 Y199.835 E22.56759
G1 X73.913 Y199.835 E22.63961
G1 X73.913 Y76.448 E26.72736
G1 X74.814 Y77.435 F7800.000
G1 F1800.000
G1 X74.607 Y77.642 E26.73709
G1 X74.607 Y78.019 E26.74961
G1 X75.170 Y77.455 E26.77608
G1 X75.393 Y77.435 E26.78354
G1 X75.393 Y77.609 E26.78932
G1 X74.607 Y78.395 E26.82629
G1 X74.607 Y78.772 E26.83881
G1 X75.393 Y77.985 E26.87579
G1 X75.393 Y78.362 E26.88831
G1 X74.607 Y79.149 E26.92528
G1 X74.607 Y79.526 E26.93780
G1 X75.393 Y78.739 E26.97478
G1 X75.393 Y79.116 E26.98730
G1 X74.607 Y79.903 E27.02427
G1 X74.607 Y80.279 E27.03680
G1 X75.393 Y79.493 E27.07377
G1 X75.393 Y79.869 E27.08629
G1 X74.607 Y80.656 E27.12327
G1 X74.607 Y81.033 E27.13579
G1 X75.393 Y80.246 E27.17276
G1 X75.393 Y80.623 E27.18528
G1 X74.607 Y81.410 E27.22226
G1 X74.607 Y81.787 E27.23478
G1 X75.393 Y81.000 E27.27175
G1 X75.393 Y81.377 E27.28427
G1 X74.607 Y82.163 E27.32125
G1 X74.607 Y82.540 E27.33377
G1 X75.393 Y81.753 E27.37074
G1 X75.393 Y82.130 E27.38326
G1 X74.607 Y82.917 E27.42024
G1 X74.607 Y83.294 E27.43276
G1 X75.393 Y82.507 E27.46973
G1 X75.393 Y82.884 E27.48225
G1 X74.607 Y83.671 E27.51923
G1 X74.607 Y84.047 E27.53175
G1 X75.393 Y83.261 E27.56872
G1 X75.393 Y83.637 E27.58124
G1 X74.607 Y84.424 E27.61822
G1 X74.607 Y84.801 E27.63074
G1 X75.393 Y84.014 E27.66771
G1 X75.393 Y84.391 E27.68023
G1 X74.607 Y85.178 E27.71721
G1 X74.607 Y85.554 E27.72973
G1 X75.393 Y84.768 E27.76670
G1 X75.393 Y85.144 E27.77923
G1 X74.607 Y85.931 E27.81620
G1 X74.607 Y86.308 E27.82872
G1 X75.393 Y85.521 E27.86570
G1 X75.393 Y85.898 E27.87822
G1 X74.607 Y86.685 E27.91519
G1 X74.607 Y87.062 E27.92771
G1 X75.393 Y86.275 E27.96469
G1 X75.393 Y86.652 E27.97721
G1 X74.607 Y87.438 E28.01418
G1 X74.607 Y87.815 E28.02670
G1 X75.393 Y87.028 E28.06368
G1 X75.393 Y87.405 E28.07620
G1 X74.607 Y88.192 E28.11317
G1 X74.607 Y88.569 E28.12569
G1 X75.393 Y87.782 E28.16267
G1 X75.393 Y88.159 E28.17519
G1 X74.607 Y88.946 E28.21216
G1 X74.607 Y89.322 E28.22468
G1 X75.393 Y88.536 E28.26166
G1 X75.393 Y88.912 E28.27418
G1 X74.607 Y89.699 E28.31115
G1 X74.607 Y90.076 E28.32367
G1 X75.393 Y89.289 E28.36065
G1 X75.393 Y89.666 E28.37317
G1 X74.607 Y90.453 E28.41014
G1 X74.607 Y90.830 E28.42267
G1 X75.393 Y90.043 E28.45964
G1 X75.393 Y90.420 E28.47216
G1 X74.607 Y91.206 E28.50913
G1 X74.607 Y91.583 E28.52166
G1 X75.393 Y90.796 E28.55863
G1 X75.393 Y91.173 E28.57115
G1 X74.607 Y91.960 E28.60813
G1 X74.607 Y92.337 E28.62065
G1 X75.393 Y91.550 E28.65762
G1 X75.393 Y91.927 E28.67014
G1 X74.607 Y92.713 E28.70712
G1 X74.607 Y93.090 E28.71964
G1 X75.393 Y92.303 E28.75661
G1 X75.393 Y92.680 E28.76913
G1 X74.607 Y93.467 E28.80611
G1 X74.607 Y93.844 E28.81863
G1 X75.393 Y93.057 E28.85560
G1 X75.393 Y93.434 E28.86812
G1 X74.607 Y94.221 E28.90510
G1 X74.607 Y94.597 E28.91762
G1 X75.393 Y93.811 E28.95459
G1 X75.393 Y94.187 E28.96711
G1 X74.607 Y94.974 E29.00409
G1 X74.607 Y95.351 E29.01661
G1 X75.393 Y94.564 E29.05358
G1 X75.393 Y94.941 E29.06611
G1 X74.607 Y95.728 E29.10308
G1 X74.607 Y96.105 E29.11560
G1 X75.393 Y95.318 E29.15257
G1 X75.393 Y95.695 E29.16510
G1 X74.607 Y96.481 E29.20207
G1 X74.607 Y96.858 E29.21459
G1 X75.393 Y96.071 E29.25157
G1 X75.393 Y96.448 E29.26409
G1 X74.607 Y97.235 E29.30106
G1 X74.607 Y97.612 E29.31358
G1 X75.393 Y96.825 E29.35056
G1 X75.393 Y97.202 E29.36308
G1 X74.607 Y97.988 E29.40005
G1 X74.607 Y98.365 E29.41257
G1 X75.393 Y97.579 E29.44955
G1 X75.393 Y97.955 E29.46207
G1 X74.607 Y98.742 E29.49904
G1 X74.607 Y99.119 E29.51156
G1 X75.393 Y98.332 E29.54854
G1 X75.393 Y98.709 E29.56106
G1 X74.607 Y99.496 E29.59803
G1 X74.607 Y99.872 E29.61055
G1 X75.393 Y99.086 E29.64753
G1 X75.393 Y99.462 E29.66005
G1 X74.607 Y100.249 E29.69702
G1 X74.607 Y100.626 E29.70955
G1 X75.393 Y99.839 E29.74652
G1 X75.393 Y100.216 E29.75904
G1 X74.607 Y101.003 E29.79601
G1 X74.607 Y101.380 E29.80854
G1 X75.393 Y100.593 E29.84551
G1 X75.393 Y100.970 E29.85803
G1 X74.607 Y101.756 E29.89501
G1 X74.607 Y102.133 E29.90753
G1 X75.393 Y101.346 E29.94450
G1 X75.393 Y101.723 E29.95702
G1 X74.607 Y102.510 E29.99400
G1 X74.607 Y102.887 E30.00652
G1 X75.393 Y102.100 E30.04349
G1 X75.393 Y102.477 E30.05601
G1 X74.607 Y103.264 E30.09299
G1 X74.607 Y103.640 E30.10551
G1 X75.393 Y102.854 E30.14248
G1 X75.393 Y103.230 E30.15500
G1 X74.607 Y104.017 E30.19198
G1 X74.607 Y104.394 E30.20450
G1 X75.393 Y103.607 E30.24147
G1 X75.393 Y103.984 E30.25399
G1 X74.607 Y104.771 E30.29097
G1 X74.607 Y105.147 E30.30349
G1 X75.393 Y104.361 E30.34046
G1 X75.393 Y104.738 E30.35298
G1 X74.607 Y105.524 E30.38996
G1 X74.607 Y105.901 E30.40248
G1 X75.393 Y105.114 E30.43945
G1 X75.393 Y105.491 E30.45197
G1 X74.607 Y106.278 E30.48895
G1 X74.607 Y106.655 E30.50147
G1 X75.393 Y105.868 E30.53844
G1 X75.393 Y106.245 E30.55097
G1 X74.607 Y107.031 E30.58794
G1 X74.607 Y107.408 E30.60046
G1 X75.393 Y106.621 E30.63744
G1 X75.393 Y106.998 E30.64996
G1 X74.607 Y107.785 E30.68693
G1 X74.607 Y108.162 E30.69945
G1 X75.393 Y107.375 E30.73643
G1 X75.393 Y107.752 E30.74895
G1 X74.607 Y108.539 E30.78592
G1 X74.607 Y108.915 E30.79844
G1 X75.393 Y108.129 E30.83542
G1 X75.393 Y108.505 E30.84794
G1 X74.607 Y109.292 E30.88491
G1 X74.607 Y109.669 E30.89743
G1 X75.393 Y108.882 E30.93441
G1 X75.393 Y109.259 E30.94693
G1 X74.607 Y110.046 E30.98390
G1 X74.607 Y110.423 E30.99642
G1 X75.393 Y109.636 E31.03340
G1 X75.393 Y110.013 E31.04592
G1 X74.607 Y110.799 E31.08289
G1 X74.607 Y111.176 E31.09541
G1 X75.393 Y110.389 E31.13239
G1 X75.393 Y110.766 E31.14491
G1 X74.607 Y111.553 E31.18188
G1 X74.607 Y111.930 E31.19441
G1 X75.393 Y111.143 E31.23138
G1 X75.393 Y111.520 E31.24390
G1 X74.607 Y112.306 E31.28088
G1 X74.607 Y112.683 E31.29340
G1 X75.393 Y111.896 E31.33037
G1 X75.393 Y112.273 E31.34289
G1 X74.607 Y113.060 E31.37987
G1 X74.607 Y113.437 E31.39239
G1 X75.393 Y112.650 E31.42936
G1 X75.393 Y113.027 E31.44188
G1 X74.607 Y113.814 E31.47886
G1 X74.607 Y114.190 E31.49138
G1 X75.393 Y113.404 E31.52835
G1 X75.393 Y113.780 E31.54087
G1 X74.607 Y114.567 E31.57785
G1 X74.607 Y114.944 E31.59037
G1 X75.393 Y114.157 E31.62734
G1 X75.393 Y114.534 E31.63986
G1 X74.607 Y115.321 E31.67684
G1 X74.607 Y115.698 E31.68936
G1 X75.393 Y114.911 E31.72633
G1 X75.393 Y115.288 E31.73886
G1 X74.607 Y116.074 E31.77583
G1 X74.607 Y116.451 E31.78835
G1 X75.393 Y115.664 E31.82532
G1 X75.393 Y116.041 E31.83785
G1 X74.607 Y116.828 E31.87482
G1 X74.607 Y117.205 E31.88734
G1 X75.393 Y116.418 E31.92432
G1 X75.393 Y116.795 E31.93684
G1 X74.607 Y117.582 E31.97381
G1 X74.607 Y117.958 E31.98633
G1 X75.393 Y117.172 E32.02331
G1 X75.393 Y117.548 E32.03583
G1 X74.607 Y118.335 E32.07280
G1 X74.607 Y118.712 E32.08532
G1 X75.393 Y117.925 E32.12230
G1 X75.393 Y118.302 E32.13482
G1 X74.607 Y119.089 E32.17179
G1 X74.607 Y119.465 E32.18431
G1 X75.393 Y118.679 E32.22129
G1 X75.393 Y119.055 E32.23381
G1 X74.607 Y119.842 E32.27078
G1 X74.607 Y120.219 E32.28330
G1 X75.393 Y119.432 E32.32028
G1 X75.393 Y119.809 E32.33280
G1 X74.607 Y120.596 E32.36977
G1 X74.607 Y120.973 E32.38229
G1 X75.393 Y120.186 E32.41927
G1 X75.393 Y120.563 E32.43179
G1 X74.607 Y121.349 E32.46876
G1 X74.607 Y121.726 E32.48128
G1 X75.393 Y120.939 E32.51826
G1 X75.393 Y121.316 E32.53078
G1 X74.607 Y122.103 E32.56775
G1 X74.607 Y122.480 E32.58028
G1 X75.393 Y121.693 E32.61725
G1 X75.393 Y122.070 E32.62977
G1 X74.607 Y122.857 E32.66675
G1 X74.607 Y123.233 E32.67927
G1 X75.393 Y122.447 E32.71624
G1 X75.393 Y122.823 E32.72876
G1 X74.607 Y123.610 E32.76574
G1 X74.607 Y123.987 E32.77826
G1 X75.393 Y123.200 E32.81523
G1 X75.393 Y123.577 E32.82775
G1 X74.607 Y124.364 E32.86473
G1 X74.607 Y124.741 E32.87725
G1 X75.393 Y123.954 E32.91422
G1 X75.393 Y124.331 E32.92674
G1 X74.607 Y125.117 E32.96372
G1 X74.607 Y125.494 E32.97624
G1 X75.393 Y124.707 E33.01321
G1 X75.393 Y125.084 E33.02573
G1 X74.607 Y125.871 E33.06271
G1 X74.607 Y126.248 E33.07523
G1 X75.393 Y125.461 E33.11220
G1 X75.393 Y125.838 E33.12472
G1 X74.607 Y126.624 E33.16170
G1 X74.607 Y127.001 E33.17422
G1 X75.393 Y126.214 E33.21119
G1 X75.393 Y126.591 E33.22372
G1 X74.607 Y127.378 E33.26069
G1 X74.607 Y127.755 E33.27321
G1 X75.393 Y126.968 E33.31019
G1 X75.393 Y127.345 E33.32271
G1 X74.607 Y128.132 E33.35968
G1 X74.607 Y128.508 E33.37220
G1 X75.393 Y127.722 E33.40918
G1 X75.393 Y128.098 E33.42170
G1 X74.607 Y128.885 E33.45867
G1 X74.607 Y129.262 E33.47119
G1 X75.393 Y128.475 E33.50817
G1 X75.393 Y128.852 E33.52069
G1 X74.607 Y129.639 E33.55766
G1 X74.607 Y130.016 E33.57018
G1 X75.393 Y129.229 E33.60716
G1 X75.393 Y129.606 E33.61968
G1 X74.607 Y130.392 E33.65665
G1 X74.607 Y130.769 E33.66917
G1 X75.393 Y129.982 E33.70615
G1 X75.393 Y130.359 E33.71867
G1 X74.607 Y131.146 E33.75564
G1 X74.607 Y131.523 E33.76816
G1 X75.393 Y130.736 E33.80514
G1 X75.393 Y131.113 E33.81766
G1 X74.607 Y131.899 E33.85463
G1 X74.607 Y132.276 E33.86715
G1 X75.393 Y131.490 E33.90413
G1 X75.393 Y131.866 E33.91665
G1 X74.607 Y132.653 E33.95362
G1 X74.607 Y133.030 E33.96615
G1 X75.393 Y132.243 E34.00312
G1 X75.393 Y132.620 E34.01564
G1 X74.607 Y133.407 E34.05262
G1 X74.607 Y133.783 E34.06514
G1 X75.393 Y132.997 E34.10211
G1 X75.393 Y133.373 E34.11463
G1 X74.607 Y134.160 E34.15161
G1 X74.607 Y134.537 E34.16413
G1 X75.393 Y133.750 E34.20110
G1 X75.393 Y134.127 E34.21362
G1 X74.607 Y134.914 E34.25060
G1 X74.607 Y135.291 E34.26312
G1 X75.393 Y134.504 E34.30009
G1 X75.393 Y134.881 E34.31261
G1 X74.607 Y135.667 E34.34959
G1 X74.607 Y136.044 E34.36211
G1 X75.393 Y135.257 E34.39908
G1 X75.393 Y135.634 E34.41160
G1 X74.607 Y136.421 E34.44858
G1 X74.607 Y136.798 E34.46110
G1 X75.393 Y136.011 E34.49807
G1 X75.393 Y136.388 E34.51059
G1 X74.607 Y137.175 E34.54757
G1 X74.607 Y137.551 E34.56009
G1 X75.393 Y136.765 E34.59706
G1 X75.393 Y137.141 E34.60958
G1 X74.607 Y137.928 E34.64656
G1 X74.607 Y138.305 E34.65908
G1 X75.393 Y137.518 E34.69605
G1 X75.393 Y137.895 E34.70858
G1 X74.607 Y138.682 E34.74555
G1 X74.607 Y139.058 E34.75807
G1 X75.393 Y138.272 E34.79505
G1 X75.393 Y138.649 E34.80757
G1 X74.607 Y139.435 E34.84454
G1 X74.607 Y139.812 E34.85706
G1 X75.393 Y139.025 E34.89404
G1 X75.393 Y139.402 E34.90656
G1 X74.607 Y140.189 E34.94353
G1 X74.607 Y140.566 E34.95605
G1 X75.393 Y139.779 E34.99303
G1 X75.393 Y140.156 E35.00555
G1 X74.607 Y140.942 E35.04252
G1 X74.607 Y141.319 E35.05504
G1 X75.393 Y140.532 E35.09202
G1 X75.393 Y140.909 E35.10454
G1 X74.607 Y141.696 E35.14151
G1 X74.607 Y142.073 E35.15403
G1 X75.393 Y141.286 E35.19101
G1 X75.393 Y141.663 E35.20353
G1 X74.607 Y142.450 E35.24050
G1 X74.607 Y142.826 E35.25302
G1 X75.393 Y142.040 E35.29000
G1 X75.393 Y142.416 E35.30252
G1 X74.607 Y143.203 E35.33949
G1 X74.607 Y143.580 E35.35201
G1 X75.393 Y142.793 E35.38899
G1 X75.393 Y143.170 E35.40151
G1 X74.607 Y143.957 E35.43848
G1 X74.607 Y144.334 E35.45101
G1 X75.393 Y143.547 E35.48798
G1 X75.393 Y143.924 E35.50050
G1 X74.607 Y144.710 E35.53748
G1 X74.607 Y145.087 E35.55000
G1 X75.393 Y144.300 E35.58697
G1 X75.393 Y144.677 E35.59949
G1 X74.607 Y145.464 E35.63647
G1 X74.607 Y145.841 E35.64899
G1 X75.393 Y145.054 E35.68596
G1 X75.393 Y145.431 E35.69848
G1 X74.607 Y146.217 E35.73546
G1 X74.607 Y146.594 E35.74798
G1 X75.393 Y145.807 E35.78495
G1 X75.393 Y146.184 E35.79748
G1 X74.607 Y146.971 E35.83445
G1 X74.607 Y147.348 E35.84697
G1 X75.393 Y146.561 E35.88395
G1 X75.393 Y146.938 E35.89647
G1 X74.607 Y147.725 E35.93344
G1 X74.607 Y148.101 E35.94596
G1 X75.393 Y147.315 E35.98294
G1 X75.393 Y147.691 E35.99546
G1 X74.607 Y148.478 E36.03243
G1 X74.607 Y148.855 E36.04495
G1 X75.393 Y148.068 E36.08193
G1 X75.393 Y148.445 E36.09445
G1 X74.607 Y149.232 E36.13142
G1 X74.607 Y149.609 E36.14395
G1 X75.393 Y148.822 E36.18092
G1 X75.393 Y149.199 E36.19344
G1 X74.607 Y149.985 E36.23042
G1 X74.607 Y150.362 E36.24294
G1 X75.393 Y149.575 E36.27991
G1 X75.393 Y149.952 E36.29243
G1 X74.607 Y150.739 E36.32941
G1 X74.607 Y151.116 E36.34193
G1 X75.393 Y150.329 E36.37890
G1 X75.393 Y150.706 E36.39143
G1 X74.607 Y151.493 E36.42840
G1 X74.607 Y151.869 E36.44092
G1 X75.393 Y151.083 E36.47790
G1 X75.393 Y151.459 E36.49042
G1 X74.607 Y152.246 E36.52739
G1 X74.607 Y152.623 E36.53991
G1 X75.393 Y151.836 E36.57689
G1 X75.393 Y152.213 E36.58941
G1 X74.607 Y153.000 E36.62638
G1 X74.607 Y153.376 E36.63890
G1 X75.393 Y152.590 E36.67588
G1 X75.393 Y152.966 E36.68840
G1 X74.607 Y153.753 E36.72538
G1 X74.607 Y154.130 E36.73790
G1 X75.393 Y153.343 E36.77487
G1 X75.393 Y153.720 E36.78739
G1 X74.607 Y154.507 E36.82437
G1 X74.607 Y154.884 E36.83689
G1 X75.393 Y154.097 E36.87386
G1 X75.393 Y154.474 E36.88638
G1 X74.607 Y155.260 E36.92336
G1 X74.607 Y155.637 E36.93588
G1 X75.393 Y154.850 E36.97285
G1 X75.393 Y155.227 E36.98538
G1 X74.607 Y156.014 E37.02235
G1 X74.607 Y156.391 E37.03487
G1 X75.393 Y155.604 E37.07185
G1 X75.393 Y155.981 E37.08437
G1 X74.607 Y156.768 E37.12134
G1 X74.607 Y157.144 E37.13386
G1 X75.393 Y156.358 E37.17084
G1 X75.393 Y156.734 E37.18336
G1 X74.607 Y157.521 E37.22033
G1 X74.607 Y157.898 E37.23285
G1 X75.393 Y157.111 E37.26983
G1 X75.393 Y157.488 E37.28235
G1 X74.607 Y158.275 E37.31933
G1 X74.607 Y158.652 E37.33185
G1 X75.393 Y157.865 E37.36882
G1 X75.393 Y158.242 E37.38134
G1 X74.607 Y159.028 E37.41832
G1 X74.607 Y159.405 E37.43084
G1 X75.393 Y158.618 E37.46781
G1 X75.393 Y158.995 E37.48034
G1 X74.607 Y159.782 E37.51731
G1 X74.607 Y160.159 E37.52983
G1 X75.393 Y159.372 E37.56681
G1 X75.393 Y159.749 E37.57933
G1 X74.607 Y160.535 E37.61630
G1 X74.607 Y160.912 E37.62882
G1 X75.393 Y160.125 E37.66580
G1 X75.393 Y160.502 E37.67832
G1 X74.607 Y161.289 E37.71529
G1 X74.607 Y161.666 E37.72781
G1 X75.393 Y160.879 E37.76479
G1 X75.393 Y161.256 E37.77731
G1 X74.607 Y162.043 E37.81429
G1 X74.607 Y162.419 E37.82681
G1 X75.393 Y161.633 E37.86378
G1 X75.393 Y162.009 E37.87630
G1 X74.607 Y162.796 E37.91328
G1 X74.607 Y163.173 E37.92580
G1 X75.393 Y162.386 E37.96277
G1 X75.393 Y162.763 E37.97529
G1 X74.607 Y163.550 E38.01227
G1 X74.607 Y163.927 E38.02479
G1 X75.393 Y163.140 E38.06177
G1 X75.393 Y163.517 E38.07429
G1 X74.607 Y164.303 E38.11126
G1 X74.607 Y164.680 E38.12378
G1 X75.393 Y163.893 E38.16076
G1 X75.393 Y164.270 E38.17328
G1 X74.607 Y165.057 E38.21025
G1 X74.607 Y165.434 E38.22277
G1 X75.393 Y164.647 E38.25975
G1 X75.393 Y165.024 E38.27227
G1 X74.607 Y165.810 E38.30924
G1 X74.607 Y166.187 E38.32177
G1 X75.393 Y165.401 E38.35874
G1 X75.393 Y165.777 E38.37126
G1 X74.607 Y166.564 E38.40824
G1 X74.607 Y166.941 E38.42076
G1 X75.393 Y166.154 E38.45773
G1 X75.393 Y166.531 E38.47025
G1 X74.607 Y167.318 E38.50723
G1 X74.607 Y167.694 E38.51975
G1 X75.393 Y166.908 E38.55672
G1 X75.393 Y167.284 E38.56924
