; generated by Slic3r 1.3.1-dev (Build adea0d9) on 2019-12-16 at 00:49:24

; external perimeters extrusion width = 0.44mm (2.86mm^3/s)
; perimeters extrusion width = 0.56mm (4.14mm^3/s)
; infill extrusion width = 0.50mm (3.66mm^3/s)
; solid infill extrusion width = 0.56mm (3.10mm^3/s)
; top infill extrusion width = 0.56mm (3.10mm^3/s)

M107
G92 E0
;D3D:START:START
T0
M104 S215 T0

G21
G90
M107
T0
G28
G29
M109 T0 S215 T0
G0 F3000
M107
T0
G92 E0
G0 X0 Y149 Z0.1 F3600
G1 Y49 E6.5 F1200
G0 Z1
G92 E0
; Filament gcode

G21 ; set units to millimeters
G90 ; use absolute coordinates
M82 ; use absolute distances for extrusion
G92 E0
G1 Z0.300 F7800.000
G1 E-2.00000 F2400.00000
G92 E0
G1 X65.298 Y58.196 F7800.000
G1 E2.00000 F2400.00000
G1 F1800.000
G1 X69.402 Y58.196 E2.13596
G1 X71.454 Y61.750 E2.27192
G1 X70.090 Y64.112 E2.36227
G1 X70.164 Y64.197 E2.36602
G1 X71.339 Y63.732 E2.40787
G1 X72.780 Y63.362 E2.45716
G1 X74.256 Y63.176 E2.50645
G1 X75.744 Y63.176 E2.55575
G1 X77.220 Y63.362 E2.60504
G1 X78.661 Y63.732 E2.65433
G1 X80.044 Y64.280 E2.70362
G1 X81.348 Y64.997 E2.75291
G1 X82.552 Y65.871 E2.80220
G1 X83.637 Y66.890 E2.85149
G1 X84.585 Y68.036 E2.90079
G1 X85.382 Y69.292 E2.95008
G1 X86.016 Y70.639 E2.99937
G1 X86.475 Y72.054 E3.04866
G1 X86.754 Y73.515 E3.09795
G1 X86.771 Y73.778 E3.10668
G1 X86.886 Y73.805 E3.11060
G1 X88.248 Y71.446 E3.20085
G1 X92.352 Y71.446 E3.33681
G1 X94.404 Y75.000 E3.47277
G1 X92.352 Y78.554 E3.60873
G1 X88.248 Y78.554 E3.74469
G1 X86.886 Y76.195 E3.83494
G1 X86.771 Y76.222 E3.83886
G1 X86.754 Y76.485 E3.84759
G1 X86.475 Y77.946 E3.89688
G1 X86.016 Y79.361 E3.94617
G1 X85.382 Y80.708 E3.99546
G1 X84.585 Y81.964 E4.04475
G1 X83.637 Y83.110 E4.09404
G1 X82.552 Y84.129 E4.14334
G1 X81.348 Y85.003 E4.19263
G1 X80.044 Y85.720 E4.24192
G1 X78.661 Y86.268 E4.29121
G1 X77.220 Y86.638 E4.34050
G1 X75.744 Y86.824 E4.38979
G1 X74.256 Y86.824 E4.43908
G1 X72.780 Y86.638 E4.48837
G1 X71.339 Y86.268 E4.53767
G1 X70.164 Y85.803 E4.57952
G1 X70.090 Y85.888 E4.58327
G1 X71.454 Y88.250 E4.67361
G1 X69.402 Y91.804 E4.80958
G1 X65.298 Y91.804 E4.94554
G1 X63.246 Y88.250 E5.08150
G1 X65.298 Y84.696 E5.21746
G1 X68.042 Y84.696 E5.30835
G1 X68.077 Y84.586 E5.31219
G1 X67.448 Y84.129 E5.33796
G1 X66.363 Y83.110 E5.38725
G1 X65.415 Y81.964 E5.43654
G1 X64.618 Y80.708 E5.48583
G1 X63.984 Y79.361 E5.53513
G1 X63.525 Y77.946 E5.58442
G1 X63.246 Y76.485 E5.63371
G1 X63.152 Y75.000 E5.68300
G1 X63.246 Y73.515 E5.73229
G1 X63.525 Y72.054 E5.78158
G1 X63.984 Y70.639 E5.83087
G1 X64.618 Y69.292 E5.88016
G1 X65.415 Y68.036 E5.92946
G1 X66.363 Y66.890 E5.97875
G1 X67.448 Y65.871 E6.02804
G1 X68.077 Y65.414 E6.05381
G1 X68.042 Y65.304 E6.05764
G1 X65.298 Y65.304 E6.14853
G1 X63.246 Y61.750 E6.28450
G1 X65.268 Y58.248 E6.41847
G1 X65.451 Y58.461 F7800.000
G1 F1800.000
G1 X69.249 Y58.461 E6.54427
G1 X71.147 Y61.750 E6.67007
G1 X69.417 Y64.746 E6.78469
G1 X69.502 Y64.832 E6.78870
G1 X70.069 Y64.521 E6.81013
G1 X71.421 Y63.985 E6.85831
G1 X72.830 Y63.624 E6.90649
G1 X74.273 Y63.441 E6.95468
G1 X75.727 Y63.441 E7.00286
G1 X77.170 Y63.624 E7.05105
G1 X78.579 Y63.985 E7.09923
G1 X79.931 Y64.521 E7.14741
G1 X81.206 Y65.221 E7.19560
G1 X82.382 Y66.076 E7.24378
G1 X83.443 Y67.072 E7.29197
G1 X84.370 Y68.193 E7.34015
G1 X85.149 Y69.421 E7.38833
G1 X85.768 Y70.737 E7.43652
G1 X86.218 Y72.120 E7.48470
G1 X86.490 Y73.548 E7.53289
G1 X86.561 Y74.673 E7.57021
G1 X86.676 Y74.700 E7.57413
G1 X88.401 Y71.712 E7.68844
G1 X92.199 Y71.712 E7.81424
G1 X94.097 Y75.000 E7.94004
G1 X92.199 Y78.288 E8.06584
G1 X88.401 Y78.288 E8.19164
G1 X86.676 Y75.300 E8.30596
G1 X86.561 Y75.327 E8.30988
G1 X86.490 Y76.452 E8.34720
G1 X86.218 Y77.880 E8.39538
G1 X85.768 Y79.263 E8.44357
G1 X85.149 Y80.579 E8.49175
G1 X84.370 Y81.807 E8.53994
G1 X83.443 Y82.928 E8.58812
G1 X82.382 Y83.924 E8.63630
G1 X81.206 Y84.779 E8.68449
G1 X79.931 Y85.479 E8.73267
G1 X78.579 Y86.015 E8.78086
G1 X77.170 Y86.376 E8.82904
G1 X75.727 Y86.559 E8.87722
G1 X74.273 Y86.559 E8.92541
G1 X72.830 Y86.376 E8.97359
G1 X71.421 Y86.015 E9.02178
G1 X70.069 Y85.479 E9.06996
G1 X69.502 Y85.168 E9.09139
G1 X69.417 Y85.254 E9.09540
G1 X71.147 Y88.250 E9.21001
G1 X69.249 Y91.539 E9.33581
G1 X65.451 Y91.539 E9.46161
G1 X63.553 Y88.250 E9.58742
G1 X65.451 Y84.962 E9.71322
G1 X68.879 Y84.962 E9.82677
G1 X68.910 Y84.842 E9.83086
G1 X68.794 Y84.779 E9.83522
G1 X67.618 Y83.924 E9.88341
G1 X66.557 Y82.928 E9.93159
G1 X65.630 Y81.807 E9.97977
G1 X64.851 Y80.579 E10.02796
G1 X64.232 Y79.263 E10.07614
G1 X63.782 Y77.880 E10.12433
G1 X63.510 Y76.452 E10.17251
G1 X63.419 Y75.000 E10.22069
G1 X63.510 Y73.548 E10.26888
G1 X63.782 Y72.120 E10.31706
G1 X64.232 Y70.737 E10.36525
G1 X64.851 Y69.421 E10.41343
G1 X65.630 Y68.193 E10.46161
G1 X66.557 Y67.072 E10.50980
G1 X67.618 Y66.076 E10.55798
G1 X68.794 Y65.221 E10.60617
G1 X68.910 Y65.158 E10.61053
G1 X68.879 Y65.038 E10.61462
G1 X65.451 Y65.038 E10.72817
G1 X63.553 Y61.750 E10.85397
G1 X65.421 Y58.513 E10.97779
G1 E8.97779 F2400.00000
G92 E0
G1 X65.605 Y85.227 F7800.000
G1 E2.00000 F2400.00000
G1 F1800.000
G1 X69.095 Y85.227 E2.11564
G1 X70.841 Y88.250 E2.23128
G1 X69.095 Y91.273 E2.34692
G1 X65.605 Y91.273 E2.46256
G1 X63.859 Y88.250 E2.57820
G1 X65.575 Y85.279 E2.69185
G1 E0.69185 F2400.00000
G92 E0
G1 X67.787 Y83.719 F7800.000
G1 E2.00000 F2400.00000
G1 F1800.000
G1 X66.751 Y82.746 E2.04708
G1 X65.846 Y81.651 E2.09415
G1 X65.084 Y80.451 E2.14123
G1 X64.479 Y79.165 E2.18831
G1 X64.040 Y77.814 E2.23538
G1 X63.774 Y76.418 E2.28246
G1 X63.685 Y75.000 E2.32954
G1 X63.774 Y73.582 E2.37661
G1 X64.040 Y72.186 E2.42369
G1 X64.479 Y70.835 E2.47077
G1 X65.084 Y69.549 E2.51784
G1 X65.846 Y68.349 E2.56492
G1 X66.751 Y67.254 E2.61200
G1 X67.787 Y66.281 E2.65907
G1 X68.937 Y65.446 E2.70615
G1 X70.182 Y64.762 E2.75323
G1 X71.503 Y64.238 E2.80030
G1 X72.880 Y63.885 E2.84738
G1 X74.290 Y63.707 E2.89446
G1 X75.710 Y63.707 E2.94153
G1 X77.120 Y63.885 E2.98861
G1 X78.497 Y64.238 E3.03569
G1 X79.818 Y64.762 E3.08277
G1 X81.063 Y65.446 E3.12984
G1 X82.213 Y66.281 E3.17692
G1 X83.249 Y67.254 E3.22400
G1 X84.154 Y68.349 E3.27107
G1 X84.916 Y69.549 E3.31815
G1 X85.521 Y70.835 E3.36523
G1 X85.960 Y72.186 E3.41230
G1 X86.226 Y73.582 E3.45938
G1 X86.315 Y75.000 E3.50646
G1 X86.226 Y76.418 E3.55353
G1 X85.960 Y77.814 E3.60061
G1 X85.521 Y79.165 E3.64769
G1 X84.916 Y80.451 E3.69476
G1 X84.154 Y81.651 E3.74184
G1 X83.249 Y82.746 E3.78892
G1 X82.213 Y83.719 E3.83599
G1 X81.063 Y84.554 E3.88307
G1 X79.818 Y85.238 E3.93015
G1 X78.497 Y85.762 E3.97722
G1 X77.120 Y86.115 E4.02430
G1 X75.710 Y86.293 E4.07138
G1 X74.290 Y86.293 E4.11845
G1 X72.880 Y86.115 E4.16553
G1 X71.503 Y85.762 E4.21261
G1 X70.182 Y85.238 E4.25968
G1 X68.937 Y84.554 E4.30676
G1 X67.836 Y83.754 E4.35185
G1 E2.35185 F2400.00000
G92 E0
G1 X69.095 Y64.773 F7800.000
G1 E2.00000 F2400.00000
G1 F1800.000
G1 X65.605 Y64.773 E2.11564
G1 X63.859 Y61.750 E2.23128
G1 X65.605 Y58.727 E2.34692
G1 X69.095 Y58.727 E2.46256
G1 X70.841 Y61.750 E2.57820
G1 X69.125 Y64.721 E2.69185
G1 E0.69185 F2400.00000
G92 E0
G1 X86.809 Y75.000 F7800.000
G1 E2.00000 F2400.00000
G1 F1800.000
G1 X88.555 Y71.977 E2.11564
G1 X92.045 Y71.977 E2.23128
G1 X93.791 Y75.000 E2.34692
G1 X92.045 Y78.023 E2.46256
G1 X88.555 Y78.023 E2.57820
G1 X86.839 Y75.052 E2.69185
G1 E0.69185 F2400.00000
G92 E0
G1 X99.802 Y75.000 F7800.000
G1 E2.00000 F2400.00000
G1 F1800.000
G1 X99.607 Y78.109 E2.10319
G1 X99.023 Y81.168 E2.20638
G1 X98.061 Y84.130 E2.30957
G1 X96.734 Y86.949 E2.41275
G1 X95.066 Y89.578 E2.51594
G1 X93.080 Y91.978 E2.61913
G1 X90.810 Y94.111 E2.72232
G1 X88.290 Y95.941 E2.82551
G1 X85.560 Y97.442 E2.92870
G1 X82.664 Y98.588 E3.03189
G1 X79.647 Y99.363 E3.13508
G1 X76.557 Y99.753 E3.23827
G1 X73.443 Y99.753 E3.34145
G1 X70.353 Y99.363 E3.44464
G1 X67.336 Y98.588 E3.54783
G1 X64.440 Y97.442 E3.65102
G1 X61.710 Y95.941 E3.75421
G1 X59.190 Y94.111 E3.85740
G1 X56.920 Y91.978 E3.96059
G1 X54.934 Y89.578 E4.06378
G1 X53.266 Y86.949 E4.16697
G1 X51.939 Y84.130 E4.27015
G1 X50.977 Y81.168 E4.37334
G1 X50.393 Y78.109 E4.47653
G1 X50.198 Y75.000 E4.57972
G1 X50.393 Y71.891 E4.68291
G1 X50.977 Y68.832 E4.78610
G1 X51.939 Y65.870 E4.88929
G1 X53.266 Y63.051 E4.99248
G1 X54.934 Y60.422 E5.09566
G1 X56.920 Y58.022 E5.19885
G1 X59.190 Y55.889 E5.30204
G1 X61.710 Y54.059 E5.40523
G1 X64.440 Y52.558 E5.50842
G1 X67.336 Y51.412 E5.61161
G1 X70.353 Y50.637 E5.71480
G1 X73.443 Y50.247 E5.81799
G1 X76.557 Y50.247 E5.92118
G1 X79.647 Y50.637 E6.02436
G1 X82.664 Y51.412 E6.12755
G1 X85.560 Y52.558 E6.23074
G1 X88.290 Y54.059 E6.33393
G1 X90.810 Y55.889 E6.43712
G1 X93.080 Y58.022 E6.54031
G1 X95.066 Y60.422 E6.64350
G1 X96.734 Y63.051 E6.74669
G1 X98.061 Y65.870 E6.84987
G1 X99.023 Y68.832 E6.95306
G1 X99.607 Y71.891 E7.05625
G1 X99.799 Y74.940 E7.15745
G1 X100.069 Y75.000 F7800.000
G1 F1800.000
G1 X99.871 Y78.142 E7.26175
G1 X99.281 Y81.234 E7.36605
G1 X98.308 Y84.228 E7.47034
G1 X96.968 Y87.077 E7.57464
G1 X95.281 Y89.735 E7.67893
G1 X93.274 Y92.161 E7.78323
G1 X90.979 Y94.316 E7.88753
G1 X88.432 Y96.166 E7.99182
G1 X85.674 Y97.683 E8.09612
G1 X82.747 Y98.842 E8.20041
G1 X79.697 Y99.624 E8.30471
G1 X76.574 Y100.019 E8.40901
G1 X73.426 Y100.019 E8.51330
G1 X70.303 Y99.624 E8.61760
G1 X67.253 Y98.842 E8.72190
G1 X64.326 Y97.683 E8.82619
G1 X61.568 Y96.166 E8.93049
G1 X59.021 Y94.316 E9.03478
G1 X56.726 Y92.161 E9.13908
G1 X54.719 Y89.735 E9.24338
G1 X53.032 Y87.077 E9.34767
G1 X51.692 Y84.228 E9.45197
G1 X50.719 Y81.234 E9.55626
G1 X50.129 Y78.142 E9.66056
G1 X49.931 Y75.000 E9.76486
G1 X50.129 Y71.858 E9.86915
G1 X50.719 Y68.766 E9.97345
G1 X51.692 Y65.772 E10.07774
G1 X53.032 Y62.923 E10.18204
G1 X54.719 Y60.265 E10.28634
G1 X56.726 Y57.839 E10.39063
G1 X59.021 Y55.684 E10.49493
G1 X61.568 Y53.834 E10.59923
G1 X64.326 Y52.317 E10.70352
G1 X67.253 Y51.158 E10.80782
G1 X70.303 Y50.376 E10.91211
G1 X73.426 Y49.981 E11.01641
G1 X76.574 Y49.981 E11.12071
G1 X79.697 Y50.376 E11.22500
G1 X82.747 Y51.158 E11.32930
G1 X85.674 Y52.317 E11.43359
G1 X88.432 Y53.834 E11.53789
G1 X90.979 Y55.684 E11.64219
G1 X93.274 Y57.839 E11.74648
G1 X95.281 Y60.265 E11.85078
G1 X96.968 Y62.923 E11.95507
G1 X98.308 Y65.772 E12.05937
G1 X99.281 Y68.766 E12.16367
G1 X99.871 Y71.858 E12.26796
G1 X100.065 Y74.940 E12.37027
G1 X100.335 Y75.000 F7800.000
G1 F1800.000
G1 X100.135 Y78.175 E12.47567
G1 X99.539 Y81.300 E12.58108
G1 X98.556 Y84.326 E12.68648
G1 X97.201 Y87.205 E12.79188
G1 X95.496 Y89.891 E12.89729
G1 X93.468 Y92.343 E13.00269
G1 X91.149 Y94.521 E13.10810
G1 X88.575 Y96.391 E13.21350
G1 X85.787 Y97.924 E13.31890
G1 X82.829 Y99.095 E13.42430
G1 X79.747 Y99.886 E13.52971
G1 X76.591 Y100.285 E13.63511
G1 X73.409 Y100.285 E13.74052
G1 X70.253 Y99.886 E13.84592
G1 X67.171 Y99.095 E13.95132
G1 X64.213 Y97.924 E14.05673
G1 X61.425 Y96.391 E14.16213
G1 X58.851 Y94.521 E14.26753
G1 X56.532 Y92.343 E14.37293
G1 X54.504 Y89.891 E14.47834
G1 X52.799 Y87.205 E14.58374
G1 X51.444 Y84.326 E14.68915
G1 X50.461 Y81.300 E14.79455
G1 X49.865 Y78.175 E14.89995
G1 X49.665 Y75.000 E15.00536
G1 X49.865 Y71.825 E15.11076
G1 X50.461 Y68.700 E15.21616
G1 X51.444 Y65.674 E15.32157
G1 X52.799 Y62.795 E15.42697
G1 X54.504 Y60.109 E15.53237
G1 X56.532 Y57.657 E15.63778
G1 X58.851 Y55.479 E15.74318
G1 X61.425 Y53.609 E15.84858
G1 X64.213 Y52.076 E15.95399
G1 X67.171 Y50.905 E16.05939
G1 X70.253 Y50.114 E16.16479
G1 X73.409 Y49.715 E16.27020
G1 X76.591 Y49.715 E16.37560
G1 X79.747 Y50.114 E16.48100
G1 X82.829 Y50.905 E16.58641
G1 X85.787 Y52.076 E16.69181
G1 X88.575 Y53.609 E16.79721
G1 X91.149 Y55.479 E16.90262
G1 X93.468 Y57.657 E17.00802
G1 X95.496 Y60.109 E17.11342
G1 X97.201 Y62.795 E17.21883
G1 X98.556 Y65.674 E17.32423
G1 X99.539 Y68.700 E17.42963
G1 X100.135 Y71.825 E17.53504
G1 X100.331 Y74.940 E17.63845
G1 E15.63845 F2400.00000
G92 E0
G1 X92.694 Y78.417 F7800.000
G1 E2.00000 F2400.00000
G1 F1800.000
G1 X99.421 Y71.690 E2.31628
G1 X99.361 Y71.373 E2.32699
G1 X93.209 Y77.525 E2.61622
G1 X93.724 Y76.633 E2.65046
G1 X99.300 Y71.057 E2.91263
G1 X99.240 Y70.740 E2.92335
G1 X94.239 Y75.741 E3.15846
G1 X94.607 Y75.103 E3.18293
G1 X94.568 Y75.035 E3.18555
G1 X99.179 Y70.424 E3.40238
G1 X99.119 Y70.107 E3.41310
G1 X94.430 Y74.796 E3.63357
G1 X94.292 Y74.557 E3.64275
G1 X99.059 Y69.790 E3.86687
G1 X98.998 Y69.474 E3.87759
G1 X94.154 Y74.318 E4.10536
G1 X94.016 Y74.079 E4.11454
G1 X98.938 Y69.157 E4.34596
G1 X98.877 Y68.841 E4.35668
G1 X93.878 Y73.840 E4.59175
G1 X93.740 Y73.601 E4.60092
G1 X98.790 Y68.551 E4.83835
G1 X98.697 Y68.267 E4.84830
G1 X93.602 Y73.362 E5.08787
G1 X93.464 Y73.123 E5.09704
G1 X98.605 Y67.982 E5.33876
G1 X98.512 Y67.698 E5.34870
G1 X93.326 Y72.884 E5.59256
G1 X93.188 Y72.645 E5.60173
G1 X98.420 Y67.413 E5.84773
G1 X98.327 Y67.129 E5.85767
G1 X93.050 Y72.406 E6.10581
G1 X92.912 Y72.167 E6.11498
G1 X98.235 Y66.844 E6.36526
G1 X98.143 Y66.560 E6.37520
G1 X92.774 Y71.928 E6.62762
G1 X92.636 Y71.689 E6.63680
G1 X98.050 Y66.275 E6.89135
G1 X97.958 Y65.991 E6.90130
G1 X92.498 Y71.450 E7.15800
G1 X92.402 Y71.284 E7.16439
G1 X92.288 Y71.284 E7.16819
G1 X97.850 Y65.722 E7.42970
G1 X97.729 Y65.465 E7.43912
G1 X91.911 Y71.284 E7.71268
G1 X91.534 Y71.284 E7.72521
G1 X97.608 Y65.209 E8.01083
G1 X97.488 Y64.953 E8.02025
G1 X91.157 Y71.284 E8.31792
G1 X90.780 Y71.284 E8.33045
G1 X97.367 Y64.696 E8.64017
G1 X97.246 Y64.440 E8.64959
G1 X90.403 Y71.284 E8.97137
G1 X90.026 Y71.284 E8.98390
G1 X97.126 Y64.184 E9.31773
G1 X97.005 Y63.927 E9.32715
G1 X89.649 Y71.284 E9.67303
G1 X89.272 Y71.284 E9.68557
G1 X96.884 Y63.671 E10.04350
G1 X96.764 Y63.415 E10.05292
G1 X88.895 Y71.284 E10.42291
G1 X88.518 Y71.284 E10.43545
G1 X96.643 Y63.158 E10.81749
G1 X96.505 Y62.919 E10.82666
G1 X88.141 Y71.284 E11.21993
G1 X87.991 Y71.284 E11.22491
G1 X87.787 Y71.638 E11.23849
G1 X86.743 Y72.682 E11.28760
G1 X86.682 Y72.365 E11.29832
G1 X96.359 Y62.689 E11.75330
G1 X96.212 Y62.458 E11.76238
G1 X86.618 Y72.053 E12.21352
G1 X86.525 Y71.768 E12.22346
G1 X96.066 Y62.228 E12.67207
G1 X95.920 Y61.997 E12.68115
G1 X86.433 Y71.484 E13.12722
G1 X86.340 Y71.199 E13.13716
G1 X95.773 Y61.766 E13.58070
G1 X95.627 Y61.536 E13.58978
G1 X86.248 Y70.915 E14.03078
G1 X86.154 Y70.632 E14.04069
G1 X95.481 Y61.305 E14.47922
G1 X95.334 Y61.075 E14.48830
G1 X86.033 Y70.375 E14.92562
G1 X85.913 Y70.119 E14.93504
G1 X95.188 Y60.844 E15.37115
G1 X95.041 Y60.613 E15.38023
G1 X85.792 Y69.863 E15.81513
G1 X85.671 Y69.606 E15.82455
G1 X94.885 Y60.392 E16.25778
G1 X94.715 Y60.186 E16.26668
G1 X85.551 Y69.350 E16.69756
G1 X85.413 Y69.111 E16.70673
G1 X94.544 Y59.980 E17.13608
G1 X94.373 Y59.773 E17.14498
G1 X85.266 Y68.880 E17.57318
G1 X85.120 Y68.650 E17.58227
G1 X94.203 Y59.567 E18.00933
G1 X94.032 Y59.361 E18.01823
G1 X84.974 Y68.419 E18.44415
G1 X84.827 Y68.189 E18.45323
G1 X93.861 Y59.154 E18.87800
G1 X93.691 Y58.948 E18.88690
G1 X84.678 Y67.961 E19.31066
G1 X84.508 Y67.754 E19.31956
G1 X93.520 Y58.742 E19.74332
G1 X93.349 Y58.536 E19.75222
G1 X84.337 Y67.548 E20.17598
G1 X84.166 Y67.342 E20.18488
G1 X93.179 Y58.329 E20.60864
G1 X93.008 Y58.123 E20.61754
G1 X83.996 Y67.135 E21.04129
G1 X83.825 Y66.929 E21.05020
G1 X92.816 Y57.938 E21.47296
G1 X92.622 Y57.755 E21.48183
G1 X83.644 Y66.733 E21.90395
G1 X83.450 Y66.550 E21.91282
G1 X92.427 Y57.573 E22.33494
G1 X92.233 Y57.390 E22.34380
G1 X83.255 Y66.368 E22.76593
G1 X83.061 Y66.185 E22.77479
G1 X92.039 Y57.207 E23.19692
G1 X91.844 Y57.025 E23.20578
G1 X82.866 Y66.003 E23.62791
G1 X82.672 Y65.820 E23.63677
G1 X91.650 Y56.842 E24.05890
G1 X91.455 Y56.660 E24.06776
G1 X82.460 Y65.655 E24.49070
G1 X82.242 Y65.496 E24.49967
G1 X91.261 Y56.477 E24.92373
G1 X91.066 Y56.295 E24.93260
G1 X82.024 Y65.337 E25.35779
G1 X81.805 Y65.179 E25.36676
G1 X90.872 Y56.112 E25.79307
G1 X90.743 Y55.991 E25.79894
G1 X90.670 Y55.938 E25.80197
G1 X81.587 Y65.020 E26.22903
G1 X81.366 Y64.864 E26.23802
G1 X90.451 Y55.779 E26.66518
G1 X90.233 Y55.620 E26.67415
G1 X81.123 Y64.730 E27.10248
G1 X80.880 Y64.596 E27.11171
G1 X90.015 Y55.462 E27.54121
G1 X89.796 Y55.303 E27.55018
G1 X80.637 Y64.463 E27.98085
G1 X80.393 Y64.329 E27.99008
