; generated by Slic3r 1.3.1-dev (Build 2ef957d) on 2019-11-25 at 09:20:30

; external perimeters extrusion width = 0.55mm (4.37mm^3/s)
; perimeters extrusion width = 0.70mm (11.44mm^3/s)
; infill extrusion width = 0.62mm (13.45mm^3/s)
; solid infill extrusion width = 0.70mm (3.81mm^3/s)
; top infill extrusion width = 0.70mm (2.86mm^3/s)

M107
G92 E0
M104 S200 ; set temperature
G28 ; home all axes
G1 Z5 F5000 ; lift nozzle

; Filament gcode

M109 S200 ; set temperature and wait for it to be reached
G21 ; set units to millimeters
G90 ; use absolute coordinates
M82 ; use absolute distances for extrusion
G92 E0
G1 Z0.350 F7800.000
G1 E-2.00000 F2400.00000
G92 E0
G1 X66.468 Y99.714 F7800.000
G1 E2.00000 F2400.00000
G1 F1800.000
G1 X68.620 Y98.921 E2.07096
G1 X69.800 Y98.815 E2.10761
G1 X130.200 Y98.815 E3.97647
G1 X132.459 Y99.212 E4.04743
G1 X134.447 Y100.355 E4.11839
G1 X135.926 Y102.108 E4.18936
G1 X136.719 Y104.260 E4.26032
G1 X136.825 Y105.440 E4.29697
G1 X136.825 Y114.440 E4.57544
G1 X136.428 Y116.699 E4.64640
G1 X135.285 Y118.687 E4.71737
G1 X133.532 Y120.166 E4.78833
G1 X131.380 Y120.959 E4.85929
G1 X130.200 Y121.065 E4.89594
G1 X69.800 Y121.065 E6.76480
G1 X67.541 Y120.668 E6.83576
G1 X65.553 Y119.525 E6.90672
G1 X64.074 Y117.772 E6.97768
G1 X63.281 Y115.620 E7.04865
G1 X63.175 Y114.440 E7.08530
G1 X63.175 Y105.440 E7.36377
G1 X63.572 Y103.181 E7.43473
G1 X64.715 Y101.193 E7.50569
G1 X66.411 Y99.762 E7.57434
G1 E5.57434 F2400.00000
G92 E0
G1 X111.375 Y112.415 F7800.000
G1 E2.00000 F2400.00000
G1 F1800.000
G1 X87.425 Y112.415 E2.74104
G1 X87.425 Y107.465 E2.89419
G1 X111.375 Y107.465 E3.63523
G1 X111.375 Y112.340 E3.78606
G1 X110.750 Y111.790 F7800.000
G1 F1800.000
G1 X88.050 Y111.790 E4.48843
G1 X88.050 Y108.090 E4.60291
G1 X110.750 Y108.090 E5.30528
G1 X110.750 Y111.715 E5.41744
G1 X110.976 Y112.236 F7800.000
G1 E3.41744 F2400.00000
G92 E0
G1 X86.800 Y112.840 F7800.000
G1 E2.00000 F2400.00000
G1 F1800.000
G1 X71.400 Y112.840 E2.47651
G1 X71.400 Y107.040 E2.65598
G1 X86.800 Y107.040 E3.13249
G1 X86.800 Y112.765 E3.30965
G1 E1.30965 F2400.00000
G92 E0
G1 X112.000 Y112.840 F7800.000
G1 E2.00000 F2400.00000
G1 F1800.000
G1 X112.000 Y107.040 E2.17947
G1 X128.600 Y107.040 E2.69311
G1 X128.600 Y112.840 E2.87259
G1 X112.075 Y112.840 E3.38391
G1 E1.38391 F2400.00000
G92 E0
G1 X129.225 Y113.465 F7800.000
G1 E2.00000 F2400.00000
G1 F1800.000
G1 X70.775 Y113.465 E3.80853
G1 X70.775 Y106.415 E4.02667
G1 X129.225 Y106.415 E5.83520
G1 X129.225 Y113.390 E6.05102
G1 X129.850 Y114.090 F7800.000
G1 F1800.000
G1 X70.150 Y114.090 E7.89822
G1 X70.150 Y105.790 E8.15503
G1 X129.850 Y105.790 E10.00223
G1 X129.850 Y114.015 E10.25672
G1 X129.351 Y114.067 F7800.000
G1 E8.25672 F2400.00000
G92 E0
G1 X127.732 Y112.458 F7800.000
G1 E2.00000 F2400.00000
G1 F1800.000
G1 X128.218 Y111.972 E2.02178
G1 X128.218 Y111.068 E2.05043
G1 X126.828 Y112.458 E2.11272
G1 X125.923 Y112.458 E2.14137
G1 X128.218 Y110.163 E2.24418
G1 X128.218 Y109.258 E2.27284
G1 X125.018 Y112.458 E2.41617
G1 X124.114 Y112.458 E2.44482
G1 X128.218 Y108.354 E2.62866
G1 X128.218 Y107.449 E2.65731
G1 X123.209 Y112.458 E2.88168
G1 X122.305 Y112.458 E2.91033
G1 X127.341 Y107.422 E3.13593
G1 X126.437 Y107.422 E3.16458
G1 X121.400 Y112.458 E3.39018
G1 X120.495 Y112.458 E3.41883
G1 X125.532 Y107.422 E3.64443
G1 X124.628 Y107.422 E3.67308
G1 X119.591 Y112.458 E3.89869
G1 X118.686 Y112.458 E3.92734
G1 X123.723 Y107.422 E4.15294
G1 X122.818 Y107.422 E4.18159
G1 X117.782 Y112.458 E4.40719
G1 X116.877 Y112.458 E4.43584
G1 X121.914 Y107.422 E4.66144
G1 X121.009 Y107.422 E4.69009
G1 X115.972 Y112.458 E4.91569
G1 X115.068 Y112.458 E4.94434
G1 X120.105 Y107.422 E5.16994
G1 X119.200 Y107.422 E5.19859
G1 X114.163 Y112.458 E5.42420
G1 X113.259 Y112.458 E5.45285
G1 X118.295 Y107.422 E5.67845
G1 X117.391 Y107.422 E5.70710
G1 X112.382 Y112.431 E5.93146
G1 X112.382 Y111.526 E5.96011
G1 X116.486 Y107.422 E6.14396
G1 X115.582 Y107.422 E6.17261
G1 X112.382 Y110.622 E6.31595
G1 X112.382 Y109.717 E6.34460
G1 X114.677 Y107.422 E6.44741
G1 X113.772 Y107.422 E6.47606
G1 X112.382 Y108.812 E6.53835
G1 X112.382 Y107.908 E6.56701
G1 X112.868 Y107.422 E6.58878
G1 X111.687 Y106.940 F7800.000
G1 F1800.000
G1 X87.113 Y106.940 E7.01494
G1 E5.01494 F2400.00000
G92 E0
G1 X85.932 Y112.458 F7800.000
G1 E2.00000 F2400.00000
G1 F1800.000
G1 X86.418 Y111.972 E2.02144
G1 X86.418 Y111.082 E2.04920
G1 X85.042 Y112.458 E2.10991
G1 X84.151 Y112.458 E2.13768
G1 X86.418 Y110.191 E2.23765
G1 X86.418 Y109.301 E2.26542
G1 X83.261 Y112.458 E2.40466
G1 X82.370 Y112.458 E2.43242
G1 X86.418 Y108.410 E2.61093
G1 X86.418 Y107.520 E2.63870
G1 X81.480 Y112.458 E2.85647
G1 X80.589 Y112.458 E2.88424
G1 X85.626 Y107.422 E3.10633
G1 X84.735 Y107.422 E3.13410
G1 X79.698 Y112.458 E3.35619
G1 X78.808 Y112.458 E3.38396
G1 X83.845 Y107.422 E3.60605
G1 X82.954 Y107.422 E3.63382
G1 X77.917 Y112.458 E3.85591
G1 X77.027 Y112.458 E3.88367
G1 X82.064 Y107.422 E4.10577
G1 X81.173 Y107.422 E4.13353
G1 X76.136 Y112.458 E4.35563
G1 X75.246 Y112.458 E4.38339
G1 X80.283 Y107.422 E4.60549
G1 X79.392 Y107.422 E4.63325
G1 X74.355 Y112.458 E4.85535
G1 X73.465 Y112.458 E4.88311
G1 X78.502 Y107.422 E5.10520
G1 X77.611 Y107.422 E5.13297
G1 X72.574 Y112.458 E5.35506
G1 X71.782 Y112.458 E5.37978
G1 X71.782 Y112.360 E5.38283
G1 X76.720 Y107.422 E5.60061
G1 X75.830 Y107.422 E5.62837
G1 X71.782 Y111.470 E5.80688
G1 X71.782 Y110.579 E5.83465
G1 X74.939 Y107.422 E5.97389
G1 X74.049 Y107.422 E6.00166
G1 X71.782 Y109.689 E6.10163
G1 X71.782 Y108.798 E6.12940
G1 X73.158 Y107.422 E6.19010
G1 X72.268 Y107.422 E6.21787
G1 X71.782 Y107.908 E6.23930
G1 E4.23930 F2400.00000
G92 E0
G1 X87.113 Y112.940 F7800.000
G1 E2.00000 F2400.00000
G1 F1800.000
G1 X111.687 Y112.940 E2.42616
G1 Z0.650 F7800.000
G1 X111.236 Y112.276 F7800.000
G1 F3600.000
G1 X87.564 Y112.276 E3.06473
G1 X87.564 Y107.604 E3.19074
G1 X111.236 Y107.604 E3.82931
G1 X111.236 Y112.201 E3.95330
G1 X110.675 Y111.715 F7800.000
G1 F1800.000
G1 X88.125 Y111.715 E4.41806
G1 X88.125 Y108.165 E4.49123
G1 X110.675 Y108.165 E4.95599
G1 X110.675 Y111.640 E5.02761
G1 X110.902 Y112.160 F7800.000
G1 X86.929 Y112.969 F7800.000
G1 F3600.000
G1 X71.271 Y112.969 E5.45000
G1 X71.271 Y106.911 E5.61341
G1 X86.929 Y106.911 E6.03579
G1 X86.929 Y112.894 E6.19718
G1 X111.871 Y112.969 F7800.000
G1 F3600.000
G1 X111.871 Y106.911 E6.36059
G1 X128.729 Y106.911 E6.81535
G1 X128.729 Y112.969 E6.97876
G1 X111.946 Y112.969 E7.43150
G1 X129.364 Y113.604 F7800.000
G1 F3600.000
G1 X70.636 Y113.604 E9.01579
G1 X70.636 Y106.276 E9.21350
G1 X129.364 Y106.276 E10.79780
G1 X129.364 Y113.529 E10.99348
G1 X129.925 Y114.165 F7800.000
G1 F1800.000
G1 X70.075 Y114.165 E12.22701
G1 X70.075 Y105.715 E12.40116
G1 X129.925 Y105.715 E13.63469
G1 X129.925 Y114.090 E13.80730
G1 X129.426 Y114.142 F7800.000
G1 X128.340 Y107.794 F7800.000
G1 F1200.000
G1 X127.846 Y107.300 E13.82674
G1 X126.920 Y107.300 E13.85247
G1 X128.340 Y108.720 E13.90830
G1 X128.340 Y109.646 E13.93404
G1 X125.994 Y107.300 E14.02626
G1 X125.068 Y107.300 E14.05199
G1 X128.340 Y110.572 E14.18061
G1 X128.340 Y111.498 E14.20635
G1 X124.142 Y107.300 E14.37136
G1 X123.216 Y107.300 E14.39709
G1 X128.340 Y112.424 E14.59849
G1 X128.340 Y112.580 E14.60283
G1 X127.570 Y112.580 E14.62423
G1 X122.290 Y107.300 E14.83177
G1 X121.364 Y107.300 E14.85750
G1 X126.644 Y112.580 E15.06504
G1 X125.718 Y112.580 E15.09078
G1 X120.438 Y107.300 E15.29832
G1 X119.512 Y107.300 E15.32405
G1 X124.792 Y112.580 E15.53159
G1 X123.866 Y112.580 E15.55732
G1 X118.586 Y107.300 E15.76486
G1 X117.660 Y107.300 E15.79060
G1 X122.940 Y112.580 E15.99814
G1 X122.014 Y112.580 E16.02387
G1 X116.734 Y107.300 E16.23141
G1 X115.808 Y107.300 E16.25714
G1 X121.088 Y112.580 E16.46468
G1 X120.162 Y112.580 E16.49042
G1 X114.882 Y107.300 E16.69796
G1 X113.956 Y107.300 E16.72369
G1 X119.236 Y112.580 E16.93123
G1 X118.310 Y112.580 E16.95697
G1 X113.030 Y107.300 E17.16450
G1 X112.260 Y107.300 E17.18590
G1 X112.260 Y107.456 E17.19024
G1 X117.384 Y112.580 E17.39164
G1 X116.458 Y112.580 E17.41738
G1 X112.260 Y108.382 E17.58239
G1 X112.260 Y109.308 E17.60812
G1 X115.532 Y112.580 E17.73674
G1 X114.606 Y112.580 E17.76248
G1 X112.260 Y110.234 E17.85470
G1 X112.260 Y111.160 E17.88043
G1 X113.680 Y112.580 E17.93627
G1 X112.754 Y112.580 E17.96200
G1 X112.260 Y112.086 E17.98144
G1 X111.553 Y112.940 F7800.000
G1 F1200.000
G1 X87.247 Y112.940 E18.63008
G1 X86.540 Y107.794 F7800.000
G1 F1200.000
G1 X86.046 Y107.300 E18.64924
G1 X85.133 Y107.300 E18.67425
G1 X86.540 Y108.707 E18.72879
G1 X86.540 Y109.620 E18.75381
G1 X84.220 Y107.300 E18.84372
G1 X83.307 Y107.300 E18.86873
G1 X86.540 Y110.533 E18.99402
G1 X86.540 Y111.446 E19.01904
G1 X82.394 Y107.300 E19.17970
G1 X81.481 Y107.300 E19.20471
G1 X86.540 Y112.359 E19.40075
G1 X86.540 Y112.580 E19.40682
G1 X85.849 Y112.580 E19.42577
G1 X80.568 Y107.300 E19.63038
G1 X79.655 Y107.300 E19.65540
G1 X84.936 Y112.580 E19.86001
G1 X84.023 Y112.580 E19.88503
G1 X78.742 Y107.300 E20.08964
G1 X77.829 Y107.300 E20.11466
G1 X83.110 Y112.580 E20.31927
G1 X82.197 Y112.580 E20.34429
G1 X76.916 Y107.300 E20.54890
G1 X76.003 Y107.300 E20.57392
G1 X81.284 Y112.580 E20.77853
G1 X80.371 Y112.580 E20.80355
G1 X75.090 Y107.300 E21.00816
G1 X74.177 Y107.300 E21.03317
G1 X79.458 Y112.580 E21.23779
G1 X78.545 Y112.580 E21.26280
G1 X73.264 Y107.300 E21.46742
G1 X72.351 Y107.300 E21.49243
G1 X77.632 Y112.580 E21.69705
G1 X76.719 Y112.580 E21.72206
G1 X71.660 Y107.521 E21.91810
G1 X71.660 Y108.434 E21.94312
G1 X75.806 Y112.580 E22.10378
G1 X74.893 Y112.580 E22.12880
G1 X71.660 Y109.347 E22.25408
G1 X71.660 Y110.260 E22.27910
G1 X73.980 Y112.580 E22.36901
G1 X73.067 Y112.580 E22.39403
G1 X71.660 Y111.173 E22.44856
G1 X71.660 Y112.086 E22.47358
G1 X72.154 Y112.580 E22.49274
G1 X87.247 Y106.940 F7800.000
G1 F1200.000
G1 X111.553 Y106.940 E23.14138
G1 Z0.950 F7800.000
G1 X111.236 Y112.276 F7800.000
G1 F3600.000
G1 X87.564 Y112.276 E23.77994
G1 X87.564 Y107.604 E23.90596
G1 X111.236 Y107.604 E24.54453
G1 X111.236 Y112.201 E24.66852
G1 X110.675 Y111.715 F7800.000
G1 F1800.000
G1 X88.125 Y111.715 E25.13328
G1 X88.125 Y108.165 E25.20645
G1 X110.675 Y108.165 E25.67121
G1 X110.675 Y111.640 E25.74283
G1 X110.902 Y112.160 F7800.000
G1 X86.929 Y112.969 F7800.000
G1 F3600.000
G1 X71.271 Y112.969 E26.16522
G1 X71.271 Y106.911 E26.32863
G1 X86.929 Y106.911 E26.75101
G1 X86.929 Y112.894 E26.91240
G1 X111.871 Y112.969 F7800.000
G1 F3600.000
G1 X111.871 Y106.911 E27.07581
G1 X128.729 Y106.911 E27.53057
G1 X128.729 Y112.969 E27.69398
G1 X111.946 Y112.969 E28.14671
G1 X129.364 Y113.604 F7800.000
G1 F3600.000
G1 X70.636 Y113.604 E29.73101
G1 X70.636 Y106.276 E29.92872
G1 X129.364 Y106.276 E31.51301
G1 X129.364 Y113.529 E31.70870
G1 X129.925 Y114.165 F7800.000
G1 F1800.000
G1 X70.075 Y114.165 E32.94222
G1 X70.075 Y105.715 E33.11638
G1 X129.925 Y105.715 E34.34991
G1 X129.925 Y114.090 E34.52252
G1 X129.426 Y114.142 F7800.000
G1 X127.846 Y112.580 F7800.000
G1 F1200.000
G1 X128.340 Y112.086 E34.54196
G1 X128.340 Y111.160 E34.56769
G1 X126.920 Y112.580 E34.62352
G1 X125.994 Y112.580 E34.64925
G1 X128.340 Y110.234 E34.74148
G1 X128.340 Y109.308 E34.76721
G1 X125.068 Y112.580 E34.89583
G1 X124.142 Y112.580 E34.92156
G1 X128.340 Y108.382 E35.08657
G1 X128.340 Y107.456 E35.11231
G1 X123.216 Y112.580 E35.31371
G1 X122.290 Y112.580 E35.33945
G1 X127.570 Y107.300 E35.54699
G1 X126.644 Y107.300 E35.57272
G1 X121.364 Y112.580 E35.78026
G1 X120.438 Y112.580 E35.80599
G1 X125.718 Y107.300 E36.01353
G1 X124.792 Y107.300 E36.03927
G1 X119.512 Y112.580 E36.24681
G1 X118.586 Y112.580 E36.27254
G1 X123.866 Y107.300 E36.48008
G1 X122.940 Y107.300 E36.50581
G1 X117.660 Y112.580 E36.71335
G1 X116.734 Y112.580 E36.73909
G1 X122.014 Y107.300 E36.94663
G1 X121.088 Y107.300 E36.97236
G1 X115.808 Y112.580 E37.17990
G1 X114.882 Y112.580 E37.20564
G1 X120.162 Y107.300 E37.41318
G1 X119.236 Y107.300 E37.43891
G1 X113.956 Y112.580 E37.64645
G1 X113.030 Y112.580 E37.67218
G1 X118.310 Y107.300 E37.87972
G1 X117.384 Y107.300 E37.90546
G1 X112.260 Y112.424 E38.10686
G1 X112.260 Y111.498 E38.13260
G1 X116.458 Y107.300 E38.29761
G1 X115.532 Y107.300 E38.32334
G1 X112.260 Y110.572 E38.45196
G1 X112.260 Y109.646 E38.47769
G1 X114.606 Y107.300 E38.56992
G1 X113.680 Y107.300 E38.59565
G1 X112.260 Y108.720 E38.65148
G1 X112.260 Y107.794 E38.67722
G1 X112.754 Y107.300 E38.69665
G1 X111.553 Y106.940 F7800.000
G1 F1200.000
G1 X87.247 Y106.940 E39.34530
G1 X86.046 Y112.580 F7800.000
G1 F1200.000
G1 X86.540 Y112.086 E39.36446
G1 X86.540 Y111.173 E39.38947
G1 X85.133 Y112.580 E39.44401
G1 X84.220 Y112.580 E39.46902
G1 X86.540 Y110.260 E39.55894
G1 X86.540 Y109.347 E39.58395
G1 X83.307 Y112.580 E39.70924
G1 X82.394 Y112.580 E39.73425
G1 X86.540 Y108.434 E39.89492
G1 X86.540 Y107.521 E39.91993
G1 X81.481 Y112.580 E40.11597
G1 X80.568 Y112.580 E40.14098
G1 X85.849 Y107.300 E40.34560
G1 X84.936 Y107.300 E40.37061
G1 X79.655 Y112.580 E40.57523
G1 X78.742 Y112.580 E40.60024
G1 X84.023 Y107.300 E40.80486
G1 X83.110 Y107.300 E40.82987
G1 X77.829 Y112.580 E41.03449
G1 X76.916 Y112.580 E41.05950
G1 X82.197 Y107.300 E41.26412
G1 X81.284 Y107.300 E41.28913
G1 X76.003 Y112.580 E41.49375
G1 X75.090 Y112.580 E41.51876
G1 X80.371 Y107.300 E41.72338
G1 X79.458 Y107.300 E41.74839
G1 X74.177 Y112.580 E41.95301
G1 X73.264 Y112.580 E41.97802
G1 X78.545 Y107.300 E42.18264
G1 X77.632 Y107.300 E42.20765
G1 X72.351 Y112.580 E42.41227
G1 X71.660 Y112.580 E42.43122
G1 X71.660 Y112.359 E42.43728
G1 X76.719 Y107.300 E42.63332
G1 X75.806 Y107.300 E42.65834
G1 X71.660 Y111.446 E42.81900
G1 X71.660 Y110.533 E42.84401
G1 X74.893 Y107.300 E42.96930
G1 X73.980 Y107.300 E42.99432
G1 X71.660 Y109.620 E43.08423
G1 X71.660 Y108.707 E43.10924
G1 X73.067 Y107.300 E43.16378
G1 X72.154 Y107.300 E43.18880
G1 X71.660 Y107.794 E43.20795
G1 X87.247 Y112.940 F7800.000
G1 F1200.000
G1 X111.553 Y112.940 E43.85659
M106 S224.4
G1 Z1.250 F7800.000
G1 X111.236 Y112.276 F7800.000
G1 F3600.000
G1 X87.564 Y112.276 E44.49516
G1 X87.564 Y107.604 E44.62118
G1 X111.236 Y107.604 E45.25974
G1 X111.236 Y112.201 E45.38373
G1 X110.675 Y111.715 F7800.000
G1 F1800.000
G1 X88.125 Y111.715 E45.84850
G1 X88.125 Y108.165 E45.92166
G1 X110.675 Y108.165 E46.38643
G1 X110.675 Y111.640 E46.45805
G1 X110.902 Y112.160 F7800.000
G1 X86.929 Y112.969 F7800.000
G1 F3600.000
G1 X71.271 Y112.969 E46.88043
G1 X71.271 Y106.911 E47.04384
G1 X86.929 Y106.911 E47.46623
G1 X86.929 Y112.894 E47.62762
G1 X111.871 Y112.969 F7800.000
G1 F3600.000
G1 X111.871 Y106.911 E47.79103
G1 X128.729 Y106.911 E48.24579
G1 X128.729 Y112.969 E48.40920
G1 X111.946 Y112.969 E48.86193
G1 X129.364 Y113.604 F7800.000
G1 F3600.000
G1 X70.636 Y113.604 E50.44623
G1 X70.636 Y106.276 E50.64393
G1 X129.364 Y106.276 E52.22823
G1 X129.364 Y113.529 E52.42391
G1 X129.925 Y114.165 F7800.000
G1 F1800.000
G1 X70.075 Y114.165 E53.65744
G1 X70.075 Y105.715 E53.83160
G1 X129.925 Y105.715 E55.06513
G1 X129.925 Y114.090 E55.23774
G1 X129.426 Y114.142 F7800.000
G1 X124.496 Y112.603 F7800.000
G1 F4800.000
G1 X119.169 Y107.277 E55.41697
G1 X127.898 Y107.277 E55.62466
G1 X127.898 Y112.138 E55.74033
G1 X124.031 Y112.138 E55.83235
G1 X122.718 Y112.688 F7800.000
G1 F4800.000
G1 X124.191 Y107.192 E55.96775
G1 X121.029 Y107.424 F7800.000
G1 F4800.000
G1 X112.152 Y109.803 E56.18642
G1 X114.012 Y112.688 F7800.000
G1 F4800.000
G1 X115.485 Y107.192 E56.32182
G1 X111.553 Y106.940 F7800.000
G1 F1200.000
G1 X87.247 Y106.940 E56.97047
G1 X86.648 Y107.931 F7800.000
G1 F4800.000
G1 X71.552 Y111.976 E57.34234
G1 X71.784 Y107.830 F7800.000
G1 F4800.000
G1 X71.955 Y107.192 E57.35806
G1 X72.102 Y107.780 F7800.000
G1 F4800.000
G1 X72.102 Y112.603 E57.47284
G1 X76.926 Y112.603 E57.58761
G1 X71.637 Y107.314 E57.76558
G1 X71.637 Y107.277 E57.76647
G1 X83.492 Y107.277 E58.04854
G1 X86.563 Y110.348 E58.15190
G1 X80.661 Y107.192 F7800.000
G1 F4800.000
G1 X79.188 Y112.688 E58.28730
G1 X87.247 Y112.940 F7800.000
G1 F1200.000
G1 X111.553 Y112.940 E58.93594
G1 Z1.550 F7800.000
G1 X111.236 Y112.276 F7800.000
G1 F3600.000
G1 X87.564 Y112.276 E59.57451
