; generated by Slic3r 1.3.1-dev (Build 2ef957d) on 2019-11-25 at 09:21:25

; external perimeters extrusion width = 0.55mm (4.37mm^3/s)
; perimeters extrusion width = 0.70mm (11.44mm^3/s)
; infill extrusion width = 0.62mm (13.45mm^3/s)
; solid infill extrusion width = 0.70mm (3.81mm^3/s)
; top infill extrusion width = 0.70mm (2.86mm^3/s)

M107
G92 E0
M104 S200 ; set temperature
G28 ; home all axes
G1 Z5 F5000 ; lift nozzle

; Filament gcode

M109 S200 ; set temperature and wait for it to be reached
G21 ; set units to millimeters
G90 ; use absolute coordinates
M82 ; use absolute distances for extrusion
G92 E0
G1 Z0.350 F7800.000
G1 E-2.00000 F2400.00000
G92 E0
G1 X92.034 Y-25.000 F7800.000
G1 E2.00000 F2400.00000
G1 F1800.000
G1 X92.431 Y-27.259 E2.07096
G1 X93.575 Y-29.247 E2.14192
G1 X95.328 Y-30.726 E2.21289
G1 X97.480 Y-31.519 E2.28385
G1 X98.659 Y-31.625 E2.32050
G1 X101.341 Y-31.625 E2.40346
G1 X103.600 Y-31.228 E2.47443
G1 X105.588 Y-30.085 E2.54539
G1 X107.067 Y-28.332 E2.61635
G1 X107.860 Y-26.180 E2.68731
G1 X107.966 Y-25.000 E2.72396
G1 X107.966 Y225.000 E10.45929
G1 X107.569 Y227.259 E10.53026
G1 X106.425 Y229.247 E10.60122
G1 X104.672 Y230.726 E10.67218
G1 X102.520 Y231.519 E10.74314
G1 X101.341 Y231.625 E10.77979
G1 X98.659 Y231.625 E10.86276
G1 X96.400 Y231.228 E10.93372
G1 X94.412 Y230.085 E11.00468
G1 X92.933 Y228.332 E11.07565
G1 X92.140 Y226.180 E11.14661
G1 X92.034 Y225.000 E11.18326
G1 X92.034 Y-24.925 E18.91627
G1 E16.91627 F2400.00000
G92 E0
G1 X100.366 Y102.546 F7800.000
G1 E2.00000 F2400.00000
G1 F1800.000
G1 X100.366 Y224.025 E5.75872
G1 X99.634 Y224.025 E5.78136
G1 X99.634 Y102.546 E9.54008
G1 X99.838 Y102.572 E9.54645
G1 X100.291 Y102.555 E9.56048
G1 X100.991 Y101.702 F7800.000
G1 F1800.000
G1 X100.991 Y224.650 E13.36466
G1 X99.009 Y224.650 E13.42597
G1 X99.009 Y101.702 E17.23015
G1 X99.397 Y101.855 E17.24306
G1 X99.634 Y101.916 E17.25064
G1 X99.878 Y101.947 E17.25822
G1 X100.122 Y101.947 E17.26580
G1 X100.366 Y101.916 E17.27338
G1 X100.603 Y101.855 E17.28096
G1 X100.921 Y101.729 E17.29154
G1 X100.790 Y102.160 F7800.000
G1 X100.894 Y101.398 F7800.000
G1 F1800.000
G1 X101.253 Y101.127 E17.29379
G1 X101.284 Y101.035 E17.29427
G1 E15.29427 F2400.00000
G92 E0
G1 X100.000 Y102.884 F7800.000
G1 E2.00000 F2400.00000
G1 F1800.000
G1 X100.000 Y223.713 E2.18889
G1 E0.18889 F2400.00000
G92 E0
G1 X100.366 Y97.454 F7800.000
G1 E2.00000 F2400.00000
G1 F1800.000
G1 X100.162 Y97.428 E2.00636
G1 X99.838 Y97.428 E2.01637
G1 X99.634 Y97.454 E2.02274
G1 X99.634 Y-24.025 E5.78146
G1 X100.366 Y-24.025 E5.80410
G1 X100.366 Y97.379 E9.56050
G1 X100.991 Y98.298 F7800.000
G1 F1800.000
G1 X100.603 Y98.145 E9.57341
G1 X100.366 Y98.084 E9.58099
G1 X100.122 Y98.053 E9.58857
G1 X99.878 Y98.053 E9.59615
G1 X99.634 Y98.084 E9.60373
G1 X99.397 Y98.145 E9.61131
G1 X99.009 Y98.298 E9.62421
G1 X99.009 Y-24.650 E13.42840
G1 X100.991 Y-24.650 E13.48970
G1 X100.991 Y98.223 E17.29157
G1 X100.691 Y98.008 F7800.000
G1 E15.29157 F2400.00000
G92 E0
G1 X99.010 Y98.675 F7800.000
G1 E2.00000 F2400.00000
G1 F1800.000
G1 X98.747 Y98.873 E2.00164
G1 X98.716 Y98.965 E2.00213
G1 E0.00213 F2400.00000
G92 E0
G1 X100.000 Y97.116 F7800.000
G1 E2.00000 F2400.00000
G1 F1800.000
G1 X100.000 Y-23.713 E2.18890
G1 Z0.650 F7800.000
G1 E0.18890 F2400.00000
G92 E0
G1 X100.756 Y102.997 F7800.000
G1 E2.00000 F2400.00000
G1 F3600.000
G1 X100.756 Y223.529 E5.25153
G1 X99.244 Y223.529 E5.29234
G1 X99.244 Y102.997 E8.54387
G1 X99.807 Y103.068 E8.55919
G1 X100.193 Y103.068 E8.56960
G1 X100.682 Y103.006 E8.58290
G1 X101.392 Y102.011 F7800.000
G1 F3600.000
G1 X101.392 Y224.164 E11.87819
G1 X98.608 Y224.164 E11.95329
G1 X98.608 Y102.011 E15.24858
G1 X98.962 Y102.205 E15.25948
G1 X99.247 Y102.318 E15.26774
G1 X99.543 Y102.394 E15.27600
G1 X99.847 Y102.432 E15.28426
G1 X100.153 Y102.432 E15.29251
G1 X100.457 Y102.394 E15.30077
G1 X100.753 Y102.318 E15.30903
G1 X101.038 Y102.205 E15.31728
G1 X101.326 Y102.047 E15.32617
G1 X101.953 Y100.782 F7800.000

G1 F3600.000
G1 X101.953 Y224.725 E18.76904
G1 X101.591 Y224.725 E18.77909

G1 F1800.000
G1 X98.409 Y224.725 E18.84466

G1 F3600.000
G1 X98.047 Y224.725 E18.85471
G1 X98.047 Y100.782 E22.29758
G1 X98.275 Y100.731 E22.30407
G1 X98.409 Y100.987 E22.31210

G1 F1800.000
G1 X98.633 Y101.284 E22.31976
G1 X98.804 Y101.445 E22.32461
G1 X98.995 Y101.584 E22.32947
G1 X99.201 Y101.697 E22.33432
G1 X99.420 Y101.784 E22.33917
G1 X99.649 Y101.842 E22.34403
G1 X99.882 Y101.872 E22.34888
G1 X100.118 Y101.872 E22.35374
G1 X100.351 Y101.842 E22.35859
G1 X100.580 Y101.784 E22.36345
G1 X100.799 Y101.697 E22.36830
G1 X101.005 Y101.584 E22.37316
G1 X101.196 Y101.445 E22.37801
G1 X101.367 Y101.284 E22.38286
G1 X101.591 Y100.987 E22.39053

G1 F3600.000
G1 X101.725 Y100.731 E22.39856
G1 X101.879 Y100.765 E22.40296

G1 E20.40296 F2400.00000
G92 E0
G1 X98.135 Y100.762 F7800.000
G1 E2.00000 F2400.00000
G1 F1800.000
G1 X98.087 Y100.065 E2.01700
G1 X98.091 Y99.836 E2.02255
G1 X98.114 Y99.819 E2.02327
G1 F1800.000
G1 X98.161 Y99.784 E2.02447
G1 F1800.000
G1 X98.439 Y99.588 E2.03034
G1 E0.03034 F2400.00000
G92 E0
G1 X100.756 Y97.003 F7800.000
G1 E2.00000 F2400.00000
G1 F3600.000
G1 X100.193 Y96.932 E2.01532
G1 X99.807 Y96.932 E2.02573
G1 X99.244 Y97.003 E2.04105
G1 X99.244 Y-23.529 E5.29258
G1 X100.756 Y-23.529 E5.33339
G1 X100.756 Y96.928 E8.58290
G1 X101.392 Y97.989 F7800.000
G1 F3600.000
G1 X101.038 Y97.795 E8.59381
G1 X100.753 Y97.682 E8.60206
G1 X100.457 Y97.606 E8.61032
G1 X100.153 Y97.568 E8.61858
G1 X99.847 Y97.568 E8.62683
G1 X99.543 Y97.606 E8.63509
G1 X99.247 Y97.682 E8.64335
G1 X98.962 Y97.795 E8.65161
G1 X98.608 Y97.989 E8.66251
G1 X98.608 Y-24.164 E11.95780
G1 X101.392 Y-24.164 E12.03290
G1 X101.392 Y97.914 E15.32617
G1 X101.953 Y99.218 F7800.000

G1 F3600.000
G1 X101.725 Y99.269 E15.33265
G1 X101.591 Y99.013 E15.34068

G1 F1800.000
G1 X101.367 Y98.716 E15.34834
G1 X101.196 Y98.555 E15.35320
G1 X101.005 Y98.416 E15.35805
G1 X100.799 Y98.303 E15.36290
G1 X100.580 Y98.216 E15.36776
G1 X100.351 Y98.158 E15.37261
G1 X100.118 Y98.128 E15.37747
G1 X99.882 Y98.128 E15.38232
G1 X99.649 Y98.158 E15.38718
G1 X99.420 Y98.216 E15.39203
G1 X99.201 Y98.303 E15.39689
G1 X98.995 Y98.416 E15.40174
G1 X98.804 Y98.555 E15.40659
G1 X98.633 Y98.716 E15.41145
G1 X98.409 Y99.013 E15.41911

G1 F3600.000
G1 X98.275 Y99.269 E15.42714
G1 X98.047 Y99.218 E15.43362
G1 X98.047 Y-24.725 E18.87649
G1 X98.409 Y-24.725 E18.88655

G1 F1800.000
G1 X101.591 Y-24.725 E18.95212

G1 F3600.000
G1 X101.953 Y-24.725 E18.96217
G1 X101.953 Y99.143 E22.40296

G1 X101.865 Y99.238 F7800.000
G1 F1800.000
G1 X101.914 Y99.998 E22.42164
G1 X101.909 Y100.164 E22.42571
G1 X101.862 Y100.199 E22.42714
G1 F1800.000
G1 X101.700 Y100.314 E22.43124
G1 F1800.000
G1 X101.561 Y100.412 E22.43417
G1 E20.43417 F2400.00000
G92 E0
G1 X100.000 Y103.386 F7800.000
G1 E2.00000 F2400.00000
G1 F1200.000
G1 X100.000 Y223.211 E6.13362
G1 E4.13362 F2400.00000
G92 E0
G1 X100.000 Y96.614 F7800.000
G1 E2.00000 F2400.00000
G1 F1200.000
G1 X100.000 Y-23.211 E6.13362
G1 Z0.950 F7800.000
G1 X101.744 Y99.310 F7800.000
G1 F900.000
G1 X101.817 Y99.534 E6.13848
G1 X101.861 Y99.765 E6.14333
G1 X101.876 Y100.000 E6.14818
G1 X101.861 Y100.235 E6.15304
G1 X101.817 Y100.466 E6.15789
G1 X101.744 Y100.690 E6.16275
G1 X101.644 Y100.904 E6.16760
G1 X101.517 Y101.102 E6.17246
G1 X101.367 Y101.284 E6.17731
G1 X101.196 Y101.445 E6.18216
G1 X101.005 Y101.584 E6.18702
G1 X100.799 Y101.697 E6.19187
G1 X100.580 Y101.784 E6.19673
G1 X100.351 Y101.842 E6.20158
G1 X100.118 Y101.872 E6.20644
G1 X99.882 Y101.872 E6.21129
G1 X99.649 Y101.842 E6.21615
G1 X99.420 Y101.784 E6.22100
G1 X99.201 Y101.697 E6.22585
G1 X98.995 Y101.584 E6.23071
G1 X98.804 Y101.445 E6.23556
G1 X98.633 Y101.284 E6.24042
G1 X98.483 Y101.102 E6.24527
G1 X98.356 Y100.904 E6.25013
G1 X98.256 Y100.690 E6.25498
G1 X98.183 Y100.466 E6.25984
G1 X98.139 Y100.235 E6.26469
G1 X98.124 Y100.000 E6.26954
G1 X98.139 Y99.765 E6.27440
G1 X98.183 Y99.534 E6.27925
G1 X98.256 Y99.310 E6.28411
G1 X98.356 Y99.096 E6.28896
G1 X98.483 Y98.898 E6.29382
G1 X98.633 Y98.716 E6.29867
G1 X98.804 Y98.555 E6.30352
G1 X98.995 Y98.416 E6.30838
G1 X99.201 Y98.303 E6.31323
G1 X99.420 Y98.216 E6.31809
G1 X99.649 Y98.158 E6.32294
G1 X99.882 Y98.128 E6.32780
G1 X100.118 Y98.128 E6.33265
G1 X100.351 Y98.158 E6.33751
G1 X100.580 Y98.216 E6.34236
G1 X100.799 Y98.303 E6.34721
G1 X101.005 Y98.416 E6.35207
G1 X101.196 Y98.555 E6.35692
G1 X101.367 Y98.716 E6.36178
G1 X101.517 Y98.898 E6.36663
G1 X101.712 Y99.242 E6.37478
G1 X101.744 Y99.310 F7800.000
G1 X101.299 Y97.215 F7800.000
G1 F3600.000
G1 X100.950 Y97.076 E6.38491
G1 X100.576 Y96.980 E6.39533
G1 X100.193 Y96.932 E6.40574
G1 X99.807 Y96.932 E6.41616
G1 X99.424 Y96.980 E6.42657
G1 X99.050 Y97.076 E6.43699
G1 X98.701 Y97.215 E6.44712
G1 X98.701 Y-23.529 E9.70435
G1 X101.299 Y-23.529 E9.77445
G1 X101.299 Y97.140 E13.02966
G1 X101.935 Y98.480 F7800.000
G1 F3600.000
G1 X101.554 Y98.122 E13.04377
G1 X101.306 Y97.942 E13.05203
G1 X101.038 Y97.795 E13.06029
G1 X100.753 Y97.682 E13.06854
G1 X100.457 Y97.606 E13.07680
G1 X100.153 Y97.568 E13.08506
G1 X99.847 Y97.568 E13.09331
G1 X99.543 Y97.606 E13.10157
G1 X99.247 Y97.682 E13.10983
G1 X98.962 Y97.795 E13.11808
G1 X98.694 Y97.942 E13.12634
G1 X98.446 Y98.122 E13.13460
G1 X98.065 Y98.480 E13.14871
G1 X98.065 Y-24.164 E16.45723
G1 X101.935 Y-24.164 E16.56162
G1 X101.935 Y98.405 E19.86811
G1 X101.299 Y102.785 F7800.000
G1 F3600.000
G1 X101.299 Y223.529 E23.12535
G1 X98.701 Y223.529 E23.19545
G1 X98.701 Y102.785 E26.45268
G1 X99.050 Y102.924 E26.46282
G1 X99.424 Y103.020 E26.47323
G1 X99.807 Y103.068 E26.48365
G1 X100.193 Y103.068 E26.49406
G1 X100.576 Y103.020 E26.50447
G1 X100.950 Y102.924 E26.51489
G1 X101.229 Y102.813 E26.52300
G1 X101.935 Y101.520 F7800.000
G1 F3600.000
G1 X101.935 Y224.164 E29.83152
G1 X98.065 Y224.164 E29.93591
G1 X98.065 Y101.520 E33.24443
G1 X98.446 Y101.878 E33.25854
G1 X98.694 Y102.058 E33.26680
G1 X98.962 Y102.205 E33.27505
G1 X99.247 Y102.318 E33.28331
G1 X99.543 Y102.394 E33.29157
G1 X99.847 Y102.432 E33.29982
G1 X100.153 Y102.432 E33.30808
G1 X100.457 Y102.394 E33.31634
G1 X100.753 Y102.318 E33.32459
G1 X101.038 Y102.205 E33.33285
G1 X101.306 Y102.058 E33.34111
G1 X101.554 Y101.878 E33.34936
G1 X101.880 Y101.571 E33.36145
G1 E31.36145 F2400.00000
G92 E0
G1 X102.478 Y224.725 F7800.000
G1 E2.00000 F2400.00000
G1 F1800.000
G1 X97.522 Y224.725 E2.10213

G1 F3600.000
G1 X97.505 Y224.725 E2.10262
G1 X97.505 Y-24.725 E9.03179
G1 X97.522 Y-24.725 E9.03229

G1 F1800.000
G1 X102.478 Y-24.725 E9.13442

G1 F3600.000
G1 X102.495 Y-24.725 E9.13491
G1 X102.495 Y224.668 E16.06249

G1 E14.06249 F2400.00000
G92 E0
G1 X100.416 Y223.140 F7800.000
G1 E2.00000 F2400.00000
G1 F1200.000
G1 X100.911 Y222.646 E2.01888
G1 X100.911 Y221.746 E2.04318
G1 X99.516 Y223.140 E2.09643
G1 X99.089 Y223.140 E2.10797
G1 X99.089 Y222.668 E2.12072
G1 X100.911 Y220.846 E2.19029
G1 X100.911 Y219.946 E2.21458
G1 X99.089 Y221.768 E2.28415
G1 X99.089 Y220.868 E2.30845
G1 X100.911 Y219.047 E2.37801
G1 X100.911 Y218.147 E2.40231
G1 X99.089 Y219.969 E2.47187
G1 X99.089 Y219.069 E2.49617
G1 X100.911 Y217.247 E2.56573
G1 X100.911 Y216.347 E2.59003
G1 X99.089 Y218.169 E2.65959
G1 X99.089 Y217.269 E2.68389
G1 X100.911 Y215.448 E2.75345
G1 X100.911 Y214.548 E2.77775
G1 X99.089 Y216.369 E2.84731
G1 X99.089 Y215.470 E2.87161
G1 X100.911 Y213.648 E2.94117
G1 X100.911 Y212.748 E2.96547
G1 X99.089 Y214.570 E3.03503
G1 X99.089 Y213.670 E3.05933
G1 X100.911 Y211.848 E3.12889
G1 X100.911 Y210.949 E3.15319
G1 X99.089 Y212.770 E3.22275
G1 X99.089 Y211.870 E3.24705
G1 X100.911 Y210.049 E3.31661
G1 X100.911 Y209.149 E3.34091
G1 X99.089 Y210.971 E3.41048
G1 X99.089 Y210.071 E3.43477
G1 X100.911 Y208.249 E3.50434
G1 X100.911 Y207.350 E3.52863
G1 X99.089 Y209.171 E3.59820
G1 X99.089 Y208.271 E3.62249
G1 X100.911 Y206.450 E3.69206
G1 X100.911 Y205.550 E3.71635
G1 X99.089 Y207.372 E3.78592
G1 X99.089 Y206.472 E3.81021
G1 X100.911 Y204.650 E3.87978
G1 X100.911 Y203.750 E3.90407
G1 X99.089 Y205.572 E3.97364
G1 X99.089 Y204.672 E3.99794
G1 X100.911 Y202.851 E4.06750
G1 X100.911 Y201.951 E4.09180
G1 X99.089 Y203.772 E4.16136
G1 X99.089 Y202.873 E4.18566
G1 X100.911 Y201.051 E4.25522
G1 X100.911 Y200.151 E4.27952
G1 X99.089 Y201.973 E4.34908
G1 X99.089 Y201.073 E4.37338
G1 X100.911 Y199.251 E4.44294
G1 X100.911 Y198.352 E4.46724
G1 X99.089 Y200.173 E4.53680
G1 X99.089 Y199.274 E4.56110
G1 X100.911 Y197.452 E4.63066
G1 X100.911 Y196.552 E4.65496
G1 X99.089 Y198.374 E4.72452
G1 X99.089 Y197.474 E4.74882
G1 X100.911 Y195.652 E4.81838
G1 X100.911 Y194.753 E4.84268
G1 X99.089 Y196.574 E4.91224
G1 X99.089 Y195.674 E4.93654
G1 X100.911 Y193.853 E5.00610
G1 X100.911 Y192.953 E5.03040
G1 X99.089 Y194.775 E5.09996
G1 X99.089 Y193.875 E5.12426
G1 X100.911 Y192.053 E5.19383
G1 X100.911 Y191.153 E5.21812
G1 X99.089 Y192.975 E5.28769
G1 X99.089 Y192.075 E5.31198
G1 X100.911 Y190.254 E5.38155
G1 X100.911 Y189.354 E5.40584
G1 X99.089 Y191.176 E5.47541
G1 X99.089 Y190.276 E5.49970
G1 X100.911 Y188.454 E5.56927
G1 X100.911 Y187.554 E5.59356
G1 X99.089 Y189.376 E5.66313
G1 X99.089 Y188.476 E5.68742
G1 X100.911 Y186.655 E5.75699
G1 X100.911 Y185.755 E5.78129
G1 X99.089 Y187.576 E5.85085
G1 X99.089 Y186.677 E5.87515
G1 X100.911 Y184.855 E5.94471
G1 X100.911 Y183.955 E5.96901
G1 X99.089 Y185.777 E6.03857
G1 X99.089 Y184.877 E6.06287
G1 X100.911 Y183.055 E6.13243
G1 X100.911 Y182.156 E6.15673
G1 X99.089 Y183.977 E6.22629
G1 X99.089 Y183.077 E6.25059
G1 X100.911 Y181.256 E6.32015
G1 X100.911 Y180.356 E6.34445
G1 X99.089 Y182.178 E6.41401
G1 X99.089 Y181.278 E6.43831
G1 X100.911 Y179.456 E6.50787
G1 X100.911 Y178.557 E6.53217
G1 X99.089 Y180.378 E6.60173
G1 X99.089 Y179.478 E6.62603
G1 X100.911 Y177.657 E6.69559
G1 X100.911 Y176.757 E6.71989
G1 X99.089 Y178.579 E6.78945
G1 X99.089 Y177.679 E6.81375
G1 X100.911 Y175.857 E6.88332
G1 X100.911 Y174.957 E6.90761
G1 X99.089 Y176.779 E6.97718
G1 X99.089 Y175.879 E7.00147
G1 X100.911 Y174.058 E7.07104
G1 X100.911 Y173.158 E7.09533
G1 X99.089 Y174.979 E7.16490
G1 X99.089 Y174.080 E7.18919
G1 X100.911 Y172.258 E7.25876
G1 X100.911 Y171.358 E7.28305
G1 X99.089 Y173.180 E7.35262
G1 X99.089 Y172.280 E7.37691
G1 X100.911 Y170.458 E7.44648
G1 X100.911 Y169.559 E7.47078
G1 X99.089 Y171.380 E7.54034
G1 X99.089 Y170.481 E7.56464
G1 X100.911 Y168.659 E7.63420
G1 X100.911 Y167.759 E7.65850
G1 X99.089 Y169.581 E7.72806
G1 X99.089 Y168.681 E7.75236
G1 X100.911 Y166.859 E7.82192
G1 X100.911 Y165.960 E7.84622
G1 X99.089 Y167.781 E7.91578
G1 X99.089 Y166.881 E7.94008
G1 X100.911 Y165.060 E8.00964
G1 X100.911 Y164.160 E8.03394
G1 X99.089 Y165.982 E8.10350
G1 X99.089 Y165.082 E8.12780
G1 X100.911 Y163.260 E8.19737
G1 X100.911 Y162.360 E8.22166
G1 X99.089 Y164.182 E8.29123
G1 X99.089 Y163.282 E8.31552
G1 X100.911 Y161.461 E8.38509
G1 X100.911 Y160.561 E8.40938
G1 X99.089 Y162.383 E8.47895
G1 X99.089 Y161.483 E8.50325
G1 X100.911 Y159.661 E8.57281
G1 X100.911 Y158.761 E8.59711
G1 X99.089 Y160.583 E8.66667
G1 X99.089 Y159.683 E8.69097
G1 X100.911 Y157.862 E8.76053
G1 X100.911 Y156.962 E8.78483
G1 X99.089 Y158.783 E8.85439
G1 X99.089 Y157.884 E8.87869
G1 X100.911 Y156.062 E8.94825
G1 X100.911 Y155.162 E8.97255
G1 X99.089 Y156.984 E9.04211
G1 X99.089 Y156.084 E9.06641
G1 X100.911 Y154.262 E9.13598
G1 X100.911 Y153.363 E9.16027
G1 X99.089 Y155.184 E9.22984
G1 X99.089 Y154.284 E9.25413
G1 X100.911 Y152.463 E9.32370
G1 X100.911 Y151.563 E9.34799
G1 X99.089 Y153.385 E9.41756
G1 X99.089 Y152.485 E9.44186
G1 X100.911 Y150.663 E9.51142
G1 X100.911 Y149.763 E9.53572
G1 X99.089 Y151.585 E9.60528
G1 X99.089 Y150.685 E9.62958
G1 X100.911 Y148.864 E9.69914
G1 X100.911 Y147.964 E9.72344
G1 X99.089 Y149.786 E9.79300
G1 X99.089 Y148.886 E9.81730
G1 X100.911 Y147.064 E9.88686
G1 X100.911 Y146.164 E9.91116
G1 X99.089 Y147.986 E9.98072
G1 X99.089 Y147.086 E10.00502
G1 X100.911 Y145.265 E10.07459
G1 X100.911 Y144.365 E10.09888
G1 X99.089 Y146.186 E10.16845
G1 X99.089 Y145.287 E10.19274
G1 X100.911 Y143.465 E10.26231
G1 X100.911 Y142.565 E10.28660
