; Gcode updated with 'stl_info' on 2019-12-04 16:37:25.200488

; stl_min_x = -43.5
; stl_max_x = 14.461799621582031
; stl_min_y = -14.5
; stl_max_y = 14.5
; stl_min_z = -15.404999732971191

; generated by Slic3r 1.3.1-dev (Build 4f5b935) on 2019-11-26 at 14:50:44

; external perimeters extrusion width = 0.55mm (1.90mm^3/s)
; perimeters extrusion width = 0.70mm (2.71mm^3/s)
; infill extrusion width = 0.62mm (2.41mm^3/s)
; solid infill extrusion width = 0.70mm (2.04mm^3/s)
; top infill extrusion width = 0.70mm (2.04mm^3/s)

M107
G92 E0
;D3D:START:START
T0
M104 S215 T0

G21
G90
M107
T0
G28
G29
M109 T0 S215 T0
G0 F3000
M107
T0
G92 E0
G0 X0 Y149 Z0.1 F3600
G1 Y49 E6.5 F1200
G0 Z1
G92 E0
; Filament gcode

G21 ; set units to millimeters
G90 ; use absolute coordinates
M82 ; use absolute distances for extrusion
G92 E0
G1 Z0.090 F7800.000
G1 E-2.00000 F2400.00000
G92 E0
G1 X51.809 Y56.962 F7800.000
G1 E2.00000 F2400.00000
G1 F1800.000
G1 X53.540 Y55.610 E2.00655
G1 X56.354 Y54.920 E2.01519
G1 X58.646 Y54.920 E2.02202
G1 X60.807 Y55.317 E2.02857
G1 X62.685 Y56.455 E2.03512
G1 X64.036 Y58.187 E2.04167
G1 X64.726 Y61.000 E2.05030
G1 X64.726 Y89.000 E2.13379
G1 X64.329 Y91.160 E2.14034
G1 X63.191 Y93.038 E2.14689
G1 X61.460 Y94.390 E2.15344
G1 X58.646 Y95.080 E2.16207
G1 X56.354 Y95.080 E2.16891
G1 X54.193 Y94.683 E2.17546
G1 X52.315 Y93.545 E2.18201
G1 X50.964 Y91.813 E2.18855
G1 X50.274 Y89.000 E2.19719
G1 X50.274 Y61.000 E2.28068
G1 X50.671 Y58.840 E2.28723
G1 X51.770 Y57.026 E2.29355
G1 E0.29355 F2400.00000
G92 E0
G1 X58.437 Y88.791 F7800.000
G1 E2.00000 F2400.00000
G1 F1800.000
G1 X56.563 Y88.791 E2.00559
G1 X56.563 Y81.459 E2.02745
G1 X58.437 Y81.459 E2.03304
G1 X58.437 Y88.716 E2.05468
G1 X58.517 Y88.871 F7800.000
G1 F1800.000
G1 X56.483 Y88.871 E2.06075
G1 X56.483 Y81.379 E2.08308
G1 X58.517 Y81.379 E2.08915
G1 X58.517 Y88.796 E2.11126
G1 X58.597 Y88.951 F7800.000
G1 F1800.000
G1 X56.403 Y88.951 E2.11781
G1 X56.403 Y81.299 E2.14062
G1 X58.597 Y81.299 E2.14716
G1 X58.597 Y88.876 E2.16975
G1 X58.142 Y88.742 F7800.000
G1 X58.327 Y88.742 F7800.000
G1 F1800.000
G1 X58.389 Y88.680 E2.17001
G1 X58.389 Y88.566 E2.17036
G1 X58.213 Y88.742 E2.17111
G1 X58.099 Y88.742 E2.17145
G1 X58.389 Y88.452 E2.17269
G1 X58.389 Y88.338 E2.17303
G1 X57.985 Y88.742 E2.17475
G1 X57.871 Y88.742 E2.17510
G1 X58.389 Y88.225 E2.17730
G1 X58.389 Y88.111 E2.17765
G1 X57.757 Y88.742 E2.18034
G1 X57.643 Y88.742 E2.18069
G1 X58.389 Y87.997 E2.18387
G1 X58.389 Y87.883 E2.18421
G1 X57.529 Y88.742 E2.18788
G1 X57.415 Y88.742 E2.18822
G1 X58.389 Y87.769 E2.19237
G1 X58.389 Y87.655 E2.19271
G1 X57.301 Y88.742 E2.19735
G1 X57.187 Y88.742 E2.19770
G1 X58.389 Y87.541 E2.20282
G1 X58.389 Y87.427 E2.20316
G1 X57.073 Y88.742 E2.20877
G1 X56.959 Y88.742 E2.20912
G1 X58.389 Y87.313 E2.21521
G1 X58.389 Y87.199 E2.21555
G1 X56.845 Y88.742 E2.22214
G1 X56.731 Y88.742 E2.22248
G1 X58.389 Y87.085 E2.22955
G1 X58.389 Y86.971 E2.22989
G1 X56.611 Y88.742 E2.23746
G1 X56.611 Y88.635 E2.23778
G1 X58.389 Y86.857 E2.24536
G1 X58.389 Y86.743 E2.24570
G1 X56.611 Y88.521 E2.25328
G1 X56.611 Y88.407 E2.25363
G1 X58.389 Y86.629 E2.26121
G1 X58.389 Y86.515 E2.26155
G1 X56.611 Y88.293 E2.26913
G1 X56.611 Y88.179 E2.26947
G1 X58.389 Y86.401 E2.27705
G1 X58.389 Y86.287 E2.27740
G1 X56.611 Y88.065 E2.28497
G1 X56.611 Y87.951 E2.28532
G1 X58.389 Y86.173 E2.29290
G1 X58.389 Y86.059 E2.29324
G1 X56.611 Y87.837 E2.30082
G1 X56.611 Y87.723 E2.30116
G1 X58.389 Y85.945 E2.30874
G1 X58.389 Y85.832 E2.30909
G1 X56.611 Y87.609 E2.31667
G1 X56.611 Y87.495 E2.31701
G1 X58.389 Y85.718 E2.32459
G1 X58.389 Y85.604 E2.32493
G1 X56.611 Y87.381 E2.33251
G1 X56.611 Y87.267 E2.33285
G1 X58.389 Y85.490 E2.34043
G1 X58.389 Y85.376 E2.34078
G1 X56.611 Y87.153 E2.34836
G1 X56.611 Y87.039 E2.34870
G1 X58.389 Y85.262 E2.35628
G1 X58.389 Y85.148 E2.35662
G1 X56.611 Y86.925 E2.36420
G1 X56.611 Y86.811 E2.36455
G1 X58.389 Y85.034 E2.37213
G1 X58.389 Y84.920 E2.37247
G1 X56.611 Y86.698 E2.38005
G1 X56.611 Y86.584 E2.38039
G1 X58.389 Y84.806 E2.38797
G1 X58.389 Y84.692 E2.38831
G1 X56.611 Y86.470 E2.39589
G1 X56.611 Y86.356 E2.39624
G1 X58.389 Y84.578 E2.40382
G1 X58.389 Y84.464 E2.40416
G1 X56.611 Y86.242 E2.41174
G1 X56.611 Y86.128 E2.41208
G1 X58.389 Y84.350 E2.41966
G1 X58.389 Y84.236 E2.42001
G1 X56.611 Y86.014 E2.42759
G1 X56.611 Y85.900 E2.42793
G1 X58.389 Y84.122 E2.43551
G1 X58.389 Y84.008 E2.43585
G1 X56.611 Y85.786 E2.44343
G1 X56.611 Y85.672 E2.44377
G1 X58.389 Y83.894 E2.45135
G1 X58.389 Y83.780 E2.45170
G1 X56.611 Y85.558 E2.45928
G1 X56.611 Y85.444 E2.45962
G1 X58.389 Y83.666 E2.46720
G1 X58.389 Y83.553 E2.46754
G1 X56.611 Y85.330 E2.47512
G1 X56.611 Y85.216 E2.47547
G1 X58.389 Y83.439 E2.48304
G1 X58.389 Y83.325 E2.48339
G1 X56.611 Y85.102 E2.49097
G1 X56.611 Y84.988 E2.49131
G1 X58.389 Y83.211 E2.49889
G1 X58.389 Y83.097 E2.49923
G1 X56.611 Y84.874 E2.50681
G1 X56.611 Y84.760 E2.50716
G1 X58.389 Y82.983 E2.51474
G1 X58.389 Y82.869 E2.51508
G1 X56.611 Y84.646 E2.52266
G1 X56.611 Y84.532 E2.52300
G1 X58.389 Y82.755 E2.53058
G1 X58.389 Y82.641 E2.53093
G1 X56.611 Y84.418 E2.53850
G1 X56.611 Y84.305 E2.53885
G1 X58.389 Y82.527 E2.54643
G1 X58.389 Y82.413 E2.54677
G1 X56.611 Y84.191 E2.55435
G1 X56.611 Y84.077 E2.55469
G1 X58.389 Y82.299 E2.56227
G1 X58.389 Y82.185 E2.56262
G1 X56.611 Y83.963 E2.57020
G1 X56.611 Y83.849 E2.57054
G1 X58.389 Y82.071 E2.57812
G1 X58.389 Y81.957 E2.57846
G1 X56.611 Y83.735 E2.58604
G1 X56.611 Y83.621 E2.58639
G1 X58.389 Y81.843 E2.59396
G1 X58.389 Y81.729 E2.59431
G1 X56.611 Y83.507 E2.60189
G1 X56.611 Y83.393 E2.60223
G1 X58.389 Y81.615 E2.60981
G1 X58.383 Y81.508 E2.61014
G1 X56.611 Y83.279 E2.61769
G1 X56.611 Y83.165 E2.61803
G1 X58.269 Y81.508 E2.62510
G1 X58.155 Y81.508 E2.62544
G1 X56.611 Y83.051 E2.63202
G1 X56.611 Y82.937 E2.63237
G1 X58.041 Y81.508 E2.63846
G1 X57.927 Y81.508 E2.63881
G1 X56.611 Y82.823 E2.64442
G1 X56.611 Y82.709 E2.64476
G1 X57.813 Y81.508 E2.64988
G1 X57.699 Y81.508 E2.65023
G1 X56.611 Y82.595 E2.65486
G1 X56.611 Y82.481 E2.65521
G1 X57.585 Y81.508 E2.65936
G1 X57.471 Y81.508 E2.65970
G1 X56.611 Y82.367 E2.66337
G1 X56.611 Y82.253 E2.66371
G1 X57.357 Y81.508 E2.66689
G1 X57.243 Y81.508 E2.66724
G1 X56.611 Y82.139 E2.66993
G1 X56.611 Y82.025 E2.67027
G1 X57.129 Y81.508 E2.67248
G1 X57.015 Y81.508 E2.67283
G1 X56.611 Y81.912 E2.67455
G1 X56.611 Y81.798 E2.67489
G1 X56.901 Y81.508 E2.67613
G1 X56.787 Y81.508 E2.67647
G1 X56.611 Y81.684 E2.67722
G1 X56.611 Y81.570 E2.67757
G1 X56.673 Y81.508 E2.67783
G1 E0.67783 F2400.00000
G92 E0
G1 X58.437 Y68.541 F7800.000
G1 E2.00000 F2400.00000
G1 F1800.000
G1 X56.563 Y68.541 E2.00559
G1 X56.563 Y61.209 E2.02745
G1 X58.437 Y61.209 E2.03304
G1 X58.437 Y68.466 E2.05468
G1 X58.517 Y68.621 F7800.000
G1 F1800.000
G1 X56.483 Y68.621 E2.06075
G1 X56.483 Y61.129 E2.08308
G1 X58.517 Y61.129 E2.08915
G1 X58.517 Y68.546 E2.11126
G1 X58.597 Y68.701 F7800.000
G1 F1800.000
G1 X56.403 Y68.701 E2.11781
G1 X56.403 Y61.050 E2.14062
G1 X58.597 Y61.050 E2.14716
G1 X58.597 Y68.626 E2.16975
G1 X58.142 Y68.492 F7800.000
G1 X58.327 Y68.492 F7800.000
G1 F1800.000
G1 X58.389 Y68.430 E2.17001
G1 X58.389 Y68.316 E2.17036
G1 X58.213 Y68.492 E2.17111
G1 X58.099 Y68.492 E2.17145
G1 X58.389 Y68.202 E2.17269
G1 X58.389 Y68.088 E2.17303
G1 X57.985 Y68.492 E2.17475
G1 X57.871 Y68.492 E2.17510
G1 X58.389 Y67.975 E2.17730
G1 X58.389 Y67.861 E2.17765
G1 X57.757 Y68.492 E2.18034
G1 X57.643 Y68.492 E2.18069
G1 X58.389 Y67.747 E2.18387
G1 X58.389 Y67.633 E2.18421
G1 X57.529 Y68.492 E2.18788
G1 X57.415 Y68.492 E2.18822
G1 X58.389 Y67.519 E2.19237
G1 X58.389 Y67.405 E2.19271
G1 X57.301 Y68.492 E2.19735
G1 X57.187 Y68.492 E2.19770
G1 X58.389 Y67.291 E2.20282
G1 X58.389 Y67.177 E2.20316
G1 X57.073 Y68.492 E2.20877
G1 X56.959 Y68.492 E2.20912
G1 X58.389 Y67.063 E2.21521
G1 X58.389 Y66.949 E2.21555
G1 X56.845 Y68.492 E2.22214
G1 X56.731 Y68.492 E2.22248
G1 X58.389 Y66.835 E2.22955
G1 X58.389 Y66.721 E2.22989
G1 X56.611 Y68.492 E2.23746
G1 X56.611 Y68.385 E2.23778
G1 X58.389 Y66.607 E2.24536
G1 X58.389 Y66.493 E2.24570
G1 X56.611 Y68.271 E2.25328
G1 X56.611 Y68.157 E2.25363
G1 X58.389 Y66.379 E2.26121
G1 X58.389 Y66.265 E2.26155
G1 X56.611 Y68.043 E2.26913
G1 X56.611 Y67.929 E2.26947
G1 X58.389 Y66.151 E2.27705
G1 X58.389 Y66.037 E2.27740
G1 X56.611 Y67.815 E2.28497
G1 X56.611 Y67.701 E2.28532
G1 X58.389 Y65.923 E2.29290
G1 X58.389 Y65.809 E2.29324
G1 X56.611 Y67.587 E2.30082
G1 X56.611 Y67.473 E2.30116
G1 X58.389 Y65.695 E2.30874
G1 X58.389 Y65.582 E2.30909
G1 X56.611 Y67.359 E2.31667
G1 X56.611 Y67.245 E2.31701
G1 X58.389 Y65.468 E2.32459
G1 X58.389 Y65.354 E2.32493
G1 X56.611 Y67.131 E2.33251
G1 X56.611 Y67.017 E2.33285
G1 X58.389 Y65.240 E2.34043
G1 X58.389 Y65.126 E2.34078
G1 X56.611 Y66.903 E2.34836
G1 X56.611 Y66.789 E2.34870
G1 X58.389 Y65.012 E2.35628
G1 X58.389 Y64.898 E2.35662
G1 X56.611 Y66.675 E2.36420
G1 X56.611 Y66.561 E2.36455
G1 X58.389 Y64.784 E2.37213
G1 X58.389 Y64.670 E2.37247
G1 X56.611 Y66.448 E2.38005
G1 X56.611 Y66.334 E2.38039
G1 X58.389 Y64.556 E2.38797
G1 X58.389 Y64.442 E2.38831
G1 X56.611 Y66.220 E2.39589
G1 X56.611 Y66.106 E2.39624
G1 X58.389 Y64.328 E2.40382
G1 X58.389 Y64.214 E2.40416
G1 X56.611 Y65.992 E2.41174
G1 X56.611 Y65.878 E2.41208
G1 X58.389 Y64.100 E2.41966
G1 X58.389 Y63.986 E2.42001
G1 X56.611 Y65.764 E2.42759
G1 X56.611 Y65.650 E2.42793
G1 X58.389 Y63.872 E2.43551
G1 X58.389 Y63.758 E2.43585
G1 X56.611 Y65.536 E2.44343
G1 X56.611 Y65.422 E2.44377
G1 X58.389 Y63.644 E2.45135
G1 X58.389 Y63.530 E2.45170
G1 X56.611 Y65.308 E2.45928
G1 X56.611 Y65.194 E2.45962
G1 X58.389 Y63.416 E2.46720
G1 X58.389 Y63.303 E2.46754
G1 X56.611 Y65.080 E2.47512
G1 X56.611 Y64.966 E2.47547
G1 X58.389 Y63.189 E2.48304
G1 X58.389 Y63.075 E2.48339
G1 X56.611 Y64.852 E2.49097
G1 X56.611 Y64.738 E2.49131
G1 X58.389 Y62.961 E2.49889
G1 X58.389 Y62.847 E2.49923
G1 X56.611 Y64.624 E2.50681
G1 X56.611 Y64.510 E2.50716
G1 X58.389 Y62.733 E2.51474
G1 X58.389 Y62.619 E2.51508
G1 X56.611 Y64.396 E2.52266
G1 X56.611 Y64.282 E2.52300
G1 X58.389 Y62.505 E2.53058
G1 X58.389 Y62.391 E2.53093
G1 X56.611 Y64.168 E2.53850
G1 X56.611 Y64.055 E2.53885
G1 X58.389 Y62.277 E2.54643
G1 X58.389 Y62.163 E2.54677
G1 X56.611 Y63.941 E2.55435
G1 X56.611 Y63.827 E2.55469
G1 X58.389 Y62.049 E2.56227
G1 X58.389 Y61.935 E2.56262
G1 X56.611 Y63.713 E2.57020
G1 X56.611 Y63.599 E2.57054
G1 X58.389 Y61.821 E2.57812
G1 X58.389 Y61.707 E2.57846
G1 X56.611 Y63.485 E2.58604
G1 X56.611 Y63.371 E2.58638
G1 X58.389 Y61.593 E2.59396
G1 X58.389 Y61.479 E2.59431
G1 X56.611 Y63.257 E2.60189
G1 X56.611 Y63.143 E2.60223
G1 X58.389 Y61.365 E2.60981
G1 X58.383 Y61.258 E2.61014
G1 X56.611 Y63.029 E2.61769
G1 X56.611 Y62.915 E2.61803
G1 X58.269 Y61.258 E2.62510
G1 X58.155 Y61.258 E2.62544
G1 X56.611 Y62.801 E2.63202
G1 X56.611 Y62.687 E2.63237
G1 X58.041 Y61.258 E2.63846
G1 X57.927 Y61.258 E2.63881
G1 X56.611 Y62.573 E2.64442
G1 X56.611 Y62.459 E2.64476
G1 X57.813 Y61.258 E2.64988
G1 X57.699 Y61.258 E2.65023
G1 X56.611 Y62.345 E2.65486
G1 X56.611 Y62.231 E2.65521
G1 X57.585 Y61.258 E2.65936
G1 X57.471 Y61.258 E2.65970
G1 X56.611 Y62.117 E2.66337
G1 X56.611 Y62.003 E2.66371
G1 X57.357 Y61.258 E2.66689
G1 X57.243 Y61.258 E2.66724
G1 X56.611 Y61.889 E2.66993
G1 X56.611 Y61.775 E2.67027
G1 X57.129 Y61.258 E2.67248
G1 X57.015 Y61.258 E2.67283
G1 X56.611 Y61.662 E2.67455
G1 X56.611 Y61.548 E2.67489
G1 X56.901 Y61.258 E2.67613
G1 X56.787 Y61.258 E2.67647
G1 X56.611 Y61.434 E2.67722
G1 X56.611 Y61.320 E2.67757
G1 X56.673 Y61.258 E2.67783
G1 Z0.190 F7800.000
G1 E0.67783 F2400.00000
G92 E0
G1 X57.912 Y82.807 F7800.000
G1 E2.00000 F2400.00000
G1 F1013.405
G1 X57.912 Y87.443 E2.13078
G1 X57.088 Y87.443 E2.15402
G1 X57.088 Y82.807 E2.28480
G1 X57.837 Y82.807 E2.30593
G1 X58.590 Y82.129 F7800.000
G1 F1013.405
G1 X58.590 Y88.121 E2.47499
G1 X56.410 Y88.121 E2.53652
G1 X56.410 Y82.129 E2.70558
G1 X58.515 Y82.129 E2.76499
G1 X59.194 Y81.525 F7800.000

G1 F2400.000
G1 X59.194 Y88.725 E3.35274
G1 X58.896 Y88.725 E3.37704

G1 F2160.000
G1 X56.104 Y88.725 E3.43841

G1 F2400.000
G1 X55.806 Y88.725 E3.46271
G1 X55.806 Y81.525 E4.05047
G1 X56.104 Y81.525 E4.07477

G1 F2160.000
G1 X58.896 Y81.525 E4.13613

G1 F2400.000
G1 X59.119 Y81.525 E4.15431

G1 E2.15431 F2400.00000
G92 E0
G1 X57.500 Y83.146 F7800.000
G1 E2.00000 F2400.00000
G1 F675.603
G1 X57.500 Y87.104 E2.02038
G1 E0.02038 F2400.00000
G92 E0
G1 X57.912 Y67.193 F7800.000
G1 E2.00000 F2400.00000
G1 F1013.405
G1 X57.088 Y67.193 E2.02324
G1 X57.088 Y62.557 E2.15402
G1 X57.912 Y62.557 E2.17726
G1 X57.912 Y67.118 E2.30593
G1 X58.590 Y67.871 F7800.000
G1 F1013.405
G1 X56.410 Y67.871 E2.36745
G1 X56.410 Y61.879 E2.53652
G1 X58.590 Y61.879 E2.59804
G1 X58.590 Y67.796 E2.76499
G1 X59.194 Y68.475 F7800.000

G1 F2400.000
G1 X58.896 Y68.475 E2.78929

G1 F2160.000
G1 X56.104 Y68.475 E2.85066

G1 F2400.000
G1 X55.806 Y68.475 E2.87496
G1 X55.806 Y61.275 E3.46271
G1 X56.104 Y61.275 E3.48701

G1 F2160.000
G1 X58.896 Y61.275 E3.54838

G1 F2400.000
G1 X59.194 Y61.275 E3.57268
G1 X59.194 Y68.400 E4.15431

G1 E2.15431 F2400.00000
G92 E0
G1 X57.500 Y66.854 F7800.000
G1 E2.00000 F2400.00000
G1 F675.603
G1 X57.500 Y62.896 E2.02038
M106 S255
G1 Z0.290 F7800.000
G1 E0.02038 F2400.00000
G92 E0
G1 X58.567 Y82.807 F7800.000
G1 E2.00000 F2400.00000
G1 F1385.017
G1 X58.567 Y87.443 E2.13078
G1 X56.433 Y87.443 E2.19100
G1 X56.433 Y82.807 E2.32178
G1 X58.492 Y82.807 E2.37989
G1 X59.246 Y82.129 F7800.000
G1 F1385.017
G1 X59.246 Y88.121 E2.54895
G1 X55.754 Y88.121 E2.64746
G1 X55.754 Y82.129 E2.81652
G1 X59.171 Y82.129 E2.91292
G1 E0.91292 F2400.00000
G92 E0
G1 X59.719 Y88.725 F7800.000
G1 E2.00000 F2400.00000
G1 F2160.000
G1 X55.281 Y88.725 E2.09752
M106 S255

G1 F2400.000
G1 X55.151 Y88.725 E2.10817
G1 X55.151 Y81.525 E2.69593
G1 X55.281 Y81.525 E2.70658
M106 S255

G1 F2160.000
G1 X59.719 Y81.525 E2.80410
M106 S255

G1 F2400.000
G1 X59.849 Y81.525 E2.81475
G1 X59.849 Y88.725 E3.40251
G1 X59.794 Y88.725 E3.40704
M106 S255

G1 E1.40704 F2400.00000
G92 E0
G1 X57.625 Y87.028 F7800.000
G1 E2.00000 F2400.00000
G1 F1385.017
G1 X58.153 Y86.500 E2.02226
G1 X58.153 Y85.486 E2.05249
G1 X56.847 Y86.792 E2.10753
G1 X56.847 Y85.778 E2.13776
G1 X58.153 Y84.472 E2.19281
G1 X58.153 Y83.458 E2.22304
G1 X56.847 Y84.764 E2.27808
G1 X56.847 Y83.750 E2.30832
G1 X57.375 Y83.222 E2.33057
G1 E0.33057 F2400.00000
G92 E0
G1 X58.567 Y67.193 F7800.000
G1 E2.00000 F2400.00000
G1 F1385.017
G1 X56.433 Y67.193 E2.06022
G1 X56.433 Y62.557 E2.19100
G1 X58.567 Y62.557 E2.25123
G1 X58.567 Y67.118 E2.37989
G1 X59.246 Y67.871 F7800.000
G1 F1385.017
G1 X55.754 Y67.871 E2.47840
G1 X55.754 Y61.879 E2.64746
G1 X59.246 Y61.879 E2.74597
G1 X59.246 Y67.796 E2.91292
G1 X59.719 Y68.475 F7800.000
G1 F2160.000
G1 X55.281 Y68.475 E3.01044
M106 S255

G1 F2400.000
G1 X55.151 Y68.475 E3.02109
G1 X55.151 Y61.275 E3.60885
G1 X55.281 Y61.275 E3.61950
M106 S255

G1 F2160.000
G1 X59.719 Y61.275 E3.71702
M106 S255

G1 F2400.000
G1 X59.849 Y61.275 E3.72767
G1 X59.849 Y68.475 E4.31542
G1 X59.794 Y68.475 E4.31995
M106 S255

G1 E2.31995 F2400.00000
G92 E0
G1 X57.625 Y66.778 F7800.000
G1 E2.00000 F2400.00000
G1 F1385.017
G1 X58.153 Y66.250 E2.02226
G1 X58.153 Y65.236 E2.05249
G1 X56.847 Y66.542 E2.10753
G1 X56.847 Y65.528 E2.13776
G1 X58.153 Y64.222 E2.19281
G1 X58.153 Y63.208 E2.22304
G1 X56.847 Y64.514 E2.27808
G1 X56.847 Y63.500 E2.30832
G1 X57.375 Y62.972 E2.33057
M106 S252.45
G1 Z0.390 F7800.000
G1 E0.33057 F2400.00000
G92 E0
G1 X59.070 Y82.807 F7800.000
G1 E2.00000 F2400.00000
G1 F1800.000
G1 X59.070 Y87.443 E2.13078
G1 X55.930 Y87.443 E2.21937
G1 X55.930 Y82.807 E2.35015
G1 X58.995 Y82.807 E2.43662
G1 X59.749 Y82.129 F7800.000
G1 F1800.000
G1 X59.749 Y88.121 E2.60568
G1 X55.251 Y88.121 E2.73255
G1 X55.251 Y82.129 E2.90161
G1 X59.674 Y82.129 E3.02637
G1 X60.352 Y81.525 F7800.000
G1 F1800.000
G1 X60.352 Y88.725 E3.18458
G1 X54.648 Y88.725 E3.30993
G1 X54.648 Y81.525 E3.46814
G1 X60.277 Y81.525 E3.59185
G1 X60.241 Y82.013 F7800.000
G1 E1.59185 F2400.00000
G92 E0
G1 X58.655 Y83.750 F7800.000
G1 E2.00000 F2400.00000
G1 F1800.000
