; Gcode updated with 'stl_info' on 2019-12-09 21:19:31.707707

; stl_min_x = -6.625
; stl_max_x = 6.572760105133057
; stl_min_y = -6.611929893493652
; stl_max_y = 6.611929893493652
; stl_min_z = 0.0

; generated by Slic3r 1.3.1-dev (Build adea0d9) on 2019-12-09 at 21:19:31

; external perimeters extrusion width = 0.44mm (2.86mm^3/s)
; perimeters extrusion width = 0.56mm (4.14mm^3/s)
; infill extrusion width = 0.50mm (3.66mm^3/s)
; solid infill extrusion width = 0.56mm (3.10mm^3/s)
; top infill extrusion width = 0.56mm (3.10mm^3/s)

M107
G92 E0
;D3D:START:START
T0
M104 S215 T0

G21
G90
M107
T0
G28
G29
M109 T0 S215 T0
G0 F3000
M107
T0
G92 E0
G0 X0 Y149 Z0.1 F3600
G1 Y49 E6.5 F1200
G0 Z1
G92 E0
; Filament gcode

G21 ; set units to millimeters
G90 ; use absolute coordinates
M82 ; use absolute distances for extrusion
G92 E0
G1 Z0.300 F7800.000
G1 E-2.00000 F2400.00000
G92 E0
G1 X72.213 Y72.383 F7800.000
G1 E2.00000 F2400.00000
G1 F1800.000
G1 X72.563 Y72.055 E2.01590
G1 X72.952 Y71.772 E2.03181
G1 X73.372 Y71.541 E2.04771
G1 X73.819 Y71.364 E2.06361
G1 X74.284 Y71.245 E2.07952
G1 X74.760 Y71.185 E2.09542
G1 X75.240 Y71.185 E2.11133
G1 X75.716 Y71.245 E2.12723
G1 X76.181 Y71.364 E2.14313
G1 X76.628 Y71.541 E2.15904
G1 X77.048 Y71.772 E2.17494
G1 X77.437 Y72.055 E2.19084
G1 X77.787 Y72.383 E2.20675
G1 X78.093 Y72.753 E2.22265
G1 X78.350 Y73.158 E2.23856
G1 X78.554 Y73.593 E2.25446
G1 X78.703 Y74.049 E2.27036
G1 X78.792 Y74.521 E2.28627
G1 X78.823 Y75.000 E2.30217
G1 X78.792 Y75.479 E2.31808
G1 X78.703 Y75.951 E2.33398
G1 X78.554 Y76.407 E2.34988
G1 X78.350 Y76.842 E2.36579
G1 X78.093 Y77.247 E2.38169
G1 X77.787 Y77.617 E2.39759
G1 X77.437 Y77.945 E2.41350
G1 X77.048 Y78.228 E2.42940
G1 X76.628 Y78.459 E2.44530
G1 X76.181 Y78.636 E2.46121
G1 X75.716 Y78.755 E2.47711
G1 X75.240 Y78.815 E2.49302
G1 X74.760 Y78.815 E2.50892
G1 X74.284 Y78.755 E2.52482
G1 X73.819 Y78.636 E2.54073
G1 X73.372 Y78.459 E2.55663
G1 X72.952 Y78.228 E2.57254
G1 X72.563 Y77.945 E2.58844
G1 X72.213 Y77.617 E2.60434
G1 X71.907 Y77.247 E2.62025
G1 X71.650 Y76.842 E2.63615
G1 X71.446 Y76.407 E2.65205
G1 X71.297 Y75.951 E2.66796
G1 X71.208 Y75.479 E2.68386
G1 X71.177 Y75.000 E2.69977
G1 X71.208 Y74.521 E2.71567
G1 X71.297 Y74.049 E2.73157
G1 X71.446 Y73.593 E2.74748
G1 X71.650 Y73.158 E2.76338
G1 X71.907 Y72.753 E2.77928
G1 X72.175 Y72.429 E2.79320
G1 X72.407 Y72.565 F7800.000
G1 F1800.000
G1 X72.733 Y72.260 E2.80800
G1 X73.094 Y71.997 E2.82279
G1 X73.486 Y71.782 E2.83759
G1 X73.901 Y71.618 E2.85239
G1 X74.334 Y71.507 E2.86718
G1 X74.777 Y71.451 E2.88198
G1 X75.223 Y71.451 E2.89678
G1 X75.666 Y71.507 E2.91157
G1 X76.099 Y71.618 E2.92637
G1 X76.514 Y71.782 E2.94116
G1 X76.906 Y71.997 E2.95596
G1 X77.267 Y72.260 E2.97076
G1 X77.593 Y72.565 E2.98555
G1 X77.877 Y72.910 E3.00035
G1 X78.117 Y73.287 E3.01515
G1 X78.307 Y73.691 E3.02994
G1 X78.445 Y74.116 E3.04474
G1 X78.528 Y74.554 E3.05954
G1 X78.556 Y75.000 E3.07433
G1 X78.528 Y75.446 E3.08913
G1 X78.445 Y75.884 E3.10393
G1 X78.307 Y76.309 E3.11872
G1 X78.117 Y76.713 E3.13352
G1 X77.877 Y77.090 E3.14832
G1 X77.593 Y77.435 E3.16311
G1 X77.267 Y77.740 E3.17791
G1 X76.906 Y78.003 E3.19270
G1 X76.514 Y78.218 E3.20750
G1 X76.099 Y78.382 E3.22230
G1 X75.666 Y78.493 E3.23709
G1 X75.223 Y78.549 E3.25189
G1 X74.777 Y78.549 E3.26669
G1 X74.334 Y78.493 E3.28148
G1 X73.901 Y78.382 E3.29628
G1 X73.486 Y78.218 E3.31108
G1 X73.094 Y78.003 E3.32587
G1 X72.733 Y77.740 E3.34067
G1 X72.407 Y77.435 E3.35547
G1 X72.123 Y77.090 E3.37026
G1 X71.883 Y76.713 E3.38506
G1 X71.693 Y76.309 E3.39986
G1 X71.555 Y75.884 E3.41465
G1 X71.472 Y75.446 E3.42945
G1 X71.444 Y75.000 E3.44425
G1 X71.472 Y74.554 E3.45904
G1 X71.555 Y74.116 E3.47384
G1 X71.693 Y73.691 E3.48863
G1 X71.883 Y73.287 E3.50343
G1 X72.123 Y72.910 E3.51823
G1 X72.369 Y72.612 E3.53104
G1 X72.601 Y72.748 F7800.000
G1 F1800.000
G1 X72.903 Y72.465 E3.54473
G1 X73.237 Y72.222 E3.55841
G1 X73.599 Y72.023 E3.57210
G1 X73.983 Y71.871 E3.58579
G1 X74.383 Y71.768 E3.59948
G1 X74.793 Y71.716 E3.61317
G1 X75.207 Y71.716 E3.62686
G1 X75.617 Y71.768 E3.64055
G1 X76.017 Y71.871 E3.65424
G1 X76.401 Y72.023 E3.66793
G1 X76.763 Y72.222 E3.68162
G1 X77.097 Y72.465 E3.69531
G1 X77.399 Y72.748 E3.70900
G1 X77.662 Y73.066 E3.72268
G1 X77.883 Y73.415 E3.73637
G1 X78.059 Y73.789 E3.75006
G1 X78.187 Y74.182 E3.76375
G1 X78.264 Y74.588 E3.77744
G1 X78.290 Y75.000 E3.79113
G1 X78.264 Y75.412 E3.80482
G1 X78.187 Y75.818 E3.81851
G1 X78.059 Y76.211 E3.83220
G1 X77.883 Y76.585 E3.84589
G1 X77.662 Y76.934 E3.85958
G1 X77.399 Y77.252 E3.87327
G1 X77.097 Y77.535 E3.88696
G1 X76.763 Y77.778 E3.90064
G1 X76.401 Y77.977 E3.91433
G1 X76.017 Y78.129 E3.92802
G1 X75.617 Y78.232 E3.94171
G1 X75.207 Y78.284 E3.95540
G1 X74.793 Y78.284 E3.96909
G1 X74.383 Y78.232 E3.98278
G1 X73.983 Y78.129 E3.99647
G1 X73.599 Y77.977 E4.01016
G1 X73.237 Y77.778 E4.02385
G1 X72.903 Y77.535 E4.03754
G1 X72.601 Y77.252 E4.05123
G1 X72.338 Y76.934 E4.06492
G1 X72.117 Y76.585 E4.07860
G1 X71.941 Y76.211 E4.09229
G1 X71.813 Y75.818 E4.10598
G1 X71.736 Y75.412 E4.11967
G1 X71.710 Y75.000 E4.13336
G1 X71.736 Y74.588 E4.14705
G1 X71.813 Y74.182 E4.16074
G1 X71.941 Y73.789 E4.17443
G1 X72.117 Y73.415 E4.18812
G1 X72.338 Y73.066 E4.20181
G1 X72.563 Y72.794 E4.21351
G1 E2.21351 F2400.00000
G92 E0
G1 X70.679 Y70.942 F7800.000
G1 E2.00000 F2400.00000
G1 F1800.000
G1 X71.222 Y70.433 E2.02466
G1 X71.824 Y69.995 E2.04932
G1 X72.476 Y69.637 E2.07398
G1 X73.168 Y69.363 E2.09864
G1 X73.889 Y69.178 E2.12330
G1 X74.628 Y69.084 E2.14796
G1 X75.372 Y69.084 E2.17262
G1 X76.111 Y69.178 E2.19728
G1 X76.832 Y69.363 E2.22195
G1 X77.524 Y69.637 E2.24661
G1 X78.176 Y69.995 E2.27127
G1 X78.778 Y70.433 E2.29593
G1 X79.321 Y70.942 E2.32059
G1 X79.795 Y71.516 E2.34525
G1 X80.194 Y72.144 E2.36991
G1 X80.511 Y72.818 E2.39457
G1 X80.741 Y73.526 E2.41923
G1 X80.881 Y74.257 E2.44389
G1 X80.927 Y75.000 E2.46855
G1 X80.881 Y75.743 E2.49321
G1 X80.741 Y76.474 E2.51787
G1 X80.511 Y77.182 E2.54253
G1 X80.194 Y77.856 E2.56719
G1 X79.795 Y78.484 E2.59185
G1 X79.321 Y79.058 E2.61651
G1 X78.778 Y79.567 E2.64117
G1 X78.176 Y80.005 E2.66583
G1 X77.524 Y80.363 E2.69050
G1 X76.832 Y80.637 E2.71516
G1 X76.111 Y80.822 E2.73982
G1 X75.372 Y80.916 E2.76448
G1 X74.628 Y80.916 E2.78914
G1 X73.889 Y80.822 E2.81380
G1 X73.168 Y80.637 E2.83846
G1 X72.476 Y80.363 E2.86312
G1 X71.824 Y80.005 E2.88778
G1 X71.222 Y79.567 E2.91244
G1 X70.679 Y79.058 E2.93710
G1 X70.205 Y78.484 E2.96176
G1 X69.806 Y77.856 E2.98642
G1 X69.489 Y77.182 E3.01108
G1 X69.259 Y76.474 E3.03574
G1 X69.119 Y75.743 E3.06040
G1 X69.073 Y75.000 E3.08506
G1 X69.119 Y74.257 E3.10972
G1 X69.259 Y73.526 E3.13438
G1 X69.489 Y72.818 E3.15905
G1 X69.806 Y72.144 E3.18371
G1 X70.205 Y71.516 E3.20837
G1 X70.641 Y70.989 E3.23104
G1 X70.485 Y70.760 F7800.000
G1 F1800.000
G1 X71.052 Y70.228 E3.25681
G1 X71.681 Y69.771 E3.28257
G1 X72.363 Y69.396 E3.30834
G1 X73.086 Y69.110 E3.33411
G1 X73.839 Y68.916 E3.35988
G1 X74.611 Y68.819 E3.38565
G1 X75.389 Y68.819 E3.41141
G1 X76.161 Y68.916 E3.43718
G1 X76.914 Y69.110 E3.46295
G1 X77.637 Y69.396 E3.48872
G1 X78.319 Y69.771 E3.51448
G1 X78.948 Y70.228 E3.54025
G1 X79.515 Y70.760 E3.56602
G1 X80.011 Y71.360 E3.59179
G1 X80.427 Y72.016 E3.61756
G1 X80.759 Y72.720 E3.64332
G1 X80.999 Y73.460 E3.66909
G1 X81.145 Y74.224 E3.69486
G1 X81.194 Y75.000 E3.72063
G1 X81.145 Y75.776 E3.74639
G1 X80.999 Y76.540 E3.77216
G1 X80.759 Y77.280 E3.79793
G1 X80.427 Y77.984 E3.82370
G1 X80.011 Y78.640 E3.84947
G1 X79.515 Y79.240 E3.87523
G1 X78.948 Y79.772 E3.90100
G1 X78.319 Y80.229 E3.92677
G1 X77.637 Y80.604 E3.95254
G1 X76.914 Y80.890 E3.97831
G1 X76.161 Y81.084 E4.00407
G1 X75.389 Y81.181 E4.02984
G1 X74.611 Y81.181 E4.05561
G1 X73.839 Y81.084 E4.08138
G1 X73.086 Y80.890 E4.10714
G1 X72.363 Y80.604 E4.13291
G1 X71.681 Y80.229 E4.15868
G1 X71.052 Y79.772 E4.18445
G1 X70.485 Y79.240 E4.21022
G1 X69.989 Y78.640 E4.23598
G1 X69.573 Y77.984 E4.26175
G1 X69.241 Y77.280 E4.28752
G1 X69.001 Y76.540 E4.31329
G1 X68.855 Y75.776 E4.33905
G1 X68.806 Y75.000 E4.36482
G1 X68.855 Y74.224 E4.39059
G1 X69.001 Y73.460 E4.41636
G1 X69.241 Y72.720 E4.44213
G1 X69.573 Y72.016 E4.46789
G1 X69.989 Y71.360 E4.49366
G1 X70.447 Y70.806 E4.51744
G1 X70.291 Y70.578 F7800.000
G1 F1800.000
G1 X70.882 Y70.023 E4.54432
G1 X71.539 Y69.546 E4.57119
G1 X72.250 Y69.155 E4.59807
G1 X73.004 Y68.856 E4.62494
G1 X73.790 Y68.655 E4.65182
G1 X74.594 Y68.553 E4.67869
G1 X75.406 Y68.553 E4.70557
G1 X76.210 Y68.655 E4.73244
G1 X76.996 Y68.856 E4.75932
G1 X77.750 Y69.155 E4.78619
G1 X78.461 Y69.546 E4.81307
G1 X79.118 Y70.023 E4.83994
G1 X79.709 Y70.578 E4.86682
G1 X80.226 Y71.203 E4.89369
G1 X80.661 Y71.888 E4.92057
G1 X81.006 Y72.622 E4.94744
G1 X81.257 Y73.394 E4.97432
G1 X81.409 Y74.190 E5.00119
G1 X81.460 Y75.000 E5.02807
G1 X81.409 Y75.810 E5.05494
G1 X81.257 Y76.606 E5.08182
G1 X81.006 Y77.378 E5.10869
G1 X80.661 Y78.112 E5.13557
G1 X80.226 Y78.797 E5.16244
G1 X79.709 Y79.422 E5.18932
G1 X79.118 Y79.977 E5.21619
G1 X78.461 Y80.454 E5.24307
G1 X77.750 Y80.845 E5.26994
G1 X76.996 Y81.144 E5.29682
G1 X76.210 Y81.345 E5.32369
G1 X75.406 Y81.447 E5.35057
G1 X74.594 Y81.447 E5.37744
G1 X73.790 Y81.345 E5.40432
G1 X73.004 Y81.144 E5.43119
G1 X72.250 Y80.845 E5.45807
G1 X71.539 Y80.454 E5.48494
G1 X70.882 Y79.977 E5.51182
G1 X70.291 Y79.422 E5.53869
G1 X69.774 Y78.797 E5.56557
G1 X69.339 Y78.112 E5.59244
G1 X68.994 Y77.378 E5.61932
G1 X68.743 Y76.606 E5.64620
G1 X68.591 Y75.810 E5.67307
G1 X68.540 Y75.000 E5.69995
G1 X68.591 Y74.190 E5.72682
G1 X68.743 Y73.394 E5.75370
G1 X68.994 Y72.622 E5.78057
G1 X69.339 Y71.888 E5.80745
G1 X69.774 Y71.203 E5.83432
G1 X70.253 Y70.624 E5.85921
G1 X70.979 Y71.019 F7800.000
G1 F1800.000
G1 X70.769 Y71.229 E5.86918
G1 X70.317 Y71.776 E5.89303
G1 X69.936 Y72.376 E5.91692
G1 X69.876 Y72.503 E5.92164
G1 X72.497 Y69.882 E6.04621
G1 X72.693 Y69.774 E6.05372
G1 X73.178 Y69.582 E6.07125
G1 X69.581 Y73.179 E6.24218
G1 X69.406 Y73.735 E6.26180
G1 X73.723 Y69.418 E6.46700
G1 X74.042 Y69.336 E6.47808
G1 X74.207 Y69.315 E6.48365
G1 X69.316 Y74.206 E6.71612
G1 X69.280 Y74.394 E6.72254
G1 X69.265 Y74.638 E6.73078
G1 X74.643 Y69.260 E6.98641
G1 X75.038 Y69.247 E6.99967
G1 X72.440 Y71.844 E7.12313
G1 X72.706 Y71.651 E7.13418
G1 X73.156 Y71.404 E7.15143
G1 X73.331 Y71.334 E7.15776
G1 X75.419 Y69.247 E7.25699
G1 X75.761 Y69.285 E7.26858
G1 X73.900 Y71.146 E7.35704
G1 X74.131 Y71.087 E7.36503
G1 X74.371 Y71.057 E7.37317
G1 X76.100 Y69.328 E7.45535
G1 X76.410 Y69.399 E7.46603
G1 X74.786 Y71.023 E7.54321
G1 X75.165 Y71.024 E7.55597
G1 X76.713 Y69.477 E7.62952
G1 X77.000 Y69.571 E7.63966
G1 X75.504 Y71.067 E7.71077
G1 X75.823 Y71.128 E7.72171
G1 X77.273 Y69.679 E7.79060
G1 X77.514 Y69.774 E7.79931
G1 X77.543 Y69.790 E7.80041
G1 X76.127 Y71.206 E7.86771
G1 X76.403 Y71.311 E7.87764
G1 X77.788 Y69.925 E7.94349
G1 X78.034 Y70.060 E7.95292
G1 X76.672 Y71.423 E8.01766
G1 X76.918 Y71.558 E8.02709
G1 X78.266 Y70.210 E8.09114
G1 X78.486 Y70.371 E8.10031
G1 X77.156 Y71.701 E8.16353
G1 X77.377 Y71.861 E8.17270
G1 X78.712 Y70.535 E8.23595
G1 X78.904 Y70.715 E8.24480
G1 X77.587 Y72.032 E8.30739
G1 X77.784 Y72.216 E8.31645
G1 X79.100 Y70.900 E8.37904
G1 X79.289 Y71.092 E8.38809
G1 X77.968 Y72.414 E8.45089
G1 X78.140 Y72.622 E8.45999
G1 X79.461 Y71.301 E8.52279
G1 X79.634 Y71.509 E8.53188
G1 X78.297 Y72.846 E8.59541
G1 X78.445 Y73.079 E8.60469
G1 X79.789 Y71.735 E8.66855
G1 X79.937 Y71.968 E8.67783
G1 X78.573 Y73.332 E8.74264
G1 X78.695 Y73.591 E8.75227
G1 X80.081 Y72.205 E8.81814
G1 X80.203 Y72.464 E8.82777
G1 X78.789 Y73.878 E8.89496
G1 X78.874 Y74.175 E8.90532
G1 X80.325 Y72.723 E8.97430
G1 X80.428 Y73.001 E8.98426
G1 X78.935 Y74.495 E9.05524
G1 X78.969 Y74.842 E9.06695
G1 X80.522 Y73.289 E9.14075
G1 X80.605 Y73.586 E9.15113
G1 X78.979 Y75.213 E9.22845
G1 X78.952 Y75.620 E9.24216
G1 X80.666 Y73.906 E9.32363
G1 X80.723 Y74.231 E9.33470
G1 X78.862 Y76.091 E9.42311
G1 X78.673 Y76.661 E9.44330
G1 X80.745 Y74.590 E9.54176
G1 X80.761 Y74.955 E9.55406
G1 X78.182 Y77.534 E9.67661
G1 X79.021 Y78.981 F7800.000
G1 F1800.000
G1 X79.231 Y78.771 E9.68657
G1 X79.683 Y78.224 E9.71043
G1 X80.064 Y77.624 E9.73432
G1 X80.124 Y77.497 E9.73904
G1 X77.503 Y80.118 E9.86361
G1 X77.307 Y80.226 E9.87112
G1 X76.822 Y80.418 E9.88865
G1 X80.419 Y76.821 E10.05958
G1 X80.594 Y76.265 E10.07919
G1 X76.277 Y80.582 E10.28440
G1 X75.958 Y80.664 E10.29547
G1 X75.793 Y80.685 E10.30105
G1 X80.684 Y75.794 E10.53352
G1 X80.720 Y75.606 E10.53994
G1 X80.735 Y75.362 E10.54818
G1 X75.357 Y80.740 E10.80381
G1 X74.962 Y80.753 E10.81707
G1 X77.560 Y78.156 E10.94053
G1 X77.294 Y78.349 E10.95157
G1 X76.844 Y78.596 E10.96883
G1 X76.669 Y78.666 E10.97516
G1 X74.581 Y80.753 E11.07438
G1 X74.239 Y80.715 E11.08598
G1 X76.100 Y78.854 E11.17444
G1 X75.869 Y78.913 E11.18243
G1 X75.629 Y78.943 E11.19057
G1 X73.900 Y80.672 E11.27275
G1 X73.590 Y80.601 E11.28343
G1 X75.214 Y78.977 E11.36061
G1 X74.835 Y78.976 E11.37336
G1 X73.287 Y80.523 E11.44691
G1 X73.000 Y80.429 E11.45706
G1 X74.496 Y78.933 E11.52817
G1 X74.177 Y78.872 E11.53911
G1 X72.727 Y80.321 E11.60800
G1 X72.486 Y80.226 E11.61671
G1 X72.457 Y80.210 E11.61781
G1 X73.873 Y78.794 E11.68511
G1 X73.597 Y78.689 E11.69504
G1 X72.212 Y80.075 E11.76089
G1 X71.966 Y79.940 E11.77032
G1 X73.328 Y78.577 E11.83506
G1 X73.082 Y78.442 E11.84449
G1 X71.734 Y79.790 E11.90854
G1 X71.514 Y79.629 E11.91771
G1 X72.844 Y78.299 E11.98093
G1 X72.623 Y78.139 E11.99009
G1 X71.288 Y79.465 E12.05335
G1 X71.096 Y79.285 E12.06220
G1 X72.413 Y77.968 E12.12479
G1 X72.216 Y77.784 E12.13385
G1 X70.900 Y79.100 E12.19644
G1 X70.711 Y78.908 E12.20549
G1 X72.032 Y77.586 E12.26829
G1 X71.860 Y77.378 E12.27739
G1 X70.539 Y78.699 E12.34018
G1 X70.366 Y78.491 E12.34928
G1 X71.703 Y77.154 E12.41281
G1 X71.555 Y76.921 E12.42209
G1 X70.211 Y78.265 E12.48595
G1 X70.063 Y78.032 E12.49523
G1 X71.427 Y76.668 E12.56004
G1 X71.305 Y76.409 E12.56967
G1 X69.919 Y77.795 E12.63554
G1 X69.797 Y77.536 E12.64517
G1 X71.211 Y76.122 E12.71236
G1 X71.126 Y75.825 E12.72272
G1 X69.675 Y77.277 E12.79170
G1 X69.572 Y76.999 E12.80166
G1 X71.065 Y75.505 E12.87263
G1 X71.031 Y75.158 E12.88435
G1 X69.478 Y76.711 E12.95815
G1 X69.395 Y76.414 E12.96853
G1 X71.021 Y74.787 E13.04585
G1 X71.048 Y74.380 E13.05956
G1 X69.334 Y76.094 E13.14103
G1 X69.277 Y75.769 E13.15210
G1 X71.138 Y73.909 E13.24051
G1 X71.327 Y73.339 E13.26070
G1 X69.255 Y75.410 E13.35916
G1 X69.239 Y75.045 E13.37145
G1 X71.818 Y72.466 E13.49401
M106 S255
G1 Z0.500 F7800.000
G1 X72.227 Y72.396 F7800.000
G1 F1800.000
G1 X72.576 Y72.069 E13.51454
G1 X72.962 Y71.789 E13.53508
G1 X73.381 Y71.559 E13.55562
G1 X73.825 Y71.383 E13.57615
G1 X74.287 Y71.264 E13.59669
G1 X74.761 Y71.204 E13.61722
G1 X75.239 Y71.204 E13.63776
G1 X75.713 Y71.264 E13.65830
G1 X76.175 Y71.383 E13.67883
G1 X76.625 Y71.561 E13.69963
G1 X77.039 Y71.790 E13.71998
G1 X77.424 Y72.069 E13.74045
G1 X77.773 Y72.396 E13.76098
G1 X78.077 Y72.764 E13.78152
G1 X78.333 Y73.168 E13.80205
G1 X78.536 Y73.600 E13.82259
G1 X78.684 Y74.054 E13.84312
G1 X78.773 Y74.523 E13.86366
G1 X78.803 Y75.000 E13.88420
G1 X78.773 Y75.477 E13.90473
G1 X78.684 Y75.946 E13.92527
G1 X78.536 Y76.400 E13.94581
G1 X78.333 Y76.832 E13.96634
G1 X78.077 Y77.236 E13.98688
G1 X77.773 Y77.604 E14.00741
G1 X77.424 Y77.931 E14.02795
G1 X77.038 Y78.211 E14.04849
G1 X76.619 Y78.441 E14.06902
G1 X76.175 Y78.617 E14.08956
G1 X75.674 Y78.746 E14.11182
G1 X75.235 Y78.796 E14.13083
G1 X74.761 Y78.796 E14.15118
G1 X74.287 Y78.736 E14.17172
G1 X73.825 Y78.617 E14.19225
G1 X73.375 Y78.439 E14.21305
G1 X72.962 Y78.211 E14.23335
G1 X72.576 Y77.931 E14.25386
G1 X72.227 Y77.604 E14.27440
G1 X71.923 Y77.236 E14.29494
G1 X71.667 Y76.832 E14.31547
G1 X71.464 Y76.400 E14.33601
G1 X71.316 Y75.946 E14.35654
G1 X71.227 Y75.477 E14.37708
G1 X71.197 Y75.000 E14.39762
G1 X71.227 Y74.523 E14.41815
G1 X71.316 Y74.054 E14.43869
G1 X71.464 Y73.600 E14.45923
G1 X71.667 Y73.168 E14.47976
G1 X71.923 Y72.764 E14.50030
G1 X72.189 Y72.443 E14.51825
G1 X72.561 Y72.710 F7800.000
G1 F1800.000
G1 X72.868 Y72.422 E14.53213
G1 X73.207 Y72.175 E14.54600
