; generated by Slic3r 1.3.1-dev (Build 2ef957d) on 2019-11-25 at 09:20:12

; external perimeters extrusion width = 0.55mm (4.37mm^3/s)
; perimeters extrusion width = 0.70mm (11.44mm^3/s)
; infill extrusion width = 0.62mm (13.45mm^3/s)
; solid infill extrusion width = 0.70mm (3.81mm^3/s)
; top infill extrusion width = 0.70mm (2.86mm^3/s)

M107
G92 E0
M104 S200 ; set temperature
G28 ; home all axes
G1 Z5 F5000 ; lift nozzle

; Filament gcode

M109 S200 ; set temperature and wait for it to be reached
G21 ; set units to millimeters
G90 ; use absolute coordinates
M82 ; use absolute distances for extrusion
G92 E0
G1 Z0.350 F7800.000
G1 E-2.00000 F2400.00000
G92 E0
G1 X47.397 Y44.288 F7800.000
G1 E2.00000 F2400.00000
G1 F1800.000
G1 X50.999 Y41.095 E2.14894
G1 X54.795 Y38.134 E2.29787
G1 X58.768 Y35.418 E2.44681
G1 X59.120 Y35.195 E2.45969
G1 X62.905 Y32.956 E2.59575
G1 X67.188 Y30.759 E2.74469
G1 X71.600 Y28.836 E2.89362
G1 X71.987 Y28.682 E2.90650
G1 X76.521 Y27.064 E3.05544
G1 X80.744 Y25.837 E3.19150
G1 X85.438 Y24.775 E3.34044
G1 X85.847 Y24.697 E3.35332
G1 X90.190 Y24.009 E3.48938
G1 X94.981 Y23.543 E3.63831
G1 X95.397 Y23.516 E3.65119
G1 X100.208 Y23.378 E3.80013
G1 X104.603 Y23.516 E3.93619
G1 X109.397 Y23.957 E4.08513
G1 X114.153 Y24.697 E4.23407
G1 X114.562 Y24.775 E4.24694
G1 X118.854 Y25.734 E4.38301
G1 X123.479 Y27.064 E4.53194
G1 X123.875 Y27.193 E4.54482
G1 X128.400 Y28.836 E4.69376
G1 X132.812 Y30.759 E4.84269
G1 X136.730 Y32.756 E4.97876
G1 X140.880 Y35.195 E5.12769
G1 X141.232 Y35.418 E5.14057
G1 X144.869 Y37.890 E5.27664
G1 X148.680 Y40.829 E5.42558
G1 X152.299 Y44.003 E5.57451
G1 X155.712 Y47.397 E5.72345
G1 X158.905 Y50.999 E5.87238
G1 X161.866 Y54.795 E6.02132
G1 X164.582 Y58.768 E6.17025
G1 X164.805 Y59.120 E6.18313
G1 X167.044 Y62.905 E6.31920
G1 X169.241 Y67.188 E6.46813
G1 X171.164 Y71.600 E6.61707
G1 X171.318 Y71.987 E6.62995
G1 X172.807 Y76.125 E6.76601
G1 X174.163 Y80.744 E6.91495
G1 X175.225 Y85.438 E7.06388
G1 X175.303 Y85.847 E7.07676
G1 X176.043 Y90.603 E7.22569
G1 X176.457 Y94.981 E7.36176
G1 X176.484 Y95.397 E7.37464
G1 X176.622 Y100.208 E7.52357
G1 X176.484 Y104.603 E7.65964
G1 X176.043 Y109.397 E7.80858
G1 X175.303 Y114.153 E7.95751
G1 X175.225 Y114.562 E7.97039
G1 X174.266 Y118.853 E8.10645
G1 X172.936 Y123.479 E8.25539
G1 X172.807 Y123.875 E8.26827
G1 X171.164 Y128.400 E8.41720
G1 X169.418 Y132.436 E8.55327
G1 X167.244 Y136.730 E8.70220
G1 X164.805 Y140.880 E8.85114
G1 X164.582 Y141.232 E8.86402
G1 X162.110 Y144.869 E9.00008
G1 X159.171 Y148.680 E9.14902
G1 X155.997 Y152.299 E9.29795
G1 X152.603 Y155.712 E9.44689
G1 X152.299 Y155.997 E9.45977
G1 X148.680 Y159.171 E9.60870
G1 X145.205 Y161.866 E9.74477
G1 X141.232 Y164.582 E9.89370
G1 X140.880 Y164.805 E9.90658
G1 X136.730 Y167.244 E10.05552
G1 X132.436 Y169.418 E10.20445
G1 X128.013 Y171.318 E10.35339
G1 X123.875 Y172.807 E10.48946
G1 X119.256 Y174.163 E10.63839
G1 X114.562 Y175.225 E10.78733
G1 X114.153 Y175.303 E10.80021
G1 X109.810 Y175.991 E10.93627
G1 X105.019 Y176.457 E11.08520
G1 X104.603 Y176.484 E11.09808
G1 X99.792 Y176.622 E11.24702
G1 X95.397 Y176.484 E11.38308
G1 X90.603 Y176.043 E11.53202
G1 X85.847 Y175.303 E11.68096
G1 X85.438 Y175.225 E11.69383
G1 X81.147 Y174.266 E11.82990
G1 X76.521 Y172.936 E11.97883
G1 X76.125 Y172.807 E11.99171
G1 X71.600 Y171.164 E12.14065
G1 X67.564 Y169.418 E12.27671
G1 X63.270 Y167.244 E12.42565
G1 X59.120 Y164.805 E12.57458
G1 X58.768 Y164.582 E12.58746
G1 X54.795 Y161.866 E12.73640
G1 X50.999 Y158.905 E12.88534
G1 X47.701 Y155.997 E13.02140
G1 X44.288 Y152.603 E13.17034
G1 X44.003 Y152.299 E13.18321
G1 X40.829 Y148.680 E13.33215
G1 X38.134 Y145.205 E13.46821
G1 X35.418 Y141.232 E13.61715
G1 X35.195 Y140.880 E13.63003
G1 X32.756 Y136.730 E13.77896
G1 X30.582 Y132.436 E13.92790
G1 X28.682 Y128.013 E14.07684
G1 X27.064 Y123.479 E14.22578
G1 X25.837 Y119.256 E14.36184
G1 X24.775 Y114.562 E14.51077
G1 X24.697 Y114.153 E14.52365
G1 X24.009 Y109.810 E14.65972
G1 X23.543 Y105.019 E14.80865
G1 X23.516 Y104.603 E14.82153
G1 X23.378 Y99.792 E14.97046
G1 X23.516 Y95.397 E15.10653
G1 X23.957 Y90.603 E15.25547
G1 X24.697 Y85.847 E15.40440
G1 X24.775 Y85.438 E15.41728
G1 X25.837 Y80.744 E15.56621
G1 X27.064 Y76.521 E15.70228
G1 X27.193 Y76.125 E15.71516
G1 X28.836 Y71.600 E15.86409
G1 X30.582 Y67.564 E16.00016
G1 X32.756 Y63.270 E16.14909
G1 X35.195 Y59.120 E16.29803
G1 X35.418 Y58.768 E16.31091
G1 X37.890 Y55.131 E16.44697
G1 X40.829 Y51.320 E16.59591
G1 X44.003 Y47.701 E16.74484
G1 X47.344 Y44.341 E16.89146
G1 E14.89146 F2400.00000
G92 E0
G1 X98.688 Y149.992 F7800.000
G1 E2.00000 F2400.00000
G1 F1800.000
G1 X99.055 Y149.911 E2.01162
G1 X99.675 Y149.832 E2.03095
G1 X100.300 Y149.832 E2.05030
G1 X100.674 Y149.868 E2.06191
G1 X101.263 Y149.980 E2.08047
G1 X101.599 Y150.078 E2.09131
G1 X101.929 Y150.196 E2.10215
G1 X102.495 Y150.463 E2.12149
G1 X103.022 Y150.797 E2.14083
G1 X103.319 Y151.028 E2.15244
G1 X103.756 Y151.438 E2.17101
G1 X103.988 Y151.701 E2.18185
G1 X104.202 Y151.978 E2.19268
G1 X104.537 Y152.505 E2.21202
G1 X104.804 Y153.071 E2.23137
G1 X104.931 Y153.424 E2.24298
G1 X105.086 Y154.030 E2.26232
G1 X105.165 Y154.650 E2.28166
G1 X105.176 Y155.025 E2.29328
G1 X105.137 Y155.649 E2.31262
G1 X105.015 Y156.288 E2.33274
G1 X104.814 Y156.906 E2.35286
G1 X104.548 Y157.472 E2.37220
G1 X104.173 Y158.063 E2.39386
G1 X103.775 Y158.545 E2.41321
G1 X103.319 Y158.972 E2.43255
G1 X102.752 Y159.384 E2.45421
G1 X102.227 Y159.673 E2.47277
G1 X101.882 Y159.822 E2.48439
G1 X101.312 Y160.008 E2.50295
G1 X100.945 Y160.089 E2.51457
G1 X100.325 Y160.168 E2.53391
G1 X99.700 Y160.168 E2.55325
G1 X99.326 Y160.132 E2.56486
G1 X98.737 Y160.020 E2.58342
G1 X98.401 Y159.922 E2.59426
G1 X98.071 Y159.804 E2.60510
G1 X97.528 Y159.548 E2.62366
G1 X97.205 Y159.357 E2.63528
G1 X96.699 Y158.990 E2.65462
G1 X96.225 Y158.545 E2.67474
G1 X95.811 Y158.043 E2.69486
G1 X95.476 Y157.516 E2.71420
G1 X95.317 Y157.204 E2.72504
G1 X95.178 Y156.882 E2.73588
G1 X94.993 Y156.312 E2.75444
G1 X94.911 Y155.945 E2.76605
G1 X94.832 Y155.325 E2.78539
G1 X94.832 Y154.675 E2.80551
G1 X94.911 Y154.055 E2.82485
G1 X94.993 Y153.688 E2.83647
G1 X95.186 Y153.094 E2.85581
G1 X95.452 Y152.528 E2.87515
G1 X95.827 Y151.937 E2.89681
G1 X96.225 Y151.455 E2.91616
G1 X96.681 Y151.028 E2.93550
G1 X96.978 Y150.797 E2.94711
G1 X97.484 Y150.476 E2.96568
G1 X98.118 Y150.178 E2.98734
G1 X98.617 Y150.016 E3.00358
G1 X98.853 Y150.596 F7800.000
G1 F1800.000
G1 X99.162 Y150.527 E3.01338
G1 X99.714 Y150.457 E3.03059
G1 X100.270 Y150.457 E3.04780
G1 X100.586 Y150.487 E3.05759
G1 X101.117 Y150.588 E3.07433
G1 X101.406 Y150.672 E3.08365
G1 X101.689 Y150.774 E3.09297
G1 X102.193 Y151.011 E3.11018
G1 X102.663 Y151.309 E3.12739
G1 X102.913 Y151.503 E3.13718
G1 X103.307 Y151.874 E3.15392
G1 X103.506 Y152.100 E3.16324
G1 X103.691 Y152.337 E3.17256
G1 X103.989 Y152.807 E3.18977
G1 X104.226 Y153.310 E3.20698
G1 X104.333 Y153.608 E3.21678
G1 X104.471 Y154.147 E3.23399
G1 X104.541 Y154.699 E3.25120
G1 X104.551 Y155.015 E3.26099
G1 X104.516 Y155.570 E3.27821
G1 X104.409 Y156.132 E3.29589
G1 X104.232 Y156.676 E3.31358
G1 X103.995 Y157.179 E3.33079
G1 X103.673 Y157.687 E3.34942
G1 X103.318 Y158.116 E3.36663
G1 X102.913 Y158.497 E3.38384
G1 X102.426 Y158.851 E3.40247
G1 X101.952 Y159.111 E3.41921
G1 X101.661 Y159.237 E3.42900
G1 X101.147 Y159.404 E3.44574
G1 X100.838 Y159.473 E3.45553
G1 X100.286 Y159.543 E3.47274
G1 X99.730 Y159.543 E3.48996
G1 X99.414 Y159.513 E3.49975
G1 X98.883 Y159.412 E3.51649
G1 X98.594 Y159.328 E3.52580
G1 X98.310 Y159.226 E3.53513
G1 X97.821 Y158.995 E3.55186
G1 X97.549 Y158.834 E3.56165
G1 X97.099 Y158.507 E3.57887
G1 X96.682 Y158.116 E3.59655
G1 X96.317 Y157.675 E3.61424
G1 X96.019 Y157.206 E3.63145
G1 X95.883 Y156.937 E3.64077
G1 X95.763 Y156.661 E3.65009
G1 X95.596 Y156.147 E3.66683
G1 X95.527 Y155.838 E3.67662
G1 X95.457 Y155.286 E3.69383
G1 X95.457 Y154.714 E3.71152
G1 X95.527 Y154.162 E3.72873
G1 X95.596 Y153.853 E3.73853
G1 X95.768 Y153.324 E3.75574
G1 X96.005 Y152.821 E3.77295
G1 X96.327 Y152.313 E3.79158
G1 X96.682 Y151.884 E3.80879
G1 X97.087 Y151.503 E3.82600
G1 X97.337 Y151.309 E3.83579
G1 X97.794 Y151.019 E3.85253
G1 X98.339 Y150.763 E3.87116
G1 X98.782 Y150.619 E3.88558
G1 X99.018 Y151.199 F7800.000
G1 F1800.000
G1 X99.270 Y151.143 E3.89355
G1 X99.753 Y151.082 E3.90863
G1 X100.241 Y151.082 E3.92372
G1 X100.497 Y151.106 E3.93169
G1 X100.971 Y151.197 E3.94660
G1 X101.213 Y151.267 E3.95440
G1 X101.450 Y151.352 E3.96220
G1 X101.891 Y151.560 E3.97728
G1 X102.303 Y151.821 E3.99236
G1 X102.506 Y151.979 E4.00033
G1 X102.858 Y152.309 E4.01525
G1 X103.024 Y152.498 E4.02305
G1 X103.179 Y152.697 E4.03085
G1 X103.440 Y153.109 E4.04593
G1 X103.648 Y153.550 E4.06101
G1 X103.735 Y153.792 E4.06898
G1 X103.856 Y154.264 E4.08407
G1 X103.917 Y154.748 E4.09915
G1 X103.925 Y155.006 E4.10712
G1 X103.895 Y155.492 E4.12220
G1 X103.802 Y155.976 E4.13746
G1 X103.650 Y156.445 E4.15271
G1 X103.442 Y156.886 E4.16780
G1 X103.172 Y157.312 E4.18339
G1 X102.862 Y157.687 E4.19847
G1 X102.506 Y158.021 E4.21355
G1 X102.099 Y158.317 E4.22915
G1 X101.676 Y158.549 E4.24406
G1 X101.440 Y158.652 E4.25203
G1 X100.982 Y158.801 E4.26694
G1 X100.730 Y158.857 E4.27491
G1 X100.247 Y158.918 E4.29000
G1 X99.759 Y158.918 E4.30508
G1 X99.503 Y158.894 E4.31305
G1 X99.029 Y158.803 E4.32796
G1 X98.787 Y158.733 E4.33576
G1 X98.550 Y158.648 E4.34356
G1 X98.114 Y158.442 E4.35848
G1 X97.892 Y158.311 E4.36645
G1 X97.498 Y158.025 E4.38153
G1 X97.138 Y157.687 E4.39678
G1 X96.824 Y157.307 E4.41204
G1 X96.563 Y156.896 E4.42712
G1 X96.448 Y156.671 E4.43492
G1 X96.348 Y156.440 E4.44272
G1 X96.199 Y155.982 E4.45763
G1 X96.143 Y155.730 E4.46560
G1 X96.082 Y155.247 E4.48068
G1 X96.082 Y154.753 E4.49594
G1 X96.143 Y154.270 E4.51102
G1 X96.199 Y154.018 E4.51899
G1 X96.350 Y153.555 E4.53408
G1 X96.558 Y153.114 E4.54916
G1 X96.828 Y152.688 E4.56475
G1 X97.138 Y152.313 E4.57984
G1 X97.494 Y151.979 E4.59492
G1 X97.697 Y151.821 E4.60289
G1 X98.104 Y151.563 E4.61780
G1 X98.560 Y151.348 E4.63339
G1 X98.947 Y151.223 E4.64599
G1 X99.018 Y151.199 F7800.000
G1 E2.64599 F2400.00000
G92 E0
G1 X95.701 Y107.445 F7800.000
G1 E2.00000 F2400.00000
G1 F1800.000
G1 X91.403 Y100.000 E2.26601
G1 X95.701 Y92.555 E2.53202
G1 X104.299 Y92.555 E2.79803
G1 X108.597 Y100.000 E3.06404
G1 X104.299 Y107.445 E3.33005
G1 X95.776 Y107.445 E3.59374
G1 X96.062 Y106.821 F7800.000
G1 F1800.000
G1 X92.124 Y100.000 E3.83743
G1 X96.062 Y93.179 E4.08111
G1 X103.938 Y93.179 E4.32480
G1 X107.876 Y100.000 E4.56848
G1 X103.938 Y106.821 E4.81217
G1 X96.137 Y106.821 E5.05353
G1 X96.423 Y106.196 F7800.000
G1 F1800.000
G1 X92.846 Y100.000 E5.27489
G1 X96.423 Y93.804 E5.49625
G1 X103.577 Y93.804 E5.71761
G1 X107.154 Y100.000 E5.93897
G1 X103.577 Y106.196 E6.16032
G1 X96.498 Y106.196 E6.37936
G1 X95.990 Y106.446 F7800.000
G1 E4.37936 F2400.00000
G92 E0
G1 X50.135 Y100.649 F7800.000
G1 E2.00000 F2400.00000
G1 F1800.000
G1 X50.080 Y100.995 E2.01084
G1 X49.931 Y101.576 E2.02940
G1 X49.804 Y101.929 E2.04101
G1 X49.537 Y102.495 E2.06036
G1 X49.203 Y103.022 E2.07970
G1 X48.972 Y103.319 E2.09131
G1 X48.562 Y103.756 E2.10988
G1 X48.299 Y103.988 E2.12072
G1 X48.022 Y104.202 E2.13155
G1 X47.495 Y104.537 E2.15089
G1 X46.906 Y104.814 E2.17101
G1 X46.288 Y105.015 E2.19113
G1 X45.674 Y105.132 E2.21047
G1 X45.325 Y105.165 E2.22131
G1 X44.975 Y105.176 E2.23215
G1 X44.351 Y105.137 E2.25149
G1 X43.712 Y105.015 E2.27161
G1 X43.094 Y104.814 E2.29173
G1 X42.528 Y104.548 E2.31107
G1 X42.227 Y104.370 E2.32190
G1 X41.937 Y104.173 E2.33274
G1 X41.455 Y103.775 E2.35209
G1 X41.028 Y103.319 E2.37143
G1 X40.813 Y103.042 E2.38226
G1 X40.616 Y102.752 E2.39310
G1 X40.327 Y102.227 E2.41166
G1 X40.178 Y101.882 E2.42328
G1 X39.992 Y101.312 E2.44184
G1 X39.911 Y100.945 E2.45346
G1 X39.832 Y100.325 E2.47280
G1 X39.832 Y99.700 E2.49214
G1 X39.865 Y99.351 E2.50298
G1 X39.920 Y99.005 E2.51381
G1 X40.069 Y98.424 E2.53237
G1 X40.196 Y98.071 E2.54399
G1 X40.452 Y97.528 E2.56255
G1 X40.643 Y97.205 E2.57417
G1 X41.010 Y96.699 E2.59351
G1 X41.438 Y96.244 E2.61285
G1 X41.701 Y96.012 E2.62369
G1 X41.978 Y95.798 E2.63452
G1 X42.505 Y95.463 E2.65387
G1 X43.094 Y95.186 E2.67399
G1 X43.688 Y94.993 E2.69333
G1 X44.055 Y94.911 E2.70494
G1 X44.675 Y94.832 E2.72428
G1 X45.325 Y94.832 E2.74440
G1 X45.945 Y94.911 E2.76374
G1 X46.312 Y94.993 E2.77536
G1 X46.906 Y95.186 E2.79470
G1 X47.472 Y95.452 E2.81404
G1 X48.063 Y95.827 E2.83570
G1 X48.545 Y96.225 E2.85505
G1 X48.972 Y96.681 E2.87439
G1 X49.203 Y96.978 E2.88600
G1 X49.524 Y97.484 E2.90457
G1 X49.822 Y98.118 E2.92623
G1 X50.007 Y98.688 E2.94479
G1 X50.089 Y99.055 E2.95641
G1 X50.168 Y99.675 E2.97575
G1 X50.168 Y100.300 E2.99509
G1 X50.142 Y100.574 E3.00361
G1 X49.514 Y100.570 F7800.000
G1 F1800.000
G1 X49.467 Y100.868 E3.01292
G1 X49.333 Y101.392 E3.02966
G1 X49.226 Y101.689 E3.03945
G1 X48.989 Y102.193 E3.05667
G1 X48.691 Y102.663 E3.07388
G1 X48.497 Y102.913 E3.08367
G1 X48.126 Y103.307 E3.10041
G1 X47.900 Y103.506 E3.10973
G1 X47.663 Y103.691 E3.11905
G1 X47.193 Y103.989 E3.13626
G1 X46.676 Y104.232 E3.15395
G1 X46.132 Y104.409 E3.17163
G1 X45.586 Y104.513 E3.18885
G1 X45.286 Y104.541 E3.19816
G1 X44.985 Y104.551 E3.20748
G1 X44.430 Y104.516 E3.22470
G1 X43.868 Y104.409 E3.24238
G1 X43.324 Y104.232 E3.26007
G1 X42.821 Y103.995 E3.27728
G1 X42.562 Y103.842 E3.28660
G1 X42.313 Y103.673 E3.29592
G1 X41.884 Y103.318 E3.31313
G1 X41.503 Y102.913 E3.33034
G1 X41.319 Y102.675 E3.33966
G1 X41.149 Y102.426 E3.34898
G1 X40.889 Y101.952 E3.36572
G1 X40.763 Y101.661 E3.37551
G1 X40.596 Y101.147 E3.39225
G1 X40.527 Y100.838 E3.40204
G1 X40.457 Y100.286 E3.41925
G1 X40.457 Y99.730 E3.43647
G1 X40.486 Y99.430 E3.44578
G1 X40.533 Y99.132 E3.45510
G1 X40.667 Y98.608 E3.47184
G1 X40.774 Y98.310 E3.48163
G1 X41.005 Y97.821 E3.49837
G1 X41.166 Y97.549 E3.50816
G1 X41.493 Y97.099 E3.52538
G1 X41.874 Y96.693 E3.54259
G1 X42.100 Y96.494 E3.55191
G1 X42.337 Y96.309 E3.56122
G1 X42.807 Y96.011 E3.57844
G1 X43.324 Y95.768 E3.59612
G1 X43.853 Y95.596 E3.61334
G1 X44.162 Y95.527 E3.62313
G1 X44.714 Y95.457 E3.64034
G1 X45.286 Y95.457 E3.65803
G1 X45.838 Y95.527 E3.67524
G1 X46.147 Y95.596 E3.68503
G1 X46.676 Y95.768 E3.70225
G1 X47.179 Y96.005 E3.71946
G1 X47.687 Y96.327 E3.73808
G1 X48.116 Y96.682 E3.75530
G1 X48.497 Y97.087 E3.77251
G1 X48.691 Y97.337 E3.78230
G1 X48.981 Y97.794 E3.79904
G1 X49.237 Y98.339 E3.81767
G1 X49.404 Y98.853 E3.83441
G1 X49.473 Y99.162 E3.84420
G1 X49.543 Y99.714 E3.86141
G1 X49.543 Y100.270 E3.87862
G1 X49.522 Y100.496 E3.88562
G1 X48.894 Y100.492 F7800.000
G1 F1800.000
G1 X48.855 Y100.741 E3.89342
G1 X48.735 Y101.208 E3.90833
G1 X48.648 Y101.450 E3.91630
G1 X48.440 Y101.891 E3.93139
G1 X48.179 Y102.303 E3.94647
G1 X48.021 Y102.506 E3.95444
G1 X47.691 Y102.858 E3.96935
G1 X47.303 Y103.179 E3.98495
G1 X46.891 Y103.440 E4.00003
G1 X46.445 Y103.650 E4.01528
G1 X45.976 Y103.802 E4.03054
G1 X45.497 Y103.894 E4.04562
G1 X45.246 Y103.917 E4.05342
G1 X44.994 Y103.925 E4.06122
G1 X44.508 Y103.895 E4.07630
G1 X44.024 Y103.802 E4.09156
G1 X43.555 Y103.650 E4.10681
G1 X43.114 Y103.442 E4.12190
G1 X42.897 Y103.314 E4.12969
G1 X42.688 Y103.172 E4.13749
G1 X42.313 Y102.862 E4.15258
G1 X41.979 Y102.506 E4.16766
G1 X41.824 Y102.307 E4.17546
G1 X41.683 Y102.099 E4.18326
G1 X41.451 Y101.676 E4.19817
G1 X41.348 Y101.440 E4.20615
G1 X41.199 Y100.982 E4.22106
G1 X41.143 Y100.730 E4.22903
G1 X41.082 Y100.246 E4.24411
G1 X41.082 Y99.759 E4.25920
G1 X41.106 Y99.508 E4.26699
G1 X41.145 Y99.259 E4.27479
G1 X41.265 Y98.792 E4.28971
G1 X41.352 Y98.550 E4.29768
G1 X41.558 Y98.114 E4.31259
G1 X41.689 Y97.892 E4.32056
G1 X41.975 Y97.498 E4.33564
G1 X42.309 Y97.142 E4.35073
G1 X42.498 Y96.976 E4.35853
G1 X42.697 Y96.821 E4.36633
G1 X43.109 Y96.560 E4.38141
G1 X43.555 Y96.350 E4.39666
G1 X44.018 Y96.199 E4.41175
G1 X44.270 Y96.143 E4.41972
G1 X44.753 Y96.082 E4.43480
G1 X45.247 Y96.082 E4.45006
G1 X45.730 Y96.143 E4.46514
G1 X45.982 Y96.199 E4.47311
G1 X46.445 Y96.350 E4.48819
G1 X46.886 Y96.558 E4.50328
G1 X47.312 Y96.828 E4.51887
G1 X47.687 Y97.138 E4.53395
