; Gcode updated with 'stl_info' on 2019-12-09 21:19:20.617755

; stl_min_x = -80.0
; stl_max_x = 520.0
; stl_min_y = 17.310300827026367
; stl_max_y = 27.689699172973633
; stl_min_z = -5.199999809265137

; generated by Slic3r 1.3.1-dev (Build adea0d9) on 2019-12-09 at 21:19:20

; external perimeters extrusion width = 0.44mm (2.86mm^3/s)
; perimeters extrusion width = 0.56mm (4.14mm^3/s)
; infill extrusion width = 0.50mm (3.66mm^3/s)
; solid infill extrusion width = 0.56mm (3.10mm^3/s)
; top infill extrusion width = 0.56mm (3.10mm^3/s)

M107
G92 E0
;D3D:START:START
T0
M104 S215 T0

G21
G90
M107
T0
G28
G29
M109 T0 S215 T0
G0 F3000
M107
T0
G92 E0
G0 X0 Y149 Z0.1 F3600
G1 Y49 E6.5 F1200
G0 Z1
G92 E0
; Filament gcode

G21 ; set units to millimeters
G90 ; use absolute coordinates
M82 ; use absolute distances for extrusion
G92 E0
G1 Z0.300 F7800.000
G1 E-2.00000 F2400.00000
G92 E0
G1 X-137.221 Y74.473 F7800.000
G1 E2.00000 F2400.00000
G1 F1800.000
G1 X-137.305 Y75.000 E2.01767
G1 X-137.221 Y75.527 E2.03535
G1 X-182.229 Y75.527 E3.52641
G1 X-182.145 Y75.000 E3.54408
G1 X-182.229 Y74.473 E3.56175
G1 X-137.281 Y74.473 E5.05082
G1 X-136.936 Y74.371 F7800.000
G1 F1800.000
G1 X-137.036 Y75.000 E5.07193
G1 X-136.936 Y75.629 E5.09303
G1 X-136.853 Y75.793 E5.09910
G1 X-182.539 Y75.792 E6.61267
G1 X-182.414 Y75.000 E6.63925
G1 X-182.539 Y74.208 E6.66583
G1 X-136.853 Y74.207 E8.17940
G1 X-136.909 Y74.317 E8.18349
G1 X-136.420 Y73.942 F7800.000
G1 F1800.000
G1 X-136.681 Y74.454 E8.20253
G1 X-136.767 Y75.000 E8.22084
G1 X-136.681 Y75.546 E8.23916
G1 X-136.420 Y76.058 E8.25820
G1 X-182.971 Y76.058 E9.80041
G1 X-182.796 Y75.716 E9.81313
G1 X-182.683 Y75.000 E9.83715
G1 X-182.796 Y74.284 E9.86116
G1 X-182.971 Y73.942 E9.87388
G1 X-136.480 Y73.942 E11.41410
G1 X-137.429 Y75.158 F7800.000
G1 F1800.000
G1 X-137.636 Y75.365 E11.42383
G1 X-138.013 Y75.365 F7800.000
G1 F1800.000
G1 X-137.456 Y74.808 E11.45004
G1 X-137.429 Y74.635 E11.45584
G1 X-137.661 Y74.635 E11.46358
G1 X-138.391 Y75.365 E11.49790
G1 X-138.768 Y75.365 E11.51046
G1 X-138.039 Y74.635 E11.54478
G1 X-138.416 Y74.635 E11.55734
G1 X-139.145 Y75.365 E11.59166
G1 X-139.523 Y75.365 E11.60422
G1 X-138.794 Y74.635 E11.63854
G1 X-139.171 Y74.635 E11.65110
G1 X-139.900 Y75.365 E11.68542
G1 X-140.277 Y75.365 E11.69798
G1 X-139.548 Y74.635 E11.73230
G1 X-139.926 Y74.635 E11.74486
G1 X-140.655 Y75.365 E11.77918
G1 X-141.032 Y75.365 E11.79174
G1 X-140.303 Y74.635 E11.82606
G1 X-140.680 Y74.635 E11.83862
G1 X-141.410 Y75.365 E11.87294
G1 X-141.787 Y75.365 E11.88550
G1 X-141.058 Y74.635 E11.91982
G1 X-141.435 Y74.635 E11.93238
G1 X-142.164 Y75.365 E11.96670
G1 X-142.542 Y75.365 E11.97926
G1 X-141.813 Y74.635 E12.01358
G1 X-142.190 Y74.635 E12.02614
G1 X-142.919 Y75.365 E12.06046
G1 X-143.296 Y75.365 E12.07302
G1 X-142.567 Y74.635 E12.10734
G1 X-142.945 Y74.635 E12.11990
G1 X-143.674 Y75.365 E12.15422
G1 X-144.051 Y75.365 E12.16678
G1 X-143.322 Y74.635 E12.20110
G1 X-143.699 Y74.635 E12.21366
G1 X-144.429 Y75.365 E12.24798
G1 X-144.806 Y75.365 E12.26053
G1 X-144.077 Y74.635 E12.29486
G1 X-144.454 Y74.635 E12.30741
G1 X-145.183 Y75.365 E12.34173
G1 X-145.561 Y75.365 E12.35429
G1 X-144.832 Y74.635 E12.38861
G1 X-145.209 Y74.635 E12.40117
G1 X-145.938 Y75.365 E12.43549
G1 X-146.315 Y75.365 E12.44805
G1 X-145.586 Y74.635 E12.48237
G1 X-145.964 Y74.635 E12.49493
G1 X-146.693 Y75.365 E12.52925
G1 X-147.070 Y75.365 E12.54181
G1 X-146.341 Y74.635 E12.57613
G1 X-146.718 Y74.635 E12.58869
G1 X-147.448 Y75.365 E12.62301
G1 X-147.825 Y75.365 E12.63557
G1 X-147.096 Y74.635 E12.66989
G1 X-147.473 Y74.635 E12.68245
G1 X-148.202 Y75.365 E12.71677
G1 X-148.580 Y75.365 E12.72933
G1 X-147.851 Y74.635 E12.76365
G1 X-148.228 Y74.635 E12.77621
G1 X-148.957 Y75.365 E12.81053
G1 X-149.334 Y75.365 E12.82309
G1 X-148.605 Y74.635 E12.85741
G1 X-148.983 Y74.635 E12.86997
G1 X-149.712 Y75.365 E12.90429
G1 X-150.089 Y75.365 E12.91685
G1 X-149.360 Y74.635 E12.95117
G1 X-149.737 Y74.635 E12.96373
G1 X-150.467 Y75.365 E12.99805
G1 X-150.844 Y75.365 E13.01060
G1 X-150.115 Y74.635 E13.04492
G1 X-150.492 Y74.635 E13.05748
G1 X-151.221 Y75.365 E13.09180
G1 X-151.599 Y75.365 E13.10436
G1 X-150.869 Y74.635 E13.13868
G1 X-151.247 Y74.635 E13.15124
G1 X-151.976 Y75.365 E13.18556
G1 X-152.353 Y75.365 E13.19812
G1 X-151.624 Y74.635 E13.23244
G1 X-152.002 Y74.635 E13.24500
G1 X-152.731 Y75.365 E13.27932
G1 X-153.108 Y75.365 E13.29188
G1 X-152.379 Y74.635 E13.32620
G1 X-152.756 Y74.635 E13.33876
G1 X-153.485 Y75.365 E13.37308
G1 X-153.863 Y75.365 E13.38564
G1 X-153.134 Y74.635 E13.41996
G1 X-153.511 Y74.635 E13.43252
G1 X-154.240 Y75.365 E13.46683
G1 X-154.618 Y75.365 E13.47939
G1 X-153.888 Y74.635 E13.51371
G1 X-154.266 Y74.635 E13.52627
G1 X-154.995 Y75.365 E13.56059
G1 X-155.372 Y75.365 E13.57315
G1 X-154.643 Y74.635 E13.60747
G1 X-155.021 Y74.635 E13.62003
G1 X-155.750 Y75.365 E13.65435
G1 X-156.127 Y75.365 E13.66691
G1 X-155.398 Y74.635 E13.70123
G1 X-155.775 Y74.635 E13.71379
G1 X-156.504 Y75.365 E13.74811
G1 X-156.882 Y75.365 E13.76067
G1 X-156.153 Y74.635 E13.79498
G1 X-156.530 Y74.635 E13.80754
G1 X-157.259 Y75.365 E13.84186
G1 X-157.637 Y75.365 E13.85442
G1 X-156.907 Y74.635 E13.88874
G1 X-157.285 Y74.635 E13.90130
G1 X-158.014 Y75.365 E13.93562
G1 X-158.391 Y75.365 E13.94818
G1 X-157.662 Y74.635 E13.98250
G1 X-158.040 Y74.635 E13.99506
G1 X-158.769 Y75.365 E14.02938
G1 X-159.146 Y75.365 E14.04194
G1 X-158.417 Y74.635 E14.07626
G1 X-158.794 Y74.635 E14.08881
G1 X-159.523 Y75.365 E14.12313
G1 X-159.901 Y75.365 E14.13569
G1 X-159.172 Y74.635 E14.17001
G1 X-159.549 Y74.635 E14.18257
G1 X-160.278 Y75.365 E14.21689
G1 X-160.656 Y75.365 E14.22945
G1 X-159.926 Y74.635 E14.26377
G1 X-160.304 Y74.635 E14.27633
G1 X-161.033 Y75.365 E14.31065
G1 X-161.410 Y75.365 E14.32321
G1 X-160.681 Y74.635 E14.35752
G1 X-161.059 Y74.635 E14.37008
G1 X-161.788 Y75.365 E14.40440
G1 X-162.165 Y75.365 E14.41696
G1 X-161.436 Y74.635 E14.45128
G1 X-161.813 Y74.635 E14.46384
G1 X-162.542 Y75.365 E14.49816
G1 X-162.920 Y75.365 E14.51072
G1 X-162.191 Y74.635 E14.54504
G1 X-162.568 Y74.635 E14.55760
G1 X-163.297 Y75.365 E14.59192
G1 X-163.675 Y75.365 E14.60447
G1 X-162.945 Y74.635 E14.63879
G1 X-163.323 Y74.635 E14.65135
G1 X-164.052 Y75.365 E14.68567
G1 X-164.429 Y75.365 E14.69823
G1 X-163.700 Y74.635 E14.73255
G1 X-164.078 Y74.635 E14.74511
G1 X-164.807 Y75.365 E14.77943
G1 X-165.184 Y75.365 E14.79199
G1 X-164.455 Y74.635 E14.82630
G1 X-164.832 Y74.635 E14.83886
G1 X-165.561 Y75.365 E14.87318
G1 X-165.939 Y75.365 E14.88574
G1 X-165.210 Y74.635 E14.92006
G1 X-165.587 Y74.635 E14.93262
G1 X-166.316 Y75.365 E14.96694
G1 X-166.693 Y75.365 E14.97950
G1 X-165.964 Y74.635 E15.01382
G1 X-166.342 Y74.635 E15.02638
G1 X-167.071 Y75.365 E15.06069
G1 X-167.448 Y75.365 E15.07325
G1 X-166.719 Y74.635 E15.10757
G1 X-167.096 Y74.635 E15.12013
G1 X-167.826 Y75.365 E15.15445
G1 X-168.203 Y75.365 E15.16701
G1 X-167.474 Y74.635 E15.20133
G1 X-167.851 Y74.635 E15.21389
G1 X-168.580 Y75.365 E15.24820
G1 X-168.958 Y75.365 E15.26076
G1 X-168.229 Y74.635 E15.29508
G1 X-168.606 Y74.635 E15.30764
G1 X-169.335 Y75.365 E15.34196
G1 X-169.712 Y75.365 E15.35452
G1 X-168.983 Y74.635 E15.38884
G1 X-169.361 Y74.635 E15.40140
G1 X-170.090 Y75.365 E15.43571
G1 X-170.467 Y75.365 E15.44827
G1 X-169.738 Y74.635 E15.48259
G1 X-170.115 Y74.635 E15.49515
G1 X-170.845 Y75.365 E15.52947
G1 X-171.222 Y75.365 E15.54203
G1 X-170.493 Y74.635 E15.57635
G1 X-170.870 Y74.635 E15.58890
G1 X-171.599 Y75.365 E15.62322
G1 X-171.977 Y75.365 E15.63578
G1 X-171.248 Y74.635 E15.67010
G1 X-171.625 Y74.635 E15.68266
G1 X-172.354 Y75.365 E15.71698
G1 X-172.731 Y75.365 E15.72954
G1 X-172.002 Y74.635 E15.76385
G1 X-172.380 Y74.635 E15.77641
G1 X-173.109 Y75.365 E15.81073
G1 X-173.486 Y75.365 E15.82329
G1 X-172.757 Y74.635 E15.85761
G1 X-173.134 Y74.635 E15.87017
G1 X-173.864 Y75.365 E15.90449
G1 X-174.241 Y75.365 E15.91705
G1 X-173.512 Y74.635 E15.95136
G1 X-173.889 Y74.635 E15.96392
G1 X-174.618 Y75.365 E15.99824
G1 X-174.996 Y75.365 E16.01080
G1 X-174.267 Y74.635 E16.04512
G1 X-174.644 Y74.635 E16.05768
G1 X-175.373 Y75.365 E16.09199
G1 X-175.750 Y75.365 E16.10455
G1 X-175.021 Y74.635 E16.13887
G1 X-175.399 Y74.635 E16.15143
G1 X-176.128 Y75.365 E16.18575
G1 X-176.505 Y75.365 E16.19831
G1 X-175.776 Y74.635 E16.23262
G1 X-176.153 Y74.635 E16.24518
G1 X-176.883 Y75.365 E16.27950
G1 X-177.260 Y75.365 E16.29206
G1 X-176.531 Y74.635 E16.32638
G1 X-176.908 Y74.635 E16.33894
G1 X-177.637 Y75.365 E16.37325
G1 X-178.015 Y75.365 E16.38581
G1 X-177.286 Y74.635 E16.42013
G1 X-177.663 Y74.635 E16.43269
G1 X-178.392 Y75.365 E16.46701
G1 X-178.769 Y75.365 E16.47957
G1 X-178.040 Y74.635 E16.51388
G1 X-178.418 Y74.635 E16.52644
G1 X-179.147 Y75.365 E16.56076
G1 X-179.524 Y75.365 E16.57332
G1 X-178.795 Y74.635 E16.60764
G1 X-179.172 Y74.635 E16.62020
G1 X-179.901 Y75.365 E16.65451
G1 X-180.279 Y75.365 E16.66707
G1 X-179.550 Y74.635 E16.70139
G1 X-179.927 Y74.635 E16.71395
G1 X-180.656 Y75.365 E16.74827
G1 X-181.034 Y75.365 E16.76083
G1 X-180.304 Y74.635 E16.79514
G1 X-180.682 Y74.635 E16.80770
G1 X-181.411 Y75.365 E16.84202
G1 X-181.788 Y75.365 E16.85458
G1 X-181.059 Y74.635 E16.88890
G1 X-181.437 Y74.635 E16.90146
G1 X-181.994 Y75.192 E16.92767
G1 X-181.979 Y75.103 E16.93068
G1 X-182.021 Y74.842 E16.93947
G1 X-181.814 Y74.635 E16.94921
G1 E14.94921 F2400.00000
G92 E0
G1 X-132.779 Y74.473 F7800.000
G1 E2.00000 F2400.00000
G1 F1800.000
G1 X-97.221 Y74.473 E3.17799
G1 X-97.305 Y75.000 E3.19566
G1 X-97.221 Y75.527 E3.21333
G1 X-132.779 Y75.527 E4.39132
G1 X-132.695 Y75.000 E4.40900
G1 X-132.769 Y74.532 E4.42468
G1 X-133.147 Y74.207 F7800.000
G1 F1800.000
G1 X-96.853 Y74.207 E5.62708
G1 X-96.936 Y74.371 E5.63315
G1 X-97.036 Y75.000 E5.65425
G1 X-96.936 Y75.629 E5.67536
G1 X-96.853 Y75.793 E5.68143
G1 X-133.147 Y75.793 E6.88383
G1 X-133.064 Y75.629 E6.88990
G1 X-132.964 Y75.000 E6.91101
G1 X-133.064 Y74.371 E6.93211
G1 X-133.120 Y74.261 E6.93619
G1 X-133.580 Y73.942 F7800.000
G1 F1800.000
G1 X-96.420 Y73.942 E8.16731
G1 X-96.681 Y74.454 E8.18635
G1 X-96.767 Y75.000 E8.20467
G1 X-96.681 Y75.546 E8.22298
G1 X-96.420 Y76.058 E8.24202
G1 X-133.580 Y76.058 E9.47314
G1 X-133.319 Y75.546 E9.49218
G1 X-133.233 Y75.000 E9.51049
G1 X-133.319 Y74.454 E9.52881
G1 X-133.553 Y73.995 E9.54586
G1 X-132.571 Y74.842 F7800.000
G1 F1800.000
G1 X-132.364 Y74.635 E9.55558
G1 X-131.987 Y74.635 E9.56813
G1 X-132.544 Y75.192 E9.59432
G1 X-132.571 Y75.365 E9.60013
G1 X-132.339 Y75.365 E9.60785
G1 X-131.610 Y74.635 E9.64215
G1 X-131.232 Y74.635 E9.65470
G1 X-131.962 Y75.365 E9.68901
G1 X-131.584 Y75.365 E9.70156
G1 X-130.855 Y74.635 E9.73586
G1 X-130.478 Y74.635 E9.74841
G1 X-131.207 Y75.365 E9.78272
G1 X-130.830 Y75.365 E9.79527
G1 X-130.101 Y74.635 E9.82957
G1 X-129.724 Y74.635 E9.84212
G1 X-130.453 Y75.365 E9.87643
G1 X-130.076 Y75.365 E9.88897
G1 X-129.346 Y74.635 E9.92328
G1 X-128.969 Y74.635 E9.93583
G1 X-129.698 Y75.365 E9.97014
G1 X-129.321 Y75.365 E9.98268
G1 X-128.592 Y74.635 E10.01699
G1 X-128.215 Y74.635 E10.02954
G1 X-128.944 Y75.365 E10.06384
G1 X-128.567 Y75.365 E10.07639
G1 X-127.838 Y74.635 E10.11070
G1 X-127.460 Y74.635 E10.12325
G1 X-128.190 Y75.365 E10.15755
G1 X-127.812 Y75.365 E10.17010
G1 X-127.083 Y74.635 E10.20441
G1 X-126.706 Y74.635 E10.21696
G1 X-127.435 Y75.365 E10.25126
G1 X-127.058 Y75.365 E10.26381
G1 X-126.329 Y74.635 E10.29812
G1 X-125.952 Y74.635 E10.31066
G1 X-126.681 Y75.365 E10.34497
G1 X-126.304 Y75.365 E10.35752
G1 X-125.574 Y74.635 E10.39182
G1 X-125.197 Y74.635 E10.40437
G1 X-125.926 Y75.365 E10.43868
G1 X-125.549 Y75.365 E10.45123
G1 X-124.820 Y74.635 E10.48553
G1 X-124.443 Y74.635 E10.49808
G1 X-125.172 Y75.365 E10.53239
G1 X-124.795 Y75.365 E10.54494
G1 X-124.066 Y74.635 E10.57924
G1 X-123.688 Y74.635 E10.59179
G1 X-124.418 Y75.365 E10.62610
G1 X-124.040 Y75.365 E10.63864
G1 X-123.311 Y74.635 E10.67295
G1 X-122.934 Y74.635 E10.68550
G1 X-123.663 Y75.365 E10.71980
G1 X-123.286 Y75.365 E10.73235
G1 X-122.557 Y74.635 E10.76666
G1 X-122.180 Y74.635 E10.77921
G1 X-122.909 Y75.365 E10.81351
G1 X-122.532 Y75.365 E10.82606
G1 X-121.802 Y74.635 E10.86037
G1 X-121.425 Y74.635 E10.87292
G1 X-122.154 Y75.365 E10.90722
G1 X-121.777 Y75.365 E10.91977
G1 X-121.048 Y74.635 E10.95408
G1 X-120.671 Y74.635 E10.96662
G1 X-121.400 Y75.365 E11.00093
G1 X-121.023 Y75.365 E11.01348
G1 X-120.294 Y74.635 E11.04778
G1 X-119.916 Y74.635 E11.06033
G1 X-120.645 Y75.365 E11.09464
G1 X-120.268 Y75.365 E11.10719
G1 X-119.539 Y74.635 E11.14149
G1 X-119.162 Y74.635 E11.15404
G1 X-119.891 Y75.365 E11.18835
G1 X-119.514 Y75.365 E11.20090
G1 X-118.785 Y74.635 E11.23520
G1 X-118.407 Y74.635 E11.24775
G1 X-119.137 Y75.365 E11.28205
G1 X-118.759 Y75.365 E11.29460
G1 X-118.030 Y74.635 E11.32891
G1 X-117.653 Y74.635 E11.34146
G1 X-118.382 Y75.365 E11.37576
G1 X-118.005 Y75.365 E11.38831
G1 X-117.276 Y74.635 E11.42262
G1 X-116.899 Y74.635 E11.43517
G1 X-117.628 Y75.365 E11.46947
G1 X-117.251 Y75.365 E11.48202
G1 X-116.521 Y74.635 E11.51633
G1 X-116.144 Y74.635 E11.52887
G1 X-116.873 Y75.365 E11.56318
G1 X-116.496 Y75.365 E11.57573
G1 X-115.767 Y74.635 E11.61003
G1 X-115.390 Y74.635 E11.62258
G1 X-116.119 Y75.365 E11.65689
G1 X-115.742 Y75.365 E11.66944
G1 X-115.013 Y74.635 E11.70374
G1 X-114.635 Y74.635 E11.71629
G1 X-115.365 Y75.365 E11.75060
G1 X-114.987 Y75.365 E11.76315
G1 X-114.258 Y74.635 E11.79745
G1 X-113.881 Y74.635 E11.81000
G1 X-114.610 Y75.365 E11.84431
G1 X-114.233 Y75.365 E11.85685
G1 X-113.504 Y74.635 E11.89116
G1 X-113.127 Y74.635 E11.90371
G1 X-113.856 Y75.365 E11.93801
G1 X-113.479 Y75.365 E11.95056
G1 X-112.749 Y74.635 E11.98487
G1 X-112.372 Y74.635 E11.99742
G1 X-113.101 Y75.365 E12.03172
G1 X-112.724 Y75.365 E12.04427
G1 X-111.995 Y74.635 E12.07858
G1 X-111.618 Y74.635 E12.09113
G1 X-112.347 Y75.365 E12.12543
G1 X-111.970 Y75.365 E12.13798
G1 X-111.241 Y74.635 E12.17229
G1 X-110.863 Y74.635 E12.18483
G1 X-111.593 Y75.365 E12.21914
G1 X-111.215 Y75.365 E12.23169
G1 X-110.486 Y74.635 E12.26599
G1 X-110.109 Y74.635 E12.27854
G1 X-110.838 Y75.365 E12.31285
G1 X-110.461 Y75.365 E12.32540
G1 X-109.732 Y74.635 E12.35970
G1 X-109.355 Y74.635 E12.37225
G1 X-110.084 Y75.365 E12.40656
G1 X-109.706 Y75.365 E12.41911
G1 X-108.977 Y74.635 E12.45341
G1 X-108.600 Y74.635 E12.46596
G1 X-109.329 Y75.365 E12.50027
G1 X-108.952 Y75.365 E12.51281
G1 X-108.223 Y74.635 E12.54712
G1 X-107.846 Y74.635 E12.55967
G1 X-108.575 Y75.365 E12.59397
G1 X-108.198 Y75.365 E12.60652
G1 X-107.468 Y74.635 E12.64083
G1 X-107.091 Y74.635 E12.65338
G1 X-107.820 Y75.365 E12.68768
G1 X-107.443 Y75.365 E12.70023
G1 X-106.714 Y74.635 E12.73454
G1 X-106.337 Y74.635 E12.74709
G1 X-107.066 Y75.365 E12.78139
G1 X-106.689 Y75.365 E12.79394
G1 X-105.960 Y74.635 E12.82824
G1 X-105.582 Y74.635 E12.84079
G1 X-106.312 Y75.365 E12.87510
G1 X-105.934 Y75.365 E12.88765
G1 X-105.205 Y74.635 E12.92195
G1 X-104.828 Y74.635 E12.93450
G1 X-105.557 Y75.365 E12.96881
G1 X-105.180 Y75.365 E12.98136
G1 X-104.451 Y74.635 E13.01566
G1 X-104.074 Y74.635 E13.02821
G1 X-104.803 Y75.365 E13.06252
G1 X-104.426 Y75.365 E13.07506
G1 X-103.696 Y74.635 E13.10937
G1 X-103.319 Y74.635 E13.12192
G1 X-104.048 Y75.365 E13.15622
G1 X-103.671 Y75.365 E13.16877
G1 X-102.942 Y74.635 E13.20308
G1 X-102.565 Y74.635 E13.21563
G1 X-103.294 Y75.365 E13.24993
G1 X-102.917 Y75.365 E13.26248
G1 X-102.188 Y74.635 E13.29679
G1 X-101.810 Y74.635 E13.30934
G1 X-102.540 Y75.365 E13.34364
G1 X-102.162 Y75.365 E13.35619
G1 X-101.433 Y74.635 E13.39050
G1 X-101.056 Y74.635 E13.40304
G1 X-101.785 Y75.365 E13.43735
G1 X-101.408 Y75.365 E13.44990
G1 X-100.679 Y74.635 E13.48420
G1 X-100.302 Y74.635 E13.49675
G1 X-101.031 Y75.365 E13.53106
G1 X-100.654 Y75.365 E13.54361
G1 X-99.924 Y74.635 E13.57791
G1 X-99.547 Y74.635 E13.59046
G1 X-100.276 Y75.365 E13.62477
G1 X-99.899 Y75.365 E13.63732
G1 X-99.170 Y74.635 E13.67162
G1 X-98.793 Y74.635 E13.68417
G1 X-99.522 Y75.365 E13.71848
G1 X-99.145 Y75.365 E13.73102
G1 X-98.416 Y74.635 E13.76533
G1 X-98.038 Y74.635 E13.77788
G1 X-98.768 Y75.365 E13.81218
G1 X-98.390 Y75.365 E13.82473
