; generated by Slic3r 1.3.1-dev (Build 2ef957d) on 2019-11-25 at 09:20:05

; external perimeters extrusion width = 0.55mm (4.37mm^3/s)
; perimeters extrusion width = 0.70mm (11.44mm^3/s)
; infill extrusion width = 0.62mm (13.45mm^3/s)
; solid infill extrusion width = 0.70mm (3.81mm^3/s)
; top infill extrusion width = 0.70mm (2.86mm^3/s)

M107
G92 E0
M104 S200 ; set temperature
G28 ; home all axes
G1 Z5 F5000 ; lift nozzle

; Filament gcode

M109 S200 ; set temperature and wait for it to be reached
G21 ; set units to millimeters
G90 ; use absolute coordinates
M82 ; use absolute distances for extrusion
G92 E0
G1 Z0.350 F7800.000
G1 E-2.00000 F2400.00000
G92 E0
G1 X73.772 Y28.741 F7800.000
G1 E2.00000 F2400.00000
G1 F1800.000
G1 X74.915 Y26.753 E2.07096
G1 X76.668 Y25.274 E2.14192
G1 X78.820 Y24.481 E2.21289
G1 X80.000 Y24.375 E2.24954
G1 X120.000 Y24.375 E3.48719
G1 X122.259 Y24.772 E3.55815
G1 X124.247 Y25.915 E3.62912
G1 X125.726 Y27.668 E3.70008
G1 X126.519 Y29.820 E3.77104
G1 X126.625 Y31.000 E3.80769
G1 X126.625 Y169.000 E8.07759
G1 X126.228 Y171.259 E8.14855
G1 X125.085 Y173.247 E8.21952
G1 X123.332 Y174.726 E8.29048
G1 X121.180 Y175.519 E8.36144
G1 X120.000 Y175.625 E8.39809
G1 X80.000 Y175.625 E9.63575
G1 X77.741 Y175.228 E9.70671
G1 X75.753 Y174.085 E9.77767
G1 X74.274 Y172.332 E9.84863
G1 X73.481 Y170.180 E9.91959
G1 X73.375 Y169.000 E9.95625
G1 X73.375 Y31.000 E14.22615
G1 X73.759 Y28.815 E14.29479
G1 E12.29479 F2400.00000
G92 E0
G1 X118.400 Y32.600 F7800.000
G1 E2.00000 F2400.00000
G1 F1800.000
G1 X118.400 Y167.400 E6.17090
G1 X81.600 Y167.400 E7.30956
G1 X81.600 Y32.600 E11.48046
G1 X118.325 Y32.600 E12.61679
G1 X119.025 Y31.975 F7800.000
G1 F1800.000
G1 X119.025 Y168.025 E16.82637
G1 X80.975 Y168.025 E18.00369
G1 X80.975 Y31.975 E22.21326
G1 X118.950 Y31.975 E23.38827
G1 X119.650 Y31.350 F7800.000
G1 F1800.000
G1 X119.650 Y168.650 E27.63651
G1 X80.350 Y168.650 E28.85250
G1 X80.350 Y31.350 E33.10075
G1 X119.575 Y31.350 E34.31442
G1 X119.604 Y31.848 F7800.000
G1 E32.31442 F2400.00000
G92 E0
G1 X81.982 Y33.468 F7800.000
G1 E2.00000 F2400.00000
G1 F1800.000
G1 X82.468 Y32.982 E2.02131
G1 X83.353 Y32.982 E2.04875
G1 X81.982 Y34.353 E2.10888
G1 X81.982 Y35.239 E2.13633
G1 X84.239 Y32.982 E2.23527
G1 X85.124 Y32.982 E2.26271
G1 X81.982 Y36.124 E2.40046
G1 X81.982 Y37.009 E2.42791
G1 X86.009 Y32.982 E2.60447
G1 X86.895 Y32.982 E2.63192
G1 X81.982 Y37.895 E2.84729
G1 X81.982 Y38.780 E2.87474
G1 X87.780 Y32.982 E3.12892
G1 X88.665 Y32.982 E3.15637
G1 X81.982 Y39.665 E3.44937
G1 X81.982 Y40.551 E3.47681
G1 X89.551 Y32.982 E3.80862
G1 X90.436 Y32.982 E3.83607
G1 X81.982 Y41.436 E4.20669
G1 X81.982 Y42.321 E4.23413
G1 X91.321 Y32.982 E4.64357
G1 X92.207 Y32.982 E4.67101
G1 X81.982 Y43.207 E5.11926
G1 X81.982 Y44.092 E5.14670
G1 X93.092 Y32.982 E5.63376
G1 X93.977 Y32.982 E5.66120
G1 X81.982 Y44.977 E6.18707
G1 X81.982 Y45.863 E6.21452
G1 X94.863 Y32.982 E6.77920
G1 X95.748 Y32.982 E6.80664
G1 X81.982 Y46.748 E7.41013
G1 X81.982 Y47.633 E7.43758
G1 X96.633 Y32.982 E8.07988
G1 X97.519 Y32.982 E8.10733
G1 X81.982 Y48.519 E8.78844
G1 X81.982 Y49.404 E8.81589
G1 X98.404 Y32.982 E9.53581
G1 X99.289 Y32.982 E9.56326
G1 X81.982 Y50.289 E10.32199
G1 X81.982 Y51.175 E10.34944
G1 X100.175 Y32.982 E11.14699
G1 X101.060 Y32.982 E11.17443
G1 X81.982 Y52.060 E12.01079
G1 X81.982 Y52.946 E12.03824
G1 X101.946 Y32.982 E12.91341
G1 X102.831 Y32.982 E12.94086
G1 X81.982 Y53.831 E13.85484
G1 X81.982 Y54.716 E13.88229
G1 X103.716 Y32.982 E14.83508
G1 X104.602 Y32.982 E14.86253
G1 X81.982 Y55.602 E15.85413
G1 X81.982 Y56.487 E15.88158
G1 X105.487 Y32.982 E16.91200
G1 X106.372 Y32.982 E16.93944
G1 X81.982 Y57.372 E18.00867
G1 X81.982 Y58.258 E18.03612
G1 X107.258 Y32.982 E19.14416
G1 X108.143 Y32.982 E19.17160
G1 X81.982 Y59.143 E20.31846
G1 X81.982 Y60.028 E20.34590
G1 X109.028 Y32.982 E21.53157
G1 X109.914 Y32.982 E21.55901
G1 X81.982 Y60.914 E22.78349
G1 X81.982 Y61.799 E22.81093
G1 X110.799 Y32.982 E24.07422
G1 X111.684 Y32.982 E24.10167
G1 X81.982 Y62.684 E25.40377
G1 X81.982 Y63.570 E25.43121
G1 X112.570 Y32.982 E26.77213
G1 X113.455 Y32.982 E26.79957
G1 X81.982 Y64.455 E28.17929
G1 X81.982 Y65.340 E28.20674
G1 X114.340 Y32.982 E29.62527
G1 X115.226 Y32.982 E29.65272
G1 X81.982 Y66.226 E31.11006
G1 X81.982 Y67.111 E31.13751
G1 X116.111 Y32.982 E32.63367
G1 X116.996 Y32.982 E32.66111
G1 X81.982 Y67.996 E34.19608
G1 X81.982 Y68.882 E34.22353
G1 X117.882 Y32.982 E35.79731
G1 X118.018 Y32.982 E35.80154
G1 X118.018 Y33.730 E35.82475
G1 X81.982 Y69.767 E37.40452
G1 X81.982 Y70.652 E37.43197
G1 X118.018 Y34.616 E39.01174
G1 X118.018 Y35.501 E39.03918
G1 X81.982 Y71.538 E40.61895
G1 X81.982 Y72.423 E40.64640
G1 X118.018 Y36.386 E42.22617
G1 X118.018 Y37.272 E42.25361
G1 X81.982 Y73.308 E43.83338
G1 X81.982 Y74.194 E43.86083
G1 X118.018 Y38.157 E45.44060
G1 X118.018 Y39.042 E45.46804
G1 X81.982 Y75.079 E47.04781
G1 X81.982 Y75.965 E47.07526
G1 X118.018 Y39.928 E48.65503
G1 X118.018 Y40.813 E48.68247
G1 X81.982 Y76.850 E50.26224
G1 X81.982 Y77.735 E50.28969
G1 X118.018 Y41.698 E51.86946
G1 X118.018 Y42.584 E51.89690
G1 X81.982 Y78.621 E53.47667
G1 X81.982 Y79.506 E53.50412
G1 X118.018 Y43.469 E55.08389
G1 X118.018 Y44.354 E55.11133
G1 X81.982 Y80.391 E56.69111
G1 X81.982 Y81.277 E56.71855
G1 X118.018 Y45.240 E58.29832
G1 X118.018 Y46.125 E58.32576
G1 X81.982 Y82.162 E59.90554
G1 X81.982 Y83.047 E59.93298
G1 X118.018 Y47.011 E61.51275
G1 X118.018 Y47.896 E61.54019
G1 X81.982 Y83.933 E63.11997
G1 X81.982 Y84.818 E63.14741
G1 X118.018 Y48.781 E64.72718
G1 X118.018 Y49.667 E64.75463
G1 X81.982 Y85.703 E66.33440
G1 X81.982 Y86.589 E66.36184
G1 X118.018 Y50.552 E67.94161
G1 X118.018 Y51.437 E67.96906
G1 X81.982 Y87.474 E69.54883
G1 X81.982 Y88.359 E69.57627
G1 X118.018 Y52.323 E71.15604
G1 X118.018 Y53.208 E71.18349
G1 X81.982 Y89.245 E72.76326
G1 X81.982 Y90.130 E72.79070
G1 X118.018 Y54.093 E74.37047
G1 X118.018 Y54.979 E74.39792
G1 X81.982 Y91.015 E75.97769
G1 X81.982 Y91.901 E76.00513
G1 X118.018 Y55.864 E77.58490
G1 X118.018 Y56.749 E77.61235
G1 X81.982 Y92.786 E79.19212
G1 X81.982 Y93.671 E79.21956
G1 X118.018 Y57.635 E80.79933
G1 X118.018 Y58.520 E80.82678
G1 X81.982 Y94.557 E82.40655
G1 X81.982 Y95.442 E82.43399
G1 X118.018 Y59.405 E84.01376
G1 X118.018 Y60.291 E84.04121
G1 X81.982 Y96.327 E85.62098
G1 X81.982 Y97.213 E85.64842
G1 X118.018 Y61.176 E87.22819
G1 X118.018 Y62.061 E87.25564
G1 X81.982 Y98.098 E88.83541
G1 X81.982 Y98.983 E88.86285
G1 X118.018 Y62.947 E90.44262
G1 X118.018 Y63.832 E90.47007
G1 X81.982 Y99.869 E92.04984
G1 X81.982 Y100.754 E92.07728
G1 X118.018 Y64.717 E93.65705
G1 X118.018 Y65.603 E93.68450
G1 X81.982 Y101.640 E95.26427
G1 X81.982 Y102.525 E95.29171
G1 X118.018 Y66.488 E96.87149
G1 X118.018 Y67.373 E96.89893
G1 X81.982 Y103.410 E98.47870
G1 X81.982 Y104.296 E98.50614
G1 X118.018 Y68.259 E100.08592
G1 X118.018 Y69.144 E100.11336
G1 X81.982 Y105.181 E101.69313
G1 X81.982 Y106.066 E101.72057
G1 X118.018 Y70.030 E103.30035
G1 X118.018 Y70.915 E103.32779
G1 X81.982 Y106.952 E104.90756
G1 X81.982 Y107.837 E104.93501
G1 X118.018 Y71.800 E106.51478
G1 X118.018 Y72.686 E106.54222
G1 X81.982 Y108.722 E108.12199
G1 X81.982 Y109.608 E108.14944
G1 X118.018 Y73.571 E109.72921
G1 X118.018 Y74.456 E109.75665
G1 X81.982 Y110.493 E111.33642
G1 X81.982 Y111.378 E111.36387
G1 X118.018 Y75.342 E112.94364
G1 X118.018 Y76.227 E112.97108
G1 X81.982 Y112.264 E114.55085
G1 X81.982 Y113.149 E114.57830
G1 X118.018 Y77.112 E116.15807
G1 X118.018 Y77.998 E116.18551
G1 X81.982 Y114.034 E117.76528
G1 X81.982 Y114.920 E117.79273
G1 X118.018 Y78.883 E119.37250
G1 X118.018 Y79.768 E119.39994
G1 X81.982 Y115.805 E120.97971
G1 X81.982 Y116.690 E121.00716
G1 X118.018 Y80.654 E122.58693
G1 X118.018 Y81.539 E122.61437
G1 X81.982 Y117.576 E124.19414
G1 X81.982 Y118.461 E124.22159
G1 X118.018 Y82.424 E125.80136
G1 X118.018 Y83.310 E125.82880
G1 X81.982 Y119.346 E127.40857
G1 X81.982 Y120.232 E127.43602
G1 X118.018 Y84.195 E129.01579
G1 X118.018 Y85.080 E129.04323
G1 X81.982 Y121.117 E130.62300
G1 X81.982 Y122.002 E130.65045
G1 X118.018 Y85.966 E132.23022
G1 X118.018 Y86.851 E132.25766
G1 X81.982 Y122.888 E133.83744
G1 X81.982 Y123.773 E133.86488
G1 X118.018 Y87.736 E135.44465
G1 X118.018 Y88.622 E135.47209
G1 X81.982 Y124.659 E137.05187
G1 X81.982 Y125.544 E137.07931
G1 X118.018 Y89.507 E138.65908
G1 X118.018 Y90.392 E138.68653
G1 X81.982 Y126.429 E140.26630
G1 X81.982 Y127.315 E140.29374
G1 X118.018 Y91.278 E141.87351
G1 X118.018 Y92.163 E141.90096
G1 X81.982 Y128.200 E143.48073
G1 X81.982 Y129.085 E143.50817
G1 X118.018 Y93.049 E145.08794
G1 X118.018 Y93.934 E145.11539
G1 X81.982 Y129.971 E146.69516
G1 X81.982 Y130.856 E146.72260
G1 X118.018 Y94.819 E148.30237
G1 X118.018 Y95.705 E148.32982
G1 X81.982 Y131.741 E149.90959
G1 X81.982 Y132.627 E149.93703
G1 X118.018 Y96.590 E151.51680
G1 X118.018 Y97.475 E151.54425
G1 X81.982 Y133.512 E153.12402
G1 X81.982 Y134.397 E153.15146
G1 X118.018 Y98.361 E154.73123
G1 X118.018 Y99.246 E154.75868
G1 X81.982 Y135.283 E156.33845
G1 X81.982 Y136.168 E156.36589
G1 X118.018 Y100.131 E157.94566
G1 X118.018 Y101.017 E157.97311
G1 X81.982 Y137.053 E159.55288
G1 X81.982 Y137.939 E159.58032
G1 X118.018 Y101.902 E161.16009
G1 X118.018 Y102.787 E161.18754
G1 X81.982 Y138.824 E162.76731
G1 X81.982 Y139.709 E162.79475
G1 X118.018 Y103.673 E164.37452
G1 X118.018 Y104.558 E164.40197
G1 X81.982 Y140.595 E165.98174
G1 X81.982 Y141.480 E166.00918
G1 X118.018 Y105.443 E167.58896
G1 X118.018 Y106.329 E167.61640
G1 X81.982 Y142.365 E169.19617
G1 X81.982 Y143.251 E169.22361
G1 X118.018 Y107.214 E170.80339
G1 X118.018 Y108.099 E170.83083
G1 X81.982 Y144.136 E172.41060
G1 X81.982 Y145.021 E172.43804
G1 X118.018 Y108.985 E174.01782
G1 X118.018 Y109.870 E174.04526
G1 X81.982 Y145.907 E175.62503
G1 X81.982 Y146.792 E175.65248
G1 X118.018 Y110.755 E177.23225
G1 X118.018 Y111.641 E177.25969
G1 X81.982 Y147.678 E178.83946
G1 X81.982 Y148.563 E178.86691
G1 X118.018 Y112.526 E180.44668
G1 X118.018 Y113.411 E180.47412
G1 X81.982 Y149.448 E182.05389
G1 X81.982 Y150.334 E182.08134
G1 X118.018 Y114.297 E183.66111
G1 X118.018 Y115.182 E183.68855
G1 X81.982 Y151.219 E185.26832
G1 X81.982 Y152.104 E185.29577
G1 X118.018 Y116.067 E186.87554
G1 X118.018 Y116.953 E186.90298
G1 X81.982 Y152.990 E188.48275
G1 X81.982 Y153.875 E188.51020
G1 X118.018 Y117.838 E190.08997
G1 X118.018 Y118.724 E190.11741
G1 X81.982 Y154.760 E191.69718
G1 X81.982 Y155.646 E191.72463
G1 X118.018 Y119.609 E193.30440
G1 X118.018 Y120.494 E193.33184
G1 X81.982 Y156.531 E194.91161
G1 X81.982 Y157.416 E194.93906
G1 X118.018 Y121.380 E196.51883
G1 X118.018 Y122.265 E196.54627
G1 X81.982 Y158.302 E198.12604
G1 X81.982 Y159.187 E198.15349
G1 X118.018 Y123.150 E199.73326
G1 X118.018 Y124.036 E199.76070
G1 X81.982 Y160.072 E201.34048
G1 X81.982 Y160.958 E201.36792
G1 X118.018 Y124.921 E202.94769
G1 X118.018 Y125.806 E202.97513
G1 X81.982 Y161.843 E204.55491
G1 X81.982 Y162.728 E204.58235
G1 X118.018 Y126.692 E206.16212
G1 X118.018 Y127.577 E206.18956
G1 X81.982 Y163.614 E207.76934
G1 X81.982 Y164.499 E207.79678
G1 X118.018 Y128.462 E209.37655
G1 X118.018 Y129.348 E209.40399
G1 X81.982 Y165.384 E210.98377
G1 X81.982 Y166.270 E211.01121
G1 X118.018 Y130.233 E212.59098
G1 X118.018 Y131.118 E212.61843
G1 X82.118 Y167.018 E214.19220
G1 X83.004 Y167.018 E214.21965
G1 X118.018 Y132.004 E215.75461
G1 X118.018 Y132.889 E215.78206
G1 X83.889 Y167.018 E217.27821
G1 X84.774 Y167.018 E217.30565
G1 X118.018 Y133.774 E218.76300
G1 X118.018 Y134.660 E218.79044
G1 X85.660 Y167.018 E220.20897
G1 X86.545 Y167.018 E220.23642
G1 X118.018 Y135.545 E221.61613
G1 X118.018 Y136.430 E221.64358
G1 X87.430 Y167.018 E222.98449
G1 X88.316 Y167.018 E223.01193
G1 X118.018 Y137.316 E224.31403
G1 X118.018 Y138.201 E224.34147
G1 X89.201 Y167.018 E225.60475
G1 X90.086 Y167.018 E225.63220
G1 X118.018 Y139.086 E226.85667
G1 X118.018 Y139.972 E226.88412
G1 X90.972 Y167.018 E228.06978
G1 X91.857 Y167.018 E228.09722
G1 X118.018 Y140.857 E229.24407
G1 X118.018 Y141.743 E229.27151
G1 X92.743 Y167.018 E230.37955
G1 X93.628 Y167.018 E230.40700
G1 X118.018 Y142.628 E231.47622
G1 X118.018 Y143.513 E231.50367
G1 X94.513 Y167.018 E232.53408
G1 X95.399 Y167.018 E232.56153
G1 X118.018 Y144.399 E233.55313
G1 X118.018 Y145.284 E233.58057
G1 X96.284 Y167.018 E234.53336
G1 X97.169 Y167.018 E234.56081
G1 X118.018 Y146.169 E235.47479
G1 X118.018 Y147.055 E235.50223
G1 X98.055 Y167.018 E236.37740
G1 X98.940 Y167.018 E236.40484
G1 X118.018 Y147.940 E237.24120
G1 X118.018 Y148.825 E237.26865
G1 X99.825 Y167.018 E238.06619
G1 X100.711 Y167.018 E238.09364
G1 X118.018 Y149.711 E238.85237
G1 X118.018 Y150.596 E238.87981
G1 X101.596 Y167.018 E239.59973
G1 X102.481 Y167.018 E239.62718
G1 X118.018 Y151.481 E240.30829
G1 X118.018 Y152.367 E240.33573
G1 X103.367 Y167.018 E240.97803
G1 X104.252 Y167.018 E241.00548
G1 X118.018 Y153.252 E241.60896
G1 X118.018 Y154.137 E241.63641
G1 X105.137 Y167.018 E242.20108
G1 X106.023 Y167.018 E242.22853
G1 X118.018 Y155.023 E242.75439
G1 X118.018 Y155.908 E242.78184
G1 X106.908 Y167.018 E243.26889
G1 X107.793 Y167.018 E243.29633
G1 X118.018 Y156.793 E243.74457
G1 X118.018 Y157.679 E243.77202
G1 X108.679 Y167.018 E244.18145
G1 X109.564 Y167.018 E244.20889
G1 X118.018 Y158.564 E244.57951
G1 X118.018 Y159.449 E244.60695
G1 X110.449 Y167.018 E244.93876
G1 X111.335 Y167.018 E244.96620
G1 X118.018 Y160.335 E245.25920
G1 X118.018 Y161.220 E245.28664
G1 X112.220 Y167.018 E245.54082
G1 X113.105 Y167.018 E245.56827
G1 X118.018 Y162.105 E245.78364
G1 X118.018 Y162.991 E245.81108
G1 X113.991 Y167.018 E245.98764
G1 X114.876 Y167.018 E246.01509
G1 X118.018 Y163.876 E246.15284
G1 X118.018 Y164.761 E246.18028
G1 X115.762 Y167.018 E246.27922
G1 X116.647 Y167.018 E246.30666
G1 X118.018 Y165.647 E246.36678
G1 X118.018 Y166.532 E246.39423
G1 X117.532 Y167.018 E246.41554
G1 Z0.650 F7800.000
G1 X118.529 Y32.471 F7800.000
G1 F3600.000
G1 X118.529 Y167.529 E250.05893
G1 X81.471 Y167.529 E251.05861
G1 X81.471 Y32.471 E254.70199
G1 X118.454 Y32.471 E255.69965
G1 X119.164 Y31.836 F7800.000
G1 F3600.000
G1 X119.164 Y168.164 E259.37733
G1 X80.836 Y168.164 E260.41131
G1 X80.836 Y31.836 E264.08898
G1 X119.089 Y31.836 E265.12094
G1 X119.725 Y31.275 F7800.000
G1 F1800.000
G1 X119.725 Y168.725 E267.95383
G1 X80.275 Y168.725 E268.76690
G1 X80.275 Y31.275 E271.59979
G1 X119.650 Y31.275 E272.41133
G1 X119.678 Y31.773 F7800.000
G1 X118.140 Y33.354 F7800.000
G1 F1200.000
G1 X117.646 Y32.860 E272.43026
G1 X116.744 Y32.860 E272.45467
G1 X118.140 Y34.256 E272.50813
G1 X118.140 Y35.158 E272.53255
G1 X115.842 Y32.860 E272.62054
G1 X114.940 Y32.860 E272.64495
G1 X118.140 Y36.060 E272.76747
G1 X118.140 Y36.962 E272.79189
G1 X114.038 Y32.860 E272.94893
G1 X113.136 Y32.860 E272.97335
G1 X118.140 Y37.864 E273.16492
G1 X118.140 Y38.766 E273.18934
G1 X112.234 Y32.860 E273.41545
G1 X111.332 Y32.860 E273.43986
G1 X118.140 Y39.668 E273.70049
G1 X118.140 Y40.570 E273.72491
G1 X110.430 Y32.860 E274.02007
G1 X109.528 Y32.860 E274.04449
G1 X118.140 Y41.472 E274.37418
G1 X118.140 Y42.374 E274.39859
G1 X108.626 Y32.860 E274.76282
G1 X107.724 Y32.860 E274.78723
G1 X118.140 Y43.276 E275.18598
G1 X118.140 Y44.178 E275.21040
G1 X106.822 Y32.860 E275.64367
G1 X105.920 Y32.860 E275.66809
G1 X118.140 Y45.080 E276.13590
G1 X118.140 Y45.982 E276.16031
G1 X105.018 Y32.860 E276.66265
G1 X104.116 Y32.860 E276.68706
G1 X118.140 Y46.884 E277.22393
G1 X118.140 Y47.786 E277.24834
G1 X103.214 Y32.860 E277.81974
G1 X102.312 Y32.860 E277.84415
G1 X118.140 Y48.688 E278.45007
G1 X118.140 Y49.590 E278.47449
G1 X101.410 Y32.860 E279.11494
G1 X100.508 Y32.860 E279.13936
G1 X118.140 Y50.492 E279.81434
G1 X118.140 Y51.394 E279.83875
G1 X99.606 Y32.860 E280.54826
G1 X98.704 Y32.860 E280.57268
G1 X118.140 Y52.296 E281.31671
G1 X118.140 Y53.198 E281.34113
G1 X97.802 Y32.860 E282.11970
G1 X96.900 Y32.860 E282.14411
G1 X118.140 Y54.100 E282.95721
G1 X118.140 Y55.002 E282.98162
G1 X95.998 Y32.860 E283.82925
G1 X95.096 Y32.860 E283.85366
G1 X118.140 Y55.904 E284.73582
