; generated by Slic3r 1.3.1-dev (Build adea0d9) on 2019-12-16 at 00:49:00

; external perimeters extrusion width = 0.44mm (2.86mm^3/s)
; perimeters extrusion width = 0.56mm (4.14mm^3/s)
; infill extrusion width = 0.50mm (3.66mm^3/s)
; solid infill extrusion width = 0.56mm (3.10mm^3/s)
; top infill extrusion width = 0.56mm (3.10mm^3/s)

M107
G92 E0
;D3D:START:START
T0
M104 S215 T0

G21
G90
M107
T0
G28
G29
M109 T0 S215 T0
G0 F3000
M107
T0
G92 E0
G0 X0 Y149 Z0.1 F3600
G1 Y49 E6.5 F1200
G0 Z1
G92 E0
; Filament gcode

G21 ; set units to millimeters
G90 ; use absolute coordinates
M82 ; use absolute distances for extrusion
G92 E0
G1 Z0.300 F7800.000
G1 E-2.00000 F2400.00000
G92 E0
G1 X55.696 Y6.696 F7800.000
G1 E2.00000 F2400.00000
G1 F1800.000
G1 X94.304 Y6.696 E3.27905
G1 X94.304 Y143.304 E7.80479
G1 X55.696 Y143.304 E9.08384
G1 X55.696 Y6.756 E13.60759
G1 X55.431 Y6.431 F7800.000
G1 F1800.000
G1 X94.569 Y6.431 E14.90424
G1 X94.569 Y143.569 E19.44758
G1 X55.431 Y143.569 E20.74423
G1 X55.431 Y6.491 E25.28559
G1 X55.165 Y6.165 F7800.000
G1 F1800.000
G1 X94.835 Y6.165 E26.59984
G1 X94.835 Y143.835 E31.16078
G1 X55.165 Y143.835 E32.47502
G1 X55.165 Y6.225 E37.03398
G1 X55.859 Y7.065 F7800.000
G1 F1800.000
G1 X56.066 Y6.859 E37.04367
G1 X56.442 Y6.859 E37.05615
G1 X55.859 Y7.442 E37.08351
G1 X55.859 Y7.818 E37.09599
G1 X56.818 Y6.859 E37.14099
G1 X57.194 Y6.859 E37.15347
G1 X55.859 Y8.194 E37.21612
G1 X55.859 Y8.570 E37.22860
G1 X57.570 Y6.859 E37.30890
G1 X57.946 Y6.859 E37.32138
G1 X55.859 Y8.946 E37.41932
G1 X55.859 Y9.322 E37.43180
G1 X58.322 Y6.859 E37.54739
G1 X58.699 Y6.859 E37.55987
G1 X55.859 Y9.699 E37.69311
G1 X55.859 Y10.075 E37.70558
G1 X59.075 Y6.859 E37.85647
G1 X59.451 Y6.859 E37.86895
G1 X55.859 Y10.451 E38.03748
G1 X55.859 Y10.827 E38.04995
G1 X59.827 Y6.859 E38.23613
G1 X60.203 Y6.859 E38.24861
G1 X55.859 Y11.203 E38.45243
G1 X55.859 Y11.579 E38.46491
G1 X60.579 Y6.859 E38.68637
G1 X60.955 Y6.859 E38.69885
G1 X55.859 Y11.955 E38.93797
G1 X55.859 Y12.332 E38.95044
G1 X61.332 Y6.859 E39.20720
G1 X61.708 Y6.859 E39.21968
G1 X55.859 Y12.708 E39.49409
G1 X55.859 Y13.084 E39.50657
G1 X62.084 Y6.859 E39.79862
G1 X62.460 Y6.859 E39.81110
G1 X55.859 Y13.460 E40.12080
G1 X55.859 Y13.836 E40.13327
G1 X62.836 Y6.859 E40.46062
G1 X63.212 Y6.859 E40.47310
G1 X55.859 Y14.212 E40.81809
G1 X55.859 Y14.588 E40.83057
G1 X63.588 Y6.859 E41.19320
G1 X63.965 Y6.859 E41.20568
G1 X55.859 Y14.965 E41.58597
G1 X55.859 Y15.341 E41.59844
G1 X64.341 Y6.859 E41.99637
G1 X64.717 Y6.859 E42.00885
G1 X55.859 Y15.717 E42.42443
G1 X55.859 Y16.093 E42.43690
G1 X65.093 Y6.859 E42.87013
G1 X65.469 Y6.859 E42.88260
G1 X55.859 Y16.469 E43.33347
G1 X55.859 Y16.845 E43.34595
G1 X65.845 Y6.859 E43.81447
G1 X66.221 Y6.859 E43.82694
G1 X55.859 Y17.221 E44.31310
G1 X55.859 Y17.597 E44.32558
G1 X66.597 Y6.859 E44.82939
G1 X66.974 Y6.859 E44.84187
G1 X55.859 Y17.974 E45.36332
G1 X55.859 Y18.350 E45.37580
G1 X67.350 Y6.859 E45.91490
G1 X67.726 Y6.859 E45.92738
G1 X55.859 Y18.726 E46.48412
G1 X55.859 Y19.102 E46.49660
G1 X68.102 Y6.859 E47.07099
G1 X68.478 Y6.859 E47.08347
G1 X55.859 Y19.478 E47.67551
G1 X55.859 Y19.854 E47.68798
G1 X68.854 Y6.859 E48.29767
G1 X69.230 Y6.859 E48.31015
G1 X55.859 Y20.230 E48.93748
G1 X55.859 Y20.607 E48.94995
G1 X69.607 Y6.859 E49.59493
G1 X69.983 Y6.859 E49.60741
G1 X55.859 Y20.983 E50.27003
G1 X55.859 Y21.359 E50.28251
G1 X70.359 Y6.859 E50.96278
G1 X70.735 Y6.859 E50.97525
G1 X55.859 Y21.735 E51.67317
G1 X55.859 Y22.111 E51.68565
G1 X71.111 Y6.859 E52.40121
G1 X71.487 Y6.859 E52.41369
G1 X55.859 Y22.487 E53.14689
G1 X55.859 Y22.863 E53.15937
G1 X71.863 Y6.859 E53.91022
G1 X72.240 Y6.859 E53.92270
G1 X55.859 Y23.240 E54.69120
G1 X55.859 Y23.616 E54.70368
G1 X72.616 Y6.859 E55.48983
G1 X72.992 Y6.859 E55.50230
G1 X55.859 Y23.992 E56.30610
G1 X55.859 Y24.368 E56.31857
G1 X73.368 Y6.859 E57.14001
G1 X73.744 Y6.859 E57.15249
G1 X55.859 Y24.744 E57.99157
G1 X55.859 Y25.120 E58.00405
G1 X74.120 Y6.859 E58.86078
G1 X74.496 Y6.859 E58.87326
G1 X55.859 Y25.496 E59.74764
G1 X55.859 Y25.873 E59.76011
G1 X74.873 Y6.859 E60.65214
G1 X75.249 Y6.859 E60.66461
G1 X55.859 Y26.249 E61.57428
G1 X55.859 Y26.625 E61.58676
G1 X75.625 Y6.859 E62.51408
G1 X76.001 Y6.859 E62.52655
G1 X55.859 Y27.001 E63.47152
G1 X55.859 Y27.377 E63.48399
G1 X76.377 Y6.859 E64.44660
G1 X76.753 Y6.859 E64.45908
G1 X55.859 Y27.753 E65.43933
G1 X55.859 Y28.129 E65.45181
G1 X77.129 Y6.859 E66.44971
G1 X77.505 Y6.859 E66.46219
G1 X55.859 Y28.505 E67.47773
G1 X55.859 Y28.882 E67.49021
G1 X77.882 Y6.859 E68.52340
G1 X78.258 Y6.859 E68.53588
G1 X55.859 Y29.258 E69.58672
G1 X55.859 Y29.634 E69.59920
G1 X78.634 Y6.859 E70.66768
G1 X79.010 Y6.859 E70.68016
G1 X55.859 Y30.010 E71.76629
G1 X55.859 Y30.386 E71.77877
G1 X79.386 Y6.859 E72.88255
G1 X79.762 Y6.859 E72.89502
G1 X55.859 Y30.762 E74.01645
G1 X55.859 Y31.138 E74.02893
G1 X80.138 Y6.859 E75.16799
G1 X80.515 Y6.859 E75.18047
G1 X55.859 Y31.515 E76.33719
G1 X55.859 Y31.891 E76.34967
G1 X80.891 Y6.859 E77.52403
G1 X81.267 Y6.859 E77.53651
G1 X55.859 Y32.267 E78.72851
G1 X55.859 Y32.643 E78.74099
G1 X81.643 Y6.859 E79.95064
G1 X82.019 Y6.859 E79.96312
G1 X55.859 Y33.019 E81.19042
G1 X55.859 Y33.395 E81.20290
G1 X82.395 Y6.859 E82.44785
G1 X82.771 Y6.859 E82.46032
G1 X55.859 Y33.771 E83.72292
G1 X55.859 Y34.148 E83.73539
G1 X83.148 Y6.859 E85.01563
G1 X83.524 Y6.859 E85.02811
G1 X55.859 Y34.524 E86.32600
G1 X55.859 Y34.900 E86.33847
G1 X83.900 Y6.859 E87.65401
G1 X84.276 Y6.859 E87.66648
G1 X55.859 Y35.276 E88.99966
G1 X55.859 Y35.652 E89.01214
G1 X84.652 Y6.859 E90.36296
G1 X85.028 Y6.859 E90.37544
G1 X55.859 Y36.028 E91.74391
G1 X55.859 Y36.404 E91.75639
G1 X85.404 Y6.859 E93.14250
G1 X85.781 Y6.859 E93.15498
G1 X55.859 Y36.781 E94.55874
G1 X55.859 Y37.157 E94.57122
G1 X86.157 Y6.859 E95.99263
G1 X86.533 Y6.859 E96.00511
G1 X55.859 Y37.533 E97.44416
G1 X55.859 Y37.909 E97.45664
G1 X86.909 Y6.859 E98.91334
G1 X87.285 Y6.859 E98.92582
G1 X55.859 Y38.285 E100.40016
G1 X55.859 Y38.661 E100.41264
G1 X87.661 Y6.859 E101.90463
G1 X88.037 Y6.859 E101.91711
G1 X55.859 Y39.037 E103.42675
G1 X55.859 Y39.413 E103.43923
G1 X88.414 Y6.859 E104.96651
G1 X88.790 Y6.859 E104.97899
G1 X55.859 Y39.790 E106.52392
G1 X55.859 Y40.166 E106.53640
G1 X89.166 Y6.859 E108.09898
G1 X89.542 Y6.859 E108.11146
G1 X55.859 Y40.542 E109.69168
G1 X55.859 Y40.918 E109.70416
G1 X89.918 Y6.859 E111.30203
G1 X90.294 Y6.859 E111.31451
G1 X55.859 Y41.294 E112.93002
G1 X55.859 Y41.670 E112.94250
G1 X90.670 Y6.859 E114.57566
G1 X91.046 Y6.859 E114.58814
G1 X55.859 Y42.046 E116.23895
G1 X55.859 Y42.423 E116.25143
G1 X91.423 Y6.859 E117.91988
G1 X91.799 Y6.859 E117.93236
G1 X55.859 Y42.799 E119.61846
G1 X55.859 Y43.175 E119.63094
G1 X92.175 Y6.859 E121.33468
G1 X92.551 Y6.859 E121.34716
G1 X55.859 Y43.551 E123.06855
G1 X55.859 Y43.927 E123.08103
G1 X92.927 Y6.859 E124.82007
G1 X93.303 Y6.859 E124.83255
G1 X55.859 Y44.303 E126.58923
G1 X55.859 Y44.679 E126.60171
G1 X93.679 Y6.859 E128.37604
G1 X94.056 Y6.859 E128.38852
G1 X55.859 Y45.056 E130.18050
G1 X55.859 Y45.432 E130.19298
G1 X94.141 Y7.149 E131.98898
G1 X94.141 Y7.525 E132.00146
G1 X55.859 Y45.808 E133.79747
G1 X55.859 Y46.184 E133.80995
G1 X94.141 Y7.901 E135.60595
G1 X94.141 Y8.277 E135.61843
G1 X55.859 Y46.560 E137.41444
G1 X55.859 Y46.936 E137.42692
G1 X94.141 Y8.653 E139.22292
G1 X94.141 Y9.029 E139.23540
G1 X55.859 Y47.312 E141.03141
G1 X55.859 Y47.689 E141.04389
G1 X94.141 Y9.406 E142.83989
G1 X94.141 Y9.782 E142.85237
G1 X55.859 Y48.065 E144.64838
G1 X55.859 Y48.441 E144.66086
G1 X94.141 Y10.158 E146.45686
G1 X94.141 Y10.534 E146.46934
G1 X55.859 Y48.817 E148.26535
G1 X55.859 Y49.193 E148.27783
G1 X94.141 Y10.910 E150.07383
G1 X94.141 Y11.286 E150.08631
G1 X55.859 Y49.569 E151.88232
G1 X55.859 Y49.945 E151.89480
G1 X94.141 Y11.662 E153.69080
G1 X94.141 Y12.039 E153.70328
G1 X55.859 Y50.322 E155.49929
G1 X55.859 Y50.698 E155.51177
G1 X94.141 Y12.415 E157.30777
G1 X94.141 Y12.791 E157.32025
G1 X55.859 Y51.074 E159.11626
G1 X55.859 Y51.450 E159.12874
G1 X94.141 Y13.167 E160.92474
G1 X94.141 Y13.543 E160.93722
G1 X55.859 Y51.826 E162.73323
G1 X55.859 Y52.202 E162.74571
G1 X94.141 Y13.919 E164.54171
G1 X94.141 Y14.295 E164.55419
G1 X55.859 Y52.578 E166.35020
G1 X55.859 Y52.954 E166.36268
G1 X94.141 Y14.672 E168.15868
G1 X94.141 Y15.048 E168.17116
G1 X55.859 Y53.331 E169.96717
G1 X55.859 Y53.707 E169.97965
G1 X94.141 Y15.424 E171.77565
G1 X94.141 Y15.800 E171.78813
G1 X55.859 Y54.083 E173.58414
G1 X55.859 Y54.459 E173.59661
G1 X94.141 Y16.176 E175.39262
G1 X94.141 Y16.552 E175.40510
G1 X55.859 Y54.835 E177.20111
G1 X55.859 Y55.211 E177.21358
G1 X94.141 Y16.928 E179.00959
G1 X94.141 Y17.305 E179.02207
G1 X55.859 Y55.587 E180.81808
G1 X55.859 Y55.964 E180.83055
G1 X94.141 Y17.681 E182.62656
G1 X94.141 Y18.057 E182.63904
G1 X55.859 Y56.340 E184.43505
G1 X55.859 Y56.716 E184.44752
G1 X94.141 Y18.433 E186.24353
G1 X94.141 Y18.809 E186.25601
G1 X55.859 Y57.092 E188.05202
G1 X55.859 Y57.468 E188.06449
G1 X94.141 Y19.185 E189.86050
G1 X94.141 Y19.561 E189.87298
G1 X55.859 Y57.844 E191.66899
G1 X55.859 Y58.220 E191.68146
G1 X94.141 Y19.937 E193.47747
G1 X94.141 Y20.314 E193.48995
G1 X55.859 Y58.597 E195.28595
G1 X55.859 Y58.973 E195.29843
G1 X94.141 Y20.690 E197.09444
G1 X94.141 Y21.066 E197.10692
G1 X55.859 Y59.349 E198.90292
G1 X55.859 Y59.725 E198.91540
G1 X94.141 Y21.442 E200.71141
G1 X94.141 Y21.818 E200.72389
G1 X55.859 Y60.101 E202.51989
G1 X55.859 Y60.477 E202.53237
G1 X94.141 Y22.194 E204.32838
G1 X94.141 Y22.570 E204.34086
G1 X55.859 Y60.853 E206.13686
G1 X55.859 Y61.230 E206.14934
G1 X94.141 Y22.947 E207.94535
G1 X94.141 Y23.323 E207.95783
G1 X55.859 Y61.606 E209.75383
G1 X55.859 Y61.982 E209.76631
G1 X94.141 Y23.699 E211.56232
G1 X94.141 Y24.075 E211.57480
G1 X55.859 Y62.358 E213.37080
G1 X55.859 Y62.734 E213.38328
G1 X94.141 Y24.451 E215.17929
G1 X94.141 Y24.827 E215.19177
G1 X55.859 Y63.110 E216.98777
G1 X55.859 Y63.486 E217.00025
G1 X94.141 Y25.203 E218.79626
G1 X94.141 Y25.580 E218.80874
G1 X55.859 Y63.862 E220.60474
G1 X55.859 Y64.239 E220.61722
G1 X94.141 Y25.956 E222.41323
G1 X94.141 Y26.332 E222.42571
G1 X55.859 Y64.615 E224.22171
G1 X55.859 Y64.991 E224.23419
G1 X94.141 Y26.708 E226.03020
G1 X94.141 Y27.084 E226.04268
G1 X55.859 Y65.367 E227.83868
G1 X55.859 Y65.743 E227.85116
G1 X94.141 Y27.460 E229.64717
G1 X94.141 Y27.836 E229.65965
G1 X55.859 Y66.119 E231.45565
G1 X55.859 Y66.495 E231.46813
G1 X94.141 Y28.213 E233.26414
G1 X94.141 Y28.589 E233.27662
G1 X55.859 Y66.872 E235.07262
G1 X55.859 Y67.248 E235.08510
G1 X94.141 Y28.965 E236.88111
G1 X94.141 Y29.341 E236.89358
G1 X55.859 Y67.624 E238.68959
G1 X55.859 Y68.000 E238.70207
G1 X94.141 Y29.717 E240.49808
G1 X94.141 Y30.093 E240.51055
G1 X55.859 Y68.376 E242.30656
G1 X55.859 Y68.752 E242.31904
G1 X94.141 Y30.469 E244.11505
G1 X94.141 Y30.846 E244.12752
G1 X55.859 Y69.128 E245.92353
G1 X55.859 Y69.505 E245.93601
G1 X94.141 Y31.222 E247.73202
G1 X94.141 Y31.598 E247.74449
G1 X55.859 Y69.881 E249.54050
G1 X55.859 Y70.257 E249.55298
G1 X94.141 Y31.974 E251.34899
G1 X94.141 Y32.350 E251.36146
G1 X55.859 Y70.633 E253.15747
G1 X55.859 Y71.009 E253.16995
G1 X94.141 Y32.726 E254.96596
G1 X94.141 Y33.102 E254.97843
G1 X55.859 Y71.385 E256.77444
G1 X55.859 Y71.761 E256.78692
G1 X94.141 Y33.478 E258.58292
G1 X94.141 Y33.855 E258.59540
G1 X55.859 Y72.138 E260.39141
G1 X55.859 Y72.514 E260.40389
G1 X94.141 Y34.231 E262.19989
G1 X94.141 Y34.607 E262.21237
G1 X55.859 Y72.890 E264.00838
G1 X55.859 Y73.266 E264.02086
G1 X94.141 Y34.983 E265.81686
G1 X94.141 Y35.359 E265.82934
G1 X55.859 Y73.642 E267.62535
G1 X55.859 Y74.018 E267.63783
G1 X94.141 Y35.735 E269.43383
G1 X94.141 Y36.111 E269.44631
G1 X55.859 Y74.394 E271.24232
G1 X55.859 Y74.770 E271.25480
G1 X94.141 Y36.488 E273.05080
G1 X94.141 Y36.864 E273.06328
G1 X55.859 Y75.147 E274.85929
G1 X55.859 Y75.523 E274.87177
G1 X94.141 Y37.240 E276.66777
G1 X94.141 Y37.616 E276.68025
G1 X55.859 Y75.899 E278.47626
G1 X55.859 Y76.275 E278.48874
G1 X94.141 Y37.992 E280.28474
G1 X94.141 Y38.368 E280.29722
G1 X55.859 Y76.651 E282.09323
G1 X55.859 Y77.027 E282.10571
G1 X94.141 Y38.744 E283.90171
G1 X94.141 Y39.121 E283.91419
G1 X55.859 Y77.403 E285.71020
G1 X55.859 Y77.780 E285.72268
G1 X94.141 Y39.497 E287.51868
G1 X94.141 Y39.873 E287.53116
G1 X55.859 Y78.156 E289.32717
G1 X55.859 Y78.532 E289.33964
G1 X94.141 Y40.249 E291.13565
G1 X94.141 Y40.625 E291.14813
G1 X55.859 Y78.908 E292.94414
G1 X55.859 Y79.284 E292.95661
G1 X94.141 Y41.001 E294.75262
G1 X94.141 Y41.377 E294.76510
G1 X55.859 Y79.660 E296.56111
G1 X55.859 Y80.036 E296.57358
G1 X94.141 Y41.754 E298.36959
G1 X94.141 Y42.130 E298.38207
G1 X55.859 Y80.413 E300.17808
G1 X55.859 Y80.789 E300.19055
G1 X94.141 Y42.506 E301.98656
G1 X94.141 Y42.882 E301.99904
G1 X55.859 Y81.165 E303.79505
G1 X55.859 Y81.541 E303.80752
G1 X94.141 Y43.258 E305.60353
G1 X94.141 Y43.634 E305.61601
G1 X55.859 Y81.917 E307.41202
G1 X55.859 Y82.293 E307.42449
G1 X94.141 Y44.010 E309.22050
G1 X94.141 Y44.386 E309.23298
G1 X55.859 Y82.669 E311.02899
G1 X55.859 Y83.046 E311.04146
G1 X94.141 Y44.763 E312.83747
G1 X94.141 Y45.139 E312.84995
G1 X55.859 Y83.422 E314.64596
G1 X55.859 Y83.798 E314.65843
G1 X94.141 Y45.515 E316.45444
G1 X94.141 Y45.891 E316.46692
G1 X55.859 Y84.174 E318.26292
G1 X55.859 Y84.550 E318.27540
G1 X94.141 Y46.267 E320.07141
G1 X94.141 Y46.643 E320.08389
G1 X55.859 Y84.926 E321.87989
G1 X55.859 Y85.302 E321.89237
G1 X94.141 Y47.019 E323.68838
G1 X94.141 Y47.396 E323.70086
G1 X55.859 Y85.679 E325.49686
G1 X55.859 Y86.055 E325.50934
G1 X94.141 Y47.772 E327.30535
G1 X94.141 Y48.148 E327.31783
G1 X55.859 Y86.431 E329.11383
G1 X55.859 Y86.807 E329.12631
G1 X94.141 Y48.524 E330.92232
G1 X94.141 Y48.900 E330.93480
G1 X55.859 Y87.183 E332.73080
G1 X55.859 Y87.559 E332.74328
G1 X94.141 Y49.276 E334.53929
G1 X94.141 Y49.652 E334.55177
G1 X55.859 Y87.935 E336.34777
G1 X55.859 Y88.311 E336.36025
G1 X94.141 Y50.029 E338.15626
G1 X94.141 Y50.405 E338.16874
G1 X55.859 Y88.688 E339.96474
G1 X55.859 Y89.064 E339.97722
G1 X94.141 Y50.781 E341.77323
G1 X94.141 Y51.157 E341.78571
G1 X55.859 Y89.440 E343.58171
G1 X55.859 Y89.816 E343.59419
G1 X94.141 Y51.533 E345.39020
G1 X94.141 Y51.909 E345.40268
G1 X55.859 Y90.192 E347.19868
G1 X55.859 Y90.568 E347.21116
G1 X94.141 Y52.285 E349.00717
G1 X94.141 Y52.662 E349.01964
G1 X55.859 Y90.944 E350.81565
G1 X55.859 Y91.321 E350.82813
G1 X94.141 Y53.038 E352.62414
G1 X94.141 Y53.414 E352.63661
G1 X55.859 Y91.697 E354.43262
G1 X55.859 Y92.073 E354.44510
G1 X94.141 Y53.790 E356.24111
G1 X94.141 Y54.166 E356.25358
G1 X55.859 Y92.449 E358.04959
G1 X55.859 Y92.825 E358.06207
G1 X94.141 Y54.542 E359.85808
G1 X94.141 Y54.918 E359.87055
G1 X55.859 Y93.201 E361.66656
G1 X55.859 Y93.577 E361.67904
G1 X94.141 Y55.294 E363.47505
G1 X94.141 Y55.671 E363.48752
G1 X55.859 Y93.954 E365.28353
G1 X55.859 Y94.330 E365.29601
G1 X94.141 Y56.047 E367.09202
G1 X94.141 Y56.423 E367.10449
G1 X55.859 Y94.706 E368.90050
G1 X55.859 Y95.082 E368.91298
G1 X94.141 Y56.799 E370.70899
G1 X94.141 Y57.175 E370.72146
G1 X55.859 Y95.458 E372.51747
G1 X55.859 Y95.834 E372.52995
G1 X94.141 Y57.551 E374.32596
G1 X94.141 Y57.927 E374.33843
G1 X55.859 Y96.210 E376.13444
G1 X55.859 Y96.587 E376.14692
G1 X94.141 Y58.304 E377.94293
G1 X94.141 Y58.680 E377.95540
G1 X55.859 Y96.963 E379.75141
G1 X55.859 Y97.339 E379.76389
G1 X94.141 Y59.056 E381.55990
G1 X94.141 Y59.432 E381.57237
G1 X55.859 Y97.715 E383.36838
G1 X55.859 Y98.091 E383.38086
G1 X94.141 Y59.808 E385.17686
G1 X94.141 Y60.184 E385.18934
G1 X55.859 Y98.467 E386.98535
G1 X55.859 Y98.843 E386.99783
G1 X94.141 Y60.560 E388.79383
G1 X94.141 Y60.937 E388.80631
G1 X55.859 Y99.219 E390.60232
G1 X55.859 Y99.596 E390.61480
G1 X94.141 Y61.313 E392.41080
G1 X94.141 Y61.689 E392.42328
G1 X55.859 Y99.972 E394.21929
G1 X55.859 Y100.348 E394.23177
G1 X94.141 Y62.065 E396.02777
G1 X94.141 Y62.441 E396.04025
G1 X55.859 Y100.724 E397.83626
G1 X55.859 Y101.100 E397.84874
G1 X94.141 Y62.817 E399.64474
G1 X94.141 Y63.193 E399.65722
