; Gcode updated with 'stl_info' on 2019-12-09 21:15:38.999977

; stl_min_x = -18.94251251220703
; stl_max_x = 18.94251251220703
; stl_min_y = -0.5672813057899475
; stl_max_y = 0.5327187180519104
; stl_min_z = -1.767382264137268

; generated by Slic3r 1.3.1-dev (Build adea0d9) on 2019-12-09 at 21:15:38

; external perimeters extrusion width = 0.44mm (2.86mm^3/s)
; perimeters extrusion width = 0.56mm (4.14mm^3/s)
; infill extrusion width = 0.50mm (3.66mm^3/s)
; solid infill extrusion width = 0.56mm (3.10mm^3/s)
; top infill extrusion width = 0.56mm (3.10mm^3/s)

M107
G92 E0
;D3D:START:START
T0
M104 S215 T0

G21
G90
M107
T0
G28
G29
M109 T0 S215 T0
G0 F3000
M107
T0
G92 E0
G0 X0 Y149 Z0.1 F3600
G1 Y49 E6.5 F1200
G0 Z1
G92 E0
; Filament gcode

G21 ; set units to millimeters
G90 ; use absolute coordinates
M82 ; use absolute distances for extrusion
G92 E0
G1 Z0.300 F7800.000
G1 E-2.00000 F2400.00000
G92 E0
G1 X88.807 Y75.054 F7800.000
G1 E2.00000 F2400.00000
G1 F600.000
G1 X87.602 Y75.113 E2.01528
G1 F600.000
G1 X85.755 Y75.185 E2.05390
G1 X83.537 Y75.242 E2.10024
G1 F600.000
G1 X83.126 Y75.245 E2.10507
M106 S255
G1 Z0.500 F7800.000
G1 E0.10507 F2400.00000
G92 E0
G1 X75.396 Y75.330 F7800.000
G1 E2.00000 F2400.00000
M106 S255

G1 F2400.000
G1 X74.604 Y75.330 E2.04136
G1 X74.604 Y74.670 E2.07585
G1 X75.396 Y74.670 E2.11721
G1 X75.396 Y75.270 E2.14856
M106 S255

G1 X75.396 Y75.135 F7800.000
G1 F600.000
G1 X76.492 Y75.184 E2.16755
G1 X77.991 Y75.194 E2.19348
G1 X81.502 Y75.274 E2.25425
G1 F600.000
G1 X84.044 Y75.245 E2.31551
G1 X85.751 Y75.192 E2.35666
G1 X88.122 Y75.090 E2.41384
G1 F600.000
G1 X89.593 Y75.024 E2.43918
G1 F600.000
G1 X90.360 Y74.989 E2.44729
G1 E0.44729 F2400.00000
G92 E0
G1 X74.604 Y75.222 F7800.000
G1 E2.00000 F2400.00000
G1 F600.000
G1 X73.941 Y75.067 E2.01537
G1 X73.559 Y74.934 E2.02451
G1 F600.000
G1 X73.402 Y74.902 E2.02712
G1 F600.000
G1 X73.308 Y74.877 E2.02809
G1 Z0.700 F7800.000
G1 E0.02809 F2400.00000
G92 E0
G1 X75.719 Y75.327 F7800.000
G1 E2.00000 F2400.00000
G1 F600.000
G1 X74.279 Y75.330 E2.04754
G1 X74.247 Y75.042 E2.05709
G1 X74.281 Y75.049 E2.05826
G1 X74.281 Y74.670 E2.07079
G1 X75.719 Y74.670 E2.11825
G1 X75.721 Y75.268 E2.13797
G1 X75.726 Y75.089 F7800.000
G1 F600.000
G1 X76.521 Y75.111 E2.16575
G1 F600.000
G1 X77.837 Y75.138 E2.21727
G1 F600.000
G1 X78.930 Y75.173 E2.25402
G1 F600.000
G1 X80.389 Y75.232 E2.29384
G1 F600.000
G1 X81.502 Y75.254 E2.31952
G1 F600.000
G1 X83.792 Y75.232 E2.38212
G1 X88.187 Y75.074 E2.50233
G1 F600.000
G1 X89.592 Y75.013 E2.53125
G1 F600.000
G1 X90.453 Y74.981 E2.54385
G1 F600.000
G1 X91.051 Y74.948 E2.54973
G1 E0.54973 F2400.00000
G92 E0
G1 X75.490 Y74.999 F7800.000
G1 E2.00000 F2400.00000
G1 F600.000
G1 X74.510 Y75.000 E2.01299
G1 Z0.900 F7800.000
G1 X75.928 Y75.330 F7800.000
G1 F600.000
G1 X74.073 Y75.330 E2.07422
G1 X74.061 Y75.202 E2.07847
G1 X73.686 Y75.078 E2.09153
G1 X73.737 Y74.865 E2.09876
G1 X74.076 Y74.916 E2.11008
G1 X74.076 Y74.670 E2.11820
G1 X74.527 Y74.670 E2.13309
G1 X74.527 Y74.870 E2.13970
G1 X75.473 Y74.870 E2.17094
G1 X75.473 Y74.670 E2.17755
G1 X75.924 Y74.670 E2.19243
G1 X75.924 Y74.964 E2.20216
G1 X75.967 Y74.964 E2.20357
G1 X75.935 Y75.270 E2.21376
G1 E0.21376 F2400.00000
G92 E0
G1 X73.712 Y74.968 F7800.000
G1 E2.00000 F2400.00000
G1 F600.000
G1 X73.013 Y74.853 E2.01433
G1 X72.791 Y74.792 E2.01900
G1 F600.000
G1 X72.256 Y74.668 E2.02665
G1 E0.02665 F2400.00000
G92 E0
G1 X76.299 Y74.738 F7800.000
G1 E2.00000 F2400.00000
G1 F600.000
G1 X76.405 Y74.963 E2.00800
G1 F600.000
G1 X76.440 Y75.018 E2.01058
G1 F600.000
G1 X76.476 Y75.074 E2.01350
G1 X77.007 Y75.100 E2.03702
G1 X78.100 Y75.111 E2.08540
G1 F600.000
G1 X79.031 Y75.138 E2.12096
G1 F600.000
G1 X80.373 Y75.197 E2.16263
G1 F600.000
G1 X81.502 Y75.221 E2.19171
G1 F600.000
G1 X83.009 Y75.220 E2.24054
G1 X84.576 Y75.192 E2.29127
G1 X87.385 Y75.090 E2.38228
G1 F600.000
G1 X88.884 Y75.028 E2.42048
G1 F600.000
G1 X90.283 Y74.971 E2.44616
G1 F600.000
G1 X91.560 Y74.912 E2.46047
G1 E0.46047 F2400.00000
G92 E0
G1 X67.462 Y74.751 F7800.000
G1 E2.00000 F2400.00000
G1 F600.000
G1 X63.962 Y74.718 E2.02984
G1 Z1.100 F7800.000
G1 E0.02984 F2400.00000
G92 E0
G1 X76.552 Y75.166 F7800.000
G1 E2.00000 F2400.00000
G1 F600.000
G1 X76.091 Y75.193 E2.01527
G1 X76.075 Y75.330 E2.01983
G1 X73.930 Y75.330 E2.09065
G1 X73.918 Y75.204 E2.09484
G1 X73.429 Y75.044 E2.11185
G1 X73.444 Y74.856 E2.11805
G1 X73.585 Y74.834 E2.12278
G1 X73.617 Y74.811 E2.12408
G1 X74.142 Y74.853 E2.14147
G1 X74.142 Y74.870 E2.14203
G1 X76.068 Y74.870 E2.20562
G1 X76.068 Y74.906 E2.20679
G1 X76.391 Y74.891 E2.21747
G1 X76.464 Y74.935 E2.22029
G1 X76.551 Y74.939 E2.22316
G1 X76.552 Y75.106 E2.22866
G1 E0.22866 F2400.00000
G92 E0
G1 X74.362 Y74.550 F7800.000
G1 E2.00000 F2400.00000
G1 F600.000
G1 X73.712 Y74.524 E2.00806
G1 X73.222 Y75.208 F7800.000
G1 F600.000
G1 X73.029 Y74.892 E2.01786
G1 X72.797 Y74.838 E2.02418
G1 F600.000
G1 X72.338 Y74.736 E2.03372
G1 F600.000
G1 X71.797 Y74.678 E2.04156
G1 F600.000
G1 X71.443 Y74.648 E2.04498
G1 X70.731 Y74.661 E2.05181
G1 X69.104 Y74.783 E2.06748
G1 X68.197 Y74.807 E2.07620
G1 X66.989 Y74.812 E2.08780
G1 X64.244 Y74.778 E2.11416
G1 X61.518 Y74.723 E2.14036
G1 E0.14036 F2400.00000
G92 E0
G1 X75.638 Y74.550 F7800.000
G1 E2.00000 F2400.00000
G1 F600.000
G1 X76.288 Y74.550 E2.00849
G1 X76.552 Y75.070 F7800.000
G1 F600.000
G1 X78.097 Y75.074 E2.08257
G1 F600.000
G1 X78.784 Y75.088 E2.11112
G1 F600.000
G1 X79.987 Y75.141 E2.15327
G1 F600.000
G1 X81.494 Y75.186 E2.19823
G1 X83.011 Y75.186 E2.24348
G1 X85.749 Y75.129 E2.32516
G1 X87.484 Y75.060 E2.37693
G1 F600.000
G1 X89.153 Y74.992 E2.41953
G1 F600.000
G1 X90.588 Y74.938 E2.44470
G1 F600.000
G1 X91.789 Y74.897 E2.45775
G1 Z1.300 F7800.000
G1 E0.45775 F2400.00000
G92 E0
G1 X77.211 Y75.167 F7800.000
G1 E2.00000 F2400.00000
G1 F600.000
G1 X76.190 Y75.195 E2.03370
G1 X76.175 Y75.330 E2.03818
G1 X75.415 Y75.330 E2.06326
G1 X75.415 Y75.230 E2.06656
G1 X74.585 Y75.230 E2.09397
G1 X74.585 Y75.330 E2.09727
G1 X73.830 Y75.330 E2.12218
G1 X73.820 Y75.202 E2.12641
G1 X73.261 Y75.045 E2.14557
G1 X73.268 Y74.858 E2.15174
G1 X73.562 Y74.796 E2.16165
G1 X73.959 Y74.800 E2.17477
G1 X73.959 Y74.870 E2.17709
G1 X76.075 Y74.870 E2.24696
G1 X76.369 Y74.854 E2.25666
G1 X76.399 Y74.885 E2.25809
G1 X76.551 Y74.902 E2.26314
G1 X77.207 Y74.939 E2.28483
G1 X77.210 Y75.107 E2.29039
G1 E0.29039 F2400.00000
G92 E0
G1 X73.263 Y74.991 F7800.000
G1 E2.00000 F2400.00000
G1 F600.000
G1 X72.334 Y74.790 E2.03139
G1 F600.000
G1 X71.611 Y74.722 E2.05057
G1 F600.000
G1 X70.737 Y74.727 E2.06776
G1 F600.000
G1 X69.105 Y74.838 E2.09242
G1 X68.197 Y74.866 E2.10612
G1 X66.205 Y74.863 E2.13615
G1 X61.376 Y74.766 E2.20899
G1 F600.000
G1 X60.335 Y74.742 E2.21982
G1 E0.21982 F2400.00000
G92 E0
G1 X75.821 Y74.550 F7800.000
G1 E2.00000 F2400.00000
G1 F600.000
G1 X76.387 Y74.541 E2.00739
G1 X77.209 Y75.053 F7800.000
G1 F600.000
G1 X78.259 Y75.038 E2.05799
G1 F600.000
G1 X78.778 Y75.044 E2.07953
G1 F600.000
G1 X79.607 Y75.075 E2.10911
G1 F600.000
G1 X81.493 Y75.142 E2.16386
G1 X83.011 Y75.148 E2.20792
G1 X85.750 Y75.097 E2.28743
G1 X87.880 Y75.013 E2.34930
G1 F600.000
G1 X89.187 Y74.965 E2.38018
G1 F600.000
G1 X90.493 Y74.917 E2.40180
G1 F600.000
G1 X91.891 Y74.877 E2.41614
G1 Z1.500 F7800.000
G1 E0.41614 F2400.00000
G92 E0
G1 X76.148 Y74.870 F7800.000
G1 E2.00000 F2400.00000
G1 F600.000
G1 X76.148 Y74.609 E2.00863
G1 X76.400 Y74.857 E2.02032
G1 X76.990 Y74.915 E2.03989
G1 X77.235 Y74.917 E2.04797
G1 X77.244 Y75.144 E2.05547
G1 X76.255 Y75.199 E2.08818
G1 X76.240 Y75.330 E2.09253
G1 X75.692 Y75.330 E2.11063
G1 X75.692 Y75.230 E2.11393
G1 X75.378 Y75.230 E2.12429
G1 X75.378 Y74.870 E2.13617
G1 X76.088 Y74.870 E2.15962
G1 X77.239 Y75.030 F7800.000
G1 F600.000
G1 X78.175 Y74.994 E2.20423
G1 F600.000
G1 X78.541 Y74.992 E2.21957
G1 F600.000
G1 X79.513 Y75.020 E2.25414
G1 F600.000
G1 X81.170 Y75.094 E2.30343
G1 X83.010 Y75.101 E2.35813
G1 X85.360 Y75.067 E2.42798
G1 X87.834 Y74.979 E2.50155
G1 F600.000
G1 X89.164 Y74.932 E2.53124
G1 F600.000
G1 X90.494 Y74.886 E2.55200
G1 F600.000
G1 X91.898 Y74.850 E2.56586
G1 E0.56586 F2400.00000
G92 E0
G1 X74.622 Y74.870 F7800.000
G1 E2.00000 F2400.00000
G1 F600.000
G1 X74.622 Y75.230 E2.01189
G1 X74.308 Y75.230 E2.02224
G1 X74.308 Y75.329 E2.02552
G1 X73.766 Y75.328 E2.04341
G1 X73.763 Y75.202 E2.04755
G1 X73.158 Y75.067 E2.06801
G1 X73.161 Y74.874 E2.07441
G1 X73.852 Y74.741 E2.09763
G1 X73.852 Y74.870 E2.10190
G1 X74.562 Y74.870 E2.12534
G1 X73.160 Y74.989 F7800.000
G1 F600.000
G1 X72.614 Y74.887 E2.14634
G1 X72.139 Y74.825 E2.16450
G1 F600.000
G1 X71.598 Y74.785 E2.18154
G1 F600.000
G1 X70.924 Y74.787 E2.19947
G1 F600.000
G1 X69.408 Y74.883 E2.23289
G1 X68.302 Y74.922 E2.25722
G1 X65.422 Y74.911 E2.32054
G1 X62.292 Y74.836 E2.38937
G1 F600.000
G1 X60.412 Y74.783 E2.42084
G1 F600.000
G1 X59.701 Y74.767 E2.42814
G1 Z1.700 F7800.000
G1 E0.42814 F2400.00000
G92 E0
G1 X75.581 Y74.870 F7800.000
G1 E2.00000 F2400.00000
G1 F600.000
G1 X76.205 Y74.870 E2.02061
G1 X76.205 Y74.811 E2.02255
G1 X76.990 Y74.903 E2.04864
G1 X77.112 Y74.899 E2.05266
G1 X77.130 Y75.125 E2.06013
G1 X76.290 Y75.196 E2.08799
G1 X76.276 Y75.330 E2.09243
G1 X75.795 Y75.330 E2.10833
G1 X75.795 Y75.230 E2.11163
G1 X75.581 Y75.230 E2.11868
G1 X75.581 Y74.930 E2.12859
G1 X77.121 Y75.012 F7800.000
G1 F600.000
G1 X78.072 Y74.946 E2.17105
G1 F600.000
G1 X78.549 Y74.941 E2.19012
G1 F600.000
G1 X79.151 Y74.954 E2.21095
G1 F600.000
G1 X81.045 Y75.044 E2.26637
G1 X82.354 Y75.061 E2.30466
G1 X85.359 Y75.023 E2.39253
G1 X87.386 Y74.963 E2.45182
G1 F600.000
G1 X88.536 Y74.918 E2.47890
G1 F600.000
G1 X89.842 Y74.877 E2.50199
G1 F600.000
G1 X91.571 Y74.835 E2.52061
G1 E0.52061 F2400.00000
G92 E0
G1 X76.490 Y74.536 F7800.000
G1 E2.00000 F2400.00000
G1 F600.000
G1 X76.087 Y74.513 E2.00403
G1 X75.442 Y74.450 F7800.000
G1 F600.000
G1 X75.442 Y74.870 E2.00816
G1 X74.419 Y74.870 F7800.000
G1 F600.000
G1 X74.419 Y75.230 E2.02005
G1 X74.205 Y75.230 E2.02710
G1 X74.205 Y75.330 E2.03041
G1 X73.726 Y75.330 E2.04623
G1 X73.714 Y75.194 E2.05073
G1 X73.056 Y75.093 E2.07271
G1 X73.054 Y74.891 E2.07937
G1 X73.795 Y74.758 E2.10422
G1 X73.795 Y74.870 E2.10793
G1 X74.359 Y74.870 E2.12656
G1 X73.055 Y74.994 F7800.000
G1 F600.000
G1 X72.171 Y74.877 E2.16463
G1 F600.000
G1 X71.696 Y74.846 E2.18248
G1 F600.000
G1 X71.224 Y74.841 E2.19779
G1 F600.000
G1 X70.484 Y74.868 E2.21875
G1 F600.000
G1 X68.506 Y74.970 E2.26658
G1 X66.990 Y74.975 E2.30318
G1 X65.422 Y74.962 E2.34103
G1 X61.586 Y74.857 E2.43368
G1 F600.000
G1 X60.116 Y74.813 E2.45904
G1 F600.000
G1 X59.000 Y74.793 E2.47170
G1 E0.47170 F2400.00000
G92 E0
G1 X74.558 Y74.870 F7800.000
G1 E2.00000 F2400.00000
G1 F600.000
G1 X74.558 Y74.450 E2.00413
G1 Z1.900 F7800.000
G1 X75.618 Y74.870 F7800.000
G1 F600.000
G1 X76.217 Y74.870 E2.02394
G1 X76.217 Y74.784 E2.02678
G1 X77.014 Y74.901 E2.05338
G1 X77.012 Y75.109 E2.06025
G1 X76.296 Y75.198 E2.08409
G1 X76.283 Y75.329 E2.08841
G1 X75.818 Y75.330 E2.10378
G1 X75.818 Y75.230 E2.10707
G1 X75.618 Y75.230 E2.11368
G1 X75.618 Y74.930 E2.12359
G1 X77.013 Y75.000 F7800.000
G1 F600.000
G1 X77.834 Y74.910 E2.15941
G1 F600.000
G1 X78.305 Y74.884 E2.17748
G1 F600.000
G1 X78.776 Y74.885 E2.19315
G1 F600.000
G1 X79.515 Y74.911 E2.21413
G1 F600.000
G1 X81.500 Y75.006 E2.26044
G1 F600.000
G1 X83.013 Y75.011 E2.30264
G1 X86.074 Y74.954 E2.38801
G1 F600.000
G1 X88.137 Y74.895 E2.43630
G1 F600.000
G1 X89.691 Y74.844 E2.46333
G1 F600.000
G1 X91.374 Y74.810 E2.47922
G1 E0.47922 F2400.00000
G92 E0
G1 X75.472 Y74.870 F7800.000
G1 E2.00000 F2400.00000
G1 F600.000
G1 X75.472 Y74.450 E2.00372
G1 X74.382 Y74.870 F7800.000
G1 F600.000
G1 X74.382 Y75.230 E2.01561
G1 X74.182 Y75.230 E2.02223
G1 X74.182 Y75.330 E2.02553
G1 X73.716 Y75.330 E2.04090
G1 X73.704 Y75.197 E2.04532
G1 X72.958 Y75.118 E2.07006
G1 X72.955 Y74.907 E2.07703
G1 X73.783 Y74.793 E2.10461
G1 X73.783 Y74.870 E2.10715
G1 X74.322 Y74.870 E2.12498
G1 X74.528 Y74.870 F7800.000
G1 F600.000
G1 X74.528 Y74.450 E2.12870
G1 X72.957 Y75.005 F7800.000
G1 F600.000
G1 X71.934 Y74.912 E2.17608
G1 F600.000
G1 X71.451 Y74.904 E2.19516
G1 F600.000
G1 X70.846 Y74.917 E2.21631
G1 F600.000
G1 X69.415 Y74.992 E2.25884
G1 F600.000
G1 X68.500 Y75.023 E2.28129
G1 X66.986 Y75.027 E2.31839
G1 F600.000
G1 X65.031 Y75.002 E2.37468
G1 X62.613 Y74.935 E2.44433
G1 F600.000
G1 X61.113 Y74.881 E2.48074
G1 F600.000
G1 X60.041 Y74.850 E2.50017
G1 F600.000
G1 X58.723 Y74.824 E2.51652
G1 Z2.100 F7800.000
G1 E0.51652 F2400.00000
G92 E0
G1 X75.544 Y74.870 F7800.000
G1 E2.00000 F2400.00000
G1 F600.000
G1 X76.192 Y74.870 E2.02140
G1 X76.192 Y74.743 E2.02559
G1 X76.917 Y74.885 E2.04997
G1 X76.914 Y75.084 E2.05651
G1 X76.264 Y75.197 E2.07830
G1 X76.261 Y75.328 E2.08261
G1 X75.772 Y75.329 E2.09875
G1 X75.772 Y75.230 E2.10202
G1 X75.544 Y75.230 E2.10957
G1 X75.544 Y74.930 E2.11947
G1 X76.915 Y74.991 F7800.000
G1 F600.000
G1 X77.666 Y74.878 E2.15098
G1 F600.000
G1 X78.076 Y74.842 E2.16551
G1 F600.000
G1 X78.776 Y74.821 E2.18698
G1 F600.000
G1 X79.516 Y74.848 E2.20516
G1 X80.720 Y74.928 E2.23478
G1 X81.698 Y74.958 E2.25882
G1 X84.578 Y74.946 E2.32953
G1 X86.425 Y74.900 E2.37490
G1 F600.000
G1 X88.433 Y74.843 E2.41372
G1 F600.000
G1 X89.881 Y74.802 E2.43290
G1 F600.000
G1 X90.793 Y74.784 E2.43995
G1 E0.43995 F2400.00000
G92 E0
G1 X75.410 Y74.870 F7800.000
G1 E2.00000 F2400.00000
G1 F600.000
G1 X75.410 Y74.450 E2.00451
G1 X74.456 Y74.870 F7800.000
G1 F600.000
G1 X74.456 Y75.230 E2.01640
G1 X74.228 Y75.230 E2.02394
G1 X74.228 Y75.330 E2.02724
G1 X73.734 Y75.330 E2.04356
G1 X73.720 Y75.198 E2.04793
G1 X72.754 Y75.121 E2.07992
G1 X72.768 Y74.896 E2.08736
G1 X73.093 Y74.899 E2.09806
G1 X73.808 Y74.817 E2.12184
G1 X73.808 Y74.870 E2.12358
G1 X74.396 Y74.870 E2.14300
G1 X73.979 Y74.513 F7800.000
G1 F600.000
G1 X73.520 Y74.539 E2.14780
G1 X72.551 Y74.674 F7800.000
G1 F600.000
G1 X72.239 Y74.975 E2.16808
G1 X71.678 Y74.957 E2.19435
G1 F600.000
G1 X70.980 Y74.965 E2.22311
G1 F600.000
G1 X70.241 Y74.997 E2.24798
G1 F600.000
G1 X68.628 Y75.067 E2.29545
G1 X66.990 Y75.072 E2.34365
G1 X64.249 Y75.029 E2.42425
G1 X61.815 Y74.943 E2.49589
G1 F600.000
G1 X60.276 Y74.892 E2.53185
G1 F600.000
G1 X58.327 Y74.841 E2.56157
G1 E0.56157 F2400.00000
G92 E0
G1 X74.590 Y74.870 F7800.000
G1 E2.00000 F2400.00000
G1 F600.000
G1 X74.590 Y74.450 E2.00451
G1 Z2.300 F7800.000
G1 X73.880 Y74.870 F7800.000
G1 F600.000
G1 X74.876 Y74.870 E2.03740
M106 S255

G1 F2400.000
G1 X75.124 Y74.870 E2.05034
M106 S255

G1 F600.000
G1 X76.120 Y74.870 E2.08323
G1 X76.120 Y74.734 E2.08770
G1 X76.775 Y74.863 E2.10976
G1 X76.782 Y75.052 E2.11599
G1 X76.228 Y75.208 E2.13500
G1 X76.218 Y75.330 E2.13903
G1 X75.633 Y75.330 E2.15835
G1 X75.633 Y75.230 E2.16165
G1 X75.124 Y75.230 E2.17846
M106 S255

G1 F2400.000
G1 X74.876 Y75.230 E2.19141
M106 S255

G1 F600.000
G1 X74.367 Y75.230 E2.20821
G1 X74.367 Y75.330 E2.21151
G1 X73.777 Y75.330 E2.23099
G1 X73.764 Y75.216 E2.23476
G1 X73.517 Y75.184 E2.24300
G1 X72.761 Y75.150 E2.26800
G1 X72.768 Y74.924 E2.27546
G1 X73.591 Y74.867 E2.30269
G1 X73.880 Y74.620 E2.31524
G1 X73.880 Y74.810 E2.32152
G1 X74.663 Y74.550 F7800.000
G1 F600.000
G1 X75.337 Y74.550 E2.33033
G1 X76.780 Y74.988 F7800.000
G1 F600.000
G1 X77.188 Y74.913 E2.34557
G1 F600.000
G1 X77.819 Y74.806 E2.36555
G1 F600.000
G1 X78.543 Y74.757 E2.38442
G1 F600.000
G1 X79.386 Y74.777 E2.40191
G1 X80.593 Y74.865 E2.42701
G1 X81.699 Y74.904 E2.44997
G1 X84.317 Y74.897 E2.50429
G1 X86.424 Y74.851 E2.54801
G1 F600.000
G1 X88.670 Y74.795 E2.58313
G1 F600.000
G1 X90.135 Y74.760 E2.59690
G1 E0.59690 F2400.00000
G92 E0
G1 X72.765 Y75.037 F7800.000
G1 E2.00000 F2400.00000
G1 F600.000
G1 X71.901 Y75.007 E2.04074
G1 X71.350 Y75.011 E2.06672
G1 F600.000
G1 X70.295 Y75.051 E2.10846
G1 F600.000
G1 X68.508 Y75.114 E2.16613
G1 F600.000
G1 X66.986 Y75.121 E2.20678
G1 F600.000
G1 X64.250 Y75.072 E2.29483
G1 X62.166 Y74.993 E2.36193
G1 F600.000
G1 X60.836 Y74.944 E2.39733
G1 F600.000
G1 X59.507 Y74.895 E2.42354
G1 F600.000
G1 X57.998 Y74.854 E2.44285
G1 Z2.500 F7800.000
G1 E0.44285 F2400.00000
G92 E0
