; generated by Slic3r 1.3.1-dev (Build 2ef957d) on 2019-11-25 at 09:20:06

; external perimeters extrusion width = 0.55mm (4.37mm^3/s)
; perimeters extrusion width = 0.70mm (11.44mm^3/s)
; infill extrusion width = 0.62mm (13.45mm^3/s)
; solid infill extrusion width = 0.70mm (3.81mm^3/s)
; top infill extrusion width = 0.70mm (2.86mm^3/s)

M107
G92 E0
M104 S200 ; set temperature
G28 ; home all axes
G1 Z5 F5000 ; lift nozzle

; Filament gcode

M109 S200 ; set temperature and wait for it to be reached
G21 ; set units to millimeters
G90 ; use absolute coordinates
M82 ; use absolute distances for extrusion
G92 E0
G1 Z0.350 F7800.000
G1 E-2.00000 F2400.00000
G92 E0
G1 X100.752 Y96.422 F7800.000
G1 E2.00000 F2400.00000
G1 F731.384
G1 X102.381 Y94.808 E2.07096
G1 X104.650 Y93.799 E2.14777
G1 X105.533 Y93.653 E2.17548
G1 X105.853 Y93.627 E2.18542
G1 X111.939 Y93.386 E2.37385
G1 X113.726 Y93.351 E2.42917
G1 X114.802 Y93.351 E2.46246
G1 X115.410 Y93.387 E2.48130
G1 X116.088 Y93.488 E2.50251
G1 X116.544 Y93.596 E2.51701
G1 X118.618 Y94.575 E2.58797
G1 X120.233 Y96.203 E2.65893
G1 X121.197 Y98.284 E2.72990
G1 X121.394 Y100.569 E2.80086
G1 X120.800 Y102.784 E2.87182
G1 X119.486 Y104.664 E2.94278
G1 X117.474 Y106.045 E3.01828
G1 X117.072 Y106.209 E3.03172
G1 X116.544 Y106.382 E3.04892
G1 X116.103 Y106.495 E3.06298
G1 X115.433 Y106.617 E3.08408
G1 X114.319 Y106.743 E3.11875
G1 X112.592 Y106.865 E3.17232
G1 X110.555 Y106.949 E3.23540
G1 X108.773 Y106.967 E3.29054
G1 X107.051 Y106.934 E3.34384
G1 X105.503 Y106.842 E3.39181
G1 X103.295 Y106.223 E3.46277
G1 X101.430 Y104.889 E3.53373
G1 X100.131 Y102.998 E3.60470
G1 X99.556 Y100.778 E3.67566
G1 X99.771 Y98.495 E3.74662
G1 X100.720 Y96.490 E3.81526
G1 E1.81526 F2400.00000
G92 E0
G1 X113.669 Y100.068 F7800.000
G1 E2.00000 F2400.00000
G1 F1800.000
G1 X112.391 Y100.126 E2.00779
G1 F1800.000
G1 X108.819 Y100.237 E2.03979
G1 F1800.000
G1 X108.059 Y100.252 E2.04449
G1 Z0.650 F7800.000
G1 E0.04449 F2400.00000
G92 E0
G1 X100.524 Y100.273 F7800.000
G1 E2.00000 F2400.00000

G1 F3600.000
G1 X99.476 Y100.275 E2.02910
G1 X99.476 Y99.725 E2.04437
G1 X100.524 Y99.725 E2.07347
G1 X100.524 Y100.198 E2.08659

G1 X100.524 Y100.107 F7800.000
G1 F600.000
G1 X103.544 Y100.182 E2.13091
G1 F600.000
G1 X106.496 Y100.265 E2.16469
G1 X108.015 Y100.257 E2.18207
G1 F600.000
G1 X110.750 Y100.181 E2.22097
G1 X112.484 Y100.112 E2.24563
G1 F600.000
G1 X113.345 Y100.075 E2.25597
G1 F600.000
G1 X114.765 Y100.011 E2.26786
G1 F600.000
G1 X115.466 Y99.983 E2.27123
G1 E0.27123 F2400.00000
G92 E0
G1 X99.476 Y100.181 F7800.000
G1 E2.00000 F2400.00000
G1 F600.000
G1 X98.603 Y99.945 E2.01346
G1 F600.000
G1 X98.471 Y99.861 E2.01630
G1 F600.000
G1 X98.339 Y99.777 E2.01979
G1 Z0.950 F7800.000
G1 X100.869 Y100.275 F7800.000
G1 F600.000
G1 X99.131 Y100.275 E2.05562
G1 X99.131 Y99.725 E2.06695
G1 X99.472 Y99.725 E2.07398
G1 X99.472 Y99.925 E2.07810
G1 X100.528 Y99.925 E2.09987
G1 X100.528 Y99.725 E2.10400
G1 X100.869 Y99.725 E2.11102
G1 X100.869 Y100.200 E2.12081
G1 X100.398 Y100.109 F7800.000
G1 X99.131 Y100.038 F7800.000
G1 F600.000
G1 X98.013 Y99.853 E2.13148
G1 X97.791 Y99.792 E2.13365
G1 F600.000
G1 X97.461 Y99.708 E2.13576
G1 E0.13576 F2400.00000
G92 E0
G1 X101.395 Y99.999 F7800.000
G1 E2.00000 F2400.00000
G1 F600.000
G1 X101.371 Y99.963 E2.00081
G1 X101.441 Y99.735 E2.00525
G1 X101.395 Y99.999 F7800.000
G1 F600.000
G1 X101.444 Y100.072 E2.00714
G1 X102.007 Y100.100 E2.01935
G1 X103.100 Y100.111 E2.04305
G1 F600.000
G1 X104.031 Y100.138 E2.06035
G1 F600.000
G1 X105.373 Y100.197 E2.08039
G1 F600.000
G1 X106.502 Y100.221 E2.09421
G1 F600.000
G1 X108.009 Y100.220 E2.11776
G1 X109.576 Y100.192 E2.14223
G1 X112.385 Y100.090 E2.18612
G1 F600.000
G1 X113.884 Y100.028 E2.20425
G1 F600.000
G1 X115.283 Y99.971 E2.21608
G1 F600.000
G1 X116.193 Y99.931 E2.22046
M106 S255
G1 Z1.250 F7800.000
G1 X101.080 Y100.275 F7800.000
G1 F600.000
G1 X98.927 Y100.275 E2.26483
G1 X98.897 Y99.925 E2.27207
G1 X101.066 Y99.925 E2.31678
G1 X101.066 Y99.947 E2.31723
G1 X101.119 Y99.943 E2.31832
G1 X101.089 Y100.201 E2.32366
G1 X100.643 Y100.031 F7800.000
G1 X101.107 Y100.045 F7800.000
G1 F600.000
G1 X101.991 Y100.060 E2.34749
G1 F600.000
G1 X103.095 Y100.057 E2.37445
G1 F600.000
G1 X103.781 Y100.067 E2.38854
G1 F600.000
G1 X104.846 Y100.115 E2.40690
G1 F600.000
G1 X106.493 Y100.166 E2.43005
G1 X108.014 Y100.168 E2.45144
G1 X110.749 Y100.113 E2.48990
G1 X113.303 Y100.013 E2.52582
G1 F600.000
G1 X114.941 Y99.949 E2.54250
G1 F600.000
G1 X116.394 Y99.900 E2.55165
G1 E0.55165 F2400.00000
G92 E0
G1 X101.341 Y99.550 F7800.000
G1 E2.00000 F2400.00000
G1 F600.000
G1 X100.742 Y99.550 E2.00345
G1 X99.258 Y99.550 F7800.000
G1 F600.000
G1 X98.659 Y99.550 E2.00690
G1 X98.903 Y99.994 F7800.000
G1 F600.000
G1 X97.972 Y99.901 E2.02284
G1 F600.000
G1 X97.625 Y99.819 E2.02812
G1 F600.000
G1 X97.160 Y99.738 E2.03374
G1 F600.000
G1 X96.456 Y99.681 E2.04000
G1 F600.000
G1 X95.728 Y99.695 E2.04463
G1 X94.109 Y99.813 E2.05493
G1 X93.197 Y99.838 E2.06073
G1 X91.205 Y99.835 E2.07338
G1 X86.839 Y99.753 E2.10111
G1 Z1.550 F7800.000
G1 E0.10111 F2400.00000
G92 E0
G1 X101.191 Y100.275 F7800.000
G1 E2.00000 F2400.00000
G1 F600.000
G1 X100.747 Y100.275 E2.00915
G1 X100.747 Y99.925 E2.01636
G1 X101.230 Y99.925 E2.02631
G1 X101.199 Y100.200 E2.03203
G1 X100.758 Y100.177 F7800.000
G1 X101.768 Y99.938 F7800.000
G1 F600.000
G1 X101.533 Y99.650 E2.03924
G1 X101.452 Y99.550 F7800.000
G1 F600.000
G1 X100.928 Y99.550 E2.04226
G1 X100.299 Y99.713 F7800.000
G1 F600.000
G1 X100.367 Y100.034 E2.04573
G1 F600.000
G1 X100.472 Y100.550 E2.05321
G1 X100.299 Y99.713 F7800.000
G1 F600.000
G1 X100.283 Y99.450 E2.05528
G1 X101.768 Y99.938 F7800.000
G1 F600.000
G1 X101.809 Y99.988 E2.05680
G1 F600.000
G1 X101.850 Y100.038 E2.05858
G1 X101.972 Y100.040 E2.06191
G1 F600.000
G1 X102.782 Y100.009 E2.08214
G1 F600.000
G1 X103.358 Y99.993 E2.09466
G1 F600.000
G1 X104.036 Y100.006 E2.10761
G1 F600.000
G1 X105.583 Y100.077 E2.13140
G1 F600.000
G1 X106.805 Y100.106 E2.14721
G1 F600.000
G1 X110.360 Y100.067 E2.20240
G1 X111.763 Y100.024 E2.22419
G1 F600.000
G1 X113.499 Y99.955 E2.24537
G1 F600.000
G1 X114.829 Y99.909 E2.25703
G1 F600.000
G1 X116.128 Y99.870 E2.26396
G1 E0.26396 F2400.00000
G92 E0
G1 X99.253 Y100.274 F7800.000
G1 E2.00000 F2400.00000
G1 F600.000
G1 X98.820 Y100.273 E2.00893
G1 X98.811 Y99.925 E2.01610
G1 X99.253 Y99.925 E2.02521
G1 X99.253 Y100.199 E2.03086
G1 X98.831 Y100.178 F7800.000
G1 X99.548 Y100.450 F7800.000
G1 F600.000
G1 X99.639 Y100.001 E2.03821
G1 F600.000
G1 X99.701 Y99.713 E2.04186
G1 F600.000
G1 X99.717 Y99.450 E2.04429
G1 X99.072 Y99.550 F7800.000
G1 F600.000
G1 X98.548 Y99.550 E2.04731
G1 X97.974 Y99.954 F7800.000
G1 F600.000
G1 X97.633 Y99.890 E2.05443
G1 F600.000
G1 X97.139 Y99.825 E2.06339
G1 F600.000
G1 X96.598 Y99.785 E2.07160
G1 F600.000
G1 X95.924 Y99.787 E2.08013
G1 F600.000
G1 X94.408 Y99.883 E2.09581
G1 X93.302 Y99.922 E2.10722
G1 X90.422 Y99.911 E2.13692
G1 X87.267 Y99.835 E2.16945
G1 F600.000
G1 X85.337 Y99.781 E2.18419
G1 E0.18419 F2400.00000
G92 E0
G1 X97.974 Y99.954 F7800.000
G1 E2.00000 F2400.00000
G1 F600.000
G1 X98.213 Y99.970 E2.00558
G1 X98.662 Y100.547 E2.02260
G1 Z1.850 F7800.000
G1 E0.02260 F2400.00000
G92 E0
G1 X100.870 Y100.275 F7800.000
G1 E2.00000 F2400.00000
G1 F600.000
G1 X100.870 Y99.925 E2.00721
G1 X101.266 Y99.925 E2.01537
G1 X101.232 Y100.275 E2.02262
G1 X100.945 Y100.275 E2.02854
G1 X100.967 Y99.939 F7800.000
G1 X101.258 Y100.003 F7800.000
G1 F600.000
G1 X101.956 Y100.014 E2.04713
G1 F600.000
G1 X102.662 Y99.949 E2.06411
G1 F600.000
G1 X103.068 Y99.921 E2.07267
G1 F600.000
G1 X103.548 Y99.914 E2.08165
G1 F600.000
G1 X104.152 Y99.927 E2.09117
G1 F600.000
G1 X106.045 Y100.019 E2.11625
G1 X107.354 Y100.038 E2.13356
G1 X109.968 Y100.010 E2.16815
G1 X112.387 Y99.942 E2.20016
G1 F600.000
G1 X113.536 Y99.900 E2.21227
G1 F600.000
G1 X114.842 Y99.856 E2.22240
G1 F600.000
G1 X115.737 Y99.831 E2.22652
G1 E0.22652 F2400.00000
G92 E0
G1 X101.496 Y99.550 F7800.000
G1 E2.00000 F2400.00000
G1 F600.000
G1 X100.996 Y99.550 E2.00288
G1 X100.494 Y99.650 F7800.000
G1 F600.000
G1 X100.494 Y100.450 E2.00753
G1 X99.130 Y100.275 F7800.000
G1 F600.000
G1 X98.769 Y100.275 E2.01497
G1 X98.737 Y99.925 E2.02222
G1 X99.130 Y99.925 E2.03032
G1 X99.130 Y100.200 E2.03599
G1 X98.779 Y100.188 F7800.000
G1 X99.130 Y99.988 F7800.000
G1 F600.000
G1 X98.051 Y100.000 E2.06416
G1 X97.659 Y99.956 E2.07445
G1 F600.000
G1 X97.168 Y99.902 E2.08563
G1 F600.000
G1 X96.695 Y99.874 E2.09486
G1 F600.000
G1 X96.224 Y99.875 E2.10286
G1 F600.000
G1 X95.485 Y99.901 E2.11352
G1 F600.000
G1 X93.955 Y99.984 E2.13204
G1 X92.646 Y100.004 E2.14787
G1 X90.031 Y99.979 E2.17949
G1 X86.863 Y99.888 E2.21782
G1 F600.000
G1 X85.352 Y99.839 E2.23183
G1 F600.000
G1 X84.590 Y99.816 E2.23644
G1 E0.23644 F2400.00000
G92 E0
G1 X98.504 Y99.550 F7800.000
G1 E2.00000 F2400.00000
G1 F600.000
G1 X99.004 Y99.550 E2.00288
G1 X99.506 Y99.650 F7800.000
G1 F600.000
G1 X99.506 Y100.450 E2.00753
G1 Z2.150 F7800.000
G1 X100.827 Y100.274 F7800.000
G1 F600.000
G1 X100.827 Y99.925 E2.01473
G1 X101.216 Y99.925 E2.02274
G1 X101.207 Y100.273 E2.02992
G1 X100.902 Y100.274 E2.03621
G1 X100.924 Y99.939 F7800.000
G1 X101.497 Y100.380 F7800.000
G1 F600.000
G1 X101.824 Y99.983 E2.04831
G1 X102.023 Y99.975 E2.05302
G1 F600.000
G1 X102.666 Y99.878 E2.06644
G1 F600.000
G1 X103.076 Y99.842 E2.07349
G1 F600.000
G1 X103.776 Y99.821 E2.08381
G1 F600.000
G1 X104.516 Y99.848 E2.09241
G1 X105.720 Y99.928 E2.10643
G1 X106.698 Y99.958 E2.11781
G1 X109.578 Y99.946 E2.15128
G1 X111.425 Y99.900 E2.17275
G1 F600.000
G1 X113.433 Y99.843 E2.19074
G1 F600.000
G1 X115.034 Y99.798 E2.20010
G1 E0.20010 F2400.00000
G92 E0
G1 X101.480 Y99.550 F7800.000
G1 E2.00000 F2400.00000
G1 F600.000
G1 X100.972 Y99.550 E2.00292
G1 X100.424 Y99.699 F7800.000
G1 F600.000
G1 X100.463 Y99.982 E2.00491
G1 F600.000
G1 X100.513 Y100.450 E2.00968
G1 X100.424 Y99.699 F7800.000
G1 F600.000
G1 X100.410 Y99.450 E2.01083
G1 X99.173 Y100.275 F7800.000
G1 F600.000
G1 X98.783 Y100.275 E2.01885
G1 X98.747 Y99.925 E2.02611
G1 X99.173 Y99.925 E2.03489
G1 X99.173 Y100.200 E2.04056
G1 X98.793 Y100.186 F7800.000
G1 X99.173 Y100.002 F7800.000
G1 F600.000
G1 X98.121 Y100.028 E2.06911
G1 X97.645 Y100.001 E2.08204
G1 F600.000
G1 X96.925 Y99.961 E2.10004
G1 F600.000
G1 X96.329 Y99.961 E2.11254
G1 F600.000
G1 X95.241 Y99.997 E2.13233
G1 F600.000
G1 X93.628 Y100.067 E2.15509
G1 X91.990 Y100.072 E2.17820
G1 X89.249 Y100.029 E2.21684
G1 X86.815 Y99.943 E2.25119
G1 F600.000
G1 X85.276 Y99.892 E2.26814
G1 F600.000
G1 X84.149 Y99.859 E2.27588
G1 E0.27588 F2400.00000
G92 E0
G1 X98.520 Y99.550 F7800.000
G1 E2.00000 F2400.00000
G1 F600.000
G1 X99.028 Y99.550 E2.00292
G1 X99.576 Y99.699 F7800.000
G1 F600.000
G1 X99.590 Y99.450 E2.00436
G1 X99.576 Y99.699 F7800.000
G1 F600.000
G1 X99.537 Y99.982 E2.00681
G1 F600.000
G1 X99.487 Y100.450 E2.01233
G1 Z2.450 F7800.000
G1 X100.549 Y100.275 F7800.000
G1 F600.000
G1 X100.549 Y99.925 E2.01954
G1 X101.119 Y99.925 E2.03128
G1 X101.119 Y99.797 E2.03392
G1 X101.408 Y99.853 E2.03997
G1 X101.416 Y100.084 E2.04474
G1 X101.142 Y100.159 E2.05060
G1 X101.132 Y100.275 E2.05300
G1 X100.624 Y100.275 E2.06347
G1 X100.704 Y99.961 F7800.000
G1 X101.412 Y99.976 F7800.000
G1 F600.000
G1 X101.951 Y99.940 E2.07313
G1 X102.197 Y99.891 E2.07761
G1 F600.000
G1 X102.667 Y99.799 E2.08466
G1 F600.000
G1 X103.330 Y99.736 E2.09248
G1 F600.000
G1 X104.344 Y99.743 E2.10089
G1 X105.895 Y99.848 E2.11378
G1 X106.799 Y99.876 E2.12128
G1 X108.794 Y99.873 E2.13783
G1 X111.792 Y99.816 E2.16270
G1 F600.000
G1 X113.932 Y99.766 E2.17539
G1 E0.17539 F2400.00000
G92 E0
G1 X99.451 Y100.275 F7800.000
G1 E2.00000 F2400.00000
G1 F600.000
G1 X98.861 Y100.275 E2.01215
G1 X98.820 Y99.925 E2.01942
G1 X99.451 Y99.925 E2.03241
G1 X99.451 Y100.200 E2.03808
G1 X98.958 Y100.191 F7800.000
G1 X98.833 Y100.034 F7800.000
G1 F600.000
G1 X98.017 Y100.053 E2.06034
G1 X97.641 Y100.044 E2.07057
G1 F600.000
G1 X96.909 Y100.025 E2.08889
G1 F600.000
G1 X96.218 Y100.037 E2.10414
G1 F600.000
G1 X95.456 Y100.064 E2.11832
G1 F600.000
G1 X94.620 Y100.104 E2.13161
G1 F600.000
G1 X93.499 Y100.135 E2.14704
G1 X91.989 Y100.141 E2.16780
G1 X90.423 Y100.120 E2.18934
G1 X86.370 Y99.978 E2.24512
G1 F600.000
G1 X84.779 Y99.916 E2.26257
G1 F600.000
G1 X83.680 Y99.887 E2.27019
G1 E0.27019 F2400.00000
G92 E0
G1 X98.600 Y99.550 F7800.000
G1 E2.00000 F2400.00000
G1 F600.000
G1 X99.156 Y99.550 E2.00320
G1 Z2.750 F7800.000
G1 X99.018 Y100.275 F7800.000
G1 F600.000
G1 X98.984 Y99.977 E2.00938
G1 X99.030 Y99.979 E2.01032
G1 X99.030 Y99.925 E2.01143
G1 X101.010 Y99.914 E2.05224
G1 X100.978 Y100.275 E2.05971
G1 X99.093 Y100.275 E2.09856
G1 X99.131 Y99.998 F7800.000
G1 X98.755 Y99.550 F7800.000
G1 F600.000
G1 X99.447 Y99.550 E2.10255
G1 X100.553 Y99.550 F7800.000
G1 F600.000
G1 X101.245 Y99.531 E2.10654
G1 X101.001 Y100.012 F7800.000
G1 F600.000
G1 X101.977 Y99.879 E2.11751
G1 X102.205 Y99.825 E2.12012
G1 F600.000
G1 X102.810 Y99.692 E2.12488
G1 F600.000
G1 X103.188 Y99.657 E2.12683
G1 E0.12683 F2400.00000
G92 E0
G1 X107.297 Y99.790 F7800.000
G1 E2.00000 F2400.00000
G1 F600.000
G1 X111.795 Y99.737 E2.02304
G1 E0.02304 F2400.00000
G92 E0
G1 X98.937 Y100.550 F7800.000
G1 E2.00000 F2400.00000
G1 F600.000
G1 X98.490 Y100.150 E2.01031
G1 F600.000
G1 X98.440 Y100.107 E2.01170
G1 F600.000
G1 X98.390 Y100.064 E2.01334
G1 X97.451 Y100.081 E2.03668
G1 F600.000
G1 X96.364 Y100.099 E2.05961
G1 F600.000
G1 X95.125 Y100.148 E2.08082
G1 F600.000
G1 X93.498 Y100.201 E2.10380
G1 X91.207 Y100.187 E2.13615
G1 X89.250 Y100.139 E2.16379
G1 X86.768 Y100.040 E2.19886
G1 F600.000
G1 X85.272 Y99.982 E2.21415
G1 F600.000
G1 X83.776 Y99.924 E2.22358
G1 Z3.050 F7800.000
G1 E0.22358 F2400.00000
G92 E0
G1 X99.293 Y100.273 F7800.000
G1 E2.00000 F2400.00000
G1 F600.000
G1 X99.293 Y99.725 E2.01129
G1 X100.707 Y99.725 E2.04041
G1 X100.707 Y100.275 E2.05174
G1 X99.368 Y100.273 E2.07932
G1 X99.488 Y99.812 F7800.000
G1 X99.293 Y100.084 F7800.000
G1 F600.000
G1 X98.611 Y100.086 E2.09269
G1 X97.990 Y100.119 E2.10488
G1 X96.636 Y100.148 E2.13141
G1 F600.000
G1 X95.491 Y100.191 E2.15083
G1 F600.000
G1 X94.110 Y100.239 E2.16983
G1 F600.000
G1 X92.063 Y100.242 E2.19259
G1 F600.000
G1 X89.251 Y100.170 E2.23475
G1 X87.164 Y100.086 E2.26605
G1 F600.000
G1 X85.765 Y100.030 E2.28349
G1 F600.000
G1 X84.365 Y99.973 E2.29552
G1 F600.000
G1 X84.192 Y99.963 E2.29634
G1 Z3.350 F7800.000
G1 E0.29634 F2400.00000
G92 E0
G1 X99.834 Y100.266 F7800.000
G1 E2.00000 F2400.00000
G1 F600.000
G1 X99.834 Y99.725 E2.01115
G1 X100.166 Y99.725 E2.01800
G1 X100.166 Y100.268 E2.02918
G1 X99.909 Y100.269 E2.03448
G1 X100.085 Y99.834 F7800.000
G1 X100.166 Y100.273 F7800.000
G1 F600.000
G1 X100.725 Y100.160 E2.03700
G1 X101.165 Y100.040 E2.03901
G1 E0.03901 F2400.00000
G92 E0
G1 X97.075 Y100.220 F7800.000
G1 E2.00000 F2400.00000
G1 F600.000
G1 X93.196 Y100.278 E2.02068
G1 F600.000
G1 X91.347 Y100.246 E2.03604
G1 F600.000
G1 X90.423 Y100.229 E2.04642
G1 X86.315 Y100.069 E2.09257
G1 F600.000
G1 X85.407 Y100.021 E2.09954
G1 F600.000
G1 X85.211 Y100.013 E2.10049
G1 Z3.650 F7800.000
G1 E0.10049 F2400.00000
G92 E0
M107
; Filament-specific end gcode 
;END gcode for filament

M104 S0 ; turn off temperature
G28 X0  ; home X axis
M84     ; disable motors

M140 S0 ; set bed temperature
; filament used = 5.6mm (0.0cm3)
; total filament cost = 0.0

; avoid_crossing_perimeters = 0
; bed_shape = 0x0,200x0,200x200,0x200
; bed_temperature = 0
; before_layer_gcode = 
; between_objects_gcode = 
; bridge_acceleration = 0
; bridge_fan_speed = 100
; brim_connections_width = 0
; brim_ears = 0
; brim_ears_max_angle = 125
; brim_width = 0
; complete_objects = 0
; cooling = 1
; default_acceleration = 0
; disable_fan_first_layers = 3
; duplicate_distance = 6
; end_filament_gcode = "; Filament-specific end gcode \n;END gcode for filament\n"
; end_gcode = M104 S0 ; turn off temperature\nG28 X0  ; home X axis\nM84     ; disable motors\n
; extruder_clearance_height = 20
; extruder_clearance_radius = 20
; extruder_offset = 0x0
; extrusion_axis = E
