; generated by Slic3r 1.3.1-dev (Build 2ef957d) on 2019-11-25 at 09:20:52

; external perimeters extrusion width = 0.55mm (4.37mm^3/s)
; perimeters extrusion width = 0.70mm (11.44mm^3/s)
; infill extrusion width = 0.62mm (13.45mm^3/s)
; solid infill extrusion width = 0.70mm (3.81mm^3/s)
; top infill extrusion width = 0.70mm (2.86mm^3/s)

M107
G92 E0
M104 S200 ; set temperature
G28 ; home all axes
G1 Z5 F5000 ; lift nozzle

; Filament gcode

M109 S200 ; set temperature and wait for it to be reached
G21 ; set units to millimeters
G90 ; use absolute coordinates
M82 ; use absolute distances for extrusion
G92 E0
G1 Z0.350 F7800.000
G1 E-2.00000 F2400.00000
G92 E0
G1 X85.372 Y92.490 F7800.000
G1 E2.00000 F2400.00000
G1 F1075.739
G1 X87.222 Y91.135 E2.07096
G1 X89.424 Y90.492 E2.14192
G1 X91.755 Y90.648 E2.21422
G1 X95.095 Y91.480 E2.32070
G1 X96.021 Y91.784 E2.35087
G1 X98.550 Y92.836 E2.43564
G1 X101.180 Y94.815 E2.53747
G1 X102.017 Y95.862 E2.57895
G1 X103.118 Y97.874 E2.64991
G1 X103.467 Y100.141 E2.72088
G1 X103.022 Y102.391 E2.79184
G1 X102.017 Y104.138 E2.85421
G1 X101.180 Y105.185 E2.89569
G1 X98.550 Y107.164 E2.99752
G1 X96.021 Y108.216 E3.08228
G1 X95.095 Y108.520 E3.11246
G1 X91.755 Y109.352 E3.21894
G1 X89.467 Y109.513 E3.28990
G1 X87.262 Y108.884 E3.36086
G1 X85.403 Y107.541 E3.43182
G1 X84.113 Y105.645 E3.50279
G1 X83.544 Y103.378 E3.57508
G1 X83.465 Y102.136 E3.61359
G1 X83.412 Y100.176 E3.67426
G1 X83.465 Y97.864 E3.74584
G1 X83.544 Y96.622 E3.78435
G1 X84.095 Y94.395 E3.85531
G1 X85.331 Y92.553 E3.92395
G1 E1.92395 F2400.00000
G92 E0
G1 X93.555 Y100.333 F7800.000
G1 E2.00000 F2400.00000
G1 F1075.739
G1 X92.989 Y100.569 E2.01897
G1 X91.659 Y100.900 E2.06138
G1 X91.635 Y100.000 E2.08924
G1 X91.659 Y99.100 E2.11710
G1 X92.989 Y99.431 E2.15951
G1 X93.555 Y99.667 E2.17848
G1 X93.555 Y100.258 E2.19678
G1 X94.180 Y100.750 F7800.000
G1 F1075.739
G1 X93.186 Y101.164 E2.23009
G1 X91.055 Y101.695 E2.29803
G1 X91.010 Y100.000 E2.35049
G1 X91.055 Y98.305 E2.40294
G1 X93.186 Y98.836 E2.47088
G1 X94.180 Y99.250 E2.50420
G1 X94.180 Y100.675 E2.54828
G1 X94.805 Y101.167 F7800.000
G1 F1800.000
G1 X93.383 Y101.759 E2.59595
G1 X90.474 Y102.483 E2.68869
G1 X90.437 Y101.937 E2.70564
G1 X90.385 Y100.000 E2.76559
G1 X90.437 Y98.063 E2.82554
G1 X90.474 Y97.517 E2.84249
G1 X93.383 Y98.241 E2.93524
G1 X94.805 Y98.833 E2.98290
G1 X94.805 Y101.092 E3.05277
G1 X94.308 Y101.112 F7800.000
G1 Z0.650 F7800.000
G1 E1.05277 F2400.00000
G92 E0
G1 X93.676 Y102.987 F7800.000
G1 E2.00000 F2400.00000

G1 F3600.000
G1 X91.442 Y103.293 E2.06262
G1 X91.408 Y102.869 E2.07444

G1 F1499.532
G1 X91.327 Y101.849 E2.10204
G1 X91.277 Y100.000 E2.15194
G1 X91.327 Y98.151 E2.20185
G1 X91.408 Y97.131 E2.22944

G1 F3600.000
G1 X91.442 Y96.707 E2.24126
G1 X93.676 Y97.013 E2.30389
G1 X93.676 Y97.713 E2.32332

G1 F1499.532
G1 X93.676 Y102.287 E2.44671

G1 F3600.000
G1 X93.676 Y102.912 E2.46407

G1 X94.311 Y103.541 F7800.000

G1 F3600.000
G1 X90.871 Y104.013 E2.56052
G1 X90.783 Y103.025 E2.58808

G1 F1499.532
G1 X90.692 Y101.883 E2.61897
G1 X90.642 Y100.000 E2.66979
G1 X90.692 Y98.117 E2.72061
G1 X90.783 Y96.975 E2.75151

G1 F3600.000
G1 X90.871 Y95.987 E2.77907
G1 X94.311 Y96.459 E2.87552
G1 X94.311 Y97.978 E2.91771

G1 F1499.532
G1 X94.311 Y102.022 E3.02681

G1 F3600.000
G1 X94.311 Y103.466 E3.06692

G1 X94.872 Y104.030 F7800.000

G1 F3600.000
G1 X90.384 Y104.646 E3.19276
G1 X90.287 Y103.852 E3.21496
G1 X90.231 Y103.162 E3.23419

G1 F749.766
G1 X90.132 Y101.913 E3.26002
G1 X90.081 Y100.000 E3.29946
G1 X90.132 Y98.087 E3.33890
G1 X90.231 Y96.838 E3.36473

G1 F3600.000
G1 X90.287 Y96.148 E3.38396
G1 X90.384 Y95.354 E3.40617
G1 X94.872 Y95.970 E3.53200
G1 X94.872 Y98.211 E3.59426

G1 F749.766
G1 X94.872 Y101.789 E3.66799

G1 F3600.000
G1 X94.872 Y103.955 E3.72817

G1 E1.72817 F2400.00000
G92 E0
G1 X92.308 Y102.592 F7800.000
G1 E2.00000 F2400.00000

G1 F3600.000
G1 X91.658 Y102.649 E2.02398

G1 X91.608 Y102.026 F7800.000

G1 F3600.000
G1 X93.408 Y101.868 E2.09039
G1 X93.408 Y101.241 E2.11346
G1 X91.582 Y101.400 E2.18084
G1 X91.565 Y100.774 E2.20387
G1 X93.408 Y100.613 E2.27187
G1 X93.408 Y99.985 E2.29494
G1 X91.549 Y100.148 E2.36355
G1 X91.546 Y100.028 E2.36794
G1 X91.554 Y99.714 E2.37950
G1 X92.757 Y99.414 E2.42510
G1 X93.408 Y99.358 E2.44910

G1 X92.219 Y99.144 F7800.000

G1 F3600.000
G1 X91.569 Y99.087 E2.46937
G1 X91.585 Y98.507 E2.48740
G1 X93.408 Y98.666 E2.54427
G1 X93.408 Y98.085 E2.56233
G1 X91.612 Y97.928 E2.61835
G1 X91.658 Y97.351 E2.63634
G1 X92.310 Y97.408 E2.65668

G1 E0.65668 F2400.00000
G92 E0
G1 X97.118 Y102.449 F7800.000
G1 E2.00000 F2400.00000

G1 F3600.000
G1 X97.118 Y100.057 E2.06644

G1 F1499.532
G1 X97.118 Y99.943 E2.06952

G1 F3600.000
G1 X97.118 Y97.544 E2.13614
G1 X101.417 Y98.306 E2.25740
G1 X105.441 Y99.309 E2.37261
G1 X107.103 Y100.000 E2.42261
G1 X105.441 Y100.691 E2.47262
G1 X101.418 Y101.693 E2.58780
G1 X97.192 Y102.436 E2.70697

G1 X96.483 Y103.206 F7800.000

G1 F3600.000
G1 X96.483 Y100.852 E2.77237

G1 F1499.532
G1 X96.483 Y99.148 E2.81832

G1 F3600.000
G1 X96.483 Y96.786 E2.88393
G1 X101.549 Y97.684 E3.02686
G1 X105.641 Y98.704 E3.14400
G1 X107.899 Y99.642 E3.21193
G1 X108.185 Y100.000 E3.22465
G1 X107.899 Y100.358 E3.23736
G1 X105.641 Y101.296 E3.30529
G1 X101.550 Y102.315 E3.42242
G1 X96.557 Y103.193 E3.56324

G1 X95.922 Y103.874 F7800.000

G1 F3600.000
G1 X95.922 Y101.353 E3.63326

G1 F749.766
G1 X95.922 Y98.647 E3.68902

G1 F3600.000
G1 X95.922 Y96.117 E3.75930
G1 X101.666 Y97.136 E3.92133
G1 X105.817 Y98.170 E4.04018
G1 X108.247 Y99.180 E4.11327
G1 X108.903 Y100.000 E4.14244
G1 X108.247 Y100.820 E4.17161
G1 X105.817 Y101.830 E4.24470
G1 X101.666 Y102.864 E4.36354
G1 X95.996 Y103.861 E4.52345

G1 E2.52345 F2400.00000
G92 E0
G1 X97.481 Y101.512 F7800.000
G1 E2.00000 F2400.00000

G1 F3600.000
G1 X97.942 Y101.973 E2.01923
G1 X98.622 Y101.854 E2.03958
G1 X97.481 Y100.713 E2.08715
G1 X97.481 Y99.914 E2.11072
G1 X99.301 Y101.734 E2.18664
G1 X99.981 Y101.615 E2.20699
G1 X97.481 Y99.114 E2.31125
G1 X97.481 Y98.315 E2.33481
G1 X100.661 Y101.495 E2.46741
G1 X101.341 Y101.376 E2.48776
G1 X98.094 Y98.130 E2.62312
G1 X99.066 Y98.302 E2.65220
G1 X101.991 Y101.227 E2.77418
G1 X102.631 Y101.068 E2.79362
G1 X100.037 Y98.474 E2.90177
G1 X101.009 Y98.647 E2.93086
G1 X103.271 Y100.909 E3.02519
G1 X103.911 Y100.749 E3.04463
G1 X102.068 Y98.907 E3.12147
G1 X103.132 Y99.172 E3.15381
G1 X104.551 Y100.590 E3.21295
G1 X105.190 Y100.431 E3.23239
G1 X104.197 Y99.437 E3.27383
G1 X105.024 Y99.643 E3.29897
G1 X105.328 Y99.769 E3.30869
G1 X105.790 Y100.231 E3.32792

G1 Z0.950 F7800.000
G1 E1.32792 F2400.00000
G92 E0
G1 X93.667 Y104.404 F7800.000
G1 E2.00000 F2400.00000
G1 F900.000
G1 X91.398 Y104.652 E2.06159
G1 X91.262 Y103.672 E2.08830
G1 X91.115 Y101.825 E2.13827
G1 X91.066 Y100.000 E2.18753
G1 X91.115 Y98.175 E2.23678
G1 X91.262 Y96.328 E2.28675
G1 X91.399 Y95.340 E2.31365
G1 X93.667 Y95.594 E2.37523
G1 X93.667 Y104.329 E2.61087
G1 E0.61087 F2400.00000
G92 E0
G1 X90.820 Y105.116 F7800.000
G1 E2.00000 F2400.00000
G1 F3600.000
G1 X90.630 Y103.741 E2.03745
G1 X90.480 Y101.859 E2.08837
G1 X90.430 Y100.000 E2.13854
G1 X90.480 Y98.141 E2.18871
G1 X90.630 Y96.259 E2.23963
G1 X90.820 Y94.884 E2.27708

G1 F3600.000
G1 X90.854 Y94.640 E2.28393
G1 X94.303 Y95.025 E2.38032
G1 X94.303 Y95.362 E2.38968

G1 F3600.000
G1 X94.303 Y104.638 E2.63991

G1 F3600.000
G1 X94.303 Y104.973 E2.64923
G1 X90.853 Y105.352 E2.74564
G1 X90.831 Y105.190 E2.75016

G1 X90.373 Y105.968 F7800.000

G1 F3600.000
G1 X90.265 Y105.192 E2.77193

G1 F1800.000
G1 X90.072 Y103.802 E2.80086
G1 X89.920 Y101.889 E2.84041
G1 X89.869 Y100.000 E2.87935
G1 X89.920 Y98.111 E2.91830
G1 X90.072 Y96.198 E2.95784
G1 X90.265 Y94.808 E2.98677

G1 F3600.000
G1 X90.373 Y94.028 E3.00866
G1 X94.864 Y94.524 E3.13415
G1 X94.864 Y95.439 E3.15958

G1 F1800.000
G1 X94.864 Y104.561 E3.34759

G1 F3600.000
G1 X94.864 Y105.476 E3.37300
G1 X90.447 Y105.960 E3.49642

G1 E1.49642 F2400.00000
G92 E0
G1 X92.784 Y104.081 F7800.000
G1 E2.00000 F2400.00000
G1 F1200.000
G1 X93.279 Y103.587 E2.02071
G1 X93.279 Y102.600 E2.04994
G1 X91.693 Y104.185 E2.11635
G1 X91.602 Y103.290 E2.14301
G1 X93.279 Y101.613 E2.21324
G1 X93.279 Y100.626 E2.24246
G1 X91.529 Y102.376 E2.31574
G1 X91.486 Y101.432 E2.34372
G1 X93.279 Y99.639 E2.41881
G1 X93.279 Y98.653 E2.44803
G1 X91.460 Y100.471 E2.52420
G1 X91.475 Y99.470 E2.55386
G1 X93.279 Y97.666 E2.62941
G1 X93.279 Y96.679 E2.65863
G1 X91.502 Y98.456 E2.73304
G1 X91.588 Y97.383 E2.76490
G1 X93.078 Y95.893 E2.82733
G1 X92.191 Y95.794 E2.85378
G1 X91.696 Y96.288 E2.87449
G1 E0.87449 F2400.00000
G92 E0
G1 X97.110 Y104.022 F7800.000
G1 E2.00000 F2400.00000
G1 F3600.000
G1 X97.110 Y95.978 E2.21702
G1 X100.038 Y96.314 E2.29651

G1 F3600.000
G1 X107.108 Y97.284 E2.49475
G1 X112.873 Y98.306 E2.65738
G1 X116.898 Y99.309 E2.77259
G1 X118.560 Y100.000 E2.82260
G1 X116.898 Y100.691 E2.87261
G1 X112.873 Y101.694 E2.98782
G1 X107.108 Y102.716 E3.15046
G1 X100.038 Y103.686 E3.34869

G1 F3600.000
G1 X97.185 Y104.014 E3.42616
G1 X96.475 Y104.733 F7800.000

G1 F3600.000
G1 X96.475 Y104.318 E3.43769

G1 F3600.000
G1 X96.475 Y95.682 E3.67065

G1 F3600.000
G1 X96.475 Y95.267 E3.68218
G1 X99.740 Y95.632 E3.77344
G1 X107.207 Y96.656 E3.98280
G1 X113.005 Y97.684 E4.14639
G1 X117.098 Y98.704 E4.26353
G1 X119.356 Y99.642 E4.33146
G1 X119.642 Y100.000 E4.34418
G1 X119.356 Y100.358 E4.35690
G1 X117.098 Y101.296 E4.42483
G1 X113.005 Y102.316 E4.54197
G1 X107.207 Y103.344 E4.70556
G1 X99.740 Y104.368 E4.91492
G1 X96.549 Y104.724 E5.00410

G1 X95.914 Y105.359 F7800.000

G1 F3600.000
G1 X95.914 Y104.417 E5.03028

G1 F1800.000
G1 X95.914 Y95.583 E5.21235

G1 F3600.000
G1 X95.914 Y94.641 E5.23853
G1 X99.809 Y95.075 E5.34739
G1 X107.294 Y96.102 E5.55725
G1 X113.122 Y97.136 E5.72168
G1 X117.274 Y98.170 E5.84052
G1 X119.704 Y99.180 E5.91362
G1 X120.360 Y100.000 E5.94279
G1 X119.704 Y100.820 E5.97195
G1 X117.274 Y101.830 E6.04505
G1 X113.122 Y102.864 E6.16390
G1 X107.294 Y103.898 E6.32832
G1 X99.809 Y104.925 E6.53818
G1 X95.989 Y105.351 E6.64497

G1 E4.64497 F2400.00000
G92 E0
G1 X98.120 Y103.490 F7800.000
G1 E2.00000 F2400.00000
G1 F1200.000
G1 X98.615 Y102.995 E2.02152
G1 X98.475 Y102.109 E2.04910
G1 X97.499 Y103.086 E2.09160
G1 X97.499 Y102.061 E2.12313
G1 X98.336 Y101.224 E2.15957
G1 X98.197 Y100.338 E2.18716
G1 X97.499 Y101.036 E2.21754
G1 X97.499 Y100.011 E2.24907
G1 X98.191 Y99.319 E2.27918
G1 X98.174 Y99.316 E2.27971
G1 X98.361 Y98.123 E2.31685
G1 X97.499 Y98.986 E2.35437
G1 X97.499 Y97.961 E2.38591
G1 X98.552 Y96.907 E2.43175
G1 X98.615 Y96.510 E2.44410
G1 X97.993 Y96.441 E2.46334
G1 X97.499 Y96.935 E2.48485
G1 X99.133 Y100.426 F7800.000
G1 F1200.000
G1 X99.932 Y99.628 E2.51960
G1 X99.061 Y99.473 E2.54680
G1 X97.887 Y100.647 E2.59789
G1 X97.679 Y100.684 E2.60439
G1 X97.703 Y100.832 E2.60899
G1 X98.569 Y101.115 F7800.000

G1 F3600.000
G1 X98.372 Y101.150 E2.61472
G1 X98.394 Y101.290 E2.61878
G1 X99.030 Y100.654 E2.64449
G1 X99.988 Y100.484 E2.67227
G1 X98.501 Y101.971 E2.73235
G1 X98.608 Y102.652 E2.75203
G1 X100.946 Y100.314 E2.84647
G1 X101.386 Y100.236 E2.85925
G1 X101.953 Y100.095 E2.87593
G1 X98.715 Y103.332 E3.00673

G1 X98.733 Y97.012 F7800.000

G1 F3600.000
G1 X99.195 Y96.550 E3.02536
G1 X99.901 Y96.631 E3.04568
G1 X98.586 Y97.946 E3.09881
G1 X98.439 Y98.881 E3.12584
G1 X100.594 Y96.726 E3.21289
G1 X101.287 Y96.822 E3.23287
G1 X98.733 Y99.375 E3.33604
G1 X99.402 Y99.494 E3.35545
G1 X101.977 Y96.919 E3.45947
G1 X102.672 Y97.012 E3.47951
G1 X100.071 Y99.613 E3.58459
G1 X100.740 Y99.731 E3.60400
G1 X103.365 Y97.107 E3.71003
G1 X104.058 Y97.202 E3.73001
G1 X101.382 Y99.878 E3.83811
G1 X101.935 Y100.016 E3.85440
G1 X101.935 Y100.112 E3.85717
G1 X104.750 Y97.297 E3.97091
G1 X105.443 Y97.392 E3.99088
G1 X99.471 Y103.364 E4.23217
G1 X100.384 Y103.239 E4.25850
G1 X106.136 Y97.487 E4.49088
G1 X106.829 Y97.582 E4.51085
G1 X101.297 Y103.114 E4.73432
G1 X102.210 Y102.988 E4.76065
G1 X107.512 Y97.687 E4.97485
G1 X108.181 Y97.805 E4.99426
G1 X103.123 Y102.863 E5.19859
G1 X104.036 Y102.738 E5.22492
G1 X108.850 Y97.924 E5.41940
G1 X109.519 Y98.043 E5.43882
G1 X104.950 Y102.612 E5.62344
G1 X105.863 Y102.487 E5.64977
G1 X110.189 Y98.161 E5.82454
G1 X110.858 Y98.280 E5.84395
G1 X106.776 Y102.362 E6.00886
G1 X107.733 Y102.192 E6.03662
G1 X111.527 Y98.398 E6.18990
G1 X112.196 Y98.517 E6.20932
G1 X108.690 Y102.023 E6.35094
G1 X109.648 Y101.853 E6.37872
G1 X112.865 Y98.636 E6.50870
G1 X113.503 Y98.786 E6.52740
G1 X110.606 Y101.683 E6.64444
G1 X111.563 Y101.513 E6.67222
G1 X114.133 Y98.943 E6.77605
G1 X114.764 Y99.100 E6.79462
G1 X112.521 Y101.343 E6.88524
G1 X113.570 Y101.082 E6.91612
G1 X115.395 Y99.258 E6.98984
G1 X116.025 Y99.415 E7.00841
G1 X114.619 Y100.821 E7.06521
G1 X115.668 Y100.559 E7.09610
G1 X116.656 Y99.572 E7.13601
G1 X116.942 Y99.643 E7.14442
G1 X117.246 Y99.769 E7.15383
G1 X116.785 Y100.231 E7.17247

M106 S204
G1 Z1.250 F7800.000
G1 E5.17247 F2400.00000
G92 E0
G1 X93.659 Y105.532 F7800.000
G1 E2.00000 F2400.00000
G1 F900.000
G1 X91.339 Y105.742 E2.06285
G1 X91.057 Y103.701 E2.11843
G1 X90.902 Y101.800 E2.16988
G1 X90.854 Y100.000 E2.21846
G1 X90.902 Y98.199 E2.26707
G1 X91.048 Y96.372 E2.31650
G1 X91.341 Y94.246 E2.37440
G1 X93.659 Y94.463 E2.43721
G1 X93.659 Y105.457 E2.73378
G1 E0.73378 F2400.00000
G92 E0
G1 X90.817 Y106.427 F7800.000
G1 E2.00000 F2400.00000
G1 F3600.000
G1 X90.669 Y105.607 E2.02249
G1 X90.425 Y103.769 E2.07251
G1 X90.267 Y101.834 E2.12487
G1 X90.218 Y100.000 E2.17437
G1 X90.267 Y98.165 E2.22389
G1 X90.416 Y96.305 E2.27422
G1 X90.669 Y94.393 E2.32626
G1 X90.818 Y93.565 E2.34895
G1 X91.643 Y93.636 E2.37128
M106 S255

G1 F3600.000
G1 X94.295 Y93.884 E2.44528
G1 X94.295 Y93.932 E2.44659
M106 S204

G1 F3600.000
G1 X94.295 Y106.068 E2.77399
M106 S255

G1 F3600.000
G1 X94.295 Y106.113 E2.77524
G1 X92.183 Y106.304 E2.83415
M106 S204

G1 F3600.000
G1 X90.891 Y106.421 E2.86913
G1 X90.356 Y107.032 F7800.000
M106 S255

G1 F3600.000
G1 X90.262 Y106.510 E2.88387
M106 S204

G1 F1800.000
G1 X90.115 Y105.694 E2.90096
G1 X89.868 Y103.829 E2.93974
G1 X89.707 Y101.865 E2.98035
G1 X89.658 Y100.000 E3.01879
G1 X89.707 Y98.135 E3.05724
G1 X89.858 Y96.246 E3.09630
G1 X90.115 Y94.306 E3.13663
G1 X90.262 Y93.490 E3.15372
M106 S255

G1 F3600.000
G1 X90.356 Y92.966 E3.16853
G1 X94.856 Y93.374 E3.29403
G1 X94.856 Y93.994 E3.31127
M106 S204

G1 F1800.000
G1 X94.856 Y106.006 E3.55882
M106 S255

G1 F3600.000
G1 X94.856 Y106.625 E3.57603
G1 X90.430 Y107.025 E3.69946
M106 S204

G1 E1.69946 F2400.00000
G92 E0
G1 X91.639 Y104.807 F7800.000
G1 E2.00000 F2400.00000
G1 F1200.000
G1 X92.133 Y105.302 E2.01950
G1 X92.985 Y105.225 E2.04336
G1 X91.490 Y103.729 E2.10234
G1 X91.442 Y103.385 E2.11203
G1 X91.386 Y102.696 E2.13130
G1 X93.271 Y104.581 E2.20563
G1 X93.271 Y103.652 E2.23154
G1 X91.304 Y101.684 E2.30913
G1 X91.269 Y100.720 E2.33602
G1 X93.271 Y102.723 E2.41499
G1 X93.271 Y101.794 E2.44090
G1 X91.243 Y99.766 E2.52086
G1 X91.267 Y98.860 E2.54612
G1 X93.271 Y100.864 E2.62516
G1 X93.271 Y99.935 E2.65107
G1 X91.292 Y97.957 E2.72910
G1 X91.361 Y97.096 E2.75317
G1 X93.271 Y99.006 E2.82850
G1 X93.271 Y98.077 E2.85441
G1 X91.430 Y96.236 E2.92702
G1 X91.540 Y95.417 E2.95005
G1 X93.271 Y97.148 E3.01831
G1 X93.271 Y96.219 E3.04422
G1 X91.751 Y94.699 E3.10415
G1 X92.776 Y94.795 E3.13287
G1 X93.271 Y95.289 E3.15237
G1 E1.15237 F2400.00000
G92 E0
G1 X97.102 Y105.214 F7800.000
G1 E2.00000 F2400.00000
G1 F3600.000
G1 X97.102 Y94.786 E2.28131
G1 X102.011 Y95.246 E2.41432
G1 X111.495 Y96.314 E2.67176
M106 S255

G1 F3600.000
G1 X118.565 Y97.284 E2.86999
G1 X124.329 Y98.306 E3.03262
G1 X128.354 Y99.309 E3.14783
G1 X130.017 Y100.000 E3.19785
G1 X128.354 Y100.691 E3.24786
G1 X124.329 Y101.694 E3.36307
G1 X118.565 Y102.716 E3.52570
G1 X111.495 Y103.686 E3.72393
M106 S204

G1 F3600.000
G1 X102.011 Y104.754 E3.98137
G1 X97.177 Y105.207 E4.11236
G1 X96.467 Y105.826 F7800.000
G1 F3600.000
G1 X96.467 Y94.174 E4.42669
M106 S255

G1 F3600.000
G1 X96.467 Y94.088 E4.42908
G1 X102.076 Y94.614 E4.58559
G1 X111.196 Y95.632 E4.84049
