; Gcode updated with 'stl_info' on 2019-12-09 21:17:34.137251

; stl_min_x = -173.05499267578125
; stl_max_x = -82.0250015258789
; stl_min_y = -24.99449920654297
; stl_max_y = 24.99449920654297
; stl_min_z = 40.13949966430664

; generated by Slic3r 1.3.1-dev (Build adea0d9) on 2019-12-09 at 21:17:33

; external perimeters extrusion width = 0.44mm (2.86mm^3/s)
; perimeters extrusion width = 0.56mm (4.14mm^3/s)
; infill extrusion width = 0.50mm (3.66mm^3/s)
; solid infill extrusion width = 0.56mm (3.10mm^3/s)
; top infill extrusion width = 0.56mm (3.10mm^3/s)

M107
G92 E0
;D3D:START:START
T0
M104 S215 T0

G21
G90
M107
T0
G28
G29
M109 T0 S215 T0
G0 F3000
M107
T0
G92 E0
G0 X0 Y149 Z0.1 F3600
G1 Y49 E6.5 F1200
G0 Z1
G92 E0
; Filament gcode

G21 ; set units to millimeters
G90 ; use absolute coordinates
M82 ; use absolute distances for extrusion
G92 E0
G1 Z0.300 F7800.000
G1 E-2.00000 F2400.00000
G92 E0
G1 X65.797 Y73.192 F7800.000
G1 E2.00000 F2400.00000
G1 F793.380
G1 X67.319 Y73.571 E2.05196
G1 X69.459 Y74.462 E2.12876
G1 X69.459 Y75.538 E2.16441
G1 X67.319 Y76.429 E2.24121
G1 X65.797 Y76.808 E2.29317
G1 X65.749 Y75.000 E2.35309
G1 X65.796 Y73.252 E2.41103
G1 X65.549 Y72.856 F7800.000
G1 F793.380
G1 X67.403 Y73.318 E2.47432
G1 X69.725 Y74.285 E2.55765
G1 X69.725 Y75.715 E2.60504
G1 X67.403 Y76.682 E2.68837
G1 X65.549 Y77.144 E2.75166
G1 X65.483 Y75.000 E2.82271
G1 X65.545 Y72.916 E2.89178
G1 X65.305 Y72.522 F7800.000
G1 F1800.000
G1 X67.486 Y73.065 E2.96624
G1 X69.946 Y74.089 E3.05451
G1 X69.990 Y74.144 E3.05686
G1 X69.990 Y75.856 E3.11355
G1 X69.946 Y75.911 E3.11589
G1 X67.486 Y76.935 E3.20416
G1 X65.305 Y77.478 E3.27862
G1 X65.269 Y76.948 E3.29623
G1 X65.218 Y75.000 E3.36079
G1 X65.269 Y73.052 E3.42534
G1 X65.301 Y72.582 E3.44097
G1 X65.951 Y73.633 F7800.000
G1 F793.380
G1 X66.157 Y73.426 E3.45082
G1 X66.463 Y73.502 E3.46146
G1 X65.940 Y74.026 E3.48641
G1 X65.930 Y74.419 E3.49967
G1 X66.769 Y73.579 E3.53972
G1 X67.076 Y73.655 E3.55036
G1 X65.919 Y74.811 E3.60551
G1 X65.914 Y75.199 E3.61859
G1 X67.377 Y73.736 E3.68835
G1 X67.647 Y73.849 E3.69821
G1 X65.924 Y75.571 E3.78037
G1 X65.934 Y75.944 E3.79293
G1 X67.917 Y73.961 E3.88750
G1 X68.187 Y74.074 E3.89736
G1 X65.944 Y76.316 E4.00432
G1 X65.951 Y76.574 E4.01301
G1 X66.108 Y76.535 E4.01847
G1 X68.456 Y74.186 E4.13048
G1 X68.726 Y74.298 E4.14035
G1 X66.617 Y76.408 E4.24095
G1 X67.126 Y76.281 E4.25865
G1 X68.996 Y74.411 E4.34784
G1 X69.266 Y74.523 E4.35770
G1 X67.780 Y76.010 E4.42860
G1 X68.435 Y75.737 E4.45253
G1 X69.297 Y74.875 E4.49364
G1 X69.297 Y75.257 E4.50654
G1 X69.090 Y75.464 E4.51640
M106 S255
G1 Z0.500 F7800.000
G1 E2.51640 F2400.00000
G92 E0
G1 X65.745 Y71.334 F7800.000
G1 E2.00000 F2400.00000
M106 S255

G1 F2400.000
G1 X66.957 Y71.500 E2.06390
G1 X69.472 Y71.946 E2.19736
G1 X69.472 Y73.497 E2.27839
M106 S255

G1 F2400.000
G1 X69.472 Y76.503 E2.40766
M106 S255

G1 F2400.000
G1 X69.472 Y78.054 E2.48869
G1 X66.957 Y78.500 E2.62215
G1 X65.745 Y78.666 E2.68605
G1 X65.673 Y77.763 E2.73342
M106 S255

G1 F2400.000
G1 X65.604 Y76.900 E2.77065
G1 X65.553 Y75.000 E2.85235
G1 X65.604 Y73.100 E2.93405
G1 X65.673 Y72.237 E2.97128
M106 S255

G1 F2400.000
G1 X65.740 Y71.393 E3.01551
M106 S255

G1 X65.340 Y70.817 F7800.000
M106 S255

G1 F2400.000
G1 X67.028 Y71.048 E3.10454
G1 X69.929 Y71.563 E3.25848
G1 X69.929 Y73.687 E3.36947
M106 S255

G1 F2160.000
G1 X69.929 Y76.313 E3.45617
M106 S255

G1 F2400.000
G1 X69.929 Y78.437 E3.56716
G1 X67.028 Y78.952 E3.72111
G1 X65.340 Y79.183 E3.81013
G1 X65.223 Y77.875 E3.87877
M106 S255

G1 F2160.000
G1 X65.148 Y76.924 E3.91026
G1 X65.096 Y75.000 E3.97381
G1 X65.148 Y73.076 E4.03735
G1 X65.223 Y72.125 E4.06885
M106 S255

G1 F2400.000
G1 X65.333 Y70.876 E4.13436
M106 S255

G1 E2.13436 F2400.00000
G92 E0
G1 X65.802 Y74.072 F7800.000
G1 E2.00000 F2400.00000
M106 S255

G1 F2400.000
G1 X66.318 Y74.201 E2.03334
G1 X66.782 Y74.085 E2.06329
G1 X67.191 Y73.915 E2.09102
G1 X65.815 Y73.573 E2.17982
G1 X65.829 Y73.073 E2.21114
G1 X67.946 Y73.600 E2.34789
G1 X68.702 Y73.286 E2.39919
G1 X65.868 Y72.580 E2.58223
G1 X65.907 Y72.086 E2.61323
G1 X69.247 Y72.918 E2.82891
M106 S255

G1 X69.247 Y72.415 F7800.000
M106 S255

G1 F2400.000
G1 X68.731 Y72.287 E2.86224
M106 S255

G1 X69.247 Y73.418 F7800.000
M106 S255

G1 F2400.000
G1 X68.730 Y73.547 E2.89830
G1 X66.408 Y74.514 E3.06862
G1 X65.790 Y74.668 E3.11176
G1 X65.786 Y74.801 E3.12079
G1 X69.247 Y73.939 E3.36228
G1 X69.247 Y74.460 E3.39754
G1 X65.786 Y75.322 E3.63904
G1 X65.800 Y75.839 E3.67409
G1 X69.247 Y74.980 E3.91462
G1 X69.247 Y75.501 E3.94989
G1 X65.814 Y76.357 E4.18946
G1 X65.827 Y76.874 E4.22451
G1 X69.247 Y76.022 E4.46312
G1 X69.247 Y76.543 E4.49838
G1 X65.865 Y77.385 E4.73438
G1 X65.906 Y77.896 E4.76907
G1 X69.247 Y77.064 E5.00223
G1 X69.247 Y77.584 E5.03749
G1 X68.729 Y77.713 E5.07361
M106 S255

G1 E3.07361 F2400.00000
G92 E0
G1 X71.327 Y72.275 F7800.000
G1 E2.00000 F2400.00000
M106 S255

G1 F2400.000
G1 X72.763 Y72.529 E2.07622
G1 X76.872 Y73.553 E2.29744
G1 X79.179 Y74.512 E2.42795
G1 X79.569 Y75.000 E2.46062
G1 X79.179 Y75.488 E2.49329
G1 X76.872 Y76.447 E2.62380
G1 X72.763 Y77.471 E2.84502
G1 X71.327 Y77.725 E2.92124
G1 X71.327 Y72.335 E3.20288
M106 S255

G1 X70.870 Y71.729 F7800.000
M106 S255

G1 F2400.000
G1 X72.859 Y72.082 E3.30841
G1 X77.016 Y73.118 E3.53224
G1 X79.462 Y74.135 E3.67067
G1 X80.155 Y75.000 E3.72856
G1 X79.462 Y75.865 E3.78646
G1 X77.016 Y76.882 E3.92488
G1 X72.859 Y77.918 E4.14872
G1 X70.870 Y78.271 E4.25425
G1 X70.870 Y75.344 E4.40712
M106 S255

G1 F2160.000
G1 X70.870 Y74.656 E4.42987
M106 S255

G1 F2400.000
G1 X70.870 Y71.789 E4.57961
M106 S255

G1 X71.552 Y72.916 F7800.000
M106 S255

G1 F2400.000
G1 X72.069 Y72.787 E4.60947
G1 X72.247 Y72.819 E4.61964
G1 X72.247 Y73.222 E4.64226
G1 X71.552 Y73.395 E4.68244
G1 X71.552 Y73.874 E4.70933
G1 X72.247 Y73.700 E4.74952
G1 X72.247 Y74.179 E4.77641
G1 X71.552 Y74.352 E4.81659
G1 X71.552 Y74.831 E4.84348
G1 X72.247 Y74.658 E4.88367
G1 X72.247 Y75.137 E4.91056
G1 X71.552 Y75.310 E4.95074
G1 X71.552 Y75.789 E4.97763
G1 X72.247 Y75.616 E5.01782
G1 X72.247 Y76.095 E5.04471
G1 X71.552 Y76.268 E5.08489
G1 X71.552 Y76.747 E5.11178
G1 X72.247 Y76.574 E5.15197
G1 X72.247 Y77.053 E5.17886
G1 X71.729 Y77.182 E5.20880
M106 S255

G1 X72.627 Y77.225 F7800.000
M106 S255

G1 F2400.000
G1 X72.251 Y76.849 E5.23885
G1 X72.251 Y76.190 E5.27607
G1 X73.167 Y77.107 E5.34930
G1 X73.695 Y76.975 E5.38002
G1 X72.251 Y75.531 E5.49539
G1 X72.251 Y74.872 E5.53262
G1 X74.222 Y76.844 E5.69014
G1 X74.750 Y76.712 E5.72085
G1 X72.251 Y74.213 E5.92051
G1 X72.251 Y73.554 E5.95774
G1 X75.277 Y76.581 E6.19955
G1 X75.805 Y76.450 E6.23026
G1 X72.251 Y72.895 E6.51421
G1 X72.251 Y72.775 E6.52103
G1 X72.946 Y72.932 E6.56131
G1 X76.333 Y76.318 E6.83184
G1 X76.860 Y76.187 E6.86255
G1 X73.824 Y73.151 E7.10513
G1 X74.701 Y73.369 E7.15621
G1 X77.331 Y75.999 E7.36632
G1 X77.797 Y75.805 E7.39479
G1 X75.579 Y73.588 E7.57197
G1 X76.456 Y73.806 E7.62306
G1 X78.262 Y75.612 E7.76732
G1 X78.727 Y75.419 E7.79580
G1 X77.563 Y74.254 E7.88887
G1 X78.690 Y74.722 E7.95786
G1 X79.067 Y75.099 E7.98797
M106 S255

G1 Z0.700 F7800.000
G1 E5.98797 F2400.00000
G92 E0
G1 X69.467 Y70.796 F7800.000
G1 E2.00000 F2400.00000
M106 S255

G1 F2400.000
G1 X69.467 Y71.054 E2.01347
M106 S255

G1 F2400.000
G1 X69.467 Y78.946 E2.35277
M106 S255

G1 F2400.000
G1 X69.467 Y79.204 E2.36624
G1 X67.118 Y79.526 E2.49012
G1 X65.729 Y79.681 E2.56315
G1 X65.713 Y79.556 E2.56971
M106 S255

G1 F2400.000
G1 X65.615 Y78.794 E2.60277
G1 X65.463 Y76.884 E2.68515
G1 X65.412 Y75.000 E2.76617
G1 X65.463 Y73.116 E2.84718
G1 X65.615 Y71.206 E2.92957
G1 X65.713 Y70.444 E2.96262
M106 S255

G1 F2400.000
G1 X65.729 Y70.319 E2.96919
G1 X67.118 Y70.474 E3.04222
G1 X69.408 Y70.788 E3.16297
M106 S255

G1 X69.924 Y70.398 F7800.000
M106 S255

G1 F2400.000
G1 X69.924 Y71.135 E3.20149
M106 S255

G1 F2160.000
G1 X69.924 Y78.865 E3.45670
M106 S255

G1 F2400.000
G1 X69.924 Y79.602 E3.49523
G1 X67.174 Y79.979 E3.64024
G1 X65.333 Y80.185 E3.73706
G1 X65.260 Y79.618 E3.76691
M106 S255

G1 F2160.000
G1 X65.160 Y78.841 E3.79279
G1 X65.006 Y76.908 E3.85682
G1 X64.955 Y75.000 E3.91984
G1 X65.006 Y73.092 E3.98285
G1 X65.160 Y71.159 E4.04688
G1 X65.260 Y70.382 E4.07276
M106 S255

G1 F2400.000
G1 X65.333 Y69.815 E4.10261
G1 X67.174 Y70.021 E4.19943
G1 X69.865 Y70.390 E4.34131
M106 S255

G1 E2.34131 F2400.00000
G92 E0
G1 X68.795 Y74.178 F7800.000
G1 E2.00000 F2400.00000
M106 S255

G1 F2400.000
G1 X69.172 Y73.802 E2.03054
G1 X69.172 Y73.138 E2.06863
G1 X68.232 Y74.078 E2.14493
G1 X67.668 Y73.978 E2.17780
G1 X69.172 Y72.474 E2.29986
G1 X69.172 Y71.811 E2.33795
G1 X67.104 Y73.878 E2.50577
G1 X66.541 Y73.778 E2.53863
G1 X69.172 Y71.147 E2.75219
G1 X69.172 Y71.030 E2.75891
G1 X68.691 Y70.964 E2.78676
G1 X65.961 Y73.694 E3.00839
G1 X65.749 Y73.665 E3.02067
G1 X65.766 Y73.225 E3.04594
G1 X68.107 Y70.884 E3.23600
G1 X67.524 Y70.804 E3.26981
G1 X65.824 Y72.504 E3.40782
G1 X65.881 Y71.783 E3.44935
G1 X66.933 Y70.731 E3.53474
G1 X66.336 Y70.664 E3.56922
G1 X65.960 Y71.040 E3.59975
M106 S255

G1 E1.59975 F2400.00000
G92 E0
G1 X66.158 Y73.767 F7800.000
G1 E2.00000 F2400.00000
G1 F1800.000
G1 X65.756 Y74.169 E2.02537
G1 X65.735 Y74.948 E2.06011
G1 X66.823 Y73.861 E2.12867
G1 X67.467 Y73.975 E2.15783
G1 X65.742 Y75.700 E2.26657
G1 X65.756 Y76.233 E2.29033
G1 X66.001 Y76.199 E2.30135
G1 X68.111 Y74.089 E2.43437
G1 X68.755 Y74.204 E2.46353
G1 X66.906 Y76.053 E2.58012
G1 X67.827 Y75.889 E2.62184
G1 X69.151 Y74.566 E2.70531
G1 X69.151 Y75.324 E2.73912
G1 X68.749 Y75.726 E2.76449
G1 E0.76449 F2400.00000
G92 E0
G1 X66.125 Y76.335 F7800.000
G1 E2.00000 F2400.00000
M106 S255

G1 F2400.000
G1 X65.749 Y76.711 E2.03050
G1 X65.781 Y77.342 E2.06670
G1 X66.897 Y76.225 E2.15717
G1 X67.704 Y76.082 E2.20411
G1 X65.830 Y77.956 E2.35597
G1 X65.879 Y78.570 E2.39129
G1 X68.510 Y75.939 E2.60451
G1 X69.172 Y75.822 E2.64304
G1 X69.172 Y75.941 E2.64984
G1 X65.939 Y79.173 E2.91186
G1 X65.960 Y79.336 E2.92124
G1 X66.500 Y79.275 E2.95241
G1 X69.172 Y76.604 E3.16895
G1 X69.172 Y77.267 E3.20696
G1 X67.258 Y79.181 E3.36207
G1 X68.027 Y79.075 E3.40654
G1 X69.172 Y77.930 E3.49935
G1 X69.172 Y78.594 E3.53737
G1 X68.795 Y78.970 E3.56787
M106 S255

G1 E1.56787 F2400.00000
G92 E0
G1 X71.322 Y71.051 F7800.000
G1 E2.00000 F2400.00000
M106 S255

G1 F2400.000
G1 X74.594 Y71.500 E2.17256
G1 X80.401 Y72.529 E2.48068
G1 X84.510 Y73.553 E2.70191
G1 X86.816 Y74.512 E2.83242
G1 X87.207 Y75.000 E2.86509
G1 X86.816 Y75.488 E2.89776
G1 X84.510 Y76.447 E3.02827
G1 X80.401 Y77.471 E3.24949
G1 X74.594 Y78.500 E3.55761
G1 X71.322 Y78.949 E3.73017
G1 X71.322 Y78.617 E3.74754
M106 S255

G1 F2400.000
G1 X71.322 Y71.383 E4.05857
M106 S255

G1 F2400.000
G1 X71.322 Y71.111 E4.07280
M106 S255

G1 X70.865 Y70.527 F7800.000
M106 S255

G1 F2400.000
G1 X74.665 Y71.048 E4.27320
G1 X80.496 Y72.082 E4.58261
G1 X84.654 Y73.118 E4.80645
G1 X87.100 Y74.135 E4.94488
G1 X87.792 Y75.000 E5.00277
G1 X87.100 Y75.865 E5.06066
G1 X84.654 Y76.882 E5.19910
G1 X80.496 Y77.918 E5.42293
G1 X74.665 Y78.952 E5.73234
G1 X70.865 Y79.473 E5.93275
G1 X70.865 Y78.698 E5.97326
M106 S255

G1 F2160.000
G1 X70.865 Y71.302 E6.21746
M106 S255

G1 F2400.000
G1 X70.865 Y70.587 E6.25484
M106 S255

G1 X71.993 Y71.417 F7800.000
M106 S255

G1 F2400.000
G1 X71.617 Y71.793 E6.28397
G1 X71.617 Y72.443 E6.31955
G1 X72.565 Y71.495 E6.39294
G1 X73.136 Y71.574 E6.42452
G1 X71.617 Y73.093 E6.54215
G1 X71.617 Y73.743 E6.57773
G1 X73.708 Y71.652 E6.73961
G1 X74.279 Y71.731 E6.77120
G1 X71.617 Y74.393 E6.97732
G1 X71.617 Y74.678 E6.99295
G1 X71.927 Y74.733 E7.01016
G1 X74.845 Y71.814 E7.23620
G1 X75.397 Y71.912 E7.26689
G1 X72.459 Y74.850 E7.49444
G1 X72.979 Y74.980 E7.52379
G1 X75.949 Y72.010 E7.75380
G1 X76.501 Y72.108 E7.78449
G1 X71.617 Y76.992 E8.16272
G1 X71.617 Y77.642 E8.19830
G1 X77.053 Y72.205 E8.61927
G1 X77.605 Y72.303 E8.64997
G1 X71.617 Y78.292 E9.11368
G1 X71.617 Y78.583 E9.12964
G1 X72.033 Y78.526 E9.15260
G1 X78.157 Y72.401 E9.62688
G1 X78.709 Y72.499 E9.65758
G1 X72.786 Y78.423 E10.11628
G1 X73.539 Y78.319 E10.15791
G1 X79.261 Y72.597 E10.60103
G1 X79.813 Y72.695 E10.63172
G1 X74.292 Y78.216 E11.05925
G1 X75.080 Y78.078 E11.10306
G1 X80.365 Y72.793 E11.51232
G1 X80.893 Y72.915 E11.54196
G1 X75.870 Y77.938 E11.93088
G1 X76.660 Y77.798 E11.97481
G1 X81.413 Y73.045 E12.34285
G1 X81.933 Y73.174 E12.37221
G1 X77.450 Y77.658 E12.71938
G1 X78.240 Y77.518 E12.76330
G1 X82.453 Y73.304 E13.08959
G1 X82.974 Y73.434 E13.11895
G1 X79.030 Y77.377 E13.42436
G1 X79.819 Y77.237 E13.46828
G1 X83.494 Y73.563 E13.75282
G1 X84.014 Y73.693 E13.78217
G1 X80.657 Y77.050 E14.04214
G1 X81.522 Y76.834 E14.09098
G1 X84.534 Y73.822 E14.32422
G1 X84.995 Y74.012 E14.35148
G1 X82.388 Y76.619 E14.55336
G1 X83.253 Y76.403 E14.60220
G1 X85.454 Y74.203 E14.77261
G1 X85.913 Y74.393 E14.79983
G1 X84.118 Y76.188 E14.93877
G1 X85.216 Y75.740 E15.00368
G1 X86.372 Y74.584 E15.09318
G1 X86.704 Y74.722 E15.11290
G1 X86.776 Y74.812 E15.11918
G1 X86.328 Y75.278 E15.15456
M106 S255

G1 E13.15456 F2400.00000
G92 E0
G1 X73.355 Y74.604 F7800.000
G1 E2.00000 F2400.00000
M106 S255

G1 F2400.000
G1 X73.485 Y74.636 E2.00730
G1 X73.485 Y74.988 E2.02656
G1 X72.801 Y75.158 E2.06514
G1 X71.617 Y76.342 E2.15682
M106 S255

G1 Z0.900 F7800.000
G1 E0.15682 F2400.00000
G92 E0
G1 X69.462 Y69.883 F7800.000
G1 E2.00000 F2400.00000
M106 S255

G1 F2400.000
G1 X69.462 Y69.910 E2.00142
M106 S255

G1 F2400.000
G1 X69.462 Y80.090 E2.43908
M106 S255

G1 F2400.000
G1 X69.462 Y80.116 E2.44043
G1 X68.523 Y80.218 E2.48975
M106 S255

G1 F2400.000
G1 X65.717 Y80.526 E2.61112
G1 X65.472 Y78.758 E2.68786
G1 X65.321 Y76.868 E2.76939
G1 X65.271 Y75.000 E2.84972
G1 X65.321 Y73.132 E2.93004
G1 X65.472 Y71.242 E3.01158
G1 X65.718 Y69.465 E3.08870
G1 X68.401 Y69.765 E3.20473
M106 S255

G1 F2400.000
G1 X69.402 Y69.877 E3.25738
M106 S255

G1 X69.919 Y69.474 F7800.000
M106 S255

G1 F2400.000
G1 X69.919 Y69.973 E3.28343
M106 S255

G1 F2160.000
G1 X69.919 Y80.027 E3.61538
M106 S255

G1 F2400.000
G1 X69.919 Y80.525 E3.64142
G1 X65.325 Y81.029 E3.88283
G1 X65.268 Y80.615 E3.90465
M106 S255

G1 F2160.000
G1 X65.018 Y78.808 E3.96489
G1 X64.865 Y76.892 E4.02835
G1 X64.814 Y75.000 E4.09083
G1 X64.865 Y73.108 E4.15332
G1 X65.018 Y71.192 E4.21677
G1 X65.268 Y69.385 E4.27701
M106 S255

G1 F2400.000
G1 X65.326 Y68.968 E4.29901
G1 X69.859 Y69.468 E4.53728
M106 S255

G1 X69.166 Y70.504 F7800.000
M106 S255

G1 F2400.000
G1 X68.790 Y70.128 E4.56859
G1 X68.612 Y70.108 E4.57915
G1 X68.612 Y70.621 E4.60932
G1 X69.166 Y71.175 E4.65547
G1 X69.166 Y71.846 E4.69496
G1 X68.612 Y71.292 E4.74110
G1 X68.612 Y71.963 E4.78059
G1 X69.166 Y72.517 E4.82674
G1 X69.166 Y73.035 E4.85718
G1 X68.988 Y73.010 E4.86777
G1 X68.612 Y72.634 E4.89908
M106 S255

G1 X68.743 Y73.662 F7800.000
G1 F1800.000
G1 X68.743 Y73.129 E4.92228
G1 X68.125 Y73.044 E4.94943
G1 X69.146 Y74.065 E5.01221
G1 E3.01221 F2400.00000
G92 E0
G1 X68.517 Y70.477 F7800.000
G1 E2.00000 F2400.00000
G1 F1800.000
G1 X68.115 Y70.075 E2.02475
G1 X67.282 Y69.982 E2.06120
G1 X68.517 Y71.217 E2.13718
G1 X68.517 Y71.957 E2.16936
G1 X66.449 Y69.889 E2.29657
G1 X65.960 Y69.834 E2.31797
G1 X65.923 Y70.102 E2.32975
G1 X68.517 Y72.696 E2.48933
G1 X68.517 Y73.436 E2.52151
G1 X65.833 Y70.752 E2.68663
G1 X65.760 Y71.418 E2.71579
G1 X69.146 Y74.804 E2.92408
G1 X69.146 Y75.544 E2.95626
G1 X65.705 Y72.103 E3.16792
G1 X65.650 Y72.789 E3.19781
G1 X69.146 Y76.284 E3.41283
G1 X69.146 Y76.871 E3.43837
G1 X69.011 Y76.890 E3.44427
G1 X65.622 Y73.500 E3.65275
G1 X65.603 Y74.221 E3.68411
G1 X68.517 Y77.135 E3.86338
G1 X68.517 Y77.875 E3.89556
G1 X65.592 Y74.949 E4.07554
G1 X65.612 Y75.709 E4.10861
G1 X68.517 Y78.615 E4.28734
G1 X68.517 Y79.355 E4.31952
G1 X65.632 Y76.470 E4.49700
G1 X65.687 Y77.264 E4.53162
G1 X68.362 Y79.939 E4.69620
G1 X67.695 Y80.012 E4.72537
G1 X65.751 Y78.068 E4.84498
G1 X65.840 Y78.897 E4.88126
G1 X67.028 Y80.085 E4.95435
G1 X66.362 Y80.158 E4.98353
G1 X65.959 Y79.756 E5.00828
G1 E3.00828 F2400.00000
G92 E0
G1 X68.612 Y79.513 F7800.000
G1 E2.00000 F2400.00000
M106 S255

G1 F2400.000
G1 X68.988 Y79.890 E2.03241
