; generated by Slic3r 1.3.1-dev (Build adea0d9) on 2019-12-16 at 00:49:09

; external perimeters extrusion width = 0.44mm (2.86mm^3/s)
; perimeters extrusion width = 0.56mm (4.14mm^3/s)
; infill extrusion width = 0.50mm (3.66mm^3/s)
; solid infill extrusion width = 0.56mm (3.10mm^3/s)
; top infill extrusion width = 0.56mm (3.10mm^3/s)

M107
G92 E0
;D3D:START:START
T0
M104 S215 T0

G21
G90
M107
T0
G28
G29
M109 T0 S215 T0
G0 F3000
M107
T0
G92 E0
G0 X0 Y149 Z0.1 F3600
G1 Y49 E6.5 F1200
G0 Z1
G92 E0
; Filament gcode

G21 ; set units to millimeters
G90 ; use absolute coordinates
M82 ; use absolute distances for extrusion
G92 E0
G1 Z0.300 F7800.000
G1 E-2.00000 F2400.00000
G92 E0
G1 X63.497 Y62.751 F7800.000
G1 E2.00000 F2400.00000
G1 F1800.000
G1 X64.289 Y62.053 E2.03497
G1 X65.123 Y61.406 E2.06995
G1 X65.996 Y60.812 E2.10492
G1 X66.905 Y60.275 E2.13989
G1 X67.845 Y59.796 E2.17486
G1 X68.814 Y59.377 E2.20983
G1 X69.807 Y59.019 E2.24480
G1 X70.821 Y58.724 E2.27978
G1 X71.851 Y58.494 E2.31475
G1 X72.894 Y58.329 E2.34972
G1 X73.945 Y58.230 E2.38469
G1 X75.000 Y58.197 E2.41966
G1 X76.055 Y58.230 E2.45464
G1 X77.106 Y58.329 E2.48961
G1 X78.149 Y58.494 E2.52458
G1 X79.179 Y58.724 E2.55955
G1 X80.193 Y59.019 E2.59453
G1 X81.186 Y59.377 E2.62950
G1 X82.155 Y59.796 E2.66447
G1 X83.095 Y60.275 E2.69944
G1 X84.004 Y60.812 E2.73441
G1 X84.877 Y61.406 E2.76938
G1 X85.711 Y62.053 E2.80436
G1 X86.503 Y62.751 E2.83933
G1 X87.249 Y63.497 E2.87430
G1 X87.947 Y64.289 E2.90927
G1 X88.594 Y65.123 E2.94425
G1 X89.188 Y65.996 E2.97922
G1 X89.725 Y66.905 E3.01419
G1 X90.204 Y67.845 E3.04916
G1 X90.623 Y68.814 E3.08413
G1 X90.981 Y69.807 E3.11911
G1 X91.275 Y70.821 E3.15408
G1 X91.506 Y71.851 E3.18905
G1 X91.671 Y72.894 E3.22402
G1 X91.770 Y73.945 E3.25899
G1 X91.803 Y75.000 E3.29397
G1 X91.770 Y76.055 E3.32894
G1 X91.671 Y77.106 E3.36391
G1 X91.506 Y78.149 E3.39888
G1 X91.275 Y79.179 E3.43386
G1 X90.981 Y80.193 E3.46883
G1 X90.623 Y81.186 E3.50380
G1 X90.204 Y82.155 E3.53877
G1 X89.725 Y83.095 E3.57374
G1 X89.188 Y84.004 E3.60872
G1 X88.594 Y84.877 E3.64369
G1 X87.947 Y85.711 E3.67866
G1 X87.249 Y86.503 E3.71363
G1 X86.503 Y87.249 E3.74860
G1 X85.711 Y87.947 E3.78358
G1 X84.877 Y88.594 E3.81855
G1 X84.004 Y89.188 E3.85352
G1 X83.095 Y89.725 E3.88849
G1 X82.155 Y90.204 E3.92346
G1 X81.186 Y90.623 E3.95844
G1 X80.193 Y90.981 E3.99341
G1 X79.179 Y91.275 E4.02838
G1 X78.149 Y91.506 E4.06335
G1 X77.106 Y91.671 E4.09833
G1 X76.055 Y91.770 E4.13330
G1 X75.000 Y91.803 E4.16827
G1 X73.945 Y91.770 E4.20324
G1 X72.894 Y91.671 E4.23821
G1 X71.851 Y91.506 E4.27318
G1 X70.821 Y91.275 E4.30816
G1 X69.807 Y90.981 E4.34313
G1 X68.814 Y90.623 E4.37810
G1 X67.845 Y90.204 E4.41307
G1 X66.905 Y89.725 E4.44804
G1 X65.996 Y89.188 E4.48302
G1 X65.123 Y88.594 E4.51799
G1 X64.289 Y87.947 E4.55296
G1 X63.497 Y87.249 E4.58793
G1 X62.751 Y86.503 E4.62291
G1 X62.053 Y85.711 E4.65788
G1 X61.406 Y84.877 E4.69285
G1 X60.812 Y84.004 E4.72782
G1 X60.275 Y83.095 E4.76280
G1 X59.796 Y82.155 E4.79777
G1 X59.377 Y81.186 E4.83274
G1 X59.019 Y80.193 E4.86771
G1 X58.724 Y79.179 E4.90268
G1 X58.494 Y78.149 E4.93765
G1 X58.329 Y77.106 E4.97263
G1 X58.230 Y76.055 E5.00760
G1 X58.197 Y75.000 E5.04257
G1 X58.230 Y73.945 E5.07754
G1 X58.329 Y72.894 E5.11251
G1 X58.494 Y71.851 E5.14749
G1 X58.724 Y70.821 E5.18246
G1 X59.019 Y69.807 E5.21743
G1 X59.377 Y68.814 E5.25240
G1 X59.796 Y67.845 E5.28737
G1 X60.275 Y66.905 E5.32235
G1 X60.812 Y65.996 E5.35732
G1 X61.406 Y65.123 E5.39229
G1 X62.053 Y64.289 E5.42726
G1 X62.751 Y63.497 E5.46224
G1 X63.455 Y62.793 E5.49522
G1 X63.315 Y62.557 F7800.000
G1 F1800.000
G1 X64.120 Y61.848 E5.53075
G1 X64.967 Y61.191 E5.56627
G1 X65.854 Y60.588 E5.60179
G1 X66.777 Y60.042 E5.63732
G1 X67.732 Y59.555 E5.67285
G1 X68.716 Y59.129 E5.70837
G1 X69.725 Y58.766 E5.74390
G1 X70.755 Y58.467 E5.77942
G1 X71.802 Y58.233 E5.81495
G1 X72.861 Y58.065 E5.85047
G1 X73.928 Y57.964 E5.88600
G1 X75.000 Y57.931 E5.92152
G1 X76.072 Y57.964 E5.95705
G1 X77.139 Y58.065 E5.99257
G1 X78.198 Y58.233 E6.02810
G1 X79.245 Y58.467 E6.06362
G1 X80.275 Y58.766 E6.09915
G1 X81.284 Y59.129 E6.13467
G1 X82.268 Y59.555 E6.17020
G1 X83.223 Y60.042 E6.20572
G1 X84.146 Y60.588 E6.24125
G1 X85.033 Y61.191 E6.27677
G1 X85.880 Y61.848 E6.31230
G1 X86.685 Y62.557 E6.34782
G1 X87.443 Y63.315 E6.38335
G1 X88.152 Y64.120 E6.41887
G1 X88.809 Y64.967 E6.45440
G1 X89.412 Y65.854 E6.48992
G1 X89.958 Y66.777 E6.52545
G1 X90.445 Y67.732 E6.56097
G1 X90.871 Y68.716 E6.59650
G1 X91.234 Y69.725 E6.63202
G1 X91.533 Y70.755 E6.66755
G1 X91.767 Y71.802 E6.70308
G1 X91.935 Y72.861 E6.73860
G1 X92.036 Y73.928 E6.77413
G1 X92.069 Y75.000 E6.80965
G1 X92.036 Y76.072 E6.84518
G1 X91.935 Y77.139 E6.88070
G1 X91.767 Y78.198 E6.91623
G1 X91.533 Y79.245 E6.95175
G1 X91.234 Y80.275 E6.98728
G1 X90.871 Y81.284 E7.02280
G1 X90.445 Y82.268 E7.05833
G1 X89.958 Y83.223 E7.09385
G1 X89.412 Y84.146 E7.12938
G1 X88.809 Y85.033 E7.16490
G1 X88.152 Y85.880 E7.20043
G1 X87.443 Y86.685 E7.23595
G1 X86.685 Y87.443 E7.27148
G1 X85.880 Y88.152 E7.30700
G1 X85.033 Y88.809 E7.34253
G1 X84.146 Y89.412 E7.37805
G1 X83.223 Y89.958 E7.41358
G1 X82.268 Y90.445 E7.44910
G1 X81.284 Y90.871 E7.48463
G1 X80.275 Y91.234 E7.52015
G1 X79.245 Y91.533 E7.55568
G1 X78.198 Y91.767 E7.59120
G1 X77.139 Y91.935 E7.62673
G1 X76.072 Y92.036 E7.66225
G1 X75.000 Y92.069 E7.69778
G1 X73.928 Y92.036 E7.73330
G1 X72.861 Y91.935 E7.76883
G1 X71.802 Y91.767 E7.80436
G1 X70.755 Y91.533 E7.83988
G1 X69.725 Y91.234 E7.87541
G1 X68.716 Y90.871 E7.91093
G1 X67.732 Y90.445 E7.94646
G1 X66.777 Y89.958 E7.98198
G1 X65.854 Y89.412 E8.01751
G1 X64.967 Y88.809 E8.05303
G1 X64.120 Y88.152 E8.08856
G1 X63.315 Y87.443 E8.12408
G1 X62.557 Y86.685 E8.15961
G1 X61.848 Y85.880 E8.19513
G1 X61.191 Y85.033 E8.23066
G1 X60.588 Y84.146 E8.26618
G1 X60.042 Y83.223 E8.30171
G1 X59.555 Y82.268 E8.33723
G1 X59.129 Y81.284 E8.37276
G1 X58.766 Y80.275 E8.40828
G1 X58.467 Y79.245 E8.44381
G1 X58.233 Y78.198 E8.47933
G1 X58.065 Y77.139 E8.51486
G1 X57.964 Y76.072 E8.55038
G1 X57.931 Y75.000 E8.58591
G1 X57.964 Y73.928 E8.62143
G1 X58.065 Y72.861 E8.65696
G1 X58.233 Y71.802 E8.69248
G1 X58.467 Y70.755 E8.72801
G1 X58.766 Y69.725 E8.76353
G1 X59.129 Y68.716 E8.79906
G1 X59.555 Y67.732 E8.83458
G1 X60.042 Y66.777 E8.87011
G1 X60.588 Y65.854 E8.90564
G1 X61.191 Y64.967 E8.94116
G1 X61.848 Y64.120 E8.97669
G1 X62.557 Y63.315 E9.01221
G1 X63.273 Y62.599 E9.04575
G1 X63.133 Y62.363 F7800.000
G1 F1800.000
G1 X63.950 Y61.643 E9.08183
G1 X64.811 Y60.976 E9.11791
G1 X65.711 Y60.364 E9.15398
G1 X66.649 Y59.809 E9.19006
G1 X67.619 Y59.315 E9.22614
G1 X68.619 Y58.882 E9.26222
G1 X69.643 Y58.514 E9.29830
G1 X70.689 Y58.210 E9.33437
G1 X71.752 Y57.972 E9.37045
G1 X72.827 Y57.802 E9.40653
G1 X73.912 Y57.699 E9.44261
G1 X75.000 Y57.665 E9.47869
G1 X76.088 Y57.699 E9.51477
G1 X77.173 Y57.802 E9.55084
G1 X78.248 Y57.972 E9.58692
G1 X79.311 Y58.210 E9.62300
G1 X80.357 Y58.514 E9.65908
G1 X81.381 Y58.882 E9.69516
G1 X82.381 Y59.315 E9.73123
G1 X83.351 Y59.809 E9.76731
G1 X84.289 Y60.364 E9.80339
G1 X85.189 Y60.976 E9.83947
G1 X86.050 Y61.643 E9.87555
G1 X86.867 Y62.363 E9.91163
G1 X87.637 Y63.133 E9.94770
G1 X88.357 Y63.950 E9.98378
G1 X89.024 Y64.811 E10.01986
G1 X89.636 Y65.711 E10.05594
G1 X90.191 Y66.649 E10.09202
G1 X90.685 Y67.619 E10.12810
G1 X91.118 Y68.619 E10.16417
G1 X91.486 Y69.643 E10.20025
G1 X91.790 Y70.689 E10.23633
G1 X92.028 Y71.752 E10.27241
G1 X92.198 Y72.827 E10.30849
G1 X92.301 Y73.912 E10.34457
G1 X92.335 Y75.000 E10.38064
G1 X92.301 Y76.088 E10.41672
G1 X92.198 Y77.173 E10.45280
G1 X92.028 Y78.248 E10.48888
G1 X91.790 Y79.311 E10.52496
G1 X91.486 Y80.357 E10.56103
G1 X91.118 Y81.381 E10.59711
G1 X90.685 Y82.381 E10.63319
G1 X90.191 Y83.351 E10.66927
G1 X89.636 Y84.289 E10.70535
G1 X89.024 Y85.189 E10.74143
G1 X88.357 Y86.050 E10.77750
G1 X87.637 Y86.867 E10.81358
G1 X86.867 Y87.637 E10.84966
G1 X86.050 Y88.357 E10.88574
G1 X85.189 Y89.024 E10.92182
G1 X84.289 Y89.636 E10.95790
G1 X83.351 Y90.191 E10.99397
G1 X82.381 Y90.685 E11.03005
G1 X81.381 Y91.118 E11.06613
G1 X80.357 Y91.486 E11.10221
G1 X79.311 Y91.790 E11.13829
G1 X78.248 Y92.028 E11.17437
G1 X77.173 Y92.198 E11.21044
G1 X76.088 Y92.301 E11.24652
G1 X75.000 Y92.335 E11.28260
G1 X73.912 Y92.301 E11.31868
G1 X72.827 Y92.198 E11.35476
G1 X71.752 Y92.028 E11.39083
G1 X70.689 Y91.790 E11.42691
G1 X69.643 Y91.486 E11.46299
G1 X68.619 Y91.118 E11.49907
G1 X67.619 Y90.685 E11.53515
G1 X66.649 Y90.191 E11.57123
G1 X65.711 Y89.636 E11.60730
G1 X64.811 Y89.024 E11.64338
G1 X63.950 Y88.357 E11.67946
G1 X63.133 Y87.637 E11.71554
G1 X62.363 Y86.867 E11.75162
G1 X61.643 Y86.050 E11.78770
G1 X60.976 Y85.189 E11.82378
G1 X60.364 Y84.289 E11.85985
G1 X59.809 Y83.351 E11.89593
G1 X59.315 Y82.381 E11.93201
G1 X58.882 Y81.381 E11.96809
G1 X58.514 Y80.357 E12.00417
G1 X58.210 Y79.311 E12.04024
G1 X57.972 Y78.248 E12.07632
G1 X57.802 Y77.173 E12.11240
G1 X57.699 Y76.088 E12.14848
G1 X57.665 Y75.000 E12.18456
G1 X57.699 Y73.912 E12.22063
G1 X57.802 Y72.827 E12.25671
G1 X57.972 Y71.752 E12.29279
G1 X58.210 Y70.689 E12.32887
G1 X58.514 Y69.643 E12.36495
G1 X58.882 Y68.619 E12.40103
G1 X59.315 Y67.619 E12.43710
G1 X59.809 Y66.649 E12.47318
G1 X60.364 Y65.711 E12.50926
G1 X60.976 Y64.811 E12.54534
G1 X61.643 Y63.950 E12.58142
G1 X62.363 Y63.133 E12.61750
G1 X63.091 Y62.406 E12.65159
G1 X63.784 Y62.839 F7800.000
G1 F1800.000
G1 X62.839 Y63.784 E12.69602
G1 X62.154 Y64.562 E12.73048
G1 X61.517 Y65.383 E12.76503
G1 X61.304 Y65.697 E12.77767
G1 X65.697 Y61.304 E12.98428
G1 X66.242 Y60.933 E13.00618
G1 X66.738 Y60.640 E13.02533
G1 X60.640 Y66.738 E13.31206
G1 X60.405 Y67.136 E13.32746
G1 X60.182 Y67.573 E13.34376
G1 X67.573 Y60.182 E13.69132
G1 X68.304 Y59.828 E13.71832
G1 X59.828 Y68.304 E14.11688
G1 X59.541 Y68.968 E14.14096
G1 X68.968 Y59.541 E14.58431
G1 X69.563 Y59.323 E14.60536
G1 X59.323 Y69.563 E15.08689
G1 X59.127 Y70.136 E15.10705
G1 X70.136 Y59.127 E15.62479
G1 X70.668 Y58.972 E15.64319
G1 X58.972 Y70.668 E16.19318
G1 X58.836 Y71.181 E16.21084
G1 X71.181 Y58.836 E16.79139
G1 X71.667 Y58.727 E16.80794
G1 X58.727 Y71.667 E17.41642
G1 X58.630 Y72.141 E17.43251
G1 X72.141 Y58.630 E18.06786
G1 X72.589 Y58.559 E18.08294
G1 X58.559 Y72.589 E18.74269
G1 X58.489 Y73.036 E18.75776
G1 X73.036 Y58.489 E19.44187
G1 X73.453 Y58.449 E19.45578
G1 X58.449 Y73.453 E20.16133
G1 X58.410 Y73.869 E20.17524
G1 X73.869 Y58.410 E20.90222
G1 X74.271 Y58.385 E20.91561
G1 X58.385 Y74.271 E21.66268
G1 X58.373 Y74.661 E21.67563
G1 X74.661 Y58.373 E22.44157
G1 X75.050 Y58.361 E22.45452
G1 X58.361 Y75.050 E23.23934
G1 X58.369 Y75.419 E23.25160
G1 X75.419 Y58.369 E24.05338
G1 X75.784 Y58.380 E24.06554
G1 X58.380 Y75.784 E24.88397
G1 X58.392 Y76.149 E24.89612
G1 X76.149 Y58.392 E25.73116
G1 X76.494 Y58.425 E25.74266
G1 X58.425 Y76.494 E26.59237
G1 X58.457 Y76.838 E26.60387
G1 X76.838 Y58.457 E27.46824
G1 X77.182 Y58.490 E27.47973
G1 X58.490 Y77.182 E28.35874
G1 X58.542 Y77.508 E28.36969
G1 X77.508 Y58.542 E29.26158
G1 X77.833 Y58.594 E29.27254
G1 X58.594 Y77.833 E30.17730
G1 X58.645 Y78.159 E30.18826
G1 X78.159 Y58.645 E31.10591
G1 X78.469 Y58.712 E31.11646
G1 X58.712 Y78.469 E32.04558
G1 X58.781 Y78.777 E32.05608
G1 X78.777 Y58.781 E32.99645
G1 X79.086 Y58.849 E33.00695
G1 X58.849 Y79.086 E33.95857
G1 X58.927 Y79.384 E33.96884
G1 X79.384 Y58.927 E34.93085
G1 X79.677 Y59.012 E34.94097
G1 X59.012 Y79.677 E35.91272
G1 X59.097 Y79.969 E35.92284
G1 X79.969 Y59.097 E36.90434
G1 X80.259 Y59.185 E36.91440
G1 X59.185 Y80.259 E37.90543
G1 X59.284 Y80.536 E37.91522
G1 X80.536 Y59.284 E38.91459
G1 X80.813 Y59.384 E38.92439
G1 X59.384 Y80.813 E39.93210
G1 X59.484 Y81.090 E39.94189
G1 X81.090 Y59.484 E40.95795
G1 X81.358 Y59.593 E40.96757
G1 X59.593 Y81.358 E41.99113
G1 X59.707 Y81.622 E42.00066
G1 X81.622 Y59.707 E43.03124
G1 X81.885 Y59.820 E43.04077
G1 X59.820 Y81.885 E44.07837
G1 X59.934 Y82.148 E44.08790
G1 X82.148 Y59.934 E45.13250
G1 X82.398 Y60.062 E45.14182
G1 X60.062 Y82.398 E46.19218
G1 X60.189 Y82.647 E46.20151
G1 X82.647 Y60.189 E47.25763
G1 X82.897 Y60.316 E47.26695
G1 X60.316 Y82.897 E48.32883
G1 X60.447 Y83.143 E48.33810
G1 X83.143 Y60.447 E49.40537
G1 X83.380 Y60.588 E49.41453
G1 X60.588 Y83.380 E50.48635
G1 X60.728 Y83.617 E50.49550
G1 X83.617 Y60.728 E51.57188
G1 X83.854 Y60.868 E51.58103
G1 X60.868 Y83.854 E52.66196
G1 X61.015 Y84.084 E52.67104
G1 X84.084 Y61.015 E53.75590
G1 X84.308 Y61.167 E53.76492
G1 X61.167 Y84.308 E54.85316
G1 X61.320 Y84.533 E54.86219
G1 X84.533 Y61.320 E55.95381
G1 X84.757 Y61.472 E55.96284
G1 X61.472 Y84.757 E57.05784
G1 X61.633 Y84.973 E57.06680
G1 X84.973 Y61.633 E58.16438
G1 X85.186 Y61.798 E58.17332
G1 X61.798 Y85.186 E59.27314
G1 X61.963 Y85.398 E59.28208
G1 X85.398 Y61.963 E60.38414
G1 X85.610 Y62.127 E60.39308
G1 X62.127 Y85.610 E61.49738
G1 X62.302 Y85.813 E61.50627
G1 X85.813 Y62.302 E62.61187
G1 X86.013 Y62.479 E62.62076
G1 X62.479 Y86.013 E63.72748
G1 X62.655 Y86.213 E63.73636
G1 X86.213 Y62.655 E64.84419
G1 X86.414 Y62.832 E64.85308
G1 X62.832 Y86.414 E65.96203
G1 X62.841 Y86.424 E65.96249
G1 X63.020 Y86.603 E65.97090
G1 X86.603 Y63.020 E67.07990
G1 X86.792 Y63.209 E67.08877
G1 X63.209 Y86.791 E68.19778
G1 X63.397 Y86.980 E68.20664
G1 X86.980 Y63.397 E69.31565
G1 X87.168 Y63.586 E69.32452
G1 X63.586 Y87.168 E70.43347
G1 X63.787 Y87.345 E70.44235
G1 X87.345 Y63.787 E71.55019
G1 X87.521 Y63.987 E71.55907
G1 X63.987 Y87.521 E72.66579
G1 X64.187 Y87.698 E72.67467
G1 X87.698 Y64.187 E73.78028
G1 X87.873 Y64.390 E73.78917
G1 X64.390 Y87.873 E74.89347
G1 X64.602 Y88.037 E74.90241
G1 X88.037 Y64.602 E76.00447
G1 X88.202 Y64.814 E76.01340
G1 X64.814 Y88.202 E77.11323
G1 X65.027 Y88.367 E77.12216
G1 X88.367 Y65.027 E78.21975
G1 X88.528 Y65.243 E78.22870
G1 X65.243 Y88.528 E79.32371
G1 X65.467 Y88.680 E79.33273
G1 X88.680 Y65.467 E80.42436
G1 X88.833 Y65.692 E80.43338
G1 X65.692 Y88.833 E81.52162
G1 X65.916 Y88.985 E81.53064
G1 X88.985 Y65.916 E82.61550
G1 X89.132 Y66.146 E82.62458
G1 X66.146 Y89.132 E83.70551
G1 X66.383 Y89.272 E83.71466
G1 X89.272 Y66.383 E84.79104
G1 X89.412 Y66.620 E84.80019
G1 X66.620 Y89.412 E85.87201
G1 X66.857 Y89.553 E85.88117
G1 X89.553 Y66.857 E86.94844
G1 X89.684 Y67.103 E86.95770
G1 X67.103 Y89.684 E88.01959
G1 X67.353 Y89.811 E88.02891
G1 X89.811 Y67.353 E89.08503
G1 X89.938 Y67.602 E89.09435
G1 X67.602 Y89.938 E90.14471
G1 X67.852 Y90.066 E90.15403
G1 X90.066 Y67.852 E91.19863
G1 X90.180 Y68.115 E91.20816
G1 X68.115 Y90.180 E92.24576
G1 X68.378 Y90.293 E92.25529
G1 X90.293 Y68.378 E93.28587
G1 X90.407 Y68.642 E93.29540
G1 X68.642 Y90.407 E94.31895
G1 X68.910 Y90.516 E94.32858
G1 X90.516 Y68.910 E95.34463
G1 X90.616 Y69.187 E95.35443
G1 X69.187 Y90.616 E96.36214
G1 X69.464 Y90.716 E96.37193
G1 X90.716 Y69.464 E97.37130
G1 X90.815 Y69.742 E97.38110
G1 X69.742 Y90.815 E98.37212
G1 X70.031 Y90.903 E98.38218
G1 X90.903 Y70.031 E99.36368
G1 X90.988 Y70.323 E99.37380
G1 X70.323 Y90.988 E100.34555
G1 X70.616 Y91.073 E100.35566
G1 X91.073 Y70.616 E101.31767
G1 X91.151 Y70.915 E101.32794
G1 X70.915 Y91.151 E102.27956
G1 X71.223 Y91.219 E102.29006
G1 X91.219 Y71.223 E103.23043
G1 X91.288 Y71.531 E103.24093
G1 X71.531 Y91.288 E104.17004
G1 X71.841 Y91.355 E104.18060
G1 X91.355 Y71.841 E105.09824
G1 X91.406 Y72.167 E105.10920
G1 X72.167 Y91.406 E106.01396
G1 X72.492 Y91.458 E106.02492
G1 X91.458 Y72.492 E106.91680
G1 X91.510 Y72.818 E106.92776
G1 X72.818 Y91.510 E107.80676
G1 X73.162 Y91.543 E107.81825
G1 X91.543 Y73.162 E108.68262
G1 X91.575 Y73.506 E108.69413
G1 X73.506 Y91.575 E109.54382
G1 X73.851 Y91.608 E109.55533
G1 X91.608 Y73.851 E110.39036
G1 X91.620 Y74.216 E110.40251
G1 X74.216 Y91.620 E111.22093
G1 X74.581 Y91.631 E111.23310
G1 X91.631 Y74.581 E112.03487
G1 X91.639 Y74.950 E112.04714
G1 X74.950 Y91.639 E112.83195
G1 X75.340 Y91.627 E112.84490
G1 X91.627 Y75.340 E113.61084
G1 X91.615 Y75.729 E113.62379
G1 X75.729 Y91.615 E114.37085
G1 X76.131 Y91.590 E114.38424
G1 X91.590 Y76.131 E115.11122
G1 X91.550 Y76.547 E115.12513
G1 X76.547 Y91.550 E115.83067
G1 X76.964 Y91.511 E115.84458
G1 X91.511 Y76.964 E116.52869
