; generated by Slic3r 1.3.1-dev (Build adea0d9) on 2019-12-16 at 00:49:05

; external perimeters extrusion width = 0.44mm (2.86mm^3/s)
; perimeters extrusion width = 0.56mm (4.14mm^3/s)
; infill extrusion width = 0.50mm (3.66mm^3/s)
; solid infill extrusion width = 0.56mm (3.10mm^3/s)
; top infill extrusion width = 0.56mm (3.10mm^3/s)

M107
G92 E0
;D3D:START:START
T0
M104 S215 T0

G21
G90
M107
T0
G28
G29
M109 T0 S215 T0
G0 F3000
M107
T0
G92 E0
G0 X0 Y149 Z0.1 F3600
G1 Y49 E6.5 F1200
G0 Z1
G92 E0
; Filament gcode

G21 ; set units to millimeters
G90 ; use absolute coordinates
M82 ; use absolute distances for extrusion
G92 E0
G1 Z0.300 F7800.000
G1 E-2.00000 F2400.00000
G92 E0
G1 X71.310 Y70.923 F7800.000
G1 E2.00000 F2400.00000
G1 F1800.000
G1 X72.020 Y70.371 E2.02981
G1 X72.811 Y69.942 E2.05963
G1 X73.722 Y69.629 E2.09154
G1 X74.555 Y69.502 E2.11943
G1 X75.450 Y69.502 E2.14909
G1 X76.338 Y69.650 E2.17891
G1 X77.189 Y69.942 E2.20872
G1 X77.980 Y70.371 E2.23853
G1 X78.690 Y70.923 E2.26834
G1 X79.300 Y71.585 E2.29816
G1 X79.792 Y72.339 E2.32797
G1 X80.153 Y73.163 E2.35778
G1 X80.374 Y74.035 E2.38760
G1 X80.449 Y74.932 E2.41741
G1 X80.374 Y75.829 E2.44722
G1 X80.153 Y76.701 E2.47703
G1 X79.792 Y77.525 E2.50685
G1 X79.300 Y78.279 E2.53666
G1 X78.690 Y78.941 E2.56647
G1 X77.980 Y79.493 E2.59629
G1 X77.189 Y79.922 E2.62610
G1 X76.338 Y80.214 E2.65591
G1 X75.450 Y80.362 E2.68572
G1 X74.555 Y80.362 E2.71538
G1 X73.722 Y80.234 E2.74328
G1 X72.811 Y79.922 E2.77519
G1 X72.020 Y79.493 E2.80500
G1 X71.310 Y78.941 E2.83482
G1 X70.700 Y78.279 E2.86463
G1 X70.208 Y77.525 E2.89444
G1 X69.847 Y76.701 E2.92426
G1 X69.626 Y75.829 E2.95407
G1 X69.551 Y74.932 E2.98388
G1 X69.626 Y74.035 E3.01369
G1 X69.847 Y73.163 E3.04351
G1 X70.208 Y72.339 E3.07332
G1 X70.700 Y71.585 E3.10313
G1 X71.269 Y70.967 E3.13096
G1 X71.490 Y71.119 F7800.000
G1 F1800.000
G1 X72.166 Y70.594 E3.15931
G1 X72.918 Y70.186 E3.18767
G1 X73.786 Y69.888 E3.21806
G1 X74.575 Y69.768 E3.24450
G1 X75.428 Y69.768 E3.27276
G1 X76.272 Y69.908 E3.30111
G1 X77.082 Y70.186 E3.32947
G1 X77.834 Y70.594 E3.35782
G1 X78.510 Y71.119 E3.38618
G1 X79.089 Y71.749 E3.41453
G1 X79.558 Y72.466 E3.44289
G1 X79.901 Y73.249 E3.47124
G1 X80.111 Y74.079 E3.49960
G1 X80.182 Y74.932 E3.52795
G1 X80.111 Y75.785 E3.55630
G1 X79.901 Y76.615 E3.58466
G1 X79.558 Y77.398 E3.61301
G1 X79.089 Y78.115 E3.64137
G1 X78.510 Y78.745 E3.66972
G1 X77.834 Y79.270 E3.69808
G1 X77.082 Y79.678 E3.72643
G1 X76.272 Y79.955 E3.75479
G1 X75.428 Y80.096 E3.78314
G1 X74.575 Y80.096 E3.81140
G1 X73.786 Y79.975 E3.83784
G1 X72.918 Y79.678 E3.86823
G1 X72.166 Y79.270 E3.89659
G1 X71.490 Y78.745 E3.92494
G1 X70.911 Y78.115 E3.95330
G1 X70.442 Y77.398 E3.98165
G1 X70.099 Y76.615 E4.01001
G1 X69.889 Y75.785 E4.03836
G1 X69.818 Y74.932 E4.06671
G1 X69.889 Y74.079 E4.09507
G1 X70.099 Y73.249 E4.12342
G1 X70.442 Y72.466 E4.15178
G1 X70.911 Y71.749 E4.18013
G1 X71.450 Y71.163 E4.20650
G1 X71.671 Y71.315 F7800.000
G1 F1800.000
G1 X72.311 Y70.817 E4.23340
G1 X73.025 Y70.430 E4.26029
G1 X73.850 Y70.147 E4.28917
G1 X74.595 Y70.033 E4.31415
G1 X75.406 Y70.033 E4.34101
G1 X76.207 Y70.167 E4.36791
G1 X76.975 Y70.430 E4.39480
G1 X77.689 Y70.817 E4.42170
G1 X78.329 Y71.315 E4.44859
G1 X78.879 Y71.913 E4.47549
G1 X79.323 Y72.592 E4.50239
G1 X79.649 Y73.336 E4.52928
G1 X79.849 Y74.123 E4.55618
G1 X79.916 Y74.932 E4.58307
G1 X79.849 Y75.741 E4.60997
G1 X79.649 Y76.528 E4.63687
G1 X79.323 Y77.271 E4.66376
G1 X78.879 Y77.951 E4.69066
G1 X78.329 Y78.548 E4.71755
G1 X77.689 Y79.047 E4.74445
G1 X76.975 Y79.433 E4.77135
G1 X76.207 Y79.697 E4.79824
G1 X75.406 Y79.831 E4.82514
G1 X74.595 Y79.831 E4.85200
G1 X73.850 Y79.717 E4.87698
G1 X73.025 Y79.433 E4.90586
G1 X72.311 Y79.047 E4.93275
G1 X71.671 Y78.548 E4.95965
G1 X71.121 Y77.951 E4.98655
G1 X70.677 Y77.271 E5.01344
G1 X70.351 Y76.528 E5.04034
G1 X70.151 Y75.741 E5.06723
G1 X70.084 Y74.932 E5.09413
G1 X70.151 Y74.123 E5.12103
G1 X70.351 Y73.336 E5.14792
G1 X70.677 Y72.592 E5.17482
G1 X71.121 Y71.913 E5.20171
G1 X71.630 Y71.360 E5.22662
G1 E3.22662 F2400.00000
G92 E0
G1 X68.361 Y66.412 F7800.000
G1 E2.00000 F2400.00000
G1 F1800.000
G1 X68.643 Y66.183 E2.01204
G1 X68.950 Y65.984 E2.02415
G1 X69.407 Y66.428 E2.04527
G1 X69.735 Y66.592 E2.05740
G1 X70.185 Y66.633 E2.07240
G1 X70.486 Y66.549 E2.08275
G1 X71.813 Y65.958 E2.13088
G1 X72.159 Y65.703 E2.14511
G1 X72.388 Y65.279 E2.16107
G1 X72.423 Y64.964 E2.17157
G1 X72.400 Y64.448 E2.18867
G1 X72.752 Y64.354 E2.20072
G1 X73.111 Y64.297 E2.21277
G1 X73.300 Y64.777 E2.22986
G1 X73.460 Y65.050 E2.24036
G1 X73.842 Y65.345 E2.25633
G1 X74.261 Y65.438 E2.27055
G1 X75.714 Y65.438 E2.31869
G1 X76.023 Y65.392 E2.32905
G1 X76.418 Y65.172 E2.34403
G1 X76.650 Y64.888 E2.35617
G1 X76.888 Y64.297 E2.37729
G1 X77.248 Y64.354 E2.38939
G1 X77.600 Y64.448 E2.40144
G1 X77.578 Y64.964 E2.41854
G1 X77.612 Y65.278 E2.42903
G1 X77.841 Y65.703 E2.44500
G1 X78.187 Y65.958 E2.45923
G1 X79.514 Y66.549 E2.50736
G1 X79.815 Y66.633 E2.51771
G1 X80.265 Y66.592 E2.53271
G1 X80.593 Y66.428 E2.54484
G1 X81.050 Y65.984 E2.56596
G1 X81.357 Y66.183 E2.57806
G1 X81.639 Y66.412 E2.59011
G1 X81.409 Y66.874 E2.60721
G1 X81.313 Y67.176 E2.61770
G1 X81.349 Y67.656 E2.63367
G1 X81.561 Y68.030 E2.64790
G1 X82.533 Y69.109 E2.69603
G1 X82.774 Y69.309 E2.70639
G1 X83.202 Y69.455 E2.72138
G1 X83.568 Y69.438 E2.73352
G1 X84.167 Y69.218 E2.75463
G1 X84.366 Y69.525 E2.76674
G1 X84.531 Y69.850 E2.77885
G1 X84.042 Y70.259 E2.79996
G1 X83.844 Y70.567 E2.81209
G1 X83.757 Y71.011 E2.82709
G1 X83.809 Y71.319 E2.83744
G1 X84.258 Y72.701 E2.88557
G1 X84.476 Y73.071 E2.89980
G1 X84.873 Y73.343 E2.91576
G1 X85.183 Y73.411 E2.92627
G1 X85.698 Y73.442 E2.94336
G1 X85.755 Y73.802 E2.95541
G1 X85.774 Y74.165 E2.96746
G1 X85.277 Y74.303 E2.98455
G1 X84.988 Y74.433 E2.99505
G1 X84.656 Y74.782 E3.01102
G1 X84.520 Y75.189 E3.02524
G1 X84.368 Y76.634 E3.07338
G1 X84.380 Y76.947 E3.08373
G1 X84.559 Y77.363 E3.09873
G1 X84.816 Y77.623 E3.11086
G1 X85.380 Y77.921 E3.13197
G1 X85.285 Y78.274 E3.14408
G1 X85.154 Y78.615 E3.15619
G1 X84.523 Y78.525 E3.17731
G1 X84.162 Y78.584 E3.18944
G1 X83.773 Y78.816 E3.20443
G1 X83.579 Y79.061 E3.21478
G1 X82.853 Y80.319 E3.26291
G1 X82.723 Y80.729 E3.27715
G1 X82.787 Y81.206 E3.29311
G1 X82.944 Y81.482 E3.30361
G1 X83.265 Y81.886 E3.32071
G1 X83.037 Y82.168 E3.33275
G1 X82.779 Y82.425 E3.34480
G1 X82.344 Y82.148 E3.36190
G1 X82.054 Y82.021 E3.37239
G1 X81.572 Y82.007 E3.38836
G1 X81.179 Y82.179 E3.40259
G1 X80.003 Y83.033 E3.45072
G1 X79.780 Y83.251 E3.46108
G1 X79.590 Y83.662 E3.47607
G1 X79.568 Y84.027 E3.48820
G1 X79.724 Y84.645 E3.50932
G1 X79.399 Y84.811 E3.52142
G1 X79.059 Y84.942 E3.53348
G1 X78.774 Y84.512 E3.55057
G1 X78.561 Y84.277 E3.56106
G1 X78.126 Y84.068 E3.57703
G1 X77.697 Y84.065 E3.59126
G1 X76.251 Y84.373 E3.64023
G1 X75.884 Y84.539 E3.65357
G1 X75.630 Y84.797 E3.66558
G1 X75.474 Y85.099 E3.67684
G1 X75.365 Y85.727 E3.69796
G1 X75.000 Y85.746 E3.71006
G1 X74.632 Y85.727 E3.72227
G1 X74.527 Y85.101 E3.74330
G1 X74.370 Y84.797 E3.75462
G1 X74.115 Y84.539 E3.76664
G1 X73.749 Y84.372 E3.77997
G1 X72.328 Y84.070 E3.82811
G1 X72.016 Y84.050 E3.83846
G1 X71.583 Y84.184 E3.85346
G1 X71.296 Y84.414 E3.86566
G1 X70.945 Y84.943 E3.88669
G1 X70.601 Y84.811 E3.89889
G1 X70.276 Y84.645 E3.91100
G1 X70.431 Y84.027 E3.93212
G1 X70.412 Y83.688 E3.94338
G1 X70.284 Y83.349 E3.95539
G1 X70.017 Y83.047 E3.96872
G1 X68.821 Y82.179 E4.01769
G1 X68.428 Y82.007 E4.03192
G1 X67.946 Y82.021 E4.04789
G1 X67.656 Y82.148 E4.05839
G1 X67.220 Y82.425 E4.07549
G1 X66.963 Y82.168 E4.08753
G1 X66.733 Y81.884 E4.09964
G1 X67.127 Y81.383 E4.12076
G1 X67.247 Y81.065 E4.13201
G1 X67.269 Y80.703 E4.14403
G1 X67.147 Y80.319 E4.15736
G1 X66.408 Y79.039 E4.20633
G1 X66.118 Y78.722 E4.22056
G1 X65.673 Y78.539 E4.23652
G1 X65.356 Y78.537 E4.24703
G1 X64.845 Y78.613 E4.26412
G1 X64.715 Y78.274 E4.27617
G1 X64.620 Y77.921 E4.28828
G1 X65.184 Y77.623 E4.30939
G1 X65.423 Y77.381 E4.32064
G1 X65.590 Y77.059 E4.33266
G1 X65.635 Y76.659 E4.34600
G1 X65.480 Y75.189 E4.39497
G1 X65.345 Y74.782 E4.40920
G1 X65.012 Y74.433 E4.42516
G1 X64.723 Y74.303 E4.43566
G1 X64.226 Y74.165 E4.45276
G1 X64.245 Y73.802 E4.46480
G1 X64.303 Y73.438 E4.47701
G1 X64.936 Y73.398 E4.49804
G1 X65.279 Y73.265 E4.51024
G1 X65.611 Y72.957 E4.52524
G1 X65.750 Y72.677 E4.53558
G1 X66.199 Y71.295 E4.58372
G1 X66.238 Y70.894 E4.59706
G1 X66.141 Y70.545 E4.60907
G1 X65.957 Y70.257 E4.62040
G1 X65.467 Y69.853 E4.64143
G1 X65.634 Y69.525 E4.65363
G1 X65.834 Y69.218 E4.66574
G1 X66.432 Y69.438 E4.68686
G1 X66.771 Y69.454 E4.69812
G1 X67.122 Y69.362 E4.71013
G1 X67.450 Y69.128 E4.72346
G1 X68.439 Y68.030 E4.77243
G1 X68.651 Y67.656 E4.78666
G1 X68.687 Y67.176 E4.80263
G1 X68.591 Y66.874 E4.81313
G1 X68.388 Y66.465 E4.82824
G1 X68.028 Y66.339 F7800.000
G1 F1800.000
G1 X68.487 Y65.968 E4.84781
G1 X68.983 Y65.646 E4.86739
G1 X69.563 Y66.209 E4.89418
G1 X69.809 Y66.332 E4.90329
G1 X70.161 Y66.364 E4.91499
G1 X70.396 Y66.298 E4.92308
G1 X71.679 Y65.727 E4.96961
G1 X71.954 Y65.524 E4.98092
G1 X72.129 Y65.198 E4.99320
G1 X72.157 Y64.955 E5.00131
G1 X72.126 Y64.247 E5.02479
G1 X72.696 Y64.094 E5.04436
G1 X73.280 Y64.001 E5.06393
G1 X73.540 Y64.660 E5.08740
G1 X73.663 Y64.872 E5.09551
G1 X73.957 Y65.098 E5.10780
G1 X74.290 Y65.172 E5.11910
G1 X75.695 Y65.172 E5.16564
G1 X75.936 Y65.137 E5.17373
G1 X76.245 Y64.964 E5.18543
G1 X76.419 Y64.752 E5.19454
G1 X76.720 Y64.001 E5.22132
G1 X77.304 Y64.094 E5.24091
G1 X77.874 Y64.247 E5.26048
G1 X77.844 Y64.955 E5.28396
G1 X77.871 Y65.198 E5.29206
G1 X78.047 Y65.524 E5.30435
G1 X78.321 Y65.727 E5.31565
G1 X79.604 Y66.298 E5.36219
G1 X79.839 Y66.364 E5.37028
G1 X80.191 Y66.332 E5.38198
G1 X80.437 Y66.209 E5.39109
G1 X81.017 Y65.646 E5.41788
G1 X81.513 Y65.968 E5.43746
G1 X81.972 Y66.340 E5.45703
G1 X81.656 Y66.974 E5.48051
G1 X81.582 Y67.207 E5.48862
G1 X81.610 Y67.577 E5.50090
G1 X81.778 Y67.874 E5.51220
G1 X82.718 Y68.917 E5.55874
G1 X82.906 Y69.073 E5.56683
G1 X83.240 Y69.187 E5.57853
G1 X83.515 Y69.174 E5.58765
G1 X84.274 Y68.896 E5.61443
G1 X84.596 Y69.392 E5.63401
G1 X84.864 Y69.919 E5.65360
G1 X84.244 Y70.437 E5.68038
G1 X84.095 Y70.668 E5.68949
G1 X84.027 Y71.015 E5.70120
G1 X84.068 Y71.255 E5.70929
G1 X84.502 Y72.591 E5.75582
G1 X84.675 Y72.886 E5.76712
G1 X84.981 Y73.095 E5.77941
G1 X85.220 Y73.147 E5.78752
G1 X85.927 Y73.190 E5.81100
G1 X86.020 Y73.774 E5.83056
G1 X86.051 Y74.364 E5.85014
G1 X85.368 Y74.553 E5.87361
G1 X85.145 Y74.654 E5.88172
G1 X84.889 Y74.922 E5.89401
G1 X84.781 Y75.246 E5.90530
G1 X84.634 Y76.643 E5.95184
G1 X84.644 Y76.887 E5.95994
G1 X84.783 Y77.212 E5.97164
G1 X84.976 Y77.407 E5.98075
G1 X85.691 Y77.785 E6.00753
G1 X85.538 Y78.356 E6.02712
G1 X85.326 Y78.908 E6.04670
G1 X84.526 Y78.794 E6.07349
G1 X84.255 Y78.838 E6.08260
G1 X83.951 Y79.019 E6.09430
G1 X83.800 Y79.210 E6.10239
G1 X83.097 Y80.427 E6.14892
G1 X82.994 Y80.752 E6.16023
G1 X83.044 Y81.120 E6.17251
G1 X83.165 Y81.332 E6.18062
G1 X83.606 Y81.887 E6.20410
G1 X83.234 Y82.346 E6.22367
G1 X82.817 Y82.764 E6.24324
G1 X82.219 Y82.383 E6.26672
G1 X81.995 Y82.285 E6.27482
G1 X81.624 Y82.274 E6.28711
G1 X81.311 Y82.411 E6.29841
G1 X80.175 Y83.236 E6.34495
G1 X80.000 Y83.407 E6.35304
G1 X79.852 Y83.728 E6.36474
G1 X79.836 Y84.002 E6.37385
G1 X80.033 Y84.786 E6.40064
G1 X79.507 Y85.054 E6.42022
G1 X78.955 Y85.266 E6.43979
G1 X78.564 Y84.675 E6.46327
G1 X78.399 Y84.494 E6.47137
G1 X78.065 Y84.334 E6.48366
G1 X77.724 Y84.331 E6.49496
G1 X76.335 Y84.626 E6.54202
G1 X76.039 Y84.761 E6.55277
G1 X75.847 Y84.955 E6.56181
G1 X75.729 Y85.185 E6.57038
G1 X75.590 Y85.981 E6.59716
G1 X75.000 Y86.012 E6.61675
G1 X74.405 Y85.981 E6.63648
G1 X74.272 Y85.186 E6.66319
G1 X74.152 Y84.955 E6.67180
G1 X73.961 Y84.760 E6.68085
G1 X73.665 Y84.626 E6.69160
G1 X72.291 Y84.334 E6.73813
G1 X72.048 Y84.319 E6.74622
G1 X71.710 Y84.423 E6.75793
G1 X71.494 Y84.596 E6.76708
G1 X71.049 Y85.268 E6.79379
G1 X70.493 Y85.054 E6.81352
G1 X69.966 Y84.786 E6.83311
G1 X70.164 Y84.002 E6.85989
G1 X70.149 Y83.744 E6.86846
G1 X70.053 Y83.488 E6.87751
G1 X69.838 Y83.245 E6.88825
G1 X68.689 Y82.411 E6.93531
G1 X68.376 Y82.274 E6.94661
G1 X68.005 Y82.285 E6.95889
G1 X67.781 Y82.383 E6.96700
G1 X67.183 Y82.764 E6.99048
G1 X66.766 Y82.346 E7.01005
G1 X66.394 Y81.887 E7.02964
G1 X66.893 Y81.251 E7.05642
G1 X66.984 Y81.009 E7.06499
G1 X67.000 Y80.736 E7.07404
G1 X66.903 Y80.427 E7.08478
G1 X66.193 Y79.197 E7.13184
G1 X65.962 Y78.945 E7.14314
G1 X65.619 Y78.804 E7.15542
G1 X65.375 Y78.803 E7.16353
G1 X64.674 Y78.907 E7.18701
G1 X64.462 Y78.356 E7.20658
G1 X64.309 Y77.785 E7.22617
G1 X65.024 Y77.407 E7.25295
G1 X65.205 Y77.223 E7.26152
G1 X65.331 Y76.981 E7.27057
G1 X65.368 Y76.658 E7.28132
G1 X65.219 Y75.246 E7.32837
G1 X65.111 Y74.922 E7.33967
G1 X64.855 Y74.654 E7.35195
G1 X64.632 Y74.553 E7.36006
G1 X63.949 Y74.364 E7.38354
G1 X63.980 Y73.774 E7.40311
G1 X64.074 Y73.186 E7.42284
G1 X64.878 Y73.136 E7.44955
G1 X65.136 Y73.035 E7.45870
G1 X65.395 Y72.795 E7.47041
G1 X65.503 Y72.576 E7.47849
G1 X65.937 Y71.241 E7.52503
G1 X65.969 Y70.918 E7.53578
G1 X65.896 Y70.654 E7.54483
G1 X65.756 Y70.435 E7.55344
G1 X65.134 Y69.922 E7.58015
G1 X65.404 Y69.392 E7.59988
G1 X65.726 Y68.896 E7.61947
G1 X66.485 Y69.174 E7.64625
G1 X66.744 Y69.186 E7.65482
G1 X67.008 Y69.118 E7.66387
G1 X67.272 Y68.929 E7.67461
G1 X68.222 Y67.873 E7.72167
G1 X68.390 Y67.577 E7.73297
G1 X68.418 Y67.207 E7.74525
G1 X68.344 Y66.974 E7.75336
G1 X68.055 Y66.393 E7.77485
G1 X67.798 Y66.184 F7800.000
G1 F1800.000
G1 X68.331 Y65.753 E7.79757
G1 X68.906 Y65.379 E7.82028
G1 X69.019 Y65.373 E7.82403
G1 X69.131 Y65.419 E7.82805
G1 X69.719 Y65.990 E7.85519
G1 X69.883 Y66.072 E7.86128
G1 X70.136 Y66.095 E7.86969
G1 X70.305 Y66.048 E7.87552
G1 X71.545 Y65.496 E7.92046
G1 X71.748 Y65.346 E7.92883
G1 X71.871 Y65.117 E7.93744
G1 X71.890 Y64.946 E7.94316
G1 X71.858 Y64.204 E7.96774
G1 X71.899 Y64.091 E7.97174
G1 X71.979 Y64.011 E7.97548
G1 X72.641 Y63.834 E7.99820
G1 X73.318 Y63.726 E8.02091
G1 X73.424 Y63.767 E8.02466
G1 X73.507 Y63.854 E8.02866
G1 X73.779 Y64.544 E8.05324
G1 X73.867 Y64.693 E8.05896
G1 X74.072 Y64.852 E8.06756
G1 X74.319 Y64.906 E8.07593
G1 X75.675 Y64.906 E8.12087
G1 X75.849 Y64.881 E8.12670
G1 X76.071 Y64.757 E8.13511
G1 X76.188 Y64.615 E8.14121
G1 X76.493 Y63.854 E8.16835
G1 X76.576 Y63.767 E8.17237
G1 X76.682 Y63.726 E8.17611
G1 X77.359 Y63.834 E8.19882
G1 X78.021 Y64.011 E8.22154
G1 X78.101 Y64.091 E8.22529
G1 X78.142 Y64.205 E8.22929
G1 X78.110 Y64.946 E8.25387
G1 X78.129 Y65.117 E8.25959
G1 X78.252 Y65.346 E8.26819
G1 X78.456 Y65.496 E8.27656
G1 X79.695 Y66.048 E8.32150
G1 X79.864 Y66.095 E8.32733
G1 X80.117 Y66.072 E8.33574
G1 X80.281 Y65.990 E8.34183
G1 X80.869 Y65.419 E8.36898
G1 X80.981 Y65.373 E8.37299
G1 X81.094 Y65.379 E8.37674
G1 X81.669 Y65.753 E8.39945
G1 X82.202 Y66.184 E8.42217
G1 X82.243 Y66.290 E8.42591
G1 X82.234 Y66.410 E8.42991
G1 X81.903 Y67.074 E8.45449
G1 X81.850 Y67.239 E8.46021
G1 X81.870 Y67.498 E8.46882
G1 X81.995 Y67.717 E8.47719
G1 X82.902 Y68.725 E8.52212
G1 X83.038 Y68.838 E8.52796
G1 X83.278 Y68.920 E8.53637
G1 X83.462 Y68.911 E8.54246
G1 X84.231 Y68.629 E8.56961
G1 X84.352 Y68.632 E8.57362
G1 X84.453 Y68.684 E8.57737
G1 X84.826 Y69.259 E8.60008
G1 X85.138 Y69.870 E8.62279
G1 X85.132 Y69.983 E8.62654
G1 X85.074 Y70.089 E8.63056
G1 X84.445 Y70.615 E8.65770
G1 X84.346 Y70.769 E8.66379
G1 X84.297 Y71.018 E8.67221
G1 X84.326 Y71.192 E8.67803
G1 X84.745 Y72.482 E8.72297
G1 X84.873 Y72.700 E8.73135
G1 X85.088 Y72.846 E8.73995
G1 X85.257 Y72.883 E8.74567
G1 X85.997 Y72.929 E8.77025
G1 X86.106 Y72.981 E8.77425
G1 X86.177 Y73.069 E8.77799
G1 X86.284 Y73.746 E8.80071
G1 X86.320 Y74.431 E8.82342
G1 X86.269 Y74.532 E8.82717
G1 X86.173 Y74.605 E8.83117
G1 X85.459 Y74.804 E8.85575
G1 X85.301 Y74.875 E8.86147
G1 X85.122 Y75.063 E8.87007
G1 X85.042 Y75.302 E8.87844
G1 X84.900 Y76.651 E8.92338
G1 X84.907 Y76.827 E8.92921
G1 X85.007 Y77.061 E8.93763
G1 X85.136 Y77.192 E8.94372
G1 X85.861 Y77.574 E8.97086
G1 X85.939 Y77.667 E8.97488
G1 X85.968 Y77.776 E8.97862
G1 X85.791 Y78.438 E9.00134
