; generated by Slic3r 1.3.1-dev (Build 2ef957d) on 2019-11-25 at 09:20:24

; external perimeters extrusion width = 0.55mm (4.37mm^3/s)
; perimeters extrusion width = 0.70mm (11.44mm^3/s)
; infill extrusion width = 0.62mm (13.45mm^3/s)
; solid infill extrusion width = 0.70mm (3.81mm^3/s)
; top infill extrusion width = 0.70mm (2.86mm^3/s)

M107
G92 E0
M104 S200 ; set temperature
G28 ; home all axes
G1 Z5 F5000 ; lift nozzle

; Filament gcode

M109 S200 ; set temperature and wait for it to be reached
G21 ; set units to millimeters
G90 ; use absolute coordinates
M82 ; use absolute distances for extrusion
G92 E0
G1 Z0.350 F7800.000
G1 E-2.00000 F2400.00000
G92 E0
G1 X82.558 Y83.336 F7800.000
G1 E2.00000 F2400.00000
G1 F1800.000
G1 X83.336 Y82.558 E2.03402
G1 X84.464 Y81.546 E2.08092
G1 X85.653 Y80.607 E2.12780
G1 X85.990 Y80.363 E2.14067
G1 X86.899 Y79.745 E2.17469
G1 X88.197 Y78.962 E2.22157
G1 X88.562 Y78.762 E2.23446
G1 X89.918 Y78.085 E2.28135
G1 X90.927 Y77.649 E2.31536
G1 X92.348 Y77.123 E2.36225
G1 X92.744 Y76.995 E2.37513
G1 X94.203 Y76.584 E2.42202
G1 X95.684 Y76.267 E2.46890
G1 X97.183 Y76.043 E2.51578
G1 X98.693 Y75.913 E2.56269
G1 X99.792 Y75.878 E2.59670
G1 X101.307 Y75.913 E2.64358
G1 X101.723 Y75.939 E2.65647
G1 X103.230 Y76.095 E2.70336
G1 X104.724 Y76.345 E2.75024
G1 X105.797 Y76.584 E2.78425
G1 X107.256 Y76.995 E2.83114
G1 X107.652 Y77.123 E2.84402
G1 X109.073 Y77.649 E2.89091
G1 X110.082 Y78.085 E2.92493
G1 X111.438 Y78.762 E2.97182
G1 X111.803 Y78.962 E2.98471
G1 X113.101 Y79.745 E3.03158
G1 X114.010 Y80.363 E3.06560
G1 X115.215 Y81.281 E3.11248
G1 X116.360 Y82.273 E3.15937
G1 X116.664 Y82.558 E3.17225
G1 X117.441 Y83.336 E3.20627
G1 X118.454 Y84.464 E3.25317
G1 X118.719 Y84.785 E3.26604
G1 X119.637 Y85.990 E3.31293
G1 X120.478 Y87.250 E3.35980
G1 X121.038 Y88.197 E3.39382
G1 X121.238 Y88.562 E3.40671
G1 X121.915 Y89.918 E3.45360
G1 X122.351 Y90.927 E3.48762
G1 X122.877 Y92.348 E3.53450
G1 X123.005 Y92.744 E3.54738
G1 X123.416 Y94.203 E3.59427
G1 X123.733 Y95.684 E3.64115
G1 X123.957 Y97.183 E3.68804
G1 X124.087 Y98.693 E3.73494
G1 X124.122 Y99.792 E3.76896
G1 X124.087 Y101.307 E3.81583
G1 X124.061 Y101.723 E3.82872
G1 X123.905 Y103.230 E3.87561
G1 X123.655 Y104.724 E3.92249
G1 X123.416 Y105.797 E3.95651
G1 X123.005 Y107.256 E4.00340
G1 X122.877 Y107.652 E4.01628
G1 X122.351 Y109.073 E4.06316
G1 X121.915 Y110.082 E4.09718
G1 X121.238 Y111.438 E4.14407
G1 X121.038 Y111.803 E4.15696
G1 X120.255 Y113.101 E4.20384
G1 X119.393 Y114.347 E4.25072
G1 X118.719 Y115.215 E4.28474
G1 X117.727 Y116.360 E4.33162
G1 X117.442 Y116.664 E4.34451
G1 X116.664 Y117.442 E4.37853
G1 X115.536 Y118.454 E4.42542
G1 X114.347 Y119.393 E4.47231
G1 X114.010 Y119.637 E4.48518
G1 X113.101 Y120.255 E4.51920
G1 X111.803 Y121.038 E4.56607
G1 X111.438 Y121.238 E4.57896
G1 X110.082 Y121.915 E4.62585
G1 X108.686 Y122.504 E4.67274
G1 X107.652 Y122.877 E4.70676
G1 X107.256 Y123.005 E4.71964
G1 X105.797 Y123.416 E4.76653
G1 X104.316 Y123.733 E4.81341
G1 X102.817 Y123.957 E4.86029
G1 X101.307 Y124.087 E4.90720
G1 X100.208 Y124.122 E4.94121
G1 X98.693 Y124.087 E4.98809
G1 X98.277 Y124.061 E5.00098
G1 X96.770 Y123.905 E5.04786
G1 X95.276 Y123.655 E5.09475
G1 X93.800 Y123.312 E5.14164
G1 X92.744 Y123.005 E5.17565
G1 X92.348 Y122.877 E5.18853
G1 X90.927 Y122.351 E5.23542
G1 X89.918 Y121.915 E5.26943
G1 X88.562 Y121.238 E5.31633
G1 X88.197 Y121.038 E5.32921
G1 X86.899 Y120.255 E5.37609
G1 X85.990 Y119.637 E5.41011
G1 X84.785 Y118.719 E5.45699
G1 X83.640 Y117.727 E5.50388
G1 X83.336 Y117.441 E5.51676
G1 X82.558 Y116.664 E5.55078
G1 X81.546 Y115.536 E5.59768
G1 X80.607 Y114.347 E5.64456
G1 X80.363 Y114.010 E5.65744
G1 X79.745 Y113.101 E5.69145
G1 X78.962 Y111.803 E5.73833
G1 X78.762 Y111.438 E5.75122
G1 X78.085 Y110.082 E5.79811
G1 X77.649 Y109.073 E5.83213
G1 X77.123 Y107.652 E5.87901
G1 X76.995 Y107.256 E5.89189
G1 X76.584 Y105.797 E5.93878
G1 X76.267 Y104.316 E5.98566
G1 X76.043 Y102.817 E6.03255
G1 X75.939 Y101.723 E6.06656
G1 X75.878 Y100.208 E6.11347
G1 X75.913 Y98.693 E6.16034
G1 X75.939 Y98.277 E6.17323
G1 X76.095 Y96.770 E6.22012
G1 X76.267 Y95.684 E6.25414
G1 X76.584 Y94.203 E6.30102
G1 X76.688 Y93.800 E6.31389
G1 X76.995 Y92.744 E6.34791
G1 X77.496 Y91.314 E6.39480
G1 X78.085 Y89.918 E6.44169
G1 X78.263 Y89.541 E6.45457
G1 X78.762 Y88.562 E6.48858
G1 X79.522 Y87.250 E6.53549
G1 X80.363 Y85.990 E6.58236
G1 X80.607 Y85.653 E6.59523
G1 X81.546 Y84.464 E6.64212
G1 X82.507 Y83.391 E6.68670
G1 E4.68670 F2400.00000
G92 E0
G1 X110.884 Y111.590 F7800.000
G1 E2.00000 F2400.00000
G1 F1800.000
G1 X110.135 Y112.251 E2.03090
G1 X109.345 Y112.863 E2.06181
G1 X108.519 Y113.424 E2.09272
G1 X107.660 Y113.933 E2.12362
G1 X106.770 Y114.386 E2.15453
G1 X105.853 Y114.783 E2.18543
G1 X104.913 Y115.121 E2.21634
G1 X103.954 Y115.400 E2.24724
G1 X102.979 Y115.618 E2.27815
G1 X101.993 Y115.774 E2.30905
G1 X100.998 Y115.868 E2.33996
G1 X100.000 Y115.899 E2.37086
G1 X99.002 Y115.868 E2.40177
G1 X98.007 Y115.774 E2.43267
G1 X97.021 Y115.618 E2.46358
G1 X96.046 Y115.400 E2.49448
G1 X95.087 Y115.121 E2.52539
G1 X94.147 Y114.783 E2.55629
G1 X93.230 Y114.386 E2.58720
G1 X92.340 Y113.933 E2.61810
G1 X91.481 Y113.424 E2.64901
G1 X90.655 Y112.863 E2.67991
G1 X89.865 Y112.251 E2.71082
G1 X89.116 Y111.590 E2.74172
G1 X88.410 Y110.884 E2.77263
G1 X87.749 Y110.135 E2.80353
G1 X87.137 Y109.345 E2.83444
G1 X86.576 Y108.519 E2.86534
G1 X86.067 Y107.660 E2.89625
G1 X85.614 Y106.770 E2.92715
G1 X85.217 Y105.853 E2.95806
G1 X84.879 Y104.913 E2.98896
G1 X84.600 Y103.954 E3.01987
G1 X84.382 Y102.979 E3.05077
G1 X84.226 Y101.993 E3.08168
G1 X84.132 Y100.998 E3.11258
G1 X84.101 Y100.000 E3.14349
G1 X84.132 Y99.002 E3.17439
G1 X84.226 Y98.007 E3.20530
G1 X84.382 Y97.021 E3.23620
G1 X84.600 Y96.046 E3.26711
G1 X84.879 Y95.087 E3.29801
G1 X85.217 Y94.147 E3.32892
G1 X85.614 Y93.230 E3.35982
G1 X86.067 Y92.340 E3.39072
G1 X86.576 Y91.481 E3.42163
G1 X87.137 Y90.655 E3.45254
G1 X87.749 Y89.865 E3.48344
G1 X88.410 Y89.116 E3.51435
G1 X89.116 Y88.410 E3.54525
G1 X89.865 Y87.749 E3.57616
G1 X90.655 Y87.137 E3.60706
G1 X91.481 Y86.576 E3.63797
G1 X92.340 Y86.067 E3.66887
G1 X93.230 Y85.614 E3.69978
G1 X94.147 Y85.217 E3.73068
G1 X95.087 Y84.879 E3.76159
G1 X96.046 Y84.600 E3.79249
G1 X97.021 Y84.382 E3.82340
G1 X98.007 Y84.226 E3.85430
G1 X99.002 Y84.132 E3.88521
G1 X100.000 Y84.101 E3.91611
G1 X100.998 Y84.132 E3.94702
G1 X101.993 Y84.226 E3.97792
G1 X102.979 Y84.382 E4.00883
G1 X103.954 Y84.600 E4.03973
G1 X104.913 Y84.879 E4.07064
G1 X105.853 Y85.217 E4.10154
G1 X106.770 Y85.614 E4.13245
G1 X107.660 Y86.067 E4.16335
G1 X108.519 Y86.576 E4.19426
G1 X109.345 Y87.137 E4.22516
G1 X110.135 Y87.749 E4.25607
G1 X110.884 Y88.410 E4.28697
G1 X111.590 Y89.116 E4.31788
G1 X112.251 Y89.865 E4.34878
G1 X112.863 Y90.655 E4.37969
G1 X113.424 Y91.481 E4.41059
G1 X113.933 Y92.340 E4.44150
G1 X114.386 Y93.230 E4.47240
G1 X114.783 Y94.147 E4.50331
G1 X115.121 Y95.087 E4.53421
G1 X115.400 Y96.046 E4.56512
G1 X115.618 Y97.021 E4.59602
G1 X115.774 Y98.007 E4.62693
G1 X115.868 Y99.002 E4.65783
G1 X115.899 Y100.000 E4.68874
G1 X115.868 Y100.998 E4.71964
G1 X115.774 Y101.993 E4.75055
G1 X115.618 Y102.979 E4.78145
G1 X115.400 Y103.954 E4.81236
G1 X115.121 Y104.913 E4.84326
G1 X114.783 Y105.853 E4.87417
G1 X114.386 Y106.770 E4.90507
G1 X113.933 Y107.660 E4.93598
G1 X113.424 Y108.519 E4.96688
G1 X112.863 Y109.345 E4.99779
G1 X112.251 Y110.135 E5.02869
G1 X111.590 Y110.884 E5.05960
G1 X110.937 Y111.537 E5.08818
G1 X111.326 Y112.032 F7800.000
G1 F1800.000
G1 X110.533 Y112.732 E5.12091
G1 X109.713 Y113.369 E5.15303
G1 X108.854 Y113.952 E5.18515
G1 X107.961 Y114.481 E5.21727
G1 X107.036 Y114.952 E5.24939
G1 X106.083 Y115.364 E5.28151
G1 X105.106 Y115.716 E5.31363
G1 X104.110 Y116.005 E5.34575
G1 X103.096 Y116.232 E5.37787
G1 X102.071 Y116.394 E5.40999
G1 X101.038 Y116.492 E5.44211
G1 X100.000 Y116.525 E5.47423
G1 X98.962 Y116.492 E5.50635
G1 X97.929 Y116.394 E5.53847
G1 X96.904 Y116.232 E5.57059
G1 X95.890 Y116.005 E5.60271
G1 X94.894 Y115.716 E5.63483
G1 X93.917 Y115.364 E5.66695
G1 X92.964 Y114.952 E5.69907
G1 X92.039 Y114.481 E5.73119
G1 X91.146 Y113.952 E5.76331
G1 X90.287 Y113.369 E5.79543
G1 X89.467 Y112.732 E5.82755
G1 X88.688 Y112.046 E5.85967
G1 X87.954 Y111.312 E5.89179
G1 X87.268 Y110.533 E5.92391
G1 X86.631 Y109.713 E5.95604
G1 X86.048 Y108.854 E5.98816
G1 X85.519 Y107.961 E6.02028
G1 X85.048 Y107.036 E6.05240
G1 X84.636 Y106.083 E6.08452
G1 X84.284 Y105.106 E6.11664
G1 X83.995 Y104.110 E6.14876
G1 X83.768 Y103.096 E6.18088
G1 X83.606 Y102.071 E6.21300
G1 X83.508 Y101.038 E6.24512
G1 X83.475 Y100.000 E6.27724
G1 X83.508 Y98.962 E6.30936
G1 X83.606 Y97.929 E6.34148
G1 X83.768 Y96.904 E6.37360
G1 X83.995 Y95.890 E6.40572
G1 X84.284 Y94.894 E6.43784
G1 X84.636 Y93.917 E6.46996
G1 X85.048 Y92.964 E6.50208
G1 X85.519 Y92.039 E6.53420
G1 X86.048 Y91.146 E6.56632
G1 X86.631 Y90.287 E6.59844
G1 X87.268 Y89.467 E6.63056
G1 X87.954 Y88.688 E6.66268
G1 X88.688 Y87.954 E6.69480
G1 X89.467 Y87.268 E6.72692
G1 X90.287 Y86.631 E6.75904
G1 X91.146 Y86.048 E6.79116
G1 X92.039 Y85.519 E6.82328
G1 X92.964 Y85.048 E6.85540
G1 X93.917 Y84.636 E6.88752
G1 X94.894 Y84.284 E6.91964
G1 X95.890 Y83.995 E6.95176
G1 X96.904 Y83.768 E6.98388
G1 X97.929 Y83.606 E7.01600
G1 X98.962 Y83.508 E7.04812
G1 X100.000 Y83.475 E7.08024
G1 X101.038 Y83.508 E7.11236
G1 X102.071 Y83.606 E7.14448
G1 X103.096 Y83.768 E7.17661
G1 X104.110 Y83.995 E7.20873
G1 X105.106 Y84.284 E7.24085
G1 X106.083 Y84.636 E7.27297
G1 X107.036 Y85.048 E7.30509
G1 X107.961 Y85.519 E7.33721
G1 X108.854 Y86.048 E7.36933
G1 X109.713 Y86.631 E7.40145
G1 X110.533 Y87.268 E7.43357
G1 X111.312 Y87.954 E7.46569
G1 X112.046 Y88.688 E7.49781
G1 X112.732 Y89.467 E7.52993
G1 X113.369 Y90.287 E7.56205
G1 X113.952 Y91.146 E7.59417
G1 X114.481 Y92.039 E7.62629
G1 X114.952 Y92.964 E7.65841
G1 X115.364 Y93.917 E7.69053
G1 X115.716 Y94.894 E7.72265
G1 X116.005 Y95.890 E7.75477
G1 X116.232 Y96.904 E7.78689
G1 X116.394 Y97.929 E7.81901
G1 X116.492 Y98.962 E7.85113
G1 X116.525 Y100.000 E7.88325
G1 X116.492 Y101.038 E7.91537
G1 X116.394 Y102.071 E7.94749
G1 X116.232 Y103.096 E7.97961
G1 X116.005 Y104.110 E8.01173
G1 X115.716 Y105.106 E8.04385
G1 X115.364 Y106.083 E8.07597
G1 X114.952 Y107.036 E8.10809
G1 X114.481 Y107.961 E8.14021
G1 X113.952 Y108.854 E8.17233
G1 X113.369 Y109.713 E8.20445
G1 X112.732 Y110.533 E8.23657
G1 X112.046 Y111.312 E8.26869
G1 X111.379 Y111.979 E8.29789
G1 X111.768 Y112.474 F7800.000
G1 F1800.000
G1 X110.932 Y113.214 E8.33244
G1 X110.080 Y113.874 E8.36577
G1 X109.189 Y114.480 E8.39911
G1 X108.262 Y115.029 E8.43244
G1 X107.302 Y115.518 E8.46578
G1 X106.313 Y115.946 E8.49911
G1 X105.300 Y116.310 E8.53245
G1 X104.265 Y116.611 E8.56578
G1 X103.214 Y116.846 E8.59912
G1 X102.149 Y117.015 E8.63245
G1 X101.077 Y117.116 E8.66579
G1 X100.000 Y117.150 E8.69913
G1 X98.923 Y117.116 E8.73246
G1 X97.851 Y117.015 E8.76580
G1 X96.786 Y116.846 E8.79913
G1 X95.735 Y116.611 E8.83247
G1 X94.700 Y116.310 E8.86580
G1 X93.687 Y115.946 E8.89914
G1 X92.698 Y115.518 E8.93247
G1 X91.738 Y115.029 E8.96581
G1 X90.811 Y114.480 E8.99915
G1 X89.920 Y113.874 E9.03248
G1 X89.068 Y113.214 E9.06582
G1 X88.260 Y112.502 E9.09915
G1 X87.498 Y111.740 E9.13249
G1 X86.786 Y110.932 E9.16582
G1 X86.125 Y110.080 E9.19916
G1 X85.520 Y109.189 E9.23249
G1 X84.971 Y108.262 E9.26583
G1 X84.482 Y107.302 E9.29916
G1 X84.054 Y106.313 E9.33250
G1 X83.690 Y105.300 E9.36584
G1 X83.389 Y104.265 E9.39917
G1 X83.154 Y103.214 E9.43251
G1 X82.985 Y102.149 E9.46584
G1 X82.884 Y101.077 E9.49918
G1 X82.850 Y100.000 E9.53251
G1 X82.884 Y98.923 E9.56585
G1 X82.985 Y97.851 E9.59918
G1 X83.154 Y96.786 E9.63252
G1 X83.389 Y95.735 E9.66586
G1 X83.690 Y94.700 E9.69919
G1 X84.054 Y93.687 E9.73253
G1 X84.482 Y92.698 E9.76586
G1 X84.971 Y91.738 E9.79920
G1 X85.520 Y90.811 E9.83253
G1 X86.125 Y89.920 E9.86587
G1 X86.786 Y89.068 E9.89920
G1 X87.498 Y88.260 E9.93254
G1 X88.260 Y87.498 E9.96587
G1 X89.068 Y86.786 E9.99921
G1 X89.920 Y86.125 E10.03255
G1 X90.811 Y85.520 E10.06588
G1 X91.738 Y84.971 E10.09922
G1 X92.698 Y84.482 E10.13255
G1 X93.687 Y84.054 E10.16589
G1 X94.700 Y83.690 E10.19922
G1 X95.735 Y83.389 E10.23256
G1 X96.786 Y83.154 E10.26589
G1 X97.851 Y82.985 E10.29923
G1 X98.923 Y82.884 E10.33257
G1 X100.000 Y82.850 E10.36590
G1 X101.077 Y82.884 E10.39924
G1 X102.149 Y82.985 E10.43257
G1 X103.214 Y83.154 E10.46591
G1 X104.265 Y83.389 E10.49924
G1 X105.300 Y83.690 E10.53258
G1 X106.313 Y84.054 E10.56591
G1 X107.302 Y84.482 E10.59925
G1 X108.262 Y84.971 E10.63258
G1 X109.189 Y85.520 E10.66592
G1 X110.080 Y86.125 E10.69925
G1 X110.932 Y86.786 E10.73259
G1 X111.740 Y87.498 E10.76593
G1 X112.502 Y88.260 E10.79926
G1 X113.214 Y89.068 E10.83260
G1 X113.874 Y89.920 E10.86593
G1 X114.480 Y90.811 E10.89927
G1 X115.029 Y91.738 E10.93261
G1 X115.518 Y92.698 E10.96594
G1 X115.946 Y93.687 E10.99928
G1 X116.310 Y94.700 E11.03261
G1 X116.611 Y95.735 E11.06595
G1 X116.846 Y96.786 E11.09928
G1 X117.015 Y97.851 E11.13262
G1 X117.116 Y98.923 E11.16595
G1 X117.150 Y100.000 E11.19929
G1 X117.116 Y101.077 E11.23262
G1 X117.015 Y102.149 E11.26596
G1 X116.846 Y103.214 E11.29930
G1 X116.611 Y104.265 E11.33263
G1 X116.310 Y105.300 E11.36597
G1 X115.946 Y106.313 E11.39930
G1 X115.518 Y107.302 E11.43264
G1 X115.029 Y108.262 E11.46597
G1 X114.480 Y109.189 E11.49931
G1 X113.874 Y110.080 E11.53264
G1 X113.214 Y110.932 E11.56598
G1 X112.502 Y111.740 E11.59931
G1 X111.821 Y112.421 E11.62911
G1 X111.730 Y112.464 F7800.000
G1 X110.212 Y111.379 F7800.000
G1 F1800.000
G1 X111.379 Y110.212 E11.68108
G1 X112.012 Y109.493 E11.71126
G1 X112.600 Y108.735 E11.74148
G1 X113.139 Y107.941 E11.77171
G1 X113.683 Y107.008 E11.80572
G1 X107.008 Y113.683 E12.10303
G1 X106.260 Y114.064 E12.12946
G1 X105.328 Y114.463 E12.16142
G1 X114.463 Y105.328 E12.56836
G1 X114.770 Y104.477 E12.59683
G1 X114.915 Y103.976 E12.61325
G1 X103.976 Y114.915 E13.10050
G1 X103.556 Y115.037 E13.11431
G1 X102.782 Y115.210 E13.13929
G1 X115.210 Y102.782 E13.69291
G1 X115.392 Y101.700 E13.72745
G1 X101.700 Y115.392 E14.33735
G1 X100.705 Y115.488 E14.36883
G1 X115.488 Y100.705 E15.02728
G1 X115.517 Y99.776 E15.05655
G1 X99.776 Y115.517 E15.75767
G1 X98.903 Y115.490 E15.78519
G1 X115.490 Y98.903 E16.52405
G1 X115.419 Y98.075 E16.55022
G1 X98.075 Y115.419 E17.32277
G1 X97.286 Y115.309 E17.34788
G1 X115.309 Y97.286 E18.15068
G1 X115.165 Y96.530 E18.17492
G1 X96.530 Y115.165 E19.00500
G1 X95.803 Y114.992 E19.02853
G1 X114.992 Y95.803 E19.88329
G1 X114.790 Y95.106 E19.90615
G1 X95.106 Y114.790 E20.78294
G1 X94.441 Y114.555 E20.80515
G1 X114.555 Y94.441 E21.70110
G1 X114.299 Y93.797 E21.72292
G1 X93.797 Y114.299 E22.63613
G1 X93.174 Y114.023 E22.65761
G1 X114.023 Y93.174 E23.58630
G1 X113.719 Y92.578 E23.60737
G1 X92.578 Y113.719 E24.54908
G1 X92.003 Y113.394 E24.56987
G1 X113.394 Y92.003 E25.52270
G1 X113.053 Y91.445 E25.54331
G1 X91.445 Y113.053 E26.50579
G1 X90.910 Y112.689 E26.52618
G1 X112.689 Y90.910 E27.49631
G1 X112.303 Y90.396 E27.51655
G1 X90.396 Y112.303 E28.49236
G1 X89.897 Y111.903 E28.51252
G1 X111.903 Y89.897 E29.49274
G1 X111.481 Y89.419 E29.51281
G1 X89.418 Y111.481 E30.49556
G1 X88.962 Y111.038 E30.51560
G1 X111.038 Y88.962 E31.49896
G1 X110.582 Y88.519 E31.51900
G1 X88.519 Y110.582 E32.50174
G1 X88.097 Y110.103 E32.52182
G1 X110.103 Y88.097 E33.50204
G1 X109.604 Y87.697 E33.52219
G1 X87.697 Y109.604 E34.49801
G1 X87.311 Y109.090 E34.51825
G1 X109.090 Y87.311 E35.48837
G1 X108.555 Y86.947 E35.50877
G1 X86.947 Y108.555 E36.47125
G1 X86.606 Y107.997 E36.49186
G1 X107.997 Y86.606 E37.44468
G1 X107.422 Y86.281 E37.46547
G1 X86.281 Y107.422 E38.40719
G1 X85.977 Y106.826 E38.42826
G1 X106.826 Y85.977 E39.35695
G1 X106.203 Y85.701 E39.37843
G1 X85.701 Y106.203 E40.29164
G1 X85.445 Y105.559 E40.31345
G1 X105.559 Y85.445 E41.20941
G1 X104.894 Y85.210 E41.23162
G1 X85.210 Y104.894 E42.10841
G1 X85.008 Y104.197 E42.13127
G1 X104.197 Y85.008 E42.98603
G1 X103.470 Y84.835 E43.00956
G1 X84.835 Y103.470 E43.83964
G1 X84.691 Y102.714 E43.86388
G1 X102.714 Y84.691 E44.66668
