; generated by Slic3r 1.3.1-dev (Build 2ef957d) on 2019-11-25 at 09:21:08

; external perimeters extrusion width = 0.55mm (4.37mm^3/s)
; perimeters extrusion width = 0.70mm (11.44mm^3/s)
; infill extrusion width = 0.62mm (13.45mm^3/s)
; solid infill extrusion width = 0.70mm (3.81mm^3/s)
; top infill extrusion width = 0.70mm (2.86mm^3/s)

M107
G92 E0
M104 S200 ; set temperature
G28 ; home all axes
G1 Z5 F5000 ; lift nozzle

; Filament gcode

M109 S200 ; set temperature and wait for it to be reached
G21 ; set units to millimeters
G90 ; use absolute coordinates
M82 ; use absolute distances for extrusion
G92 E0
G1 Z0.350 F7800.000
G1 E-2.00000 F2400.00000
G92 E0
G1 X87.737 Y86.651 F7800.000
G1 E2.00000 F2400.00000
G1 F1800.000
G1 X88.491 Y85.935 E2.03217
G1 X89.065 Y85.470 E2.05501
G1 X89.626 Y85.063 E2.07646
G1 X90.245 Y84.661 E2.09931
G1 X91.158 Y84.165 E2.13147
G1 X94.199 Y82.811 E2.23446
G1 X95.179 Y82.464 E2.26662
G1 X95.892 Y82.273 E2.28946
G1 X96.570 Y82.129 E2.31092
G1 X97.299 Y82.013 E2.33376
G1 X98.336 Y81.932 E2.36593
G1 X101.664 Y81.932 E2.46892
G1 X102.701 Y82.013 E2.50109
G1 X103.430 Y82.129 E2.52393
G1 X104.108 Y82.273 E2.54539
G1 X104.821 Y82.464 E2.56823
G1 X105.801 Y82.811 E2.60039
G1 X108.842 Y84.165 E2.70337
G1 X109.755 Y84.661 E2.73554
G1 X110.374 Y85.063 E2.75838
G1 X110.935 Y85.470 E2.77984
G1 X111.509 Y85.935 E2.80268
G1 X112.263 Y86.651 E2.83485
G1 X114.490 Y89.124 E2.93783
G1 X115.123 Y89.949 E2.97000
G1 X115.525 Y90.568 E2.99284
G1 X115.872 Y91.168 E3.01429
G1 X116.207 Y91.826 E3.03713
G1 X116.605 Y92.787 E3.06931
G1 X117.634 Y95.952 E3.17230
G1 X117.876 Y96.963 E3.20445
G1 X117.992 Y97.692 E3.22730
G1 X118.064 Y98.382 E3.24877
G1 X118.103 Y99.120 E3.27161
G1 X118.076 Y100.158 E3.30376
G1 X117.728 Y103.469 E3.40675
G1 X117.538 Y104.491 E3.43892
G1 X117.347 Y105.204 E3.46177
G1 X117.133 Y105.863 E3.48320
G1 X116.869 Y106.552 E3.50604
G1 X116.421 Y107.491 E3.53822
G1 X114.757 Y110.373 E3.64121
G1 X114.168 Y111.230 E3.67337
G1 X113.703 Y111.804 E3.69622
G1 X113.239 Y112.319 E3.71768
G1 X112.717 Y112.841 E3.74052
G1 X111.927 Y113.516 E3.77268
G1 X109.234 Y115.473 E3.87567
G1 X108.347 Y116.016 E3.90785
G1 X107.689 Y116.351 E3.93069
G1 X107.057 Y116.633 E3.95212
G1 X106.367 Y116.898 E3.97497
G1 X105.370 Y117.193 E4.00714
G1 X102.115 Y117.885 E4.11013
G1 X101.085 Y118.021 E4.14228
G1 X100.347 Y118.059 E4.16512
G1 X99.653 Y118.059 E4.18661
G1 X98.915 Y118.021 E4.20945
G1 X97.885 Y117.885 E4.24160
G1 X94.630 Y117.193 E4.34458
G1 X93.633 Y116.898 E4.37676
G1 X92.943 Y116.633 E4.39960
G1 X92.311 Y116.351 E4.42103
G1 X91.653 Y116.016 E4.44388
G1 X90.766 Y115.473 E4.47606
G1 X88.073 Y113.516 E4.57905
G1 X87.283 Y112.841 E4.61121
G1 X86.761 Y112.319 E4.63405
G1 X86.297 Y111.804 E4.65551
G1 X85.832 Y111.230 E4.67835
G1 X85.243 Y110.373 E4.71051
G1 X83.579 Y107.491 E4.81350
G1 X83.131 Y106.552 E4.84568
G1 X82.867 Y105.863 E4.86853
G1 X82.653 Y105.204 E4.88996
G1 X82.462 Y104.491 E4.91280
G1 X82.272 Y103.469 E4.94498
G1 X81.924 Y100.158 E5.04796
G1 X81.897 Y99.120 E5.08012
G1 X81.936 Y98.382 E5.10296
G1 X82.008 Y97.692 E5.12443
G1 X82.124 Y96.963 E5.14727
G1 X82.366 Y95.952 E5.17943
G1 X83.395 Y92.787 E5.28242
G1 X83.793 Y91.826 E5.31460
G1 X84.128 Y91.168 E5.33744
G1 X84.475 Y90.568 E5.35888
G1 X84.877 Y89.949 E5.38173
G1 X85.510 Y89.124 E5.41389
G1 X87.687 Y86.706 E5.51456
G1 E3.51456 F2400.00000
G92 E0
G1 X104.304 Y104.608 F7800.000
G1 E2.00000 F2400.00000
G1 F1800.000
G1 X103.476 Y105.252 E2.03248
G1 X102.553 Y105.752 E2.06495
G1 X101.560 Y106.093 E2.09743
G1 X100.525 Y106.266 E2.12991
G1 X99.475 Y106.266 E2.16238
G1 X98.440 Y106.093 E2.19486
G1 X97.447 Y105.752 E2.22734
G1 X96.524 Y105.252 E2.25981
G1 X95.696 Y104.608 E2.29229
G1 X94.985 Y103.835 E2.32477
G1 X94.411 Y102.957 E2.35724
G1 X93.989 Y101.995 E2.38972
G1 X93.731 Y100.978 E2.42220
G1 X93.645 Y99.932 E2.45468
G1 X93.731 Y98.886 E2.48715
G1 X93.989 Y97.868 E2.51963
G1 X94.411 Y96.907 E2.55211
G1 X94.985 Y96.028 E2.58458
G1 X95.696 Y95.256 E2.61706
G1 X96.524 Y94.612 E2.64954
G1 X97.447 Y94.112 E2.68201
G1 X98.440 Y93.771 E2.71449
G1 X99.475 Y93.598 E2.74697
G1 X100.525 Y93.598 E2.77944
G1 X101.560 Y93.771 E2.81192
G1 X102.553 Y94.112 E2.84440
G1 X103.476 Y94.612 E2.87687
G1 X104.304 Y95.256 E2.90935
G1 X105.015 Y96.028 E2.94183
G1 X105.589 Y96.907 E2.97430
G1 X106.011 Y97.868 E3.00678
G1 X106.269 Y98.886 E3.03926
G1 X106.355 Y99.932 E3.07173
G1 X106.269 Y100.978 E3.10421
G1 X106.011 Y101.995 E3.13669
G1 X105.589 Y102.957 E3.16917
G1 X105.015 Y103.835 E3.20164
G1 X104.355 Y104.552 E3.23180
G1 X103.880 Y104.146 F7800.000
G1 F1800.000
G1 X103.133 Y104.727 E3.26107
G1 X102.301 Y105.178 E3.29034
G1 X101.406 Y105.485 E3.31962
G1 X100.473 Y105.641 E3.34889
G1 X99.527 Y105.641 E3.37816
G1 X98.594 Y105.485 E3.40743
G1 X97.699 Y105.178 E3.43671
G1 X96.867 Y104.727 E3.46598
G1 X96.120 Y104.146 E3.49525
G1 X95.480 Y103.450 E3.52452
G1 X94.962 Y102.658 E3.55380
G1 X94.582 Y101.792 E3.58307
G1 X94.350 Y100.875 E3.61234
G1 X94.272 Y99.932 E3.64161
G1 X94.350 Y98.989 E3.67089
G1 X94.582 Y98.072 E3.70016
G1 X94.962 Y97.206 E3.72943
G1 X95.480 Y96.414 E3.75870
G1 X96.120 Y95.718 E3.78798
G1 X96.867 Y95.136 E3.81725
G1 X97.699 Y94.686 E3.84652
G1 X98.594 Y94.379 E3.87579
G1 X99.527 Y94.223 E3.90507
G1 X100.473 Y94.223 E3.93434
G1 X101.406 Y94.379 E3.96361
G1 X102.301 Y94.686 E3.99288
G1 X103.133 Y95.136 E4.02216
G1 X103.880 Y95.718 E4.05143
G1 X104.520 Y96.414 E4.08070
G1 X105.038 Y97.206 E4.10997
G1 X105.418 Y98.072 E4.13925
G1 X105.650 Y98.989 E4.16852
G1 X105.728 Y99.932 E4.19779
G1 X105.650 Y100.875 E4.22707
G1 X105.418 Y101.792 E4.25634
G1 X105.038 Y102.658 E4.28561
G1 X104.520 Y103.450 E4.31488
G1 X103.930 Y104.091 E4.34183
G1 X103.455 Y103.685 F7800.000
G1 F1800.000
G1 X102.790 Y104.203 E4.36790
G1 X102.049 Y104.603 E4.39397
G1 X101.252 Y104.877 E4.42004
G1 X100.421 Y105.016 E4.44611
G1 X99.579 Y105.016 E4.47218
G1 X98.748 Y104.877 E4.49824
G1 X97.951 Y104.603 E4.52431
G1 X97.210 Y104.203 E4.55038
G1 X96.545 Y103.685 E4.57645
G1 X95.974 Y103.065 E4.60252
G1 X95.514 Y102.360 E4.62859
G1 X95.175 Y101.588 E4.65465
G1 X94.968 Y100.772 E4.68072
G1 X94.899 Y99.932 E4.70679
G1 X94.968 Y99.092 E4.73286
G1 X95.175 Y98.276 E4.75893
G1 X95.514 Y97.504 E4.78500
G1 X95.974 Y96.799 E4.81106
G1 X96.545 Y96.179 E4.83713
G1 X97.210 Y95.661 E4.86320
G1 X97.951 Y95.260 E4.88927
G1 X98.748 Y94.987 E4.91534
G1 X99.579 Y94.848 E4.94141
G1 X100.421 Y94.848 E4.96747
G1 X101.252 Y94.987 E4.99354
G1 X102.049 Y95.260 E5.01961
G1 X102.790 Y95.661 E5.04568
G1 X103.455 Y96.179 E5.07175
G1 X104.026 Y96.799 E5.09781
G1 X104.486 Y97.504 E5.12388
G1 X104.825 Y98.276 E5.14995
G1 X105.032 Y99.092 E5.17602
G1 X105.101 Y99.932 E5.20209
G1 X105.032 Y100.772 E5.22816
G1 X104.825 Y101.588 E5.25422
G1 X104.486 Y102.360 E5.28029
G1 X104.026 Y103.065 E5.30636
G1 X103.506 Y103.630 E5.33011
G1 X103.455 Y103.685 F7800.000
G1 E3.33011 F2400.00000
G92 E0
G1 X106.863 Y106.112 F7800.000
G1 E2.00000 F2400.00000
G1 F1800.000
G1 X106.396 Y106.098 E2.01444
G1 X105.727 Y106.390 E2.03704
G1 X104.419 Y107.340 E2.08707
G1 X104.029 Y107.721 E2.10392
G1 X103.734 Y108.358 E2.12565
G1 X103.335 Y108.166 E2.13935
G1 X102.605 Y108.161 E2.16194
G1 X100.967 Y108.509 E2.21378
G1 X100.358 Y108.786 E2.23446
G1 X100.000 Y109.149 E2.25025
G1 X99.641 Y108.786 E2.26605
G1 X99.033 Y108.509 E2.28673
G1 X97.451 Y108.173 E2.33677
G1 X96.908 Y108.138 E2.35361
G1 X96.247 Y108.342 E2.37502
G1 X96.071 Y107.874 E2.39049
G1 X95.628 Y107.374 E2.41116
G1 X94.273 Y106.390 E2.46299
G1 X93.604 Y106.098 E2.48558
G1 X93.149 Y106.111 E2.49964
G1 X93.180 Y105.590 E2.51580
G1 X92.979 Y104.953 E2.53648
G1 X92.141 Y103.502 E2.58830
G1 X91.649 Y102.963 E2.61089
G1 X91.228 Y102.790 E2.62496
G1 X91.469 Y102.327 E2.64112
G1 X91.544 Y101.663 E2.66180
G1 X91.369 Y99.997 E2.71362
G1 X91.138 Y99.304 E2.73621
G1 X90.832 Y98.984 E2.74991
G1 X91.347 Y98.507 E2.77164
G1 X91.589 Y98.019 E2.78849
G1 X92.088 Y96.481 E2.83852
G1 X92.153 Y95.816 E2.85920
G1 X92.018 Y95.323 E2.87501
G1 X92.512 Y95.195 E2.89081
G1 X93.055 Y94.806 E2.91148
G1 X94.176 Y93.561 E2.96331
G1 X94.537 Y92.926 E2.98590
G1 X94.570 Y92.484 E2.99960
G1 X95.269 Y92.548 E3.02133
G1 X95.794 Y92.401 E3.03818
G1 X97.271 Y91.743 E3.08821
G1 X97.858 Y91.310 E3.11081
G1 X98.080 Y90.899 E3.12526
G1 X98.449 Y91.184 E3.13970
G1 X99.162 Y91.341 E3.16229
G1 X100.780 Y91.341 E3.21234
G1 X101.319 Y91.262 E3.22919
G1 X101.932 Y90.920 E3.25091
G1 X102.142 Y91.310 E3.26461
G1 X102.729 Y91.743 E3.28720
G1 X104.206 Y92.401 E3.33723
G1 X104.731 Y92.548 E3.35408
G1 X105.430 Y92.485 E3.37582
G1 X105.464 Y92.926 E3.38951
G1 X105.824 Y93.561 E3.41210
G1 X106.906 Y94.763 E3.46214
G1 X107.325 Y95.111 E3.47899
G1 X107.970 Y95.330 E3.50008
G1 X107.838 Y95.999 E3.52117
G1 X107.929 Y96.536 E3.53802
G1 X108.429 Y98.074 E3.58805
G1 X108.799 Y98.703 E3.61064
G1 X109.185 Y98.967 E3.62509
G1 X108.862 Y99.304 E3.63953
G1 X108.631 Y99.997 E3.66212
G1 X108.462 Y101.605 E3.71216
G1 X108.484 Y102.149 E3.72901
G1 X108.753 Y102.776 E3.75010
G1 X108.167 Y103.125 E3.77119
G1 X107.830 Y103.552 E3.78804
G1 X107.021 Y104.953 E3.83807
G1 X106.801 Y105.649 E3.86067
G1 X106.853 Y106.037 E3.87279
G1 X107.779 Y106.754 F7800.000
G1 F1800.000
G1 X107.597 Y106.955 E3.88117
G1 X107.116 Y106.744 E3.89743
G1 X106.518 Y106.727 E3.91595
G1 X106.039 Y106.935 E3.93211
G1 X104.823 Y107.819 E3.97863
G1 X104.548 Y108.087 E3.99052
G1 X104.314 Y108.593 E4.00774
G1 X104.288 Y109.054 E4.02204
G1 X104.353 Y109.312 E4.03027
G1 X104.095 Y109.450 E4.03933
G1 X103.730 Y109.050 E4.05609
G1 X103.191 Y108.790 E4.07462
G1 X102.669 Y108.786 E4.09077
G1 X101.163 Y109.106 E4.13839
G1 X100.722 Y109.307 E4.15339
G1 X100.402 Y109.632 E4.16750
G1 X100.207 Y110.009 E4.18065
G1 X100.158 Y110.292 E4.18954
G1 X99.841 Y110.291 E4.19932
G1 X99.794 Y110.012 E4.20809
G1 X99.598 Y109.632 E4.22132
G1 X99.278 Y109.307 E4.23545
G1 X98.837 Y109.106 E4.25044
G1 X97.366 Y108.794 E4.29696
G1 X96.983 Y108.769 E4.30885
G1 X96.451 Y108.933 E4.32607
G1 X96.088 Y109.224 E4.34046
G1 X95.931 Y109.460 E4.34922
G1 X95.642 Y109.332 E4.35901
G1 X95.712 Y109.054 E4.36789
G1 X95.688 Y108.630 E4.38104
G1 X95.527 Y108.202 E4.39517
G1 X95.206 Y107.840 E4.41016
G1 X93.961 Y106.935 E4.45777
G1 X93.482 Y106.727 E4.47393
G1 X92.884 Y106.744 E4.49244
G1 X92.387 Y106.961 E4.50921
G1 X92.208 Y106.730 E4.51826
G1 X92.373 Y106.521 E4.52648
G1 X92.523 Y106.124 E4.53962
G1 X92.550 Y105.668 E4.55375
G1 X92.404 Y105.206 E4.56874
G1 X91.634 Y103.874 E4.61635
G1 X91.282 Y103.488 E4.63251
G1 X90.728 Y103.261 E4.65102
G1 X90.186 Y103.257 E4.66779
G1 X90.117 Y102.973 E4.67684
G1 X90.352 Y102.849 E4.68506
G1 X90.651 Y102.547 E4.69820
G1 X90.861 Y102.142 E4.71233
G1 X90.915 Y101.660 E4.72733
G1 X90.754 Y100.130 E4.77494
G1 X90.589 Y99.635 E4.79110
G1 X90.176 Y99.202 E4.80960
G1 X89.682 Y98.978 E4.82638
G1 X89.735 Y98.690 E4.83545
G1 X89.997 Y98.674 E4.84356
G1 X90.430 Y98.505 E4.85794
G1 X90.838 Y98.126 E4.87516
G1 X91.008 Y97.782 E4.88704
G1 X91.473 Y96.352 E4.93356
G1 X91.520 Y95.870 E4.94856
G1 X91.399 Y95.430 E4.96268
G1 X91.168 Y95.070 E4.97592
G1 X90.949 Y94.889 E4.98469
G1 X91.107 Y94.615 E4.99448
G1 X91.376 Y94.714 E5.00336
G1 X91.801 Y94.734 E5.01651
G1 X92.242 Y94.619 E5.03063
G1 X92.637 Y94.337 E5.04562
G1 X93.666 Y93.194 E5.09323
G1 X93.924 Y92.739 E5.10939
G1 X93.969 Y92.143 E5.12791
G1 X93.805 Y91.626 E5.14468
G1 X94.053 Y91.472 E5.15372
G1 X94.244 Y91.657 E5.16194
G1 X94.657 Y91.865 E5.17623
G1 X95.211 Y91.915 E5.19346
G1 X95.581 Y91.812 E5.20534
G1 X96.955 Y91.200 E5.25186
G1 X97.375 Y90.890 E5.26802
G1 X97.659 Y90.363 E5.28654
G1 X97.717 Y89.840 E5.30282
G1 X97.982 Y89.784 E5.31120
G1 X98.247 Y90.238 E5.32745
G1 X98.721 Y90.604 E5.34598
G1 X99.231 Y90.716 E5.36213
G1 X100.734 Y90.716 E5.40867
G1 X101.114 Y90.661 E5.42055
G1 X101.600 Y90.389 E5.43777
G1 X101.893 Y90.032 E5.45207
G1 X101.992 Y89.785 E5.46030
G1 X102.282 Y89.824 E5.46935
G1 X102.341 Y90.363 E5.48611
G1 X102.625 Y90.890 E5.50463
G1 X103.045 Y91.200 E5.52079
G1 X104.419 Y91.812 E5.56731
G1 X104.789 Y91.915 E5.57920
G1 X105.343 Y91.865 E5.59642
G1 X105.756 Y91.658 E5.61072
G1 X105.947 Y91.472 E5.61895
G1 X106.196 Y91.626 E5.62800
G1 X106.031 Y92.142 E5.64477
G1 X106.076 Y92.739 E5.66329
G1 X106.334 Y93.194 E5.67945
G1 X107.340 Y94.311 E5.72597
G1 X107.635 Y94.556 E5.73785
G1 X108.162 Y94.736 E5.75508
G1 X108.624 Y94.714 E5.76937
G1 X108.893 Y94.615 E5.77825
G1 X109.051 Y94.889 E5.78801
G1 X108.831 Y95.072 E5.79690
G1 X108.581 Y95.461 E5.81118
G1 X108.473 Y96.007 E5.82841
G1 X108.538 Y96.386 E5.84029
G1 X109.002 Y97.816 E5.88682
G1 X109.267 Y98.266 E5.90298
G1 X109.761 Y98.604 E5.92149
G1 X110.275 Y98.716 E5.93777
G1 X110.303 Y98.986 E5.94615
G1 X109.824 Y99.202 E5.96241
G1 X109.411 Y99.635 E5.98092
G1 X109.246 Y100.130 E5.99708
G1 X109.089 Y101.625 E6.04361
G1 X109.104 Y102.009 E6.05549
G1 X109.323 Y102.521 E6.07272
G1 X109.648 Y102.849 E6.08701
G1 X109.902 Y102.984 E6.09589
G1 X109.804 Y103.284 E6.10565
G1 X109.520 Y103.243 E6.11454
G1 X109.064 Y103.318 E6.12882
G1 X108.586 Y103.603 E6.14605
G1 X108.348 Y103.904 E6.15793
G1 X107.596 Y105.206 E6.20445
G1 X107.439 Y105.704 E6.22061
G1 X107.519 Y106.297 E6.23913
G1 X107.742 Y106.689 E6.25309
G1 X108.709 Y106.888 F7800.000
G1 F1800.000
G1 X108.294 Y107.400 E6.27349
G1 X107.828 Y107.867 E6.29390
G1 X107.181 Y107.455 E6.31764
G1 X106.977 Y107.365 E6.32453
G1 X106.640 Y107.355 E6.33497
G1 X106.352 Y107.481 E6.34469
G1 X105.227 Y108.298 E6.38770
G1 X105.067 Y108.454 E6.39461
G1 X104.931 Y108.747 E6.40461
G1 X104.917 Y108.994 E6.41227
G1 X105.127 Y109.829 E6.43889
G1 X104.540 Y110.128 E6.45930
G1 X103.924 Y110.364 E6.47971
G1 X103.500 Y109.725 E6.50344
G1 X103.350 Y109.560 E6.51034
G1 X103.046 Y109.414 E6.52077
G1 X102.732 Y109.412 E6.53049
G1 X101.360 Y109.703 E6.57389
G1 X101.086 Y109.828 E6.58320
G1 X100.913 Y110.003 E6.59081
G1 X100.806 Y110.211 E6.59805
G1 X100.659 Y111.058 E6.62467
G1 X100.000 Y111.093 E6.64508
G1 X99.337 Y111.058 E6.66564
G1 X99.194 Y110.212 E6.69220
G1 X99.086 Y110.003 E6.69947
G1 X98.914 Y109.828 E6.70708
G1 X98.640 Y109.703 E6.71638
G1 X97.280 Y109.414 E6.75939
G1 X97.057 Y109.400 E6.76631
G1 X96.749 Y109.495 E6.77631
G1 X96.555 Y109.651 E6.78399
G1 X96.081 Y110.366 E6.81055
G1 X95.460 Y110.128 E6.83111
G1 X94.873 Y109.829 E6.85152
G1 X95.083 Y108.994 E6.87814
G1 X95.069 Y108.761 E6.88538
G1 X94.983 Y108.530 E6.89299
G1 X94.783 Y108.305 E6.90229
G1 X93.648 Y107.481 E6.94570
G1 X93.360 Y107.355 E6.95542
G1 X93.023 Y107.365 E6.96585
G1 X92.819 Y107.454 E6.97275
G1 X92.172 Y107.867 E6.99649
G1 X91.706 Y107.400 E7.01689
G1 X91.290 Y106.887 E7.03731
G1 X91.822 Y106.211 E7.06393
G1 X91.904 Y105.992 E7.07117
G1 X91.919 Y105.746 E7.07878
G1 X91.828 Y105.460 E7.08808
G1 X91.127 Y104.245 E7.13148
G1 X90.915 Y104.013 E7.14121
G1 X90.603 Y103.885 E7.15164
G1 X90.380 Y103.883 E7.15854
G1 X89.622 Y103.997 E7.18227
G1 X89.385 Y103.381 E7.20268
G1 X89.214 Y102.744 E7.22309
G1 X89.975 Y102.342 E7.24971
G1 X90.140 Y102.175 E7.25695
G1 X90.253 Y101.957 E7.26457
G1 X90.287 Y101.658 E7.27387
G1 X90.140 Y100.263 E7.31727
G1 X90.041 Y99.965 E7.32700
G1 X89.808 Y99.721 E7.33742
G1 X89.605 Y99.629 E7.34432
G1 X88.866 Y99.424 E7.36806
G1 X88.900 Y98.765 E7.38847
G1 X89.004 Y98.109 E7.40902
G1 X89.861 Y98.056 E7.43558
G1 X90.092 Y97.966 E7.44327
G1 X90.329 Y97.746 E7.45326
G1 X90.428 Y97.546 E7.46018
G1 X90.858 Y96.224 E7.50318
G1 X90.887 Y95.925 E7.51249
G1 X90.822 Y95.687 E7.52010
G1 X90.695 Y95.490 E7.52738
G1 X90.033 Y94.943 E7.55394
G1 X90.334 Y94.351 E7.57449
G1 X90.694 Y93.798 E7.59490
G1 X91.501 Y94.094 E7.62152
G1 X91.735 Y94.105 E7.62876
G1 X91.973 Y94.043 E7.63637
G1 X92.218 Y93.868 E7.64568
G1 X93.156 Y92.826 E7.68908
G1 X93.311 Y92.553 E7.69880
G1 X93.337 Y92.217 E7.70923
G1 X93.269 Y92.004 E7.71613
G1 X92.927 Y91.317 E7.73987
G1 X93.440 Y90.902 E7.76027
G1 X93.993 Y90.543 E7.78069
G1 X94.610 Y91.142 E7.80731
G1 X94.831 Y91.253 E7.81496
G1 X95.153 Y91.283 E7.82496
G1 X95.368 Y91.222 E7.83187
G1 X96.638 Y90.657 E7.87488
G1 X96.891 Y90.470 E7.88461
G1 X97.051 Y90.173 E7.89504
