; Gcode updated with 'stl_info' on 2019-12-09 21:37:18.309084

; stl_min_x = -11.487099647521973
; stl_max_x = 11.46619987487793
; stl_min_y = -11.375499725341797
; stl_max_y = 11.51159954071045
; stl_min_z = 1.0

; generated by Slic3r 1.3.1-dev (Build adea0d9) on 2019-12-09 at 21:37:17

; external perimeters extrusion width = 0.44mm (2.86mm^3/s)
; perimeters extrusion width = 0.56mm (4.14mm^3/s)
; infill extrusion width = 0.50mm (3.66mm^3/s)
; solid infill extrusion width = 0.56mm (3.10mm^3/s)
; top infill extrusion width = 0.56mm (3.10mm^3/s)

M107
G92 E0
;D3D:START:START
T0
M104 S215 T0

G21
G90
M107
T0
G28
G29
M109 T0 S215 T0
G0 F3000
M107
T0
G92 E0
G0 X0 Y149 Z0.1 F3600
G1 Y49 E6.5 F1200
G0 Z1
G92 E0
; Filament gcode

G21 ; set units to millimeters
G90 ; use absolute coordinates
M82 ; use absolute distances for extrusion
G92 E0
G1 Z0.300 F7800.000
G1 E-2.00000 F2400.00000
G92 E0
G1 X71.310 Y70.923 F7800.000
G1 E2.00000 F2400.00000
G1 F1800.000
G1 X72.020 Y70.371 E2.02981
G1 X72.811 Y69.942 E2.05963
G1 X73.722 Y69.629 E2.09154
G1 X74.555 Y69.502 E2.11943
G1 X75.450 Y69.502 E2.14909
G1 X76.338 Y69.650 E2.17891
G1 X77.189 Y69.942 E2.20872
G1 X77.980 Y70.371 E2.23853
G1 X78.690 Y70.923 E2.26834
G1 X79.300 Y71.585 E2.29816
G1 X79.792 Y72.339 E2.32797
G1 X80.153 Y73.163 E2.35778
G1 X80.374 Y74.035 E2.38760
G1 X80.449 Y74.932 E2.41741
G1 X80.374 Y75.829 E2.44722
G1 X80.153 Y76.701 E2.47703
G1 X79.792 Y77.525 E2.50685
G1 X79.300 Y78.279 E2.53666
G1 X78.690 Y78.941 E2.56647
G1 X77.980 Y79.493 E2.59629
G1 X77.189 Y79.922 E2.62610
G1 X76.278 Y80.234 E2.65801
G1 X75.445 Y80.362 E2.68591
G1 X74.550 Y80.362 E2.71557
G1 X73.662 Y80.214 E2.74538
G1 X72.811 Y79.922 E2.77519
G1 X72.020 Y79.493 E2.80500
G1 X71.310 Y78.941 E2.83482
G1 X70.700 Y78.279 E2.86463
G1 X70.208 Y77.525 E2.89444
G1 X69.847 Y76.701 E2.92426
G1 X69.626 Y75.829 E2.95407
G1 X69.551 Y74.932 E2.98388
G1 X69.626 Y74.035 E3.01369
G1 X69.847 Y73.163 E3.04351
G1 X70.208 Y72.339 E3.07332
G1 X70.700 Y71.585 E3.10313
G1 X71.269 Y70.967 E3.13096
G1 X71.490 Y71.119 F7800.000
G1 F1800.000
G1 X72.166 Y70.594 E3.15931
G1 X72.918 Y70.186 E3.18767
G1 X73.786 Y69.888 E3.21806
G1 X74.575 Y69.768 E3.24450
G1 X75.428 Y69.768 E3.27276
G1 X76.272 Y69.908 E3.30111
G1 X77.082 Y70.186 E3.32947
G1 X77.834 Y70.594 E3.35782
G1 X78.510 Y71.119 E3.38618
G1 X79.089 Y71.749 E3.41453
G1 X79.558 Y72.466 E3.44289
G1 X79.901 Y73.249 E3.47124
G1 X80.111 Y74.079 E3.49960
G1 X80.182 Y74.932 E3.52795
G1 X80.111 Y75.785 E3.55630
G1 X79.901 Y76.615 E3.58466
G1 X79.558 Y77.398 E3.61301
G1 X79.089 Y78.115 E3.64137
G1 X78.510 Y78.745 E3.66972
G1 X77.834 Y79.270 E3.69808
G1 X77.082 Y79.678 E3.72643
G1 X76.214 Y79.975 E3.75683
G1 X75.425 Y80.096 E3.78327
G1 X74.572 Y80.096 E3.81152
G1 X73.728 Y79.955 E3.83988
G1 X72.918 Y79.678 E3.86823
G1 X72.166 Y79.270 E3.89659
G1 X71.490 Y78.745 E3.92494
G1 X70.911 Y78.115 E3.95330
G1 X70.442 Y77.398 E3.98165
G1 X70.099 Y76.615 E4.01001
G1 X69.889 Y75.785 E4.03836
G1 X69.818 Y74.932 E4.06671
G1 X69.889 Y74.079 E4.09507
G1 X70.099 Y73.249 E4.12342
G1 X70.442 Y72.466 E4.15178
G1 X70.911 Y71.749 E4.18013
G1 X71.450 Y71.163 E4.20650
G1 X71.671 Y71.315 F7800.000
G1 F1800.000
G1 X72.311 Y70.817 E4.23340
G1 X73.025 Y70.430 E4.26029
G1 X73.850 Y70.147 E4.28917
G1 X74.595 Y70.033 E4.31415
G1 X75.406 Y70.033 E4.34101
G1 X76.207 Y70.167 E4.36791
G1 X76.975 Y70.430 E4.39480
G1 X77.689 Y70.817 E4.42170
G1 X78.329 Y71.315 E4.44859
G1 X78.879 Y71.913 E4.47549
G1 X79.323 Y72.592 E4.50239
G1 X79.649 Y73.336 E4.52928
G1 X79.849 Y74.123 E4.55618
G1 X79.916 Y74.932 E4.58307
G1 X79.849 Y75.741 E4.60997
G1 X79.649 Y76.528 E4.63687
G1 X79.323 Y77.271 E4.66376
G1 X78.879 Y77.951 E4.69066
G1 X78.329 Y78.548 E4.71756
G1 X77.689 Y79.047 E4.74445
G1 X76.975 Y79.433 E4.77135
G1 X76.150 Y79.717 E4.80022
G1 X75.405 Y79.831 E4.82520
G1 X74.594 Y79.831 E4.85206
G1 X73.793 Y79.697 E4.87896
G1 X73.025 Y79.433 E4.90586
G1 X72.311 Y79.047 E4.93275
G1 X71.671 Y78.548 E4.95965
G1 X71.121 Y77.951 E4.98655
G1 X70.677 Y77.271 E5.01344
G1 X70.351 Y76.528 E5.04034
G1 X70.151 Y75.741 E5.06723
G1 X70.084 Y74.932 E5.09413
G1 X70.151 Y74.123 E5.12103
G1 X70.351 Y73.336 E5.14792
G1 X70.677 Y72.592 E5.17482
G1 X71.121 Y71.913 E5.20171
G1 X71.630 Y71.360 E5.22662
G1 E3.22662 F2400.00000
G92 E0
G1 X68.361 Y66.412 F7800.000
G1 E2.00000 F2400.00000
G1 F1800.000
G1 X68.643 Y66.183 E2.01204
G1 X68.950 Y65.984 E2.02415
G1 X69.407 Y66.428 E2.04527
G1 X69.735 Y66.592 E2.05740
G1 X70.185 Y66.633 E2.07240
G1 X70.486 Y66.549 E2.08274
G1 X71.813 Y65.958 E2.13088
G1 X72.159 Y65.703 E2.14511
G1 X72.388 Y65.279 E2.16107
G1 X72.423 Y64.964 E2.17157
G1 X72.400 Y64.448 E2.18867
G1 X72.752 Y64.354 E2.20072
G1 X73.111 Y64.297 E2.21277
G1 X73.300 Y64.777 E2.22986
G1 X73.460 Y65.050 E2.24036
G1 X73.842 Y65.345 E2.25633
G1 X74.261 Y65.438 E2.27055
G1 X75.714 Y65.438 E2.31869
G1 X76.023 Y65.392 E2.32905
G1 X76.418 Y65.172 E2.34403
G1 X76.650 Y64.888 E2.35617
G1 X76.888 Y64.297 E2.37729
G1 X77.248 Y64.354 E2.38939
G1 X77.600 Y64.448 E2.40144
G1 X77.578 Y64.964 E2.41854
G1 X77.612 Y65.278 E2.42903
G1 X77.841 Y65.703 E2.44500
G1 X78.187 Y65.958 E2.45923
G1 X79.514 Y66.549 E2.50736
G1 X79.815 Y66.633 E2.51771
G1 X80.265 Y66.592 E2.53271
G1 X80.593 Y66.428 E2.54484
G1 X81.050 Y65.984 E2.56596
G1 X81.357 Y66.183 E2.57806
G1 X81.639 Y66.412 E2.59011
G1 X81.409 Y66.874 E2.60721
G1 X81.313 Y67.176 E2.61770
G1 X81.349 Y67.656 E2.63367
G1 X81.561 Y68.030 E2.64790
G1 X82.533 Y69.109 E2.69603
G1 X82.774 Y69.309 E2.70639
G1 X83.202 Y69.455 E2.72138
G1 X83.568 Y69.438 E2.73352
G1 X84.167 Y69.218 E2.75463
G1 X84.366 Y69.525 E2.76674
G1 X84.531 Y69.850 E2.77885
G1 X84.042 Y70.259 E2.79996
G1 X83.844 Y70.567 E2.81209
G1 X83.757 Y71.011 E2.82709
G1 X83.809 Y71.319 E2.83744
G1 X84.258 Y72.701 E2.88557
G1 X84.476 Y73.071 E2.89980
G1 X84.854 Y73.330 E2.91498
G1 X85.123 Y73.407 E2.92426
G1 X85.698 Y73.443 E2.94335
G1 X85.755 Y73.802 E2.95539
G1 X85.774 Y74.165 E2.96745
G1 X85.277 Y74.303 E2.98454
G1 X84.988 Y74.433 E2.99504
G1 X84.656 Y74.782 E3.01100
G1 X84.520 Y75.189 E3.02523
G1 X84.368 Y76.634 E3.07336
G1 X84.380 Y76.947 E3.08372
G1 X84.559 Y77.363 E3.09871
G1 X84.816 Y77.623 E3.11085
G1 X85.380 Y77.921 E3.13196
G1 X85.285 Y78.274 E3.14407
G1 X85.154 Y78.615 E3.15617
G1 X84.523 Y78.525 E3.17729
G1 X84.162 Y78.584 E3.18942
G1 X83.773 Y78.816 E3.20442
G1 X83.579 Y79.061 E3.21476
G1 X82.853 Y80.319 E3.26290
G1 X82.723 Y80.729 E3.27713
G1 X82.787 Y81.206 E3.29309
G1 X82.944 Y81.482 E3.30359
G1 X83.265 Y81.886 E3.32069
G1 X83.037 Y82.168 E3.33274
G1 X82.779 Y82.425 E3.34479
G1 X82.344 Y82.148 E3.36188
G1 X82.054 Y82.021 E3.37238
G1 X81.572 Y82.007 E3.38835
G1 X81.179 Y82.179 E3.40257
G1 X80.003 Y83.033 E3.45071
G1 X79.780 Y83.251 E3.46106
G1 X79.590 Y83.662 E3.47606
G1 X79.568 Y84.027 E3.48819
G1 X79.724 Y84.645 E3.50931
G1 X79.399 Y84.811 E3.52141
G1 X79.059 Y84.942 E3.53346
G1 X78.774 Y84.512 E3.55055
G1 X78.561 Y84.277 E3.56105
G1 X78.126 Y84.068 E3.57702
G1 X77.697 Y84.065 E3.59125
G1 X76.251 Y84.373 E3.64022
G1 X75.884 Y84.539 E3.65356
G1 X75.630 Y84.797 E3.66557
G1 X75.474 Y85.099 E3.67682
G1 X75.365 Y85.727 E3.69794
G1 X75.000 Y85.746 E3.71005
G1 X74.632 Y85.727 E3.72226
G1 X74.527 Y85.101 E3.74329
G1 X74.370 Y84.797 E3.75461
G1 X74.115 Y84.539 E3.76663
G1 X73.749 Y84.372 E3.77996
G1 X72.328 Y84.070 E3.82810
G1 X72.016 Y84.050 E3.83845
G1 X71.583 Y84.184 E3.85344
G1 X71.296 Y84.414 E3.86564
G1 X70.945 Y84.943 E3.88667
G1 X70.601 Y84.811 E3.89888
G1 X70.276 Y84.645 E3.91099
G1 X70.431 Y84.027 E3.93211
G1 X70.412 Y83.688 E3.94336
G1 X70.284 Y83.349 E3.95538
G1 X70.017 Y83.047 E3.96871
G1 X68.821 Y82.179 E4.01768
G1 X68.428 Y82.007 E4.03191
G1 X67.946 Y82.021 E4.04787
G1 X67.656 Y82.148 E4.05837
G1 X67.220 Y82.425 E4.07547
G1 X66.963 Y82.168 E4.08752
G1 X66.733 Y81.884 E4.09963
G1 X67.127 Y81.383 E4.12074
G1 X67.247 Y81.065 E4.13200
G1 X67.269 Y80.703 E4.14401
G1 X67.147 Y80.319 E4.15735
G1 X66.408 Y79.039 E4.20632
G1 X66.118 Y78.722 E4.22055
G1 X65.673 Y78.539 E4.23651
G1 X65.356 Y78.537 E4.24701
G1 X64.845 Y78.613 E4.26411
G1 X64.715 Y78.274 E4.27615
G1 X64.620 Y77.921 E4.28826
G1 X65.184 Y77.623 E4.30938
G1 X65.423 Y77.381 E4.32063
G1 X65.590 Y77.059 E4.33265
G1 X65.635 Y76.659 E4.34599
G1 X65.480 Y75.189 E4.39496
G1 X65.345 Y74.782 E4.40918
G1 X65.012 Y74.433 E4.42514
G1 X64.723 Y74.303 E4.43565
G1 X64.226 Y74.165 E4.45274
G1 X64.245 Y73.802 E4.46479
G1 X64.303 Y73.438 E4.47700
G1 X64.936 Y73.398 E4.49803
G1 X65.279 Y73.265 E4.51023
G1 X65.611 Y72.957 E4.52522
G1 X65.750 Y72.677 E4.53557
G1 X66.199 Y71.295 E4.58371
G1 X66.238 Y70.894 E4.59704
G1 X66.141 Y70.545 E4.60906
G1 X65.957 Y70.257 E4.62038
G1 X65.467 Y69.853 E4.64142
G1 X65.634 Y69.525 E4.65362
G1 X65.834 Y69.218 E4.66573
G1 X66.432 Y69.438 E4.68685
G1 X66.771 Y69.454 E4.69810
G1 X67.122 Y69.362 E4.71012
G1 X67.450 Y69.128 E4.72345
G1 X68.439 Y68.030 E4.77242
G1 X68.651 Y67.656 E4.78665
G1 X68.687 Y67.176 E4.80261
G1 X68.591 Y66.874 E4.81311
G1 X68.388 Y66.465 E4.82822
G1 X68.028 Y66.339 F7800.000
G1 F1800.000
G1 X68.487 Y65.968 E4.84779
G1 X68.983 Y65.646 E4.86738
G1 X69.563 Y66.209 E4.89416
G1 X69.809 Y66.332 E4.90327
G1 X70.161 Y66.364 E4.91497
G1 X70.396 Y66.298 E4.92306
G1 X71.679 Y65.727 E4.96960
G1 X71.953 Y65.524 E4.98090
G1 X72.129 Y65.198 E4.99319
G1 X72.157 Y64.955 E5.00130
G1 X72.126 Y64.247 E5.02477
G1 X72.696 Y64.094 E5.04434
G1 X73.280 Y64.001 E5.06391
G1 X73.540 Y64.660 E5.08739
G1 X73.663 Y64.872 E5.09550
G1 X73.957 Y65.098 E5.10779
G1 X74.290 Y65.172 E5.11908
G1 X75.695 Y65.172 E5.16562
G1 X75.936 Y65.137 E5.17372
G1 X76.245 Y64.964 E5.18542
G1 X76.419 Y64.752 E5.19453
G1 X76.720 Y64.001 E5.22131
G1 X77.304 Y64.094 E5.24089
G1 X77.874 Y64.247 E5.26047
G1 X77.844 Y64.955 E5.28394
G1 X77.871 Y65.198 E5.29205
G1 X78.047 Y65.524 E5.30434
G1 X78.321 Y65.727 E5.31563
G1 X79.604 Y66.298 E5.36217
G1 X79.839 Y66.364 E5.37026
G1 X80.191 Y66.332 E5.38197
G1 X80.437 Y66.209 E5.39108
G1 X81.017 Y65.646 E5.41786
G1 X81.513 Y65.968 E5.43745
G1 X81.972 Y66.340 E5.45702
G1 X81.656 Y66.974 E5.48050
G1 X81.582 Y67.207 E5.48860
G1 X81.610 Y67.577 E5.50089
G1 X81.778 Y67.874 E5.51219
G1 X82.718 Y68.917 E5.55872
G1 X82.906 Y69.073 E5.56682
G1 X83.240 Y69.187 E5.57852
G1 X83.515 Y69.174 E5.58763
G1 X84.274 Y68.896 E5.61441
G1 X84.596 Y69.392 E5.63400
G1 X84.864 Y69.919 E5.65359
G1 X84.244 Y70.437 E5.68037
G1 X84.095 Y70.668 E5.68948
G1 X84.027 Y71.015 E5.70118
G1 X84.068 Y71.255 E5.70927
G1 X84.502 Y72.591 E5.75581
G1 X84.675 Y72.885 E5.76711
G1 X84.969 Y73.086 E5.77891
G1 X85.169 Y73.144 E5.78580
G1 X85.927 Y73.190 E5.81099
G1 X86.020 Y73.774 E5.83055
G1 X86.051 Y74.364 E5.85012
G1 X85.368 Y74.553 E5.87360
G1 X85.145 Y74.654 E5.88171
G1 X84.889 Y74.922 E5.89399
G1 X84.781 Y75.246 E5.90529
G1 X84.634 Y76.643 E5.95183
G1 X84.644 Y76.887 E5.95992
G1 X84.783 Y77.212 E5.97162
G1 X84.976 Y77.407 E5.98074
G1 X85.691 Y77.785 E6.00752
G1 X85.538 Y78.356 E6.02710
G1 X85.326 Y78.908 E6.04669
G1 X84.526 Y78.794 E6.07347
G1 X84.255 Y78.838 E6.08258
G1 X83.951 Y79.019 E6.09429
G1 X83.800 Y79.210 E6.10237
G1 X83.097 Y80.427 E6.14891
G1 X82.994 Y80.752 E6.16021
G1 X83.044 Y81.120 E6.17250
G1 X83.165 Y81.332 E6.18061
G1 X83.606 Y81.887 E6.20409
G1 X83.234 Y82.346 E6.22365
G1 X82.817 Y82.764 E6.24323
G1 X82.219 Y82.383 E6.26670
G1 X81.995 Y82.285 E6.27481
G1 X81.624 Y82.274 E6.28710
G1 X81.311 Y82.411 E6.29839
G1 X80.175 Y83.236 E6.34493
G1 X80.000 Y83.407 E6.35302
G1 X79.852 Y83.728 E6.36473
G1 X79.836 Y84.002 E6.37384
G1 X80.033 Y84.786 E6.40062
G1 X79.507 Y85.054 E6.42021
G1 X78.955 Y85.266 E6.43978
G1 X78.564 Y84.675 E6.46325
G1 X78.399 Y84.494 E6.47136
G1 X78.065 Y84.334 E6.48365
G1 X77.724 Y84.331 E6.49495
G1 X76.335 Y84.626 E6.54200
G1 X76.039 Y84.761 E6.55275
G1 X75.847 Y84.955 E6.56180
G1 X75.729 Y85.185 E6.57037
G1 X75.590 Y85.981 E6.59715
G1 X75.000 Y86.012 E6.61673
G1 X74.405 Y85.981 E6.63646
G1 X74.272 Y85.186 E6.66318
G1 X74.152 Y84.955 E6.67179
G1 X73.961 Y84.760 E6.68084
G1 X73.665 Y84.626 E6.69158
G1 X72.291 Y84.334 E6.73812
G1 X72.048 Y84.319 E6.74621
G1 X71.710 Y84.423 E6.75791
G1 X71.494 Y84.596 E6.76707
G1 X71.049 Y85.268 E6.79378
G1 X70.493 Y85.054 E6.81351
G1 X69.966 Y84.786 E6.83309
G1 X70.164 Y84.002 E6.85988
G1 X70.149 Y83.744 E6.86845
G1 X70.053 Y83.488 E6.87750
G1 X69.838 Y83.245 E6.88824
G1 X68.689 Y82.411 E6.93529
G1 X68.376 Y82.274 E6.94659
G1 X68.005 Y82.285 E6.95888
G1 X67.781 Y82.383 E6.96699
G1 X67.183 Y82.764 E6.99047
G1 X66.766 Y82.346 E7.01004
G1 X66.394 Y81.887 E7.02962
G1 X66.893 Y81.251 E7.05641
G1 X66.984 Y81.009 E7.06498
G1 X67.000 Y80.736 E7.07403
G1 X66.903 Y80.427 E7.08477
G1 X66.193 Y79.197 E7.13182
G1 X65.962 Y78.945 E7.14313
G1 X65.619 Y78.804 E7.15541
G1 X65.375 Y78.803 E7.16352
G1 X64.674 Y78.907 E7.18700
G1 X64.462 Y78.356 E7.20656
G1 X64.309 Y77.785 E7.22615
G1 X65.024 Y77.407 E7.25294
G1 X65.205 Y77.223 E7.26150
G1 X65.331 Y76.981 E7.27056
G1 X65.368 Y76.658 E7.28130
G1 X65.219 Y75.246 E7.32835
G1 X65.111 Y74.922 E7.33966
G1 X64.855 Y74.654 E7.35194
G1 X64.632 Y74.553 E7.36005
G1 X63.949 Y74.364 E7.38353
G1 X63.980 Y73.774 E7.40310
G1 X64.074 Y73.186 E7.42282
G1 X64.878 Y73.136 E7.44954
G1 X65.136 Y73.035 E7.45869
G1 X65.395 Y72.795 E7.47039
G1 X65.503 Y72.576 E7.47848
G1 X65.937 Y71.241 E7.52502
G1 X65.969 Y70.918 E7.53577
G1 X65.896 Y70.654 E7.54482
G1 X65.756 Y70.435 E7.55343
G1 X65.134 Y69.922 E7.58014
G1 X65.404 Y69.392 E7.59986
G1 X65.726 Y68.896 E7.61945
G1 X66.485 Y69.174 E7.64624
G1 X66.744 Y69.186 E7.65480
G1 X67.008 Y69.118 E7.66385
G1 X67.272 Y68.929 E7.67460
G1 X68.222 Y67.873 E7.72165
G1 X68.390 Y67.577 E7.73295
G1 X68.418 Y67.207 E7.74524
G1 X68.344 Y66.974 E7.75335
G1 X68.055 Y66.393 E7.77484
G1 X67.798 Y66.184 F7800.000
G1 F1800.000
G1 X68.331 Y65.753 E7.79755
G1 X68.906 Y65.379 E7.82027
G1 X69.019 Y65.373 E7.82402
G1 X69.131 Y65.419 E7.82803
G1 X69.719 Y65.990 E7.85518
G1 X69.883 Y66.072 E7.86127
G1 X70.136 Y66.095 E7.86968
G1 X70.305 Y66.048 E7.87551
G1 X71.545 Y65.496 E7.92045
G1 X71.748 Y65.346 E7.92882
G1 X71.871 Y65.117 E7.93742
G1 X71.890 Y64.946 E7.94315
G1 X71.858 Y64.204 E7.96773
G1 X71.899 Y64.091 E7.97173
G1 X71.979 Y64.011 E7.97547
G1 X72.641 Y63.834 E7.99818
G1 X73.318 Y63.726 E8.02090
G1 X73.424 Y63.767 E8.02464
G1 X73.507 Y63.854 E8.02864
G1 X73.779 Y64.544 E8.05322
G1 X73.867 Y64.693 E8.05894
G1 X74.072 Y64.852 E8.06755
G1 X74.319 Y64.906 E8.07592
G1 X75.675 Y64.906 E8.12086
G1 X75.849 Y64.881 E8.12669
G1 X76.071 Y64.757 E8.13510
G1 X76.188 Y64.615 E8.14119
G1 X76.493 Y63.854 E8.16834
G1 X76.576 Y63.767 E8.17235
G1 X76.682 Y63.726 E8.17610
G1 X77.359 Y63.834 E8.19881
G1 X78.021 Y64.011 E8.22153
G1 X78.101 Y64.091 E8.22527
G1 X78.142 Y64.205 E8.22927
G1 X78.110 Y64.946 E8.25385
G1 X78.129 Y65.117 E8.25957
G1 X78.252 Y65.346 E8.26818
G1 X78.456 Y65.496 E8.27654
G1 X79.695 Y66.048 E8.32148
G1 X79.864 Y66.095 E8.32732
G1 X80.117 Y66.072 E8.33573
G1 X80.281 Y65.990 E8.34182
G1 X80.869 Y65.419 E8.36896
G1 X80.981 Y65.373 E8.37298
G1 X81.094 Y65.379 E8.37672
G1 X81.669 Y65.753 E8.39944
G1 X82.202 Y66.184 E8.42215
G1 X82.243 Y66.290 E8.42590
G1 X82.234 Y66.410 E8.42990
G1 X81.903 Y67.074 E8.45448
G1 X81.850 Y67.239 E8.46020
G1 X81.870 Y67.498 E8.46880
G1 X81.995 Y67.717 E8.47717
G1 X82.902 Y68.725 E8.52211
G1 X83.038 Y68.838 E8.52794
G1 X83.278 Y68.920 E8.53636
G1 X83.462 Y68.911 E8.54245
G1 X84.231 Y68.629 E8.56959
G1 X84.352 Y68.632 E8.57361
G1 X84.453 Y68.684 E8.57735
G1 X84.826 Y69.259 E8.60007
G1 X85.138 Y69.870 E8.62278
G1 X85.132 Y69.983 E8.62653
G1 X85.074 Y70.089 E8.63054
G1 X84.445 Y70.615 E8.65769
G1 X84.346 Y70.769 E8.66378
G1 X84.297 Y71.018 E8.67219
G1 X84.326 Y71.192 E8.67802
G1 X84.745 Y72.482 E8.72296
G1 X84.873 Y72.700 E8.73133
G1 X85.083 Y72.843 E8.73975
G1 X85.214 Y72.881 E8.74426
G1 X85.997 Y72.929 E8.77025
G1 X86.106 Y72.981 E8.77425
G1 X86.177 Y73.069 E8.77800
G1 X86.284 Y73.746 E8.80071
G1 X86.320 Y74.431 E8.82342
G1 X86.269 Y74.532 E8.82717
G1 X86.173 Y74.605 E8.83117
G1 X85.459 Y74.804 E8.85575
G1 X85.301 Y74.875 E8.86147
G1 X85.122 Y75.063 E8.87007
G1 X85.042 Y75.302 E8.87844
