; generated by Slic3r 1.3.1-dev (Build adea0d9) on 2020-02-19 at 18:01:30

; external perimeters extrusion width = 0.44mm (2.86mm^3/s)
; perimeters extrusion width = 0.56mm (4.14mm^3/s)
; infill extrusion width = 0.50mm (3.66mm^3/s)
; solid infill extrusion width = 0.56mm (3.10mm^3/s)
; top infill extrusion width = 0.56mm (3.10mm^3/s)

M107
G92 E0
;D3D:START:START
T0
M104 S215 T0

G21
G90
M107
T0
G28
G29
M109 T0 S215 T0
G0 F3000
M107
T0
G92 E0
G0 X0 Y149 Z0.1 F3600
G1 Y49 E6.5 F1200
G0 Z1
G92 E0
; Filament gcode

G21 ; set units to millimeters
G90 ; use absolute coordinates
M82 ; use absolute distances for extrusion
G92 E0
G1 Z0.300 F7800.000
G1 E-2.00000 F2400.00000
G92 E0
G1 X97.977 Y88.035 F7800.000
G1 E2.00000 F2400.00000
G1 F1800.000
G1 X99.439 Y86.430 E2.07193
G1 X101.383 Y85.462 E2.14387
G1 X103.545 Y85.262 E2.21580
G1 X105.634 Y85.856 E2.28774
G1 X107.366 Y87.165 E2.35967
G1 X108.509 Y89.011 E2.43160
G1 X108.908 Y91.145 E2.50354
G1 X108.509 Y93.279 E2.57547
G1 X107.366 Y95.125 E2.64741
G1 X105.634 Y96.434 E2.71934
G1 X103.545 Y97.028 E2.79127
G1 X101.383 Y96.828 E2.86320
G1 X99.439 Y95.860 E2.93514
G1 X97.977 Y94.255 E3.00707
G1 X97.192 Y92.231 E3.07901
G1 X97.192 Y90.059 E3.15094
G1 X97.955 Y88.091 E3.22089
G1 X98.206 Y88.177 F7800.000
G1 F1800.000
G1 X99.602 Y86.646 E3.28953
G1 X101.457 Y85.722 E3.35818
G1 X103.520 Y85.531 E3.42682
G1 X105.513 Y86.098 E3.49546
G1 X107.167 Y87.347 E3.56411
G1 X108.257 Y89.108 E3.63275
G1 X108.638 Y91.145 E3.70139
G1 X108.257 Y93.182 E3.77004
G1 X107.167 Y94.943 E3.83868
G1 X105.513 Y96.192 E3.90733
G1 X103.520 Y96.759 E3.97597
G1 X101.457 Y96.568 E4.04461
G1 X99.602 Y95.644 E4.11326
G1 X98.206 Y94.113 E4.18190
G1 X97.458 Y92.181 E4.25055
G1 X97.458 Y90.109 E4.31919
G1 X98.185 Y88.233 E4.38585
G1 X98.436 Y88.319 F7800.000
G1 F1800.000
G1 X99.765 Y86.861 E4.45120
G1 X101.531 Y85.982 E4.51656
G1 X103.495 Y85.800 E4.58191
G1 X105.393 Y86.340 E4.64726
G1 X106.967 Y87.529 E4.71261
G1 X108.005 Y89.206 E4.77797
G1 X108.368 Y91.145 E4.84332
G1 X108.005 Y93.084 E4.90868
G1 X106.967 Y94.761 E4.97403
G1 X105.393 Y95.950 E5.03939
G1 X103.495 Y96.490 E5.10474
G1 X101.531 Y96.308 E5.17009
G1 X99.765 Y95.429 E5.23545
G1 X98.436 Y93.971 E5.30080
G1 X97.724 Y92.131 E5.36615
G1 X97.724 Y90.159 E5.43151
G1 X98.415 Y88.375 E5.49487
G1 X98.247 Y87.967 F7800.000
G1 E3.49487 F2400.00000
G92 E0
G1 X68.908 Y91.145 F7800.000
G1 E2.00000 F2400.00000
G1 F1800.000
G1 X68.509 Y93.279 E2.07194
G1 X67.366 Y95.125 E2.14387
G1 X65.634 Y96.434 E2.21580
G1 X63.545 Y97.028 E2.28773
G1 X61.383 Y96.828 E2.35967
G1 X59.439 Y95.860 E2.43160
G1 X57.977 Y94.255 E2.50354
G1 X57.192 Y92.231 E2.57547
G1 X57.192 Y90.059 E2.64741
G1 X57.977 Y88.035 E2.71934
G1 X59.439 Y86.430 E2.79127
G1 X61.383 Y85.462 E2.86321
G1 X63.545 Y85.262 E2.93514
G1 X65.634 Y85.856 E3.00707
G1 X67.366 Y87.165 E3.07901
G1 X68.509 Y89.011 E3.15094
G1 X68.897 Y91.086 E3.22089
G1 X68.638 Y91.145 F7800.000
G1 F1800.000
G1 X68.257 Y93.182 E3.28953
G1 X67.167 Y94.943 E3.35818
G1 X65.513 Y96.192 E3.42682
G1 X63.520 Y96.759 E3.49546
G1 X61.457 Y96.568 E3.56411
G1 X59.602 Y95.644 E3.63275
G1 X58.206 Y94.113 E3.70140
G1 X57.458 Y92.181 E3.77004
G1 X57.458 Y90.109 E3.83868
G1 X58.206 Y88.177 E3.90733
G1 X59.602 Y86.646 E3.97597
G1 X61.457 Y85.722 E4.04462
G1 X63.520 Y85.531 E4.11326
G1 X65.513 Y86.098 E4.18190
G1 X67.167 Y87.347 E4.25055
G1 X68.257 Y89.108 E4.31919
G1 X68.627 Y91.086 E4.38585
G1 X68.368 Y91.145 F7800.000
G1 F1800.000
G1 X68.005 Y93.084 E4.45120
G1 X66.967 Y94.761 E4.51655
G1 X65.393 Y95.950 E4.58191
G1 X63.495 Y96.490 E4.64726
G1 X61.531 Y96.308 E4.71261
G1 X59.765 Y95.429 E4.77797
G1 X58.436 Y93.971 E4.84332
G1 X57.724 Y92.131 E4.90868
G1 X57.724 Y90.159 E4.97403
G1 X58.436 Y88.319 E5.03939
G1 X59.765 Y86.861 E5.10474
G1 X61.531 Y85.982 E5.17010
G1 X63.495 Y85.800 E5.23545
G1 X65.393 Y86.340 E5.30080
G1 X66.967 Y87.529 E5.36616
G1 X68.005 Y89.206 E5.43151
G1 X68.357 Y91.086 E5.49488
G1 X68.714 Y91.345 F7800.000
G1 E3.49488 F2400.00000
G92 E0
G1 X80.486 Y96.912 F7800.000
G1 E2.00000 F2400.00000
G1 F1800.000
G1 X79.576 Y98.589 E2.06320
G1 X62.096 Y98.589 E2.64230
G1 X60.341 Y98.156 E2.70219
G1 X58.740 Y97.316 E2.76207
G1 X57.387 Y96.117 E2.82196
G1 X56.360 Y94.630 E2.88185
G1 X55.719 Y92.939 E2.94174
G1 X55.501 Y91.145 E3.00163
G1 X55.719 Y89.350 E3.06152
G1 X56.360 Y87.660 E3.12141
G1 X57.387 Y86.172 E3.18130
G1 X58.740 Y84.974 E3.24119
G1 X60.341 Y84.134 E3.30107
G1 X62.096 Y83.701 E3.36096
G1 X103.904 Y83.701 E4.74603
G1 X105.659 Y84.134 E4.80593
G1 X107.260 Y84.974 E4.86581
G1 X108.613 Y86.172 E4.92570
G1 X109.640 Y87.660 E4.98559
G1 X110.281 Y89.350 E5.04548
G1 X110.499 Y91.145 E5.10537
G1 X110.281 Y92.939 E5.16526
G1 X109.640 Y94.630 E5.22515
G1 X108.613 Y96.117 E5.28503
G1 X107.260 Y97.316 E5.34493
G1 X105.659 Y98.156 E5.40481
G1 X103.904 Y98.589 E5.46470
G1 X86.424 Y98.589 E6.04380
G1 X85.514 Y96.912 E6.10700
G1 X80.546 Y96.912 E6.27161
G1 X80.644 Y97.178 F7800.000
G1 F1800.000
G1 X79.734 Y98.855 E6.33481
G1 X62.064 Y98.855 E6.92021
G1 X60.246 Y98.406 E6.98224
G1 X58.588 Y97.536 E7.04426
G1 X57.187 Y96.295 E7.10629
G1 X56.123 Y94.754 E7.16832
G1 X55.459 Y93.004 E7.23034
G1 X55.234 Y91.145 E7.29237
G1 X55.459 Y89.286 E7.35440
G1 X56.123 Y87.536 E7.41642
G1 X57.187 Y85.995 E7.47845
G1 X58.588 Y84.753 E7.54047
G1 X60.246 Y83.883 E7.60250
G1 X62.064 Y83.435 E7.66452
G1 X103.936 Y83.435 E9.05173
G1 X105.754 Y83.883 E9.11376
G1 X107.412 Y84.753 E9.17578
G1 X108.813 Y85.995 E9.23781
G1 X109.877 Y87.536 E9.29984
G1 X110.541 Y89.286 E9.36186
G1 X110.766 Y91.145 E9.42389
G1 X110.541 Y93.004 E9.48591
G1 X109.877 Y94.754 E9.54794
G1 X108.813 Y96.295 E9.60996
G1 X107.412 Y97.536 E9.67199
G1 X105.754 Y98.406 E9.73402
G1 X103.936 Y98.855 E9.79604
G1 X86.266 Y98.855 E10.38144
G1 X85.356 Y97.178 E10.44465
G1 X80.704 Y97.178 E10.59878
G1 X80.802 Y97.443 F7800.000
G1 F1800.000
G1 X79.892 Y99.120 E10.66198
G1 X62.032 Y99.120 E11.25369
G1 X60.151 Y98.657 E11.31786
G1 X58.436 Y97.757 E11.38202
G1 X56.987 Y96.472 E11.44618
G1 X55.886 Y94.878 E11.51034
G1 X55.200 Y93.068 E11.57451
G1 X54.966 Y91.145 E11.63867
G1 X55.200 Y89.222 E11.70283
G1 X55.886 Y87.411 E11.76699
G1 X56.987 Y85.818 E11.83116
G1 X58.436 Y84.533 E11.89532
G1 X60.151 Y83.633 E11.95948
G1 X62.032 Y83.170 E12.02365
G1 X103.968 Y83.170 E13.41299
G1 X105.849 Y83.633 E13.47715
G1 X107.564 Y84.533 E13.54132
G1 X109.013 Y85.818 E13.60548
G1 X110.114 Y87.411 E13.66964
G1 X110.800 Y89.222 E13.73380
G1 X111.034 Y91.145 E13.79797
G1 X110.800 Y93.068 E13.86213
G1 X110.114 Y94.878 E13.92629
G1 X109.013 Y96.472 E13.99046
G1 X107.564 Y97.757 E14.05462
G1 X105.849 Y98.657 E14.11878
G1 X103.968 Y99.120 E14.18295
G1 X86.108 Y99.120 E14.77465
G1 X85.198 Y97.443 E14.83785
G1 X80.862 Y97.443 E14.98152
G1 X80.439 Y97.275 F7800.000
G1 E12.98152 F2400.00000
G92 E0
G1 X79.117 Y98.427 F7800.000
G1 E2.00000 F2400.00000
G1 F1800.000
G1 X79.756 Y97.788 E2.03010
G1 X80.204 Y96.962 E2.06137
G1 X78.739 Y98.427 E2.13034
G1 X78.362 Y98.427 E2.14291
G1 E0.14291 F2400.00000
G92 E0
G1 X67.554 Y95.263 F7800.000
G1 E2.00000 F2400.00000
G1 F1800.000
G1 X78.954 Y83.863 E2.53689
G1 X78.576 Y83.863 E2.54946
G1 X68.168 Y94.272 E3.03965
G1 X68.658 Y93.480 E3.07065
G1 X68.675 Y93.386 E3.07382
G1 X78.199 Y83.863 E3.52232
G1 X77.821 Y83.863 E3.53490
G1 X68.762 Y92.922 E3.96153
G1 X68.849 Y92.458 E3.97726
G1 X77.444 Y83.863 E4.38202
G1 X77.066 Y83.863 E4.39459
G1 X68.936 Y91.993 E4.77748
G1 X69.023 Y91.529 E4.79321
G1 X76.688 Y83.863 E5.15423
G1 X76.311 Y83.863 E5.16680
G1 X69.052 Y91.122 E5.50867
G1 X68.992 Y90.804 E5.51945
G1 X75.933 Y83.863 E5.84634
G1 X75.556 Y83.863 E5.85891
G1 X68.933 Y90.486 E6.17082
G1 X68.873 Y90.168 E6.18159
G1 X75.178 Y83.863 E6.47852
G1 X74.800 Y83.863 E6.49109
G1 X68.814 Y89.850 E6.77303
G1 X68.754 Y89.532 E6.78381
G1 X74.423 Y83.863 E7.05077
G1 X74.045 Y83.863 E7.06334
G1 X68.695 Y89.214 E7.31532
G1 X68.658 Y89.016 E7.32200
G1 X68.603 Y88.928 E7.32547
G1 X73.668 Y83.863 E7.56398
G1 X73.290 Y83.863 E7.57656
G1 X68.459 Y88.695 E7.80409
G1 X68.314 Y88.461 E7.81322
G1 X72.912 Y83.863 E8.02977
G1 X72.535 Y83.863 E8.04234
G1 X68.170 Y88.228 E8.24791
G1 X68.026 Y87.995 E8.25704
G1 X72.157 Y83.863 E8.45162
G1 X71.780 Y83.863 E8.46420
G1 X67.881 Y87.762 E8.64780
G1 X67.737 Y87.529 E8.65693
G1 X71.402 Y83.863 E8.82955
G1 X71.024 Y83.863 E8.84212
G1 X67.592 Y87.295 E9.00376
G1 X67.441 Y87.069 E9.01282
G1 X70.647 Y83.863 E9.16381
G1 X70.269 Y83.863 E9.17639
G1 X67.226 Y86.907 E9.31972
G1 X67.011 Y86.744 E9.32870
G1 X69.892 Y83.863 E9.46439
G1 X69.514 Y83.863 E9.47696
G1 X66.795 Y86.582 E9.60500
G1 X66.580 Y86.419 E9.61398
G1 X69.136 Y83.863 E9.73437
G1 X68.759 Y83.863 E9.74694
G1 X66.365 Y86.257 E9.85967
G1 X66.150 Y86.095 E9.86865
G1 X68.381 Y83.863 E9.97374
G1 X68.004 Y83.863 E9.98631
G1 X65.935 Y85.932 E10.08374
G1 X65.720 Y85.770 E10.09272
G1 X67.626 Y83.863 E10.18250
G1 X67.248 Y83.863 E10.19508
G1 X65.451 Y85.661 E10.27973
G1 X65.157 Y85.577 E10.28991
G1 X66.871 Y83.863 E10.37062
G1 X66.493 Y83.863 E10.38319
G1 X64.863 Y85.493 E10.45997
G1 X64.569 Y85.410 E10.47015
G1 X66.116 Y83.863 E10.54298
G1 X65.738 Y83.863 E10.55555
G1 X64.275 Y85.326 E10.62445
G1 X63.981 Y85.243 E10.63463
G1 X65.361 Y83.863 E10.69958
G1 X64.983 Y83.863 E10.71216
G1 X63.687 Y85.159 E10.77317
G1 X63.467 Y85.096 E10.78081
G1 X63.363 Y85.106 E10.78429
G1 X64.605 Y83.863 E10.84280
G1 X64.228 Y83.863 E10.85538
G1 X62.947 Y85.144 E10.91571
G1 X62.531 Y85.183 E10.92962
G1 X63.850 Y83.863 E10.99177
G1 X63.473 Y83.863 E11.00435
G1 X62.114 Y85.221 E11.06831
G1 X61.698 Y85.260 E11.08223
G1 X63.095 Y83.863 E11.14801
G1 X62.717 Y83.863 E11.16058
G1 X61.282 Y85.299 E11.22817
G1 X61.206 Y85.306 E11.23072
G1 X60.592 Y85.612 E11.25358
G1 X62.340 Y83.863 E11.33591
G1 X62.232 Y83.863 E11.33951
G1 X61.874 Y83.951 E11.35178
G1 X59.839 Y85.986 E11.44760
G1 X59.173 Y86.318 E11.47238
G1 X57.644 Y87.996 E11.54800
G1 X57.526 Y88.299 E11.55884
G1 E9.55884 F2400.00000
G92 E0
G1 X57.693 Y86.245 F7800.000
G1 E2.00000 F2400.00000
G1 F1800.000
G1 X57.484 Y86.454 E2.00984
G1 X56.642 Y87.673 E2.05916
G1 X59.477 Y84.838 E2.19267
G1 X60.272 Y84.421 E2.22256
G1 X56.304 Y88.389 E2.40944
G1 X56.073 Y88.997 E2.43111
G1 X60.872 Y84.198 E2.65710
G1 X61.373 Y84.075 E2.67429
G1 X55.868 Y89.580 E2.93353
G1 X55.816 Y90.009 E2.94795
G1 X57.733 Y88.093 E3.03821
G1 X57.494 Y88.709 E3.06023
G1 X55.764 Y90.439 E3.14170
G1 X55.712 Y90.869 E3.15612
G1 X57.255 Y89.326 E3.22880
G1 X57.030 Y89.928 E3.25022
G1 X55.670 Y91.288 E3.31425
G1 X55.711 Y91.625 E3.32554
G1 X57.030 Y90.306 E3.38765
G1 X57.030 Y90.683 E3.40022
G1 X55.752 Y91.961 E3.46040
G1 X55.793 Y92.298 E3.47169
G1 X57.030 Y91.061 E3.52995
G1 X57.030 Y91.439 E3.54252
G1 X55.834 Y92.635 E3.59885
G1 X55.875 Y92.971 E3.61014
G1 X57.030 Y91.816 E3.66454
G1 X57.035 Y92.189 E3.67696
G1 X55.977 Y93.247 E3.72676
G1 X56.081 Y93.520 E3.73651
G1 X57.140 Y92.461 E3.78638
G1 X57.246 Y92.733 E3.79610
G1 X56.185 Y93.794 E3.84605
G1 X56.289 Y94.068 E3.85581
G1 X57.351 Y93.006 E3.90583
G1 X57.456 Y93.278 E3.91555
G1 X56.393 Y94.342 E3.96565
G1 X56.498 Y94.614 E3.97538
G1 X57.562 Y93.550 E4.02550
G1 X57.667 Y93.822 E4.03522
G1 X56.652 Y94.838 E4.08305
G1 X56.806 Y95.061 E4.09209
G1 X57.773 Y94.094 E4.13761
G1 X57.850 Y94.294 E4.14476
G1 X57.898 Y94.347 E4.14712
G1 X56.960 Y95.284 E4.19128
G1 X57.114 Y95.508 E4.20032
G1 X58.078 Y94.544 E4.24571
G1 X58.258 Y94.742 E4.25461
G1 X57.269 Y95.731 E4.30121
G1 X57.423 Y95.955 E4.31025
G1 X58.438 Y94.939 E4.35807
G1 X58.618 Y95.137 E4.36697
G1 X57.605 Y96.150 E4.41470
G1 X57.805 Y96.328 E4.42361
G1 X58.798 Y95.334 E4.47039
G1 X58.978 Y95.532 E4.47929
G1 X58.005 Y96.505 E4.52513
G1 X58.205 Y96.682 E4.53404
G1 X59.158 Y95.729 E4.57892
G1 X59.339 Y95.927 E4.58782
G1 X58.406 Y96.860 E4.63176
G1 X58.606 Y97.037 E4.64067
G1 X59.574 Y96.069 E4.68627
G1 X59.826 Y96.194 E4.69564
G1 X58.810 Y97.210 E4.74349
G1 X59.058 Y97.340 E4.75281
G1 X60.078 Y96.320 E4.80087
G1 X60.330 Y96.445 E4.81025
G1 X59.305 Y97.470 E4.85852
G1 X59.553 Y97.600 E4.86783
G1 X60.582 Y96.571 E4.91631
G1 X60.834 Y96.696 E4.92569
G1 X59.801 Y97.730 E4.97437
G1 X60.048 Y97.860 E4.98369
G1 X61.086 Y96.822 E5.03259
G1 X61.339 Y96.947 E5.04196
G1 X60.296 Y97.990 E5.09107
G1 X60.591 Y98.073 E5.10127
G1 X61.657 Y97.007 E5.15148
G1 X62.002 Y97.039 E5.16303
G1 X60.894 Y98.148 E5.21525
G1 X61.196 Y98.222 E5.22564
G1 X62.348 Y97.071 E5.27987
G1 X62.693 Y97.103 E5.29143
G1 X61.499 Y98.297 E5.34766
G1 X61.802 Y98.372 E5.35805
G1 X63.039 Y97.135 E5.41630
G1 X63.385 Y97.167 E5.42785
G1 X62.125 Y98.427 E5.48718
G1 X62.503 Y98.427 E5.49975
G1 X63.760 Y97.169 E5.55897
G1 X64.288 Y97.019 E5.57725
G1 X62.880 Y98.427 E5.64354
G1 X63.258 Y98.427 E5.65612
G1 X64.816 Y96.869 E5.72949
G1 X65.343 Y96.719 E5.74776
G1 X63.635 Y98.427 E5.82820
G1 X64.013 Y98.427 E5.84077
G1 X65.898 Y96.542 E5.92954
G1 X67.440 Y95.377 E5.99389
G1 X64.391 Y98.427 E6.13751
G1 X64.768 Y98.427 E6.15008
G1 X79.331 Y83.863 E6.83595
G1 X79.709 Y83.863 E6.84852
G1 X65.146 Y98.427 E7.53439
G1 X65.523 Y98.427 E7.54697
G1 X80.087 Y83.863 E8.23284
G1 X80.464 Y83.863 E8.24541
G1 X65.901 Y98.427 E8.93128
G1 X66.279 Y98.427 E8.94385
G1 X80.842 Y83.863 E9.62972
G1 X81.219 Y83.863 E9.64230
G1 X66.656 Y98.427 E10.32817
G1 X67.034 Y98.427 E10.34074
G1 X81.597 Y83.863 E11.02661
G1 X81.975 Y83.863 E11.03918
G1 X67.411 Y98.427 E11.72505
G1 X67.789 Y98.427 E11.73763
G1 X82.352 Y83.863 E12.42350
G1 X82.730 Y83.863 E12.43607
G1 X68.166 Y98.427 E13.12194
G1 X68.544 Y98.427 E13.13451
G1 X83.107 Y83.863 E13.82038
G1 X83.485 Y83.863 E13.83296
G1 X68.922 Y98.427 E14.51883
G1 X69.299 Y98.427 E14.53140
G1 X83.863 Y83.863 E15.21727
G1 X84.240 Y83.863 E15.22984
G1 X69.677 Y98.427 E15.91571
G1 X70.054 Y98.427 E15.92829
G1 X84.618 Y83.863 E16.61416
G1 X84.995 Y83.863 E16.62673
G1 X70.432 Y98.427 E17.31260
G1 X70.810 Y98.427 E17.32517
G1 X85.373 Y83.863 E18.01104
G1 X85.751 Y83.863 E18.02362
G1 X71.187 Y98.427 E18.70949
G1 X71.565 Y98.427 E18.72206
G1 X86.128 Y83.863 E19.40793
G1 X86.506 Y83.863 E19.42050
G1 X71.942 Y98.427 E20.10637
G1 X72.320 Y98.427 E20.11895
G1 X86.883 Y83.863 E20.80482
G1 X87.261 Y83.863 E20.81739
G1 X72.698 Y98.427 E21.50326
G1 X73.075 Y98.427 E21.51583
G1 X87.639 Y83.863 E22.20170
G1 X88.016 Y83.863 E22.21428
G1 X73.453 Y98.427 E22.90015
G1 X73.830 Y98.427 E22.91272
G1 X88.394 Y83.863 E23.59859
G1 X88.771 Y83.863 E23.61116
G1 X74.208 Y98.427 E24.29703
G1 X74.586 Y98.427 E24.30961
G1 X89.149 Y83.863 E24.99548
G1 X89.527 Y83.863 E25.00805
G1 X74.963 Y98.427 E25.69392
G1 X75.341 Y98.427 E25.70649
G1 X89.904 Y83.863 E26.39236
G1 X90.282 Y83.863 E26.40494
G1 X75.718 Y98.427 E27.09081
G1 X76.096 Y98.427 E27.10338
G1 X90.659 Y83.863 E27.78925
G1 X91.037 Y83.863 E27.80182
G1 X76.474 Y98.427 E28.48769
G1 X76.851 Y98.427 E28.50027
G1 X91.414 Y83.863 E29.18613
G1 X91.792 Y83.863 E29.19871
G1 X77.229 Y98.427 E29.88458
G1 X77.606 Y98.427 E29.89715
G1 X92.170 Y83.863 E30.58302
G1 X92.547 Y83.863 E30.59560
G1 X77.984 Y98.427 E31.28146
G1 X78.362 Y98.427 E31.29404
G1 X92.925 Y83.863 E31.97991
G1 X93.302 Y83.863 E31.99248
G1 X80.416 Y96.750 E32.59938
G1 X80.794 Y96.750 E32.61196
G1 X93.680 Y83.863 E33.21885
G1 X94.058 Y83.863 E33.23143
G1 X81.171 Y96.750 E33.83833
G1 X81.549 Y96.750 E33.85090
G1 X94.435 Y83.863 E34.45780
G1 X94.813 Y83.863 E34.47037
G1 X81.926 Y96.750 E35.07727
G1 X82.304 Y96.750 E35.08985
G1 X95.190 Y83.863 E35.69675
G1 X95.568 Y83.863 E35.70932
G1 X82.681 Y96.750 E36.31622
G1 X83.059 Y96.750 E36.32879
G1 X95.946 Y83.863 E36.93569
G1 X96.323 Y83.863 E36.94827
G1 X83.437 Y96.750 E37.55517
G1 X83.814 Y96.750 E37.56774
G1 X96.701 Y83.863 E38.17464
G1 X97.078 Y83.863 E38.18721
G1 X84.192 Y96.750 E38.79411
G1 X84.569 Y96.750 E38.80669
G1 X97.456 Y83.863 E39.41358
G1 X97.834 Y83.863 E39.42616
G1 X84.947 Y96.750 E40.03306
G1 X85.325 Y96.750 E40.04563
G1 X98.211 Y83.863 E40.65253
G1 X98.589 Y83.863 E40.66511
G1 X85.616 Y96.836 E41.27607
G1 X85.749 Y97.081 E41.28534
G1 X98.966 Y83.863 E41.90783
G1 X99.344 Y83.863 E41.92041
G1 X85.882 Y97.326 E42.55443
G1 X86.014 Y97.570 E42.56370
