; generated by Slic3r 1.3.1-dev (Build adea0d9) on 2020-02-19 at 18:02:18

; external perimeters extrusion width = 0.44mm (2.86mm^3/s)
; perimeters extrusion width = 0.56mm (4.14mm^3/s)
; infill extrusion width = 0.50mm (3.66mm^3/s)
; solid infill extrusion width = 0.56mm (3.10mm^3/s)
; top infill extrusion width = 0.56mm (3.10mm^3/s)

M107
G92 E0
;D3D:START:START
T0
M104 S215 T0

G21
G90
M107
T0
G28
G29
M109 T0 S215 T0
G0 F3000
M107
T0
G92 E0
G0 X0 Y149 Z0.1 F3600
G1 Y49 E6.5 F1200
G0 Z1
G92 E0
; Filament gcode

G21 ; set units to millimeters
G90 ; use absolute coordinates
M82 ; use absolute distances for extrusion
G92 E0
G1 Z0.300 F7800.000
G1 E-2.00000 F2400.00000
G92 E0
G1 X53.218 Y80.092 F7800.000
G1 E2.00000 F2400.00000
G1 F1800.000
G1 X54.782 Y80.092 E2.05184
G1 X56.048 Y81.012 E2.10369
G1 X56.532 Y82.500 E2.15553
G1 X56.048 Y83.988 E2.20738
G1 X54.782 Y84.908 E2.25922
G1 X53.218 Y84.908 E2.31106
G1 X51.952 Y83.988 E2.36291
G1 X51.468 Y82.500 E2.41475
G1 X51.952 Y81.012 E2.46660
G1 X53.169 Y80.127 E2.51645
G1 X53.304 Y80.357 F7800.000
G1 F1800.000
G1 X54.696 Y80.357 E2.56258
G1 X55.822 Y81.176 E2.60870
G1 X56.253 Y82.500 E2.65483
G1 X55.822 Y83.824 E2.70096
G1 X54.696 Y84.643 E2.74708
G1 X53.304 Y84.643 E2.79321
G1 X52.177 Y83.824 E2.83933
G1 X51.747 Y82.500 E2.88546
G1 X52.177 Y81.176 E2.93158
G1 X53.255 Y80.393 E2.97572
G1 X53.390 Y80.623 F7800.000
G1 F1800.000
G1 X54.610 Y80.623 E3.01613
G1 X55.597 Y81.340 E3.05654
G1 X55.973 Y82.500 E3.09694
G1 X55.597 Y83.660 E3.13735
G1 X54.610 Y84.377 E3.17776
G1 X53.390 Y84.377 E3.21816
G1 X52.403 Y83.660 E3.25857
G1 X52.027 Y82.500 E3.29898
G1 X52.403 Y81.340 E3.33939
G1 X53.342 Y80.658 E3.37781
G1 E1.37781 F2400.00000
G92 E0
G1 X58.371 Y67.887 F7800.000
G1 E2.00000 F2400.00000
G1 F1800.000
G1 X58.091 Y67.776 E2.00998
G1 X57.853 Y67.587 E2.02006
G1 X57.681 Y67.344 E2.02993
G1 X57.571 Y67.040 E2.04064
G1 X57.571 Y66.562 E2.05645
G1 X57.681 Y66.254 E2.06728
G1 X57.858 Y66.008 E2.07735
G1 X58.100 Y65.822 E2.08745
G1 X58.412 Y65.702 E2.09851
G1 X58.896 Y65.702 E2.11454
G1 X59.206 Y65.818 E2.12552
G1 X59.450 Y66.000 E2.13559
G1 X59.633 Y66.245 E2.14573
G1 X59.748 Y66.558 E2.15679
G1 X59.748 Y67.044 E2.17289
G1 X59.633 Y67.353 E2.18381
G1 X59.456 Y67.595 E2.19375
G1 X59.215 Y67.780 E2.20381
G1 X58.936 Y67.888 E2.21371
G1 X58.653 Y67.919 E2.22316
G1 X58.431 Y67.894 E2.23057
G1 X58.436 Y67.627 F7800.000
G1 F1800.000
G1 X58.226 Y67.544 E2.23806
G1 X58.048 Y67.402 E2.24559
G1 X57.918 Y67.220 E2.25301
G1 X57.837 Y66.993 E2.26098
G1 X57.837 Y66.608 E2.27374
G1 X57.918 Y66.379 E2.28181
G1 X58.051 Y66.194 E2.28933
G1 X58.231 Y66.056 E2.29685
G1 X58.461 Y65.968 E2.30500
G1 X58.848 Y65.968 E2.31782
G1 X59.078 Y66.054 E2.32596
G1 X59.260 Y66.190 E2.33349
G1 X59.397 Y66.373 E2.34107
G1 X59.483 Y66.605 E2.34928
G1 X59.483 Y66.996 E2.36223
G1 X59.397 Y67.225 E2.37033
G1 X59.264 Y67.407 E2.37781
G1 X59.084 Y67.546 E2.38535
G1 X58.873 Y67.627 E2.39282
G1 X58.653 Y67.652 E2.40015
G1 X58.496 Y67.634 E2.40540
G1 X58.810 Y67.367 F7800.000
G1 F1800.000
G1 X58.653 Y67.384 E2.41061
G1 X58.501 Y67.367 E2.41570
G1 X58.360 Y67.311 E2.42071
G1 X58.243 Y67.218 E2.42569
G1 X58.156 Y67.096 E2.43065
G1 X58.103 Y66.947 E2.43588
G1 X58.103 Y66.654 E2.44560
G1 X58.156 Y66.503 E2.45090
G1 X58.244 Y66.381 E2.45588
G1 X58.362 Y66.290 E2.46083
G1 X58.510 Y66.234 E2.46607
G1 X58.800 Y66.234 E2.47567
G1 X58.950 Y66.289 E2.48096
G1 X59.070 Y66.379 E2.48596
G1 X59.161 Y66.501 E2.49099
G1 X59.217 Y66.653 E2.49634
G1 X59.217 Y66.948 E2.50613
G1 X59.161 Y67.098 E2.51143
G1 X59.072 Y67.220 E2.51643
G1 X58.952 Y67.312 E2.52146
G1 X58.866 Y67.346 E2.52452
G1 E0.52452 F2400.00000
G92 E0
G1 X60.841 Y66.251 F7800.000
G1 E2.00000 F2400.00000
G1 F1800.000
G1 X60.841 Y64.346 E2.06309
G1 X64.724 Y64.346 E2.19172
G1 X64.724 Y65.449 E2.22827
G1 X63.927 Y66.657 E2.27619
G1 X64.157 Y66.806 E2.28527
G1 X64.509 Y67.158 E2.30177
G1 X64.753 Y67.598 E2.31842
G1 X64.850 Y67.898 E2.32888
G1 X64.908 Y68.409 E2.34592
G1 X64.887 Y68.756 E2.35743
G1 X64.822 Y69.074 E2.36819
G1 X64.713 Y69.373 E2.37872
G1 X64.567 Y69.642 E2.38887
G1 X64.387 Y69.884 E2.39886
G1 X64.174 Y70.097 E2.40882
G1 X63.937 Y70.274 E2.41864
G1 X63.680 Y70.418 E2.42839
G1 X63.388 Y70.535 E2.43881
G1 X62.838 Y70.654 E2.45747
G1 X62.294 Y70.661 E2.47550
G1 X61.825 Y70.602 E2.49115
G1 X60.674 Y70.258 E2.53094
G1 X61.218 Y68.330 E2.59732
G1 X61.350 Y68.383 E2.60203
G1 X61.350 Y67.151 E2.64287
G1 X61.929 Y66.251 E2.67833
G1 X60.901 Y66.251 E2.71239
G1 X61.107 Y65.985 F7800.000
G1 F1800.000
G1 X61.107 Y64.612 E2.75788
G1 X64.458 Y64.612 E2.86891
G1 X64.458 Y65.370 E2.89402
G1 X63.529 Y66.779 E2.94994
G1 X63.777 Y66.876 E2.95877
G1 X63.989 Y67.013 E2.96715
G1 X64.295 Y67.320 E2.98149
G1 X64.508 Y67.704 E2.99606
G1 X64.589 Y67.954 E3.00477
G1 X64.642 Y68.416 E3.02017
G1 X64.623 Y68.721 E3.03029
G1 X64.566 Y69.002 E3.03977
G1 X64.470 Y69.263 E3.04900
G1 X64.342 Y69.499 E3.05789
G1 X64.185 Y69.710 E3.06661
G1 X64.000 Y69.896 E3.07528
G1 X63.792 Y70.051 E3.08388
G1 X63.565 Y70.178 E3.09249
G1 X63.310 Y70.280 E3.10160
G1 X62.808 Y70.389 E3.11863
G1 X62.309 Y70.395 E3.13517
G1 X61.880 Y70.341 E3.14948
G1 X61.001 Y70.079 E3.17988
G1 X61.393 Y68.687 E3.22778
G1 X62.049 Y68.952 E3.25121
G1 X62.276 Y69.007 E3.25895
G1 X62.544 Y69.026 E3.26785
G1 X62.762 Y69.005 E3.27508
G1 X62.985 Y68.923 E3.28297
G1 X63.100 Y68.823 E3.28802
G1 X63.173 Y68.712 E3.29242
G1 X63.219 Y68.517 E3.29905
G1 X63.199 Y68.339 E3.30500
G1 X63.155 Y68.237 E3.30866
G1 X63.090 Y68.166 E3.31186
G1 X62.977 Y68.102 E3.31616
G1 X62.802 Y68.053 E3.32217
G1 X62.546 Y68.033 E3.33071
G1 X61.616 Y68.033 E3.36151
G1 X61.616 Y67.229 E3.38815
G1 X62.416 Y65.985 E3.43715
G1 X61.167 Y65.985 E3.47854
G1 X61.372 Y65.719 F7800.000
G1 F1800.000
G1 X61.372 Y64.877 E3.50643
G1 X64.192 Y64.877 E3.59986
G1 X64.192 Y65.290 E3.61352
G1 X63.105 Y66.939 E3.67897
G1 X63.311 Y66.979 E3.68593
G1 X63.655 Y67.113 E3.69816
G1 X63.821 Y67.221 E3.70472
G1 X64.081 Y67.481 E3.71690
G1 X64.264 Y67.810 E3.72937
G1 X64.328 Y68.011 E3.73634
G1 X64.375 Y68.423 E3.75009
G1 X64.359 Y68.686 E3.75884
G1 X64.310 Y68.929 E3.76704
G1 X64.227 Y69.153 E3.77496
G1 X64.117 Y69.356 E3.78259
G1 X63.984 Y69.536 E3.79004
G1 X63.826 Y69.694 E3.79743
G1 X63.647 Y69.828 E3.80481
G1 X63.451 Y69.938 E3.81228
G1 X63.232 Y70.026 E3.82008
G1 X62.778 Y70.124 E3.83548
G1 X62.324 Y70.130 E3.85052
G1 X61.935 Y70.080 E3.86350
G1 X61.328 Y69.899 E3.88451
G1 X61.569 Y69.044 E3.91392
G1 X61.968 Y69.206 E3.92819
G1 X62.235 Y69.270 E3.93730
G1 X62.548 Y69.293 E3.94767
G1 X62.816 Y69.267 E3.95661
G1 X63.051 Y69.190 E3.96480
G1 X63.139 Y69.142 E3.96811
G1 X63.303 Y68.999 E3.97531
G1 X63.416 Y68.824 E3.98222
G1 X63.479 Y68.614 E3.98949
G1 X63.486 Y68.511 E3.99291
G1 X63.458 Y68.270 E4.00094
G1 X63.382 Y68.091 E4.00739
G1 X63.258 Y67.956 E4.01348
G1 X63.080 Y67.855 E4.02024
G1 X62.849 Y67.790 E4.02819
G1 X62.556 Y67.767 E4.03793
G1 X61.881 Y67.767 E4.06027
G1 X61.881 Y67.307 E4.07553
G1 X62.903 Y65.719 E4.13807
G1 X61.432 Y65.719 E4.18678
G1 E2.18678 F2400.00000
G92 E0
G1 X56.308 Y64.218 F7800.000
G1 E2.00000 F2400.00000
G1 F1800.000
G1 X57.965 Y68.677 E2.15760
G1 X58.086 Y68.582 E2.16270
G1 X58.355 Y68.471 E2.17235
G1 X58.652 Y68.438 E2.18226
G1 X58.931 Y68.467 E2.19154
G1 X59.206 Y68.570 E2.20126
G1 X59.450 Y68.752 E2.21134
G1 X59.633 Y68.997 E2.22149
G1 X59.748 Y69.310 E2.23254
G1 X59.748 Y69.796 E2.24863
G1 X59.633 Y70.105 E2.25956
G1 X59.456 Y70.346 E2.26949
G1 X59.215 Y70.532 E2.27955
G1 X58.936 Y70.640 E2.28947
G1 X58.652 Y70.671 E2.29892
G1 X58.370 Y70.639 E2.30833
G1 X58.278 Y70.602 E2.31161
G1 X56.589 Y70.602 E2.36758
G1 X56.087 Y69.258 E2.41512
G1 X55.258 Y69.258 E2.44258
G1 X54.770 Y70.602 E2.48995
G1 X52.710 Y70.602 E2.55820
G1 X52.793 Y70.378 E2.56611
G1 X52.343 Y70.576 E2.58238
G1 X51.585 Y70.669 E2.60769
G1 X51.148 Y70.642 E2.62220
G1 X50.750 Y70.561 E2.63564
G1 X50.341 Y70.405 E2.65015
G1 X50.415 Y70.602 E2.65713
G1 X48.323 Y70.602 E2.72643
G1 X47.821 Y69.258 E2.77396
G1 X46.992 Y69.258 E2.80142
G1 X46.504 Y70.602 E2.84879
G1 X44.444 Y70.602 E2.91704
G1 X46.808 Y64.218 E3.14258
G1 X48.042 Y64.218 E3.18348
G1 X48.867 Y66.437 E3.26190
G1 X48.983 Y66.432 E3.26574
G1 X49.158 Y65.796 E3.28760
G1 X49.542 Y65.128 E3.31311
G1 X50.097 Y64.615 E3.33817
G1 X50.788 Y64.308 E3.36320
G1 X51.543 Y64.215 E3.38840
G1 X51.984 Y64.243 E3.40304
G1 X52.384 Y64.324 E3.41658
G1 X52.757 Y64.465 E3.42979
G1 X53.092 Y64.660 E3.44262
G1 X53.388 Y64.903 E3.45532
G1 X53.640 Y65.190 E3.46795
G1 X53.844 Y65.511 E3.48056
G1 X54.005 Y65.859 E3.49326
G1 X54.152 Y66.375 E3.51102
G1 X54.271 Y66.384 E3.51500
G1 X55.073 Y64.218 E3.59151
G1 X56.248 Y64.218 E3.63042
G1 X56.123 Y64.484 F7800.000
G1 F1800.000
G1 X57.873 Y69.193 E3.79687
G1 X58.050 Y68.948 E3.80689
G1 X58.221 Y68.814 E3.81410
G1 X58.422 Y68.730 E3.82129
G1 X58.653 Y68.705 E3.82899
G1 X58.870 Y68.728 E3.83621
G1 X59.078 Y68.805 E3.84357
G1 X59.260 Y68.941 E3.85111
G1 X59.397 Y69.125 E3.85870
G1 X59.483 Y69.357 E3.86690
G1 X59.483 Y69.748 E3.87984
G1 X59.397 Y69.977 E3.88796
G1 X59.264 Y70.159 E3.89542
G1 X59.084 Y70.298 E3.90296
G1 X58.873 Y70.380 E3.91045
G1 X58.653 Y70.403 E3.91778
G1 X58.435 Y70.379 E3.92504
G1 X58.329 Y70.337 E3.92882
G1 X56.773 Y70.337 E3.98037
G1 X56.271 Y68.993 E4.02790
G1 X55.072 Y68.993 E4.06764
G1 X54.584 Y70.337 E4.11501
G1 X53.091 Y70.337 E4.16445
G1 X53.266 Y69.866 E4.18109
G1 X53.161 Y69.796 E4.18525
G1 X52.889 Y70.045 E4.19748
G1 X52.272 Y70.317 E4.21983
G1 X51.577 Y70.402 E4.24303
G1 X51.183 Y70.378 E4.25611
G1 X50.825 Y70.305 E4.26822
G1 X50.494 Y70.179 E4.27994
G1 X50.198 Y70.005 E4.29131
G1 X49.963 Y69.810 E4.30143
G1 X49.863 Y69.881 E4.30548
G1 X50.033 Y70.337 E4.32160
G1 X48.507 Y70.337 E4.37213
G1 X48.005 Y68.993 E4.41966
G1 X46.806 Y68.993 E4.45939
G1 X46.318 Y70.337 E4.50676
G1 X44.826 Y70.337 E4.55621
G1 X46.992 Y64.484 E4.76298
G1 X47.858 Y64.484 E4.79164
G1 X49.017 Y67.603 E4.90190
G1 X49.150 Y67.577 E4.90640
G1 X49.145 Y67.434 E4.91116
G1 X49.207 Y66.617 E4.93830
G1 X49.405 Y65.899 E4.96297
G1 X49.752 Y65.296 E4.98602
G1 X50.245 Y64.840 E5.00827
G1 X50.859 Y64.567 E5.03054
G1 X51.551 Y64.482 E5.05362
G1 X51.949 Y64.507 E5.06683
G1 X52.310 Y64.580 E5.07905
G1 X52.643 Y64.706 E5.09083
G1 X52.940 Y64.879 E5.10223
G1 X53.203 Y65.094 E5.11348
G1 X53.426 Y65.350 E5.12473
G1 X53.611 Y65.638 E5.13607
G1 X53.756 Y65.955 E5.14762
G1 X53.864 Y66.297 E5.15949
G1 X53.939 Y66.659 E5.17173
G1 X53.983 Y67.040 E5.18445
G1 X54.000 Y67.513 E5.20013
G1 X54.129 Y67.534 E5.20447
G1 X55.258 Y64.484 E5.31222
G1 X56.063 Y64.484 E5.33890
G1 E3.33890 F2400.00000
G92 E0
G1 X58.489 Y68.990 F7800.000
G1 E2.00000 F2400.00000
G1 F1800.000
G1 X58.653 Y68.972 E2.00549
G1 X58.808 Y68.989 E2.01066
G1 X58.950 Y69.041 E2.01565
G1 X59.070 Y69.131 E2.02064
G1 X59.161 Y69.253 E2.02568
G1 X59.217 Y69.405 E2.03103
G1 X59.217 Y69.700 E2.04082
G1 X59.161 Y69.850 E2.04612
G1 X59.072 Y69.972 E2.05112
G1 X58.952 Y70.064 E2.05614
G1 X58.810 Y70.119 E2.06119
G1 X58.653 Y70.136 E2.06640
G1 X58.500 Y70.119 E2.07151
G1 X58.360 Y70.063 E2.07650
G1 X58.243 Y69.970 E2.08148
G1 X58.156 Y69.848 E2.08644
G1 X58.103 Y69.699 E2.09167
G1 X58.103 Y69.406 E2.10139
G1 X58.156 Y69.255 E2.10668
G1 X58.243 Y69.134 E2.11164
G1 X58.357 Y69.045 E2.11641
G1 X58.433 Y69.013 E2.11915
G1 X57.916 Y70.071 F7800.000
G1 F1800.000
G1 X56.957 Y70.071 E2.15091
G1 X56.455 Y68.727 E2.19844
G1 X54.885 Y68.727 E2.25045
G1 X54.397 Y70.071 E2.29782
G1 X53.473 Y70.071 E2.32846
G1 X55.443 Y64.749 E2.51646
G1 X55.939 Y64.749 E2.53288
G1 X57.895 Y70.015 E2.71898
G1 E0.71898 F2400.00000
G92 E0
G1 X53.488 Y68.883 F7800.000
G1 E2.00000 F2400.00000
G1 F1800.000
G1 X53.176 Y69.422 E2.02062
G1 X52.742 Y69.820 E2.04014
G1 X52.201 Y70.059 E2.05973
G1 X51.569 Y70.136 E2.08082
G1 X51.218 Y70.114 E2.09248
G1 X50.899 Y70.049 E2.10326
G1 X50.609 Y69.938 E2.11353
G1 X50.351 Y69.787 E2.12345
G1 X50.124 Y69.599 E2.13323
G1 X49.928 Y69.374 E2.14309
G1 X49.764 Y69.118 E2.15316
G1 X49.633 Y68.834 E2.16354
G1 X49.534 Y68.521 E2.17441
G1 X49.465 Y68.184 E2.18581
G1 X49.425 Y67.824 E2.19779
G1 X49.411 Y67.439 E2.21057
G1 X49.470 Y66.662 E2.23637
G1 X49.652 Y66.002 E2.25907
G1 X49.962 Y65.463 E2.27965
G1 X50.393 Y65.065 E2.29911
G1 X50.931 Y64.826 E2.31861
G1 X51.559 Y64.749 E2.33957
G1 X51.914 Y64.771 E2.35136
G1 X52.236 Y64.836 E2.36225
G1 X52.528 Y64.947 E2.37259
G1 X52.788 Y65.098 E2.38256
G1 X53.017 Y65.286 E2.39237
G1 X53.213 Y65.510 E2.40224
G1 X53.377 Y65.766 E2.41231
G1 X53.508 Y66.051 E2.42270
G1 X53.607 Y66.364 E2.43357
G1 X53.676 Y66.701 E2.44496
G1 X53.717 Y67.060 E2.45695
G1 X53.731 Y67.446 E2.46973
G1 X53.672 Y68.222 E2.49554
G1 X53.504 Y68.825 E2.51627
G1 E0.51627 F2400.00000
G92 E0
G1 X49.651 Y70.071 F7800.000
G1 E2.00000 F2400.00000
G1 F1800.000
G1 X48.692 Y70.071 E2.03177
G1 X48.190 Y68.727 E2.07930
G1 X46.620 Y68.727 E2.13131
G1 X46.132 Y70.071 E2.17868
G1 X45.207 Y70.071 E2.20931
G1 X47.177 Y64.749 E2.39732
G1 X47.673 Y64.749 E2.41373
G1 X49.630 Y70.015 E2.59984
G1 E0.59984 F2400.00000
G92 E0
G1 X36.048 Y65.988 F7800.000
G1 E2.00000 F2400.00000
G1 F1800.000
G1 X34.782 Y66.908 E2.05184
G1 X33.218 Y66.908 E2.10369
G1 X31.952 Y65.988 E2.15553
G1 X31.468 Y64.500 E2.20738
G1 X31.952 Y63.012 E2.25922
G1 X33.218 Y62.092 E2.31107
G1 X34.782 Y62.092 E2.36291
G1 X36.048 Y63.012 E2.41475
G1 X36.532 Y64.500 E2.46660
G1 X36.067 Y65.931 E2.51646
G1 X35.823 Y65.824 F7800.000
G1 F1800.000
G1 X34.696 Y66.643 E2.56258
G1 X33.304 Y66.643 E2.60871
G1 X32.177 Y65.824 E2.65483
G1 X31.747 Y64.500 E2.70096
G1 X32.177 Y63.176 E2.74708
G1 X33.304 Y62.357 E2.79321
G1 X34.696 Y62.357 E2.83934
G1 X35.823 Y63.176 E2.88546
G1 X36.253 Y64.500 E2.93159
G1 X35.841 Y65.767 E2.97573
G1 X35.597 Y65.660 F7800.000
G1 F1800.000
G1 X34.610 Y66.377 E3.01613
G1 X33.390 Y66.377 E3.05654
G1 X32.403 Y65.660 E3.09695
G1 X32.027 Y64.500 E3.13736
G1 X32.403 Y63.340 E3.17776
G1 X33.390 Y62.623 E3.21817
G1 X34.610 Y62.623 E3.25858
G1 X35.597 Y63.340 E3.29899
G1 X35.973 Y64.500 E3.33939
G1 X35.615 Y65.603 E3.37781
G1 E1.37781 F2400.00000
G92 E0
G1 X70.927 Y71.826 F7800.000
G1 E2.00000 F2400.00000
G1 F1800.000
G1 X73.472 Y71.826 E2.08433
G1 X73.472 Y76.050 E2.22427
G1 X76.747 Y76.050 E2.33275
G1 X76.747 Y71.826 E2.47269
G1 X79.291 Y71.826 E2.55699
G1 X79.291 Y82.946 E2.92541
G1 X76.747 Y82.946 E3.00970
G1 X76.747 Y78.466 E3.15812
G1 X73.472 Y78.466 E3.26661
G1 X73.472 Y82.946 E3.41503
G1 X70.927 Y82.946 E3.49936
G1 X70.927 Y71.886 E3.86579
G1 X71.192 Y72.091 F7800.000
G1 F1800.000
G1 X73.207 Y72.091 E3.93252
G1 X73.207 Y76.315 E4.07246
G1 X77.012 Y76.315 E4.19854
G1 X77.012 Y72.091 E4.33848
G1 X79.026 Y72.091 E4.40518
G1 X79.026 Y82.681 E4.75599
G1 X77.012 Y82.681 E4.82269
G1 X77.012 Y78.201 E4.97111
G1 X73.207 Y78.201 E5.09719
G1 X73.207 Y82.681 E5.24561
G1 X71.192 Y82.681 E5.31234
G1 X71.192 Y72.151 E5.66117
G1 X71.458 Y72.357 F7800.000
G1 F1800.000
G1 X72.941 Y72.357 E5.71030
G1 X72.941 Y76.581 E5.85024
G1 X77.278 Y76.581 E5.99393
G1 X77.278 Y72.357 E6.13386
G1 X78.760 Y72.357 E6.18296
G1 X78.760 Y82.415 E6.51618
G1 X77.278 Y82.415 E6.56528
G1 X77.278 Y77.935 E6.71370
G1 X72.941 Y77.935 E6.85738
G1 X72.941 Y82.415 E7.00580
G1 X71.458 Y82.415 E7.05493
G1 X71.458 Y72.417 E7.38616
G1 E5.38616 F2400.00000
G92 E0
G1 X73.218 Y66.908 F7800.000
G1 E2.00000 F2400.00000
G1 F1800.000
G1 X71.952 Y65.988 E2.05184
G1 X71.468 Y64.500 E2.10369
G1 X71.952 Y63.012 E2.15553
G1 X73.218 Y62.092 E2.20738
G1 X74.782 Y62.092 E2.25922
G1 X76.048 Y63.012 E2.31107
G1 X76.532 Y64.500 E2.36291
G1 X76.048 Y65.988 E2.41475
G1 X74.782 Y66.908 E2.46660
G1 X73.278 Y66.908 E2.51645
G1 X73.304 Y66.643 F7800.000
G1 F1800.000
G1 X72.177 Y65.824 E2.56258
G1 X71.747 Y64.500 E2.60871
G1 X72.177 Y63.176 E2.65483
G1 X73.304 Y62.357 E2.70096
G1 X74.696 Y62.357 E2.74708
G1 X75.822 Y63.176 E2.79321
G1 X76.253 Y64.500 E2.83933
G1 X75.822 Y65.824 E2.88546
G1 X74.696 Y66.643 E2.93159
G1 X73.364 Y66.643 E2.97572
G1 X73.390 Y66.377 F7800.000
G1 F1800.000
G1 X72.403 Y65.660 E3.01613
G1 X72.027 Y64.500 E3.05654
G1 X72.403 Y63.340 E3.09695
G1 X73.390 Y62.623 E3.13735
