; generated by Slic3r 1.3.1-dev (Build adea0d9) on 2020-02-19 at 18:28:12

; external perimeters extrusion width = 0.44mm (2.86mm^3/s)
; perimeters extrusion width = 0.56mm (4.14mm^3/s)
; infill extrusion width = 0.50mm (3.66mm^3/s)
; solid infill extrusion width = 0.56mm (3.10mm^3/s)
; top infill extrusion width = 0.56mm (3.10mm^3/s)

M107
G92 E0
;D3D:START:START
T0
M104 S215 T0

G21
G90
M107
T0
G28
G29
M109 T0 S215 T0
G0 F3000
M107
T0
G92 E0
G0 X0 Y149 Z0.1 F3600
G1 Y49 E6.5 F1200
G0 Z1
G92 E0
; Filament gcode

G21 ; set units to millimeters
G90 ; use absolute coordinates
M82 ; use absolute distances for extrusion
G92 E0
G1 Z0.300 F7800.000
G1 E-2.00000 F2400.00000
G92 E0
G1 X13.879 Y75.013 F7800.000
G1 E2.00000 F2400.00000
G1 F1800.000
G1 X14.555 Y74.367 E2.03099
G1 X18.296 Y73.265 E2.16019
G1 X24.700 Y72.247 E2.37500
G1 X33.498 Y71.389 E2.66785
G1 X44.453 Y70.731 E3.03146
G1 X57.291 Y70.298 E3.45699
G1 X71.691 Y70.098 E3.93410
G1 X87.297 Y70.125 E4.45115
G1 X103.726 Y70.354 E4.99547
G1 X120.571 Y70.752 E5.55371
G1 X135.479 Y71.218 E6.04783
G1 X135.367 Y71.354 E6.05366
G1 X134.947 Y72.014 E6.07956
G1 X134.615 Y72.722 E6.10546
G1 X134.374 Y73.465 E6.13135
G1 X134.227 Y74.232 E6.15724
G1 X134.178 Y75.013 E6.18315
G1 X134.227 Y75.793 E6.20905
G1 X134.374 Y76.561 E6.23494
G1 X134.615 Y77.304 E6.26083
G1 X134.948 Y78.012 E6.28673
G1 X135.367 Y78.672 E6.31264
G1 X135.479 Y78.807 E6.31846
G1 X120.571 Y79.273 E6.81259
G1 X103.726 Y79.671 E7.37082
G1 X87.297 Y79.901 E7.91514
G1 X71.691 Y79.927 E8.43219
G1 X57.291 Y79.728 E8.90930
G1 X44.453 Y79.294 E9.33483
G1 X33.498 Y78.636 E9.69844
G1 X24.700 Y77.779 E9.99130
G1 X18.296 Y76.760 E10.20611
G1 X14.555 Y75.659 E10.33531
G1 X13.922 Y75.054 E10.36431
G1 X13.494 Y75.013 F7800.000
G1 F1800.000
G1 X14.419 Y74.130 E10.40665
G1 X18.238 Y73.006 E10.53855
G1 X24.666 Y71.983 E10.75419
G1 X33.477 Y71.124 E11.04747
G1 X44.441 Y70.466 E11.41136
G1 X57.284 Y70.032 E11.83710
G1 X71.689 Y69.832 E12.31436
G1 X87.299 Y69.859 E12.83153
G1 X103.731 Y70.089 E13.37595
G1 X120.579 Y70.487 E13.93426
G1 X136.029 Y70.970 E14.44638
G1 X135.582 Y71.510 E14.46962
G1 X135.181 Y72.142 E14.49442
G1 X134.862 Y72.819 E14.51921
G1 X134.631 Y73.531 E14.54400
G1 X134.491 Y74.266 E14.56878
G1 X134.444 Y75.013 E14.59358
G1 X134.491 Y75.760 E14.61837
G1 X134.631 Y76.494 E14.64315
G1 X134.862 Y77.206 E14.66794
G1 X135.181 Y77.883 E14.69273
G1 X135.582 Y78.515 E14.71753
G1 X136.029 Y79.056 E14.74077
G1 X120.579 Y79.539 E15.25289
G1 X103.731 Y79.937 E15.81120
G1 X87.299 Y80.166 E16.35562
G1 X71.689 Y80.193 E16.87279
G1 X57.284 Y79.993 E17.35006
G1 X44.441 Y79.560 E17.77579
G1 X33.477 Y78.901 E18.13968
G1 X24.666 Y78.042 E18.43297
G1 X18.238 Y77.020 E18.64861
G1 X14.419 Y75.895 E18.78051
G1 X13.537 Y75.054 E18.82086
G1 X13.109 Y75.013 F7800.000
G1 F1800.000
G1 X14.282 Y73.894 E18.87455
G1 X18.179 Y72.746 E19.00915
G1 X24.632 Y71.720 E19.22563
G1 X33.456 Y70.860 E19.51934
G1 X44.429 Y70.200 E19.88351
G1 X57.278 Y69.766 E20.30945
G1 X71.687 Y69.567 E20.78687
G1 X87.302 Y69.594 E21.30416
G1 X103.736 Y69.823 E21.84868
G1 X120.586 Y70.221 E22.40707
G1 X136.671 Y70.724 E22.94020
G1 X136.253 Y71.116 E22.95918
G1 X135.797 Y71.667 E22.98286
G1 X135.414 Y72.270 E23.00655
G1 X135.110 Y72.917 E23.03023
G1 X134.889 Y73.597 E23.05391
G1 X134.755 Y74.299 E23.07759
G1 X134.710 Y75.013 E23.10127
G1 X134.755 Y75.726 E23.12496
G1 X134.889 Y76.428 E23.14864
G1 X135.110 Y77.108 E23.17232
G1 X135.414 Y77.755 E23.19600
G1 X135.797 Y78.359 E23.21969
G1 X136.253 Y78.909 E23.24337
G1 X136.671 Y79.301 E23.26235
G1 X120.586 Y79.804 E23.79549
G1 X103.736 Y80.202 E24.35388
G1 X87.302 Y80.432 E24.89839
G1 X71.687 Y80.459 E25.41568
G1 X57.278 Y80.259 E25.89310
G1 X44.429 Y79.825 E26.31904
G1 X33.456 Y79.166 E26.68321
G1 X24.632 Y78.306 E26.97693
G1 X18.179 Y77.279 E27.19340
G1 X14.282 Y76.132 E27.32800
G1 X13.153 Y75.054 E27.37971
G1 X14.378 Y74.899 F7800.000
G1 F1800.000
G1 X14.160 Y75.116 E27.38992
G1 X14.353 Y75.300 E27.39876
G1 X15.302 Y74.351 E27.44335
G1 X15.836 Y74.194 E27.46182
G1 X14.546 Y75.484 E27.52242
G1 X14.589 Y75.525 E27.52440
G1 X14.814 Y75.592 E27.53221
G1 X16.370 Y74.037 E27.60525
G1 X16.903 Y73.880 E27.62372
G1 X15.105 Y75.677 E27.70816
G1 X15.396 Y75.763 E27.71823
G1 X17.437 Y73.722 E27.81407
G1 X17.971 Y73.565 E27.83254
G1 X15.687 Y75.849 E27.93978
G1 X15.978 Y75.934 E27.94985
G1 X18.497 Y73.416 E28.06815
G1 X18.945 Y73.344 E28.08320
G1 X16.269 Y76.020 E28.20886
G1 X16.560 Y76.106 E28.21893
G1 X19.392 Y73.273 E28.35196
G1 X19.840 Y73.202 E28.36702
G1 X16.851 Y76.191 E28.50741
G1 X17.142 Y76.277 E28.51748
G1 X20.288 Y73.131 E28.66524
G1 X20.736 Y73.060 E28.68030
G1 X17.433 Y76.363 E28.83543
G1 X17.723 Y76.448 E28.84550
G1 X21.183 Y72.988 E29.00799
G1 X21.631 Y72.917 E29.02305
G1 X18.014 Y76.534 E29.19291
G1 X18.312 Y76.613 E29.20312
G1 X22.079 Y72.846 E29.38006
G1 X22.527 Y72.775 E29.39512
G1 X18.636 Y76.665 E29.57782
G1 X18.961 Y76.717 E29.58875
G1 X22.974 Y72.703 E29.77722
G1 X23.422 Y72.632 E29.79228
G1 X19.286 Y76.768 E29.98653
G1 X19.611 Y76.820 E29.99746
G1 X23.870 Y72.561 E30.19748
G1 X24.318 Y72.490 E30.21253
G1 X19.936 Y76.872 E30.41833
G1 X20.261 Y76.923 E30.42925
G1 X24.766 Y72.419 E30.64082
G1 X25.188 Y72.373 E30.65491
G1 X20.586 Y76.975 E30.87105
G1 X20.911 Y77.027 E30.88197
G1 X25.605 Y72.332 E31.10244
G1 X26.022 Y72.292 E31.11636
G1 X21.235 Y77.078 E31.34116
G1 X21.560 Y77.130 E31.35209
G1 X26.439 Y72.251 E31.58123
G1 X26.856 Y72.210 E31.59515
G1 X21.885 Y77.182 E31.82863
G1 X22.210 Y77.233 E31.83955
G1 X27.274 Y72.170 E32.07737
G1 X27.691 Y72.129 E32.09129
G1 X22.535 Y77.285 E32.33344
G1 X22.860 Y77.337 E32.34436
G1 X28.108 Y72.088 E32.59085
G1 X28.525 Y72.048 E32.60478
G1 X23.185 Y77.388 E32.85560
G1 X23.509 Y77.440 E32.86653
G1 X28.943 Y72.007 E33.12169
G1 X29.360 Y71.966 E33.13561
G1 X23.834 Y77.492 E33.39511
G1 X24.159 Y77.543 E33.40604
G1 X29.777 Y71.926 E33.66987
G1 X30.194 Y71.885 E33.68379
G1 X24.484 Y77.595 E33.95197
G1 X24.819 Y77.637 E33.96318
G1 X30.611 Y71.844 E34.23522
G1 X31.029 Y71.804 E34.24914
G1 X25.162 Y77.670 E34.52466
G1 X25.505 Y77.704 E34.53611
G1 X31.446 Y71.763 E34.81511
G1 X31.863 Y71.722 E34.82903
G1 X25.848 Y77.737 E35.11151
G1 X26.191 Y77.770 E35.12296
G1 X32.280 Y71.682 E35.40893
G1 X32.698 Y71.641 E35.42285
G1 X26.534 Y77.804 E35.71229
G1 X26.878 Y77.837 E35.72374
G1 X33.115 Y71.600 E36.01667
G1 X33.532 Y71.560 E36.03059
G1 X27.221 Y77.871 E36.32699
G1 X27.564 Y77.904 E36.33844
G1 X33.936 Y71.532 E36.63772
G1 X34.337 Y71.508 E36.65105
G1 X27.907 Y77.938 E36.95302
G1 X28.250 Y77.971 E36.96447
G1 X34.737 Y71.484 E37.26915
G1 X35.138 Y71.460 E37.28248
G1 X28.593 Y78.005 E37.58986
G1 X28.936 Y78.038 E37.60131
G1 X35.539 Y71.436 E37.91139
G1 X35.939 Y71.412 E37.92472
G1 X29.279 Y78.072 E38.23750
G1 X29.622 Y78.105 E38.24895
G1 X36.340 Y71.387 E38.56443
G1 X36.740 Y71.363 E38.57776
G1 X29.965 Y78.138 E38.89594
G1 X30.309 Y78.172 E38.90739
G1 X37.141 Y71.339 E39.22828
G1 X37.542 Y71.315 E39.24160
G1 X30.652 Y78.205 E39.56519
G1 X30.995 Y78.239 E39.57664
G1 X37.942 Y71.291 E39.90293
G1 X38.343 Y71.267 E39.91625
G1 X31.338 Y78.272 E40.24524
G1 X31.681 Y78.306 E40.25669
G1 X38.743 Y71.243 E40.58838
G1 X39.144 Y71.219 E40.60171
G1 X32.024 Y78.339 E40.93610
G1 X32.367 Y78.373 E40.94755
G1 X39.545 Y71.195 E41.28464
G1 X39.945 Y71.171 E41.29797
G1 X32.710 Y78.406 E41.63776
G1 X33.053 Y78.439 E41.64921
G1 X40.346 Y71.147 E41.99171
G1 X40.747 Y71.123 E42.00503
G1 X33.396 Y78.473 E42.35023
G1 X33.751 Y78.495 E42.36203
G1 X41.147 Y71.099 E42.70939
G1 X41.548 Y71.075 E42.72271
G1 X34.106 Y78.516 E43.07221
G1 X34.461 Y78.538 E43.08402
G1 X41.948 Y71.051 E43.43565
G1 X42.349 Y71.026 E43.44898
G1 X34.817 Y78.559 E43.80273
G1 X35.172 Y78.580 E43.81455
G1 X42.750 Y71.002 E44.17044
G1 X43.150 Y70.978 E44.18377
G1 X35.527 Y78.602 E44.54179
G1 X35.882 Y78.623 E44.55361
G1 X43.551 Y70.954 E44.91376
G1 X43.951 Y70.930 E44.92709
G1 X36.237 Y78.644 E45.28938
G1 X36.593 Y78.666 E45.30120
G1 X44.352 Y70.906 E45.66562
G1 X44.748 Y70.887 E45.67877
G1 X36.948 Y78.687 E46.04509
G1 X37.303 Y78.708 E46.05690
G1 X45.137 Y70.874 E46.42484
G1 X45.527 Y70.861 E46.43779
G1 X37.658 Y78.730 E46.80735
G1 X38.013 Y78.751 E46.81917
G1 X45.917 Y70.848 E47.19035
G1 X46.306 Y70.834 E47.20330
G1 X38.369 Y78.772 E47.57609
G1 X38.724 Y78.794 E47.58791
G1 X46.696 Y70.821 E47.96233
G1 X47.086 Y70.808 E47.97528
G1 X39.079 Y78.815 E48.35132
G1 X39.434 Y78.836 E48.36314
G1 X47.476 Y70.795 E48.74080
G1 X47.865 Y70.782 E48.75375
G1 X39.789 Y78.858 E49.13303
G1 X40.145 Y78.879 E49.14484
G1 X48.255 Y70.769 E49.52574
G1 X48.645 Y70.755 E49.53869
G1 X40.500 Y78.900 E49.92121
G1 X40.855 Y78.922 E49.93303
G1 X49.034 Y70.742 E50.31717
G1 X49.424 Y70.729 E50.33012
G1 X41.210 Y78.943 E50.71588
G1 X41.565 Y78.964 E50.72770
G1 X49.814 Y70.716 E51.11508
G1 X50.204 Y70.703 E51.12803
G1 X41.921 Y78.986 E51.51703
G1 X42.276 Y79.007 E51.52885
G1 X50.593 Y70.690 E51.91947
G1 X50.983 Y70.677 E51.93242
G1 X42.631 Y79.028 E52.32466
G1 X42.986 Y79.050 E52.33648
G1 X51.373 Y70.663 E52.73034
G1 X51.762 Y70.650 E52.74329
G1 X43.341 Y79.071 E53.13878
G1 X43.697 Y79.092 E53.15059
G1 X52.152 Y70.637 E53.54770
G1 X52.542 Y70.624 E53.56065
G1 X44.052 Y79.114 E53.95937
G1 X44.408 Y79.134 E53.97122
G1 X52.931 Y70.611 E54.37151
G1 X53.321 Y70.598 E54.38446
G1 X44.772 Y79.146 E54.78595
G1 X45.137 Y79.159 E54.79805
G1 X53.711 Y70.584 E55.20073
G1 X54.101 Y70.571 E55.21368
G1 X45.501 Y79.171 E55.61756
G1 X45.865 Y79.183 E55.62966
G1 X54.490 Y70.558 E56.03474
G1 X54.880 Y70.545 E56.04769
G1 X46.229 Y79.195 E56.45396
G1 X46.594 Y79.208 E56.46606
G1 X55.270 Y70.532 E56.87352
G1 X55.659 Y70.519 E56.88647
G1 X46.958 Y79.220 E57.29513
G1 X47.322 Y79.232 E57.30724
G1 X56.049 Y70.505 E57.71709
G1 X56.439 Y70.492 E57.73004
G1 X47.686 Y79.245 E58.14110
G1 X48.051 Y79.257 E58.15320
G1 X56.829 Y70.479 E58.56545
G1 X57.218 Y70.466 E58.57840
G1 X48.415 Y79.269 E58.99184
G1 X48.779 Y79.282 E59.00394
G1 X57.604 Y70.457 E59.41839
G1 X57.986 Y70.452 E59.43107
G1 X49.143 Y79.294 E59.84634
G1 X49.508 Y79.306 E59.85844
G1 X58.367 Y70.446 E60.27453
G1 X58.749 Y70.441 E60.28722
G1 X49.872 Y79.318 E60.70414
G1 X50.236 Y79.331 E60.71624
G1 X59.131 Y70.436 E61.13399
G1 X59.513 Y70.431 E61.14667
G1 X50.600 Y79.343 E61.56524
G1 X50.965 Y79.355 E61.57735
G1 X59.895 Y70.425 E61.99675
G1 X60.277 Y70.420 E62.00943
G1 X51.329 Y79.368 E62.42965
G1 X51.693 Y79.380 E62.44176
G1 X60.658 Y70.415 E62.86281
G1 X61.040 Y70.409 E62.87549
G1 X52.057 Y79.392 E63.29737
G1 X52.422 Y79.405 E63.30947
G1 X61.422 Y70.404 E63.73217
G1 X61.804 Y70.399 E63.74485
G1 X52.786 Y79.417 E64.16838
G1 X53.150 Y79.429 E64.18049
G1 X62.186 Y70.394 E64.60484
G1 X62.568 Y70.388 E64.61753
G1 X53.514 Y79.441 E65.04271
G1 X53.879 Y79.454 E65.05481
G1 X62.949 Y70.383 E65.48082
G1 X63.331 Y70.378 E65.49350
G1 X54.243 Y79.466 E65.92034
G1 X54.607 Y79.478 E65.93244
G1 X63.713 Y70.372 E66.36010
G1 X64.095 Y70.367 E66.37278
G1 X54.971 Y79.491 E66.80127
G1 X55.336 Y79.503 E66.81337
G1 X64.477 Y70.362 E67.24268
G1 X64.859 Y70.356 E67.25536
G1 X55.700 Y79.515 E67.68550
G1 X56.064 Y79.528 E67.69761
G1 X65.240 Y70.351 E68.12857
G1 X65.622 Y70.346 E68.14125
G1 X56.428 Y79.540 E68.57304
G1 X56.793 Y79.552 E68.58515
G1 X66.004 Y70.341 E69.01776
G1 X66.386 Y70.335 E69.03045
G1 X57.157 Y79.564 E69.46389
G1 X57.527 Y79.570 E69.47620
G1 X66.768 Y70.330 E69.91017
G1 X67.150 Y70.325 E69.92285
G1 X57.899 Y79.575 E70.35731
G1 X58.270 Y79.581 E70.36964
G1 X67.531 Y70.319 E70.80459
G1 X67.913 Y70.314 E70.81727
G1 X58.642 Y79.586 E71.25271
G1 X59.013 Y79.591 E71.26504
G1 X68.295 Y70.309 E71.70097
G1 X68.677 Y70.304 E71.71365
G1 X59.384 Y79.596 E72.15007
G1 X59.756 Y79.601 E72.16240
G1 X69.059 Y70.298 E72.59931
G1 X69.441 Y70.293 E72.61199
G1 X60.127 Y79.606 E73.04939
G1 X60.499 Y79.611 E73.06173
G1 X69.822 Y70.288 E73.49961
G1 X70.204 Y70.282 E73.51230
G1 X60.870 Y79.617 E73.95067
G1 X61.241 Y79.622 E73.96301
G1 X70.586 Y70.277 E74.40188
G1 X70.968 Y70.272 E74.41456
G1 X61.613 Y79.627 E74.85392
G1 X61.984 Y79.632 E74.86625
G1 X71.350 Y70.267 E75.30610
G1 X71.732 Y70.261 E75.31878
G1 X62.356 Y79.637 E75.75912
G1 X62.727 Y79.642 E75.77145
G1 X72.108 Y70.261 E76.21205
G1 X72.484 Y70.262 E76.22453
G1 X63.098 Y79.647 E76.66534
G1 X63.470 Y79.653 E76.67767
G1 X72.860 Y70.262 E77.11869
G1 X73.236 Y70.263 E77.13118
G1 X63.841 Y79.658 E77.57241
G1 X64.213 Y79.663 E77.58474
G1 X73.612 Y70.263 E78.02618
G1 X73.988 Y70.264 E78.03867
G1 X64.584 Y79.668 E78.48032
G1 X64.955 Y79.673 E78.49266
G1 X74.364 Y70.265 E78.93452
G1 X74.740 Y70.265 E78.94700
G1 X65.327 Y79.678 E79.38908
G1 X65.698 Y79.684 E79.40142
G1 X75.116 Y70.266 E79.84370
G1 X75.492 Y70.267 E79.85619
G1 X66.070 Y79.689 E80.29869
G1 X66.441 Y79.694 E80.31102
G1 X75.867 Y70.267 E80.75373
G1 X76.243 Y70.268 E80.76622
G1 X66.812 Y79.699 E81.20914
G1 X67.184 Y79.704 E81.22147
G1 X76.619 Y70.269 E81.66461
G1 X76.995 Y70.269 E81.67709
G1 X67.555 Y79.709 E82.12044
G1 X67.927 Y79.714 E82.13277
G1 X77.371 Y70.270 E82.57633
G1 X77.747 Y70.271 E82.58881
G1 X68.298 Y79.720 E83.03258
G1 X68.669 Y79.725 E83.04491
G1 X78.123 Y70.271 E83.48889
G1 X78.499 Y70.272 E83.50138
G1 X69.041 Y79.730 E83.94557
G1 X69.412 Y79.735 E83.95790
G1 X78.875 Y70.272 E84.40231
G1 X79.251 Y70.273 E84.41479
G1 X69.784 Y79.740 E84.85940
G1 X70.155 Y79.745 E84.87174
G1 X79.627 Y70.274 E85.31656
G1 X80.002 Y70.274 E85.32905
G1 X70.526 Y79.750 E85.77408
G1 X70.898 Y79.756 E85.78642
G1 X80.378 Y70.275 E86.23167
G1 X80.754 Y70.276 E86.24415
G1 X71.269 Y79.761 E86.68961
G1 X71.641 Y79.765 E86.70197
G1 X81.130 Y70.276 E87.14761
G1 X81.506 Y70.277 E87.16009
G1 X72.019 Y79.764 E87.60566
G1 X72.396 Y79.764 E87.61819
G1 X81.882 Y70.278 E88.06370
G1 X82.258 Y70.278 E88.07619
G1 X72.773 Y79.763 E88.52164
G1 X73.150 Y79.762 E88.53416
G1 X82.634 Y70.279 E88.97956
G1 X83.010 Y70.280 E88.99204
G1 X73.527 Y79.762 E89.43737
G1 X73.905 Y79.761 E89.44990
G1 X83.386 Y70.280 E89.89517
G1 X83.761 Y70.281 E89.90765
G1 X74.282 Y79.761 E90.35286
G1 X74.659 Y79.760 E90.36539
G1 X84.137 Y70.281 E90.81054
G1 X84.513 Y70.282 E90.82302
G1 X75.036 Y79.759 E91.26811
G1 X75.413 Y79.759 E91.28064
G1 X84.889 Y70.283 E91.72567
G1 X85.265 Y70.283 E91.73815
G1 X75.790 Y79.758 E92.18312
G1 X76.168 Y79.757 E92.19565
G1 X85.641 Y70.284 E92.64056
G1 X86.017 Y70.285 E92.65304
G1 X76.545 Y79.757 E93.09789
G1 X76.922 Y79.756 E93.11042
G1 X86.393 Y70.285 E93.55520
G1 X86.769 Y70.286 E93.56769
G1 X77.299 Y79.755 E94.01241
G1 X77.676 Y79.755 E94.02494
G1 X87.145 Y70.287 E94.46961
G1 X87.519 Y70.289 E94.48204
G1 X78.054 Y79.754 E94.92658
G1 X78.431 Y79.753 E94.93911
G1 X87.890 Y70.294 E95.38337
G1 X88.262 Y70.299 E95.39570
G1 X78.808 Y79.753 E95.83969
G1 X79.185 Y79.752 E95.85222
G1 X88.633 Y70.304 E96.29594
G1 X89.004 Y70.309 E96.30827
G1 X79.562 Y79.751 E96.75171
G1 X79.940 Y79.751 E96.76424
G1 X89.376 Y70.315 E97.20741
G1 X89.747 Y70.320 E97.21974
G1 X80.317 Y79.750 E97.66264
G1 X80.694 Y79.750 E97.67516
G1 X90.118 Y70.325 E98.11778
G1 X90.490 Y70.330 E98.13012
G1 X81.071 Y79.749 E98.57246
G1 X81.448 Y79.748 E98.58499
G1 X90.861 Y70.335 E99.02706
G1 X91.233 Y70.341 E99.03940
G1 X81.826 Y79.748 E99.48119
G1 X82.203 Y79.747 E99.49372
G1 X91.604 Y70.346 E99.93525
G1 X91.975 Y70.351 E99.94758
G1 X82.580 Y79.746 E100.38883
G1 X82.957 Y79.746 E100.40136
G1 X92.347 Y70.356 E100.84233
G1 X92.718 Y70.361 E100.85467
G1 X83.334 Y79.745 E101.29537
G1 X83.711 Y79.744 E101.30790
G1 X93.089 Y70.367 E101.74833
G1 X93.461 Y70.372 E101.76066
G1 X84.089 Y79.744 E102.20082
G1 X84.466 Y79.743 E102.21334
G1 X93.832 Y70.377 E102.65322
G1 X94.203 Y70.382 E102.66556
G1 X84.843 Y79.742 E103.10517
G1 X85.220 Y79.742 E103.11769
G1 X94.575 Y70.387 E103.55703
G1 X94.946 Y70.392 E103.56936
G1 X85.597 Y79.741 E104.00842
G1 X85.975 Y79.741 E104.02095
G1 X95.317 Y70.398 E104.45973
G1 X95.689 Y70.403 E104.47207
G1 X86.352 Y79.740 E104.91058
G1 X86.729 Y79.739 E104.92311
G1 X96.060 Y70.408 E105.36134
G1 X96.432 Y70.413 E105.37368
G1 X87.106 Y79.739 E105.81164
G1 X87.487 Y79.734 E105.82429
