; generated by Slic3r 1.3.1-dev (Build adea0d9) on 2020-02-19 at 13:25:31

; external perimeters extrusion width = 0.44mm (2.86mm^3/s)
; perimeters extrusion width = 0.56mm (4.14mm^3/s)
; infill extrusion width = 0.50mm (3.66mm^3/s)
; solid infill extrusion width = 0.56mm (3.10mm^3/s)
; top infill extrusion width = 0.56mm (3.10mm^3/s)

M107
G92 E0
;D3D:START:START
T0
M104 S215 T0

G21
G90
M107
T0
G28
G29
M109 T0 S215 T0
G0 F3000
M107
T0
G92 E0
G0 X0 Y149 Z0.1 F3600
G1 Y49 E6.5 F1200
G0 Z1
G92 E0
; Filament gcode

G21 ; set units to millimeters
G90 ; use absolute coordinates
M82 ; use absolute distances for extrusion
G92 E0
G1 Z0.300 F7800.000
G1 E-2.00000 F2400.00000
G92 E0
G1 X85.424 Y73.051 F7800.000
G1 E2.00000 F2400.00000
G1 F1800.000
G1 X85.685 Y72.806 E2.01185
G1 X85.974 Y72.596 E2.02370
G1 X86.288 Y72.423 E2.03554
G1 X86.620 Y72.292 E2.04739
G1 X86.966 Y72.203 E2.05924
G1 X87.321 Y72.158 E2.07108
G1 X87.679 Y72.158 E2.08293
G1 X88.034 Y72.203 E2.09478
G1 X88.380 Y72.292 E2.10663
G1 X88.712 Y72.423 E2.11847
G1 X89.026 Y72.596 E2.13032
G1 X89.315 Y72.806 E2.14217
G1 X89.576 Y73.051 E2.15402
G1 X89.804 Y73.326 E2.16586
G1 X89.995 Y73.628 E2.17771
G1 X90.148 Y73.952 E2.18956
G1 X90.258 Y74.292 E2.20141
G1 X90.325 Y74.643 E2.21325
G1 X90.348 Y75.000 E2.22510
G1 X90.325 Y75.357 E2.23695
G1 X90.258 Y75.708 E2.24879
G1 X90.148 Y76.048 E2.26064
G1 X89.995 Y76.372 E2.27249
G1 X89.804 Y76.674 E2.28434
G1 X89.576 Y76.949 E2.29618
G1 X89.315 Y77.194 E2.30803
G1 X89.026 Y77.404 E2.31988
G1 X88.712 Y77.577 E2.33173
G1 X88.380 Y77.708 E2.34357
G1 X88.034 Y77.797 E2.35542
G1 X87.679 Y77.842 E2.36727
G1 X87.321 Y77.842 E2.37912
G1 X86.966 Y77.797 E2.39096
G1 X86.620 Y77.708 E2.40281
G1 X86.288 Y77.577 E2.41466
G1 X85.974 Y77.404 E2.42650
G1 X85.685 Y77.194 E2.43835
G1 X85.424 Y76.949 E2.45020
G1 X85.196 Y76.674 E2.46205
G1 X85.005 Y76.372 E2.47390
G1 X84.852 Y76.048 E2.48574
G1 X84.742 Y75.708 E2.49759
G1 X84.675 Y75.357 E2.50944
G1 X84.652 Y75.000 E2.52128
G1 X84.675 Y74.643 E2.53313
G1 X84.742 Y74.292 E2.54498
G1 X84.852 Y73.952 E2.55683
G1 X85.005 Y73.628 E2.56867
G1 X85.196 Y73.326 E2.58052
G1 X85.386 Y73.097 E2.59038
G1 X85.618 Y73.233 F7800.000
G1 F1800.000
G1 X85.854 Y73.011 E2.60112
G1 X86.117 Y72.820 E2.61186
G1 X86.401 Y72.664 E2.62260
G1 X86.702 Y72.545 E2.63334
G1 X87.016 Y72.464 E2.64408
G1 X87.338 Y72.424 E2.65482
G1 X87.662 Y72.424 E2.66556
G1 X87.984 Y72.464 E2.67630
G1 X88.298 Y72.545 E2.68704
G1 X88.599 Y72.664 E2.69778
G1 X88.883 Y72.820 E2.70852
G1 X89.146 Y73.011 E2.71926
G1 X89.382 Y73.233 E2.73000
G1 X89.588 Y73.483 E2.74074
G1 X89.762 Y73.756 E2.75148
G1 X89.900 Y74.050 E2.76222
G1 X90.000 Y74.358 E2.77296
G1 X90.061 Y74.676 E2.78370
G1 X90.081 Y75.000 E2.79444
G1 X90.061 Y75.324 E2.80518
G1 X90.000 Y75.642 E2.81592
G1 X89.900 Y75.950 E2.82666
G1 X89.762 Y76.244 E2.83740
G1 X89.588 Y76.517 E2.84814
G1 X89.382 Y76.767 E2.85888
G1 X89.146 Y76.989 E2.86962
G1 X88.883 Y77.180 E2.88036
G1 X88.599 Y77.336 E2.89110
G1 X88.298 Y77.455 E2.90184
G1 X87.984 Y77.536 E2.91258
G1 X87.662 Y77.576 E2.92332
G1 X87.338 Y77.576 E2.93406
G1 X87.016 Y77.536 E2.94480
G1 X86.702 Y77.455 E2.95554
G1 X86.401 Y77.336 E2.96628
G1 X86.117 Y77.180 E2.97702
G1 X85.854 Y76.989 E2.98776
G1 X85.618 Y76.767 E2.99850
G1 X85.412 Y76.517 E3.00924
G1 X85.238 Y76.244 E3.01998
G1 X85.100 Y75.950 E3.03072
G1 X85.000 Y75.642 E3.04146
G1 X84.939 Y75.324 E3.05220
G1 X84.919 Y75.000 E3.06294
G1 X84.939 Y74.676 E3.07368
G1 X85.000 Y74.358 E3.08442
G1 X85.100 Y74.050 E3.09516
G1 X85.238 Y73.756 E3.10590
G1 X85.412 Y73.483 E3.11664
G1 X85.580 Y73.279 E3.12540
G1 X85.812 Y73.415 F7800.000
G1 F1800.000
G1 X86.024 Y73.216 E3.13503
G1 X86.259 Y73.045 E3.14466
G1 X86.514 Y72.905 E3.15429
G1 X86.785 Y72.798 E3.16393
G1 X87.066 Y72.726 E3.17356
G1 X87.355 Y72.689 E3.18319
G1 X87.645 Y72.689 E3.19282
G1 X87.934 Y72.726 E3.20246
G1 X88.215 Y72.798 E3.21209
G1 X88.486 Y72.905 E3.22172
G1 X88.741 Y73.045 E3.23136
G1 X88.976 Y73.216 E3.24099
G1 X89.188 Y73.415 E3.25062
G1 X89.373 Y73.639 E3.26025
G1 X89.529 Y73.885 E3.26989
G1 X89.653 Y74.148 E3.27952
G1 X89.743 Y74.424 E3.28915
G1 X89.797 Y74.710 E3.29879
G1 X89.815 Y75.000 E3.30842
G1 X89.797 Y75.290 E3.31805
G1 X89.743 Y75.576 E3.32768
G1 X89.653 Y75.852 E3.33732
G1 X89.529 Y76.115 E3.34695
G1 X89.373 Y76.361 E3.35658
G1 X89.188 Y76.585 E3.36621
G1 X88.976 Y76.784 E3.37585
G1 X88.741 Y76.955 E3.38548
G1 X88.486 Y77.095 E3.39511
G1 X88.215 Y77.202 E3.40475
G1 X87.934 Y77.274 E3.41438
G1 X87.645 Y77.311 E3.42401
G1 X87.355 Y77.311 E3.43364
G1 X87.066 Y77.274 E3.44328
G1 X86.785 Y77.202 E3.45291
G1 X86.514 Y77.095 E3.46254
G1 X86.259 Y76.955 E3.47218
G1 X86.024 Y76.784 E3.48181
G1 X85.812 Y76.585 E3.49144
G1 X85.627 Y76.361 E3.50107
G1 X85.471 Y76.115 E3.51071
G1 X85.347 Y75.852 E3.52034
G1 X85.257 Y75.576 E3.52997
G1 X85.203 Y75.290 E3.53961
G1 X85.185 Y75.000 E3.54924
G1 X85.203 Y74.710 E3.55887
G1 X85.257 Y74.424 E3.56850
G1 X85.347 Y74.148 E3.57814
G1 X85.471 Y73.885 E3.58777
G1 X85.627 Y73.639 E3.59740
G1 X85.774 Y73.461 E3.60505
G1 X85.728 Y73.137 F7800.000
G1 E1.60505 F2400.00000
G92 E0
G1 X79.401 Y66.901 F7800.000
G1 E2.00000 F2400.00000
G1 F1800.000
G1 X80.062 Y66.291 E2.02979
G1 X80.768 Y65.734 E2.05959
G1 X81.516 Y65.235 E2.08938
G1 X82.300 Y64.795 E2.11917
G1 X83.117 Y64.419 E2.14897
G1 X83.961 Y64.107 E2.17876
G1 X84.826 Y63.863 E2.20855
G1 X85.708 Y63.688 E2.23834
G1 X86.601 Y63.582 E2.26814
G1 X87.500 Y63.547 E2.29793
G1 X88.399 Y63.582 E2.32773
G1 X89.292 Y63.688 E2.35752
G1 X90.174 Y63.863 E2.38731
G1 X91.039 Y64.107 E2.41711
G1 X91.883 Y64.419 E2.44690
G1 X92.700 Y64.795 E2.47670
G1 X93.484 Y65.235 E2.50649
G1 X94.232 Y65.734 E2.53628
G1 X94.938 Y66.291 E2.56607
G1 X95.599 Y66.901 E2.59587
G1 X96.209 Y67.562 E2.62566
G1 X96.766 Y68.268 E2.65546
G1 X97.265 Y69.016 E2.68525
G1 X97.705 Y69.800 E2.71504
G1 X98.081 Y70.617 E2.74483
G1 X98.393 Y71.461 E2.77463
G1 X98.637 Y72.326 E2.80442
G1 X98.812 Y73.208 E2.83421
G1 X98.918 Y74.101 E2.86401
G1 X98.953 Y75.000 E2.89380
G1 X98.918 Y75.899 E2.92360
G1 X98.812 Y76.792 E2.95339
G1 X98.637 Y77.674 E2.98318
G1 X98.393 Y78.539 E3.01298
G1 X98.081 Y79.383 E3.04277
G1 X97.705 Y80.200 E3.07256
G1 X97.265 Y80.984 E3.10236
G1 X96.766 Y81.732 E3.13215
G1 X96.209 Y82.438 E3.16194
G1 X95.599 Y83.099 E3.19174
G1 X94.938 Y83.709 E3.22153
G1 X94.232 Y84.266 E3.25132
G1 X93.484 Y84.765 E3.28112
G1 X92.700 Y85.205 E3.31091
G1 X91.883 Y85.581 E3.34070
G1 X91.039 Y85.893 E3.37050
G1 X90.174 Y86.137 E3.40029
G1 X89.292 Y86.312 E3.43008
G1 X88.399 Y86.418 E3.45988
G1 X87.500 Y86.453 E3.48967
G1 X86.601 Y86.418 E3.51947
G1 X85.708 Y86.312 E3.54926
G1 X84.826 Y86.137 E3.57905
G1 X83.961 Y85.893 E3.60885
G1 X83.117 Y85.581 E3.63864
G1 X82.300 Y85.205 E3.66843
G1 X81.516 Y84.765 E3.69823
G1 X80.768 Y84.266 E3.72802
G1 X80.062 Y83.709 E3.75781
G1 X79.401 Y83.099 E3.78760
G1 X78.791 Y82.438 E3.81740
G1 X78.234 Y81.732 E3.84719
G1 X77.735 Y80.984 E3.87699
G1 X77.295 Y80.200 E3.90678
G1 X76.919 Y79.383 E3.93657
G1 X76.607 Y78.539 E3.96637
G1 X76.363 Y77.674 E3.99616
G1 X76.188 Y76.792 E4.02595
G1 X76.082 Y75.899 E4.05575
G1 X76.047 Y75.000 E4.08554
G1 X76.082 Y74.101 E4.11533
G1 X76.188 Y73.208 E4.14513
G1 X76.363 Y72.326 E4.17492
G1 X76.607 Y71.461 E4.20471
G1 X76.919 Y70.617 E4.23451
G1 X77.295 Y69.800 E4.26430
G1 X77.735 Y69.016 E4.29409
G1 X78.234 Y68.268 E4.32389
G1 X78.791 Y67.562 E4.35368
G1 X79.361 Y66.945 E4.38149
G1 X79.213 Y66.713 F7800.000
G1 F1800.000
G1 X79.889 Y66.089 E4.41197
G1 X80.612 Y65.519 E4.44246
G1 X81.377 Y65.008 E4.47294
G1 X82.180 Y64.558 E4.50343
G1 X83.015 Y64.173 E4.53391
G1 X83.879 Y63.855 E4.56440
G1 X84.764 Y63.605 E4.59488
G1 X85.667 Y63.425 E4.62537
G1 X86.581 Y63.317 E4.65585
G1 X87.500 Y63.281 E4.68634
G1 X88.419 Y63.317 E4.71682
G1 X89.333 Y63.425 E4.74731
G1 X90.236 Y63.605 E4.77779
G1 X91.121 Y63.855 E4.80828
G1 X91.985 Y64.173 E4.83876
G1 X92.820 Y64.558 E4.86925
G1 X93.623 Y65.008 E4.89973
G1 X94.388 Y65.519 E4.93022
G1 X95.111 Y66.089 E4.96070
G1 X95.787 Y66.713 E4.99118
G1 X96.411 Y67.389 E5.02167
G1 X96.981 Y68.112 E5.05216
G1 X97.492 Y68.877 E5.08264
G1 X97.942 Y69.680 E5.11313
G1 X98.327 Y70.515 E5.14361
G1 X98.645 Y71.379 E5.17410
G1 X98.895 Y72.264 E5.20458
G1 X99.075 Y73.167 E5.23506
G1 X99.183 Y74.081 E5.26555
G1 X99.219 Y75.000 E5.29604
G1 X99.183 Y75.919 E5.32652
G1 X99.075 Y76.833 E5.35701
G1 X98.895 Y77.736 E5.38749
G1 X98.645 Y78.621 E5.41798
G1 X98.327 Y79.485 E5.44846
G1 X97.942 Y80.320 E5.47895
G1 X97.492 Y81.123 E5.50943
G1 X96.981 Y81.888 E5.53991
G1 X96.411 Y82.611 E5.57040
G1 X95.787 Y83.287 E5.60089
G1 X95.111 Y83.911 E5.63137
G1 X94.388 Y84.481 E5.66185
G1 X93.623 Y84.992 E5.69234
G1 X92.820 Y85.442 E5.72282
G1 X91.985 Y85.827 E5.75331
G1 X91.121 Y86.145 E5.78379
G1 X90.236 Y86.395 E5.81428
G1 X89.333 Y86.575 E5.84476
G1 X88.419 Y86.683 E5.87525
G1 X87.500 Y86.719 E5.90573
G1 X86.581 Y86.683 E5.93622
G1 X85.667 Y86.575 E5.96671
G1 X84.764 Y86.395 E5.99719
G1 X83.879 Y86.145 E6.02768
G1 X83.015 Y85.827 E6.05816
G1 X82.180 Y85.442 E6.08865
G1 X81.377 Y84.992 E6.11913
G1 X80.612 Y84.481 E6.14961
G1 X79.889 Y83.911 E6.18010
G1 X79.213 Y83.287 E6.21058
G1 X78.589 Y82.611 E6.24107
G1 X78.019 Y81.888 E6.27155
G1 X77.508 Y81.123 E6.30204
G1 X77.058 Y80.320 E6.33252
G1 X76.673 Y79.485 E6.36301
G1 X76.355 Y78.621 E6.39349
G1 X76.105 Y77.736 E6.42398
G1 X75.925 Y76.833 E6.45446
G1 X75.817 Y75.919 E6.48495
G1 X75.781 Y75.000 E6.51543
G1 X75.817 Y74.081 E6.54592
G1 X75.925 Y73.167 E6.57640
G1 X76.105 Y72.264 E6.60689
G1 X76.355 Y71.379 E6.63737
G1 X76.673 Y70.515 E6.66786
G1 X77.058 Y69.680 E6.69834
G1 X77.508 Y68.877 E6.72883
G1 X78.019 Y68.112 E6.75931
G1 X78.589 Y67.389 E6.78980
G1 X79.173 Y66.757 E6.81830
G1 X79.025 Y66.525 F7800.000
G1 F1800.000
G1 X79.716 Y65.887 E6.84947
G1 X80.455 Y65.304 E6.88065
G1 X81.238 Y64.781 E6.91182
G1 X82.059 Y64.321 E6.94300
G1 X82.914 Y63.927 E6.97418
G1 X83.796 Y63.602 E7.00535
G1 X84.702 Y63.346 E7.03653
G1 X85.625 Y63.163 E7.06771
G1 X86.560 Y63.052 E7.09888
G1 X87.500 Y63.015 E7.13006
G1 X88.440 Y63.052 E7.16124
G1 X89.375 Y63.163 E7.19241
G1 X90.298 Y63.346 E7.22359
G1 X91.204 Y63.602 E7.25477
G1 X92.086 Y63.927 E7.28594
G1 X92.941 Y64.321 E7.31712
G1 X93.762 Y64.781 E7.34829
G1 X94.545 Y65.304 E7.37947
G1 X95.284 Y65.887 E7.41065
G1 X95.975 Y66.525 E7.44182
G1 X96.613 Y67.216 E7.47300
G1 X97.196 Y67.955 E7.50418
G1 X97.719 Y68.738 E7.53535
G1 X98.179 Y69.559 E7.56653
G1 X98.573 Y70.414 E7.59771
G1 X98.898 Y71.296 E7.62888
G1 X99.154 Y72.202 E7.66006
G1 X99.337 Y73.125 E7.69123
G1 X99.448 Y74.060 E7.72241
G1 X99.485 Y75.000 E7.75359
G1 X99.448 Y75.940 E7.78476
G1 X99.337 Y76.875 E7.81594
G1 X99.154 Y77.798 E7.84712
G1 X98.898 Y78.704 E7.87829
G1 X98.573 Y79.586 E7.90947
G1 X98.179 Y80.441 E7.94065
G1 X97.719 Y81.262 E7.97182
G1 X97.196 Y82.045 E8.00300
G1 X96.613 Y82.784 E8.03418
G1 X95.975 Y83.475 E8.06535
G1 X95.284 Y84.113 E8.09653
G1 X94.545 Y84.696 E8.12770
G1 X93.762 Y85.219 E8.15888
G1 X92.941 Y85.679 E8.19006
G1 X92.086 Y86.073 E8.22123
G1 X91.204 Y86.398 E8.25241
G1 X90.298 Y86.654 E8.28359
G1 X89.375 Y86.837 E8.31476
G1 X88.440 Y86.948 E8.34594
G1 X87.500 Y86.985 E8.37712
G1 X86.560 Y86.948 E8.40829
G1 X85.625 Y86.837 E8.43947
G1 X84.702 Y86.654 E8.47065
G1 X83.796 Y86.398 E8.50182
G1 X82.914 Y86.073 E8.53300
G1 X82.059 Y85.679 E8.56418
G1 X81.238 Y85.219 E8.59535
G1 X80.455 Y84.696 E8.62653
G1 X79.716 Y84.113 E8.65770
G1 X79.025 Y83.475 E8.68888
G1 X78.387 Y82.784 E8.72006
G1 X77.804 Y82.045 E8.75123
G1 X77.281 Y81.262 E8.78241
G1 X76.821 Y80.441 E8.81359
G1 X76.427 Y79.586 E8.84476
G1 X76.102 Y78.704 E8.87594
G1 X75.846 Y77.798 E8.90712
G1 X75.663 Y76.875 E8.93829
G1 X75.552 Y75.940 E8.96947
G1 X75.515 Y75.000 E9.00065
G1 X75.552 Y74.060 E9.03182
G1 X75.663 Y73.125 E9.06300
G1 X75.846 Y72.202 E9.09417
G1 X76.102 Y71.296 E9.12535
G1 X76.427 Y70.414 E9.15653
G1 X76.821 Y69.559 E9.18770
G1 X77.281 Y68.738 E9.21888
G1 X77.804 Y67.955 E9.25006
G1 X78.387 Y67.216 E9.28123
G1 X78.985 Y66.569 E9.31042
G1 X79.412 Y66.629 F7800.000
G1 X79.695 Y66.984 F7800.000
G1 F1800.000
G1 X78.890 Y67.838 E9.34940
G1 X78.346 Y68.528 E9.37859
G1 X77.979 Y69.076 E9.40052
G1 X81.576 Y65.479 E9.56953
G1 X81.758 Y65.358 E9.57678
G1 X82.477 Y64.955 E9.60416
G1 X77.455 Y69.977 E9.84011
G1 X77.124 Y70.685 E9.86606
G1 X83.185 Y64.624 E10.15080
G1 X83.802 Y64.384 E10.17280
G1 X76.884 Y71.302 E10.49781
G1 X76.694 Y71.868 E10.51765
G1 X84.368 Y64.194 E10.87819
G1 X84.893 Y64.046 E10.89630
G1 X76.546 Y72.393 E11.28844
G1 X76.442 Y72.873 E11.30477
G1 X85.373 Y63.942 E11.72437
G1 X85.843 Y63.849 E11.74030
G1 X76.349 Y73.343 E12.18638
G1 X76.298 Y73.772 E12.20070
G1 X86.272 Y63.798 E12.66932
G1 X86.699 Y63.747 E12.68361
G1 X76.247 Y74.199 E13.17467
G1 X76.229 Y74.593 E13.18779
G1 X87.093 Y63.729 E13.69820
G1 X87.485 Y63.714 E13.71124
G1 X76.214 Y74.985 E14.24081
G1 X76.219 Y75.357 E14.25315
G1 X87.857 Y63.719 E14.79991
G1 X88.219 Y63.733 E14.81196
G1 X76.233 Y75.719 E15.37508
G1 X76.255 Y76.074 E15.38691
G1 X88.574 Y63.755 E15.96573
G1 X88.911 Y63.795 E15.97699
G1 X76.295 Y76.411 E16.56976
G1 X76.335 Y76.748 E16.58103
G1 X89.248 Y63.835 E17.18775
G1 X89.569 Y63.890 E17.19858
G1 X76.390 Y77.069 E17.81780
G1 X76.452 Y77.384 E17.82844
G1 X89.884 Y63.952 E18.45948
G1 X90.198 Y64.015 E18.47012
G1 X76.515 Y77.698 E19.11299
G1 X76.597 Y77.993 E19.12316
G1 X90.493 Y64.097 E19.77604
G1 X90.786 Y64.180 E19.78618
G1 X76.680 Y78.286 E20.44897
G1 X76.764 Y78.579 E20.45909
G1 X91.079 Y64.264 E21.13167
G1 X91.354 Y64.365 E21.14142
G1 X76.865 Y78.854 E21.82216
G1 X76.967 Y79.129 E21.83190
G1 X91.629 Y64.467 E22.52081
G1 X91.903 Y64.570 E22.53053
G1 X77.070 Y79.403 E23.22747
G1 X77.188 Y79.661 E23.23690
G1 X92.161 Y64.688 E23.94037
G1 X92.419 Y64.807 E23.94980
G1 X77.307 Y79.919 E24.65981
G1 X77.426 Y80.177 E24.66924
G1 X92.677 Y64.926 E25.38577
G1 X92.919 Y65.061 E25.39497
G1 X77.561 Y80.419 E26.11652
G1 X77.696 Y80.660 E26.12572
G1 X84.593 Y73.764 E26.44973
G1 X84.668 Y73.603 E26.45563
G1 X84.878 Y73.273 E26.46862
G1 X85.127 Y72.972 E26.48161
G1 X85.412 Y72.704 E26.49460
G1 X85.728 Y72.474 E26.50759
G1 X86.070 Y72.287 E26.52054
G1 X93.160 Y65.196 E26.85367
G1 X93.402 Y65.331 E26.86286
G1 X86.645 Y72.088 E27.18030
G1 X86.813 Y72.045 E27.18607
G1 X87.101 Y72.008 E27.19572
G1 X93.630 Y65.479 E27.50248
G1 X93.856 Y65.630 E27.51150
G1 X87.491 Y71.996 E27.81057
G1 X87.837 Y72.027 E27.82211
G1 X94.082 Y65.781 E28.11555
G1 X94.299 Y65.941 E28.12450
G1 X88.151 Y72.089 E28.41336
G1 X88.442 Y72.175 E28.42342
G1 X94.510 Y66.107 E28.70853
G1 X94.721 Y66.273 E28.71744
G1 X88.712 Y72.282 E28.99976
G1 X88.956 Y72.414 E29.00899
G1 X94.927 Y66.443 E29.28953
G1 X95.123 Y66.624 E29.29838
G1 X89.185 Y72.561 E29.57734
G1 X89.401 Y72.722 E29.58628
G1 X95.318 Y66.805 E29.86430
G1 X95.514 Y66.986 E29.87315
G1 X89.595 Y72.905 E30.15124
G1 X89.774 Y73.102 E30.16010
G1 X95.695 Y67.182 E30.43826
G1 X95.876 Y67.378 E30.44712
G1 X89.941 Y73.313 E30.72597
G1 X90.087 Y73.543 E30.73504
G1 X96.057 Y67.573 E31.01552
G1 X96.110 Y67.631 E31.01813
G1 X96.227 Y67.779 E31.02441
G1 X90.214 Y73.792 E31.30692
G1 X90.325 Y74.059 E31.31650
G1 X96.393 Y67.990 E31.60162
G1 X96.559 Y68.201 E31.61053
G1 X90.416 Y74.345 E31.89919
G1 X90.476 Y74.661 E31.90989
G1 X96.719 Y68.418 E32.20321
G1 X96.870 Y68.644 E32.21223
G1 X90.504 Y75.009 E32.51130
G1 X90.492 Y75.398 E32.52424
G1 X97.021 Y68.870 E32.83099
G1 X97.169 Y69.098 E32.84005
G1 X90.418 Y75.849 E33.15720
G1 X90.292 Y76.250 E33.17116
G1 X90.201 Y76.443 E33.17826
G1 X97.304 Y69.340 E33.51198
G1 X97.439 Y69.581 E33.52117
G1 X82.081 Y84.939 E34.24273
G1 X82.323 Y85.074 E34.25193
G1 X97.574 Y69.823 E34.96846
G1 X97.693 Y70.081 E34.97789
G1 X82.581 Y85.193 E35.68789
G1 X82.839 Y85.312 E35.69733
G1 X97.812 Y70.339 E36.40080
G1 X97.930 Y70.597 E36.41023
G1 X83.097 Y85.430 E37.10717
G1 X83.371 Y85.533 E37.11689
G1 X98.033 Y70.871 E37.80579
G1 X98.135 Y71.146 E37.81554
G1 X83.646 Y85.635 E38.49628
G1 X83.921 Y85.736 E38.50603
G1 X98.236 Y71.421 E39.17861
G1 X98.320 Y71.714 E39.18872
G1 X84.213 Y85.820 E39.85151
