; generated by Slic3r 1.3.1-dev (Build adea0d9) on 2020-02-19 at 18:03:10

; external perimeters extrusion width = 0.44mm (2.86mm^3/s)
; perimeters extrusion width = 0.56mm (4.14mm^3/s)
; infill extrusion width = 0.50mm (3.66mm^3/s)
; solid infill extrusion width = 0.56mm (3.10mm^3/s)
; top infill extrusion width = 0.56mm (3.10mm^3/s)

M107
G92 E0
;D3D:START:START
T0
M104 S215 T0

G21
G90
M107
T0
G28
G29
M109 T0 S215 T0
G0 F3000
M107
T0
G92 E0
G0 X0 Y149 Z0.1 F3600
G1 Y49 E6.5 F1200
G0 Z1
G92 E0
; Filament gcode

G21 ; set units to millimeters
G90 ; use absolute coordinates
M82 ; use absolute distances for extrusion
G92 E0
G1 Z0.300 F7800.000
G1 E-2.00000 F2400.00000
G92 E0
G1 X53.218 Y100.092 F7800.000
G1 E2.00000 F2400.00000
G1 F1800.000
G1 X54.782 Y100.092 E2.05184
G1 X56.048 Y101.012 E2.10369
G1 X56.532 Y102.500 E2.15553
G1 X56.048 Y103.988 E2.20738
G1 X54.782 Y104.908 E2.25922
G1 X53.218 Y104.908 E2.31106
G1 X51.952 Y103.988 E2.36291
G1 X51.468 Y102.500 E2.41475
G1 X51.952 Y101.012 E2.46660
G1 X53.169 Y100.127 E2.51645
G1 X53.304 Y100.357 F7800.000
G1 F1800.000
G1 X54.696 Y100.357 E2.56258
G1 X55.822 Y101.176 E2.60870
G1 X56.253 Y102.500 E2.65483
G1 X55.822 Y103.824 E2.70096
G1 X54.696 Y104.643 E2.74708
G1 X53.304 Y104.643 E2.79321
G1 X52.177 Y103.824 E2.83933
G1 X51.747 Y102.500 E2.88546
G1 X52.177 Y101.176 E2.93158
G1 X53.255 Y100.393 E2.97572
G1 X53.390 Y100.623 F7800.000
G1 F1800.000
G1 X54.610 Y100.623 E3.01613
G1 X55.597 Y101.340 E3.05654
G1 X55.973 Y102.500 E3.09694
G1 X55.597 Y103.660 E3.13735
G1 X54.610 Y104.377 E3.17776
G1 X53.390 Y104.377 E3.21816
G1 X52.403 Y103.660 E3.25857
G1 X52.027 Y102.500 E3.29898
G1 X52.403 Y101.340 E3.33939
G1 X53.342 Y100.658 E3.37781
G1 E1.37781 F2400.00000
G92 E0
G1 X58.370 Y87.887 F7800.000
G1 E2.00000 F2400.00000
G1 F1800.000
G1 X58.091 Y87.776 E2.00994
G1 X57.853 Y87.587 E2.02002
G1 X57.681 Y87.344 E2.02989
G1 X57.571 Y87.040 E2.04060
G1 X57.571 Y86.562 E2.05640
G1 X57.681 Y86.254 E2.06724
G1 X57.858 Y86.008 E2.07731
G1 X58.100 Y85.822 E2.08741
G1 X58.412 Y85.702 E2.09847
G1 X58.896 Y85.702 E2.11450
G1 X59.206 Y85.818 E2.12548
G1 X59.450 Y86.000 E2.13555
G1 X59.633 Y86.245 E2.14569
G1 X59.748 Y86.558 E2.15675
G1 X59.748 Y87.044 E2.17285
G1 X59.633 Y87.353 E2.18377
G1 X59.456 Y87.595 E2.19371
G1 X59.215 Y87.780 E2.20377
G1 X58.936 Y87.888 E2.21367
G1 X58.652 Y87.919 E2.22313
G1 X58.429 Y87.894 E2.23056
G1 X58.435 Y87.627 F7800.000
G1 F1800.000
G1 X58.226 Y87.544 E2.23803
G1 X58.048 Y87.402 E2.24556
G1 X57.918 Y87.220 E2.25297
G1 X57.837 Y86.993 E2.26094
G1 X57.837 Y86.608 E2.27371
G1 X57.918 Y86.379 E2.28177
G1 X58.051 Y86.194 E2.28930
G1 X58.231 Y86.056 E2.29682
G1 X58.461 Y85.968 E2.30497
G1 X58.848 Y85.968 E2.31779
G1 X59.078 Y86.054 E2.32592
G1 X59.260 Y86.190 E2.33346
G1 X59.397 Y86.373 E2.34104
G1 X59.483 Y86.605 E2.34925
G1 X59.483 Y86.996 E2.36219
G1 X59.397 Y87.225 E2.37030
G1 X59.264 Y87.407 E2.37777
G1 X59.084 Y87.546 E2.38531
G1 X58.873 Y87.627 E2.39279
G1 X58.653 Y87.652 E2.40013
G1 X58.495 Y87.634 E2.40540
G1 X58.156 Y87.096 F7800.000
G1 F1800.000
G1 X58.103 Y86.947 E2.41063
G1 X58.103 Y86.654 E2.42035
G1 X58.156 Y86.503 E2.42565
G1 X58.244 Y86.381 E2.43062
G1 X58.362 Y86.290 E2.43558
G1 X58.510 Y86.234 E2.44081
G1 X58.800 Y86.234 E2.45042
G1 X58.950 Y86.289 E2.45571
G1 X59.070 Y86.379 E2.46071
G1 X59.161 Y86.501 E2.46573
G1 X59.217 Y86.653 E2.47109
G1 X59.217 Y86.948 E2.48088
G1 X59.161 Y87.098 E2.48617
G1 X59.072 Y87.220 E2.49118
G1 X58.952 Y87.312 E2.49621
G1 X58.810 Y87.367 E2.50125
G1 X58.653 Y87.384 E2.50646
G1 X58.500 Y87.367 E2.51157
G1 X58.360 Y87.311 E2.51656
G1 X58.243 Y87.218 E2.52154
G1 X58.191 Y87.145 E2.52451
G1 E0.52451 F2400.00000
G92 E0
G1 X60.841 Y86.251 F7800.000
G1 E2.00000 F2400.00000
G1 F1800.000
G1 X60.841 Y84.346 E2.06309
G1 X64.724 Y84.346 E2.19172
G1 X64.724 Y85.449 E2.22827
G1 X63.927 Y86.657 E2.27619
G1 X64.157 Y86.806 E2.28527
G1 X64.509 Y87.158 E2.30177
G1 X64.753 Y87.598 E2.31842
G1 X64.850 Y87.898 E2.32888
G1 X64.908 Y88.409 E2.34592
G1 X64.887 Y88.756 E2.35743
G1 X64.822 Y89.074 E2.36819
G1 X64.713 Y89.373 E2.37872
G1 X64.567 Y89.642 E2.38887
G1 X64.387 Y89.884 E2.39886
G1 X64.174 Y90.097 E2.40882
G1 X63.937 Y90.274 E2.41864
G1 X63.680 Y90.418 E2.42839
G1 X63.388 Y90.535 E2.43881
G1 X62.838 Y90.654 E2.45747
G1 X62.294 Y90.661 E2.47550
G1 X61.825 Y90.602 E2.49115
G1 X60.674 Y90.258 E2.53094
G1 X61.218 Y88.330 E2.59732
G1 X61.350 Y88.383 E2.60203
G1 X61.350 Y87.151 E2.64287
G1 X61.929 Y86.251 E2.67833
G1 X60.901 Y86.251 E2.71239
G1 X61.107 Y85.985 F7800.000
G1 F1800.000
G1 X61.107 Y84.612 E2.75788
G1 X64.458 Y84.612 E2.86891
G1 X64.458 Y85.370 E2.89402
G1 X63.529 Y86.779 E2.94994
G1 X63.777 Y86.876 E2.95877
G1 X63.989 Y87.013 E2.96715
G1 X64.295 Y87.320 E2.98150
G1 X64.508 Y87.704 E2.99606
G1 X64.589 Y87.954 E3.00477
G1 X64.642 Y88.416 E3.02017
G1 X64.623 Y88.721 E3.03029
G1 X64.566 Y89.002 E3.03977
G1 X64.470 Y89.263 E3.04900
G1 X64.342 Y89.499 E3.05789
G1 X64.185 Y89.710 E3.06661
G1 X64.000 Y89.896 E3.07528
G1 X63.792 Y90.051 E3.08388
G1 X63.565 Y90.178 E3.09249
G1 X63.310 Y90.280 E3.10160
G1 X62.808 Y90.389 E3.11863
G1 X62.309 Y90.395 E3.13517
G1 X61.880 Y90.341 E3.14948
G1 X61.001 Y90.079 E3.17988
G1 X61.393 Y88.687 E3.22778
G1 X62.049 Y88.952 E3.25121
G1 X62.276 Y89.007 E3.25895
G1 X62.544 Y89.026 E3.26785
G1 X62.762 Y89.005 E3.27508
G1 X62.985 Y88.923 E3.28297
G1 X63.100 Y88.823 E3.28802
G1 X63.173 Y88.712 E3.29242
G1 X63.219 Y88.517 E3.29905
G1 X63.199 Y88.339 E3.30500
G1 X63.155 Y88.237 E3.30866
G1 X63.090 Y88.166 E3.31186
G1 X62.977 Y88.102 E3.31616
G1 X62.802 Y88.053 E3.32217
G1 X62.546 Y88.033 E3.33071
G1 X61.616 Y88.033 E3.36151
G1 X61.616 Y87.229 E3.38815
G1 X62.416 Y85.985 E3.43715
G1 X61.167 Y85.985 E3.47854
G1 X61.372 Y85.719 F7800.000
G1 F1800.000
G1 X61.372 Y84.877 E3.50643
G1 X64.192 Y84.877 E3.59986
G1 X64.192 Y85.290 E3.61352
G1 X63.105 Y86.939 E3.67897
G1 X63.311 Y86.979 E3.68593
G1 X63.655 Y87.113 E3.69816
G1 X63.821 Y87.221 E3.70472
G1 X64.081 Y87.481 E3.71690
G1 X64.264 Y87.810 E3.72937
G1 X64.328 Y88.011 E3.73634
G1 X64.375 Y88.423 E3.75009
G1 X64.359 Y88.686 E3.75884
G1 X64.310 Y88.929 E3.76704
G1 X64.227 Y89.153 E3.77496
G1 X64.117 Y89.356 E3.78259
G1 X63.984 Y89.536 E3.79004
G1 X63.826 Y89.694 E3.79743
G1 X63.647 Y89.828 E3.80481
G1 X63.451 Y89.938 E3.81228
G1 X63.232 Y90.026 E3.82008
G1 X62.778 Y90.124 E3.83548
G1 X62.324 Y90.130 E3.85052
G1 X61.935 Y90.080 E3.86350
G1 X61.328 Y89.899 E3.88451
G1 X61.569 Y89.044 E3.91392
G1 X61.968 Y89.206 E3.92819
G1 X62.235 Y89.270 E3.93730
G1 X62.548 Y89.293 E3.94767
G1 X62.816 Y89.267 E3.95661
G1 X63.051 Y89.190 E3.96480
G1 X63.139 Y89.142 E3.96811
G1 X63.303 Y88.999 E3.97531
G1 X63.416 Y88.824 E3.98222
G1 X63.479 Y88.614 E3.98949
G1 X63.486 Y88.511 E3.99291
G1 X63.458 Y88.270 E4.00094
G1 X63.382 Y88.091 E4.00739
G1 X63.258 Y87.956 E4.01348
G1 X63.080 Y87.855 E4.02024
G1 X62.849 Y87.790 E4.02819
G1 X62.556 Y87.767 E4.03793
G1 X61.881 Y87.767 E4.06027
G1 X61.881 Y87.307 E4.07553
G1 X62.903 Y85.719 E4.13807
G1 X61.432 Y85.719 E4.18678
G1 E2.18678 F2400.00000
G92 E0
G1 X56.308 Y84.218 F7800.000
G1 E2.00000 F2400.00000
G1 F1800.000
G1 X57.965 Y88.677 E2.15761
G1 X58.100 Y88.574 E2.16326
G1 X58.412 Y88.454 E2.17431
G1 X58.896 Y88.454 E2.19034
G1 X59.206 Y88.570 E2.20131
G1 X59.450 Y88.752 E2.21139
G1 X59.633 Y88.997 E2.22154
G1 X59.748 Y89.310 E2.23259
G1 X59.748 Y89.796 E2.24868
G1 X59.633 Y90.105 E2.25961
G1 X59.456 Y90.346 E2.26954
G1 X59.215 Y90.532 E2.27960
G1 X58.936 Y90.640 E2.28952
G1 X58.652 Y90.671 E2.29897
G1 X58.370 Y90.639 E2.30838
G1 X58.278 Y90.602 E2.31166
G1 X56.589 Y90.602 E2.36764
G1 X56.087 Y89.258 E2.41517
G1 X55.258 Y89.258 E2.44263
G1 X54.770 Y90.602 E2.49000
G1 X52.710 Y90.602 E2.55825
G1 X52.793 Y90.378 E2.56617
G1 X52.343 Y90.576 E2.58243
G1 X51.585 Y90.669 E2.60774
G1 X51.148 Y90.642 E2.62225
G1 X50.750 Y90.561 E2.63569
G1 X50.341 Y90.405 E2.65020
G1 X50.415 Y90.602 E2.65718
G1 X48.323 Y90.602 E2.72648
G1 X47.821 Y89.258 E2.77401
G1 X46.992 Y89.258 E2.80147
G1 X46.504 Y90.602 E2.84884
G1 X44.444 Y90.602 E2.91709
G1 X46.808 Y84.218 E3.14263
G1 X48.042 Y84.218 E3.18353
G1 X48.867 Y86.437 E3.26195
G1 X48.983 Y86.432 E3.26579
G1 X49.158 Y85.796 E3.28765
G1 X49.542 Y85.128 E3.31316
G1 X50.097 Y84.615 E3.33822
G1 X50.788 Y84.308 E3.36325
G1 X51.543 Y84.215 E3.38845
G1 X51.984 Y84.243 E3.40309
G1 X52.384 Y84.324 E3.41663
G1 X52.757 Y84.465 E3.42984
G1 X53.092 Y84.660 E3.44268
G1 X53.388 Y84.903 E3.45537
G1 X53.640 Y85.190 E3.46801
G1 X53.844 Y85.511 E3.48061
G1 X54.005 Y85.859 E3.49332
G1 X54.152 Y86.375 E3.51107
G1 X54.271 Y86.384 E3.51505
G1 X55.073 Y84.218 E3.59156
G1 X56.248 Y84.218 E3.63047
G1 X56.123 Y84.484 F7800.000
G1 F1800.000
G1 X57.873 Y89.193 E3.79692
G1 X58.051 Y88.946 E3.80701
G1 X58.231 Y88.808 E3.81453
G1 X58.461 Y88.720 E3.82268
G1 X58.848 Y88.720 E3.83549
G1 X59.078 Y88.805 E3.84363
G1 X59.260 Y88.941 E3.85116
G1 X59.397 Y89.125 E3.85875
G1 X59.483 Y89.357 E3.86695
G1 X59.483 Y89.748 E3.87989
G1 X59.397 Y89.977 E3.88801
G1 X59.264 Y90.159 E3.89547
G1 X59.084 Y90.298 E3.90302
G1 X58.873 Y90.380 E3.91050
G1 X58.653 Y90.403 E3.91783
G1 X58.435 Y90.379 E3.92509
G1 X58.329 Y90.337 E3.92888
G1 X56.773 Y90.337 E3.98042
G1 X56.271 Y88.993 E4.02796
G1 X55.072 Y88.993 E4.06769
G1 X54.584 Y90.337 E4.11506
G1 X53.091 Y90.337 E4.16450
G1 X53.266 Y89.866 E4.18114
G1 X53.161 Y89.796 E4.18530
G1 X52.889 Y90.045 E4.19753
G1 X52.272 Y90.317 E4.21988
G1 X51.577 Y90.402 E4.24308
G1 X51.183 Y90.378 E4.25616
G1 X50.825 Y90.305 E4.26827
G1 X50.494 Y90.179 E4.27999
G1 X50.198 Y90.005 E4.29136
G1 X49.963 Y89.810 E4.30149
G1 X49.863 Y89.881 E4.30554
G1 X50.033 Y90.337 E4.32165
G1 X48.507 Y90.337 E4.37218
G1 X48.005 Y88.993 E4.41971
G1 X46.806 Y88.993 E4.45945
G1 X46.318 Y90.337 E4.50682
G1 X44.826 Y90.337 E4.55626
G1 X46.992 Y84.484 E4.76303
G1 X47.858 Y84.484 E4.79169
G1 X49.017 Y87.603 E4.90195
G1 X49.150 Y87.577 E4.90645
G1 X49.145 Y87.434 E4.91121
G1 X49.207 Y86.617 E4.93835
G1 X49.405 Y85.899 E4.96302
G1 X49.752 Y85.296 E4.98607
G1 X50.245 Y84.840 E5.00833
G1 X50.859 Y84.567 E5.03059
G1 X51.551 Y84.482 E5.05367
G1 X51.949 Y84.507 E5.06689
G1 X52.310 Y84.580 E5.07910
G1 X52.643 Y84.706 E5.09088
G1 X52.940 Y84.879 E5.10228
G1 X53.203 Y85.094 E5.11353
G1 X53.426 Y85.350 E5.12478
G1 X53.611 Y85.638 E5.13612
G1 X53.756 Y85.955 E5.14767
G1 X53.864 Y86.297 E5.15954
G1 X53.939 Y86.659 E5.17178
G1 X53.983 Y87.040 E5.18450
G1 X54.000 Y87.513 E5.20018
G1 X54.129 Y87.534 E5.20452
G1 X55.258 Y84.484 E5.31228
G1 X56.063 Y84.484 E5.33895
G1 E3.33895 F2400.00000
G92 E0
G1 X58.510 Y88.986 F7800.000
G1 E2.00000 F2400.00000
G1 F1800.000
G1 X58.800 Y88.986 E2.00961
G1 X58.950 Y89.041 E2.01490
G1 X59.070 Y89.131 E2.01989
G1 X59.161 Y89.253 E2.02492
G1 X59.217 Y89.405 E2.03028
G1 X59.217 Y89.700 E2.04006
G1 X59.161 Y89.850 E2.04536
G1 X59.072 Y89.972 E2.05037
G1 X58.952 Y90.064 E2.05539
G1 X58.810 Y90.119 E2.06044
G1 X58.653 Y90.136 E2.06565
G1 X58.500 Y90.119 E2.07076
G1 X58.360 Y90.063 E2.07575
G1 X58.243 Y89.970 E2.08073
G1 X58.156 Y89.848 E2.08568
G1 X58.103 Y89.699 E2.09092
G1 X58.103 Y89.406 E2.10063
G1 X58.156 Y89.255 E2.10593
G1 X58.244 Y89.133 E2.11091
G1 X58.362 Y89.042 E2.11586
G1 X58.454 Y89.007 E2.11911
G1 X57.916 Y90.071 F7800.000
G1 F1800.000
G1 X56.957 Y90.071 E2.15088
G1 X56.455 Y88.727 E2.19841
G1 X54.885 Y88.727 E2.25041
G1 X54.397 Y90.071 E2.29778
G1 X53.473 Y90.071 E2.32842
G1 X55.443 Y84.749 E2.51642
G1 X55.939 Y84.749 E2.53284
G1 X57.895 Y90.015 E2.71895
G1 E0.71895 F2400.00000
G92 E0
G1 X53.488 Y88.883 F7800.000
G1 E2.00000 F2400.00000
G1 F1800.000
G1 X53.176 Y89.422 E2.02062
G1 X52.742 Y89.820 E2.04014
G1 X52.201 Y90.059 E2.05973
G1 X51.569 Y90.136 E2.08082
G1 X51.218 Y90.114 E2.09248
G1 X50.899 Y90.049 E2.10326
G1 X50.609 Y89.938 E2.11353
G1 X50.351 Y89.787 E2.12345
G1 X50.124 Y89.599 E2.13323
G1 X49.928 Y89.374 E2.14309
G1 X49.764 Y89.118 E2.15316
G1 X49.633 Y88.834 E2.16354
G1 X49.534 Y88.521 E2.17442
G1 X49.465 Y88.184 E2.18581
G1 X49.425 Y87.824 E2.19779
G1 X49.411 Y87.439 E2.21057
G1 X49.470 Y86.662 E2.23637
G1 X49.652 Y86.002 E2.25907
G1 X49.962 Y85.463 E2.27965
G1 X50.393 Y85.065 E2.29911
G1 X50.931 Y84.826 E2.31861
G1 X51.559 Y84.749 E2.33957
G1 X51.914 Y84.771 E2.35136
G1 X52.236 Y84.836 E2.36225
G1 X52.528 Y84.947 E2.37259
G1 X52.788 Y85.098 E2.38256
G1 X53.017 Y85.286 E2.39237
G1 X53.213 Y85.510 E2.40224
G1 X53.377 Y85.766 E2.41231
G1 X53.508 Y86.051 E2.42270
G1 X53.607 Y86.364 E2.43357
G1 X53.676 Y86.701 E2.44496
G1 X53.717 Y87.060 E2.45695
G1 X53.731 Y87.446 E2.46973
G1 X53.672 Y88.222 E2.49554
G1 X53.504 Y88.825 E2.51627
G1 E0.51627 F2400.00000
G92 E0
G1 X49.651 Y90.071 F7800.000
G1 E2.00000 F2400.00000
G1 F1800.000
G1 X48.692 Y90.071 E2.03177
G1 X48.190 Y88.727 E2.07930
G1 X46.620 Y88.727 E2.13131
G1 X46.132 Y90.071 E2.17868
G1 X45.207 Y90.071 E2.20931
G1 X47.177 Y84.749 E2.39732
G1 X47.673 Y84.749 E2.41373
G1 X49.630 Y90.015 E2.59984
G1 E0.59984 F2400.00000
G92 E0
G1 X36.048 Y85.988 F7800.000
G1 E2.00000 F2400.00000
G1 F1800.000
G1 X34.782 Y86.908 E2.05184
G1 X33.218 Y86.908 E2.10369
G1 X31.952 Y85.988 E2.15553
G1 X31.468 Y84.500 E2.20738
G1 X31.952 Y83.012 E2.25922
G1 X33.218 Y82.092 E2.31107
G1 X34.782 Y82.092 E2.36291
G1 X36.048 Y83.012 E2.41475
G1 X36.532 Y84.500 E2.46660
G1 X36.067 Y85.931 E2.51646
G1 X35.823 Y85.824 F7800.000
G1 F1800.000
G1 X34.696 Y86.643 E2.56258
G1 X33.304 Y86.643 E2.60871
G1 X32.177 Y85.824 E2.65483
G1 X31.747 Y84.500 E2.70096
G1 X32.177 Y83.176 E2.74708
G1 X33.304 Y82.357 E2.79321
G1 X34.696 Y82.357 E2.83934
G1 X35.823 Y83.176 E2.88546
G1 X36.253 Y84.500 E2.93159
G1 X35.841 Y85.767 E2.97573
G1 X35.597 Y85.660 F7800.000
G1 F1800.000
G1 X34.610 Y86.377 E3.01613
G1 X33.390 Y86.377 E3.05654
G1 X32.403 Y85.660 E3.09695
G1 X32.027 Y84.500 E3.13736
G1 X32.403 Y83.340 E3.17776
G1 X33.390 Y82.623 E3.21817
G1 X34.610 Y82.623 E3.25858
G1 X35.597 Y83.340 E3.29899
G1 X35.973 Y84.500 E3.33939
G1 X35.615 Y85.603 E3.37781
G1 E1.37781 F2400.00000
G92 E0
G1 X71.468 Y84.500 F7800.000
G1 E2.00000 F2400.00000
G1 F1800.000
G1 X71.952 Y83.012 E2.05184
G1 X73.218 Y82.092 E2.10369
G1 X74.782 Y82.092 E2.15553
G1 X76.048 Y83.012 E2.20738
G1 X76.532 Y84.500 E2.25922
G1 X76.048 Y85.988 E2.31107
G1 X74.782 Y86.908 E2.36291
G1 X73.218 Y86.908 E2.41475
G1 X71.952 Y85.988 E2.46660
G1 X71.486 Y84.557 E2.51645
G1 X71.747 Y84.500 F7800.000
G1 F1800.000
G1 X72.177 Y83.176 E2.56258
G1 X73.304 Y82.357 E2.60871
G1 X74.696 Y82.357 E2.65483
G1 X75.822 Y83.176 E2.70096
G1 X76.253 Y84.500 E2.74708
G1 X75.822 Y85.824 E2.79321
G1 X74.696 Y86.643 E2.83933
G1 X73.304 Y86.643 E2.88546
G1 X72.177 Y85.824 E2.93158
G1 X71.766 Y84.557 E2.97572
G1 X72.027 Y84.500 F7800.000
G1 F1800.000
G1 X72.403 Y83.340 E3.01613
G1 X73.390 Y82.623 E3.05654
G1 X74.610 Y82.623 E3.09694
G1 X75.597 Y83.340 E3.13735
G1 X75.973 Y84.500 E3.17776
G1 X75.597 Y85.660 E3.21817
G1 X74.610 Y86.377 E3.25857
G1 X73.390 Y86.377 E3.29898
G1 X72.403 Y85.660 E3.33939
G1 X72.045 Y84.557 E3.37781
G1 E1.37781 F2400.00000
G92 E0
G1 X70.927 Y91.826 F7800.000
G1 E2.00000 F2400.00000
G1 F1800.000
G1 X73.472 Y91.826 E2.08433
G1 X73.472 Y96.050 E2.22427
G1 X76.747 Y96.050 E2.33275
G1 X76.747 Y91.826 E2.47269
G1 X79.291 Y91.826 E2.55699
G1 X79.291 Y102.946 E2.92541
G1 X76.747 Y102.946 E3.00970
G1 X76.747 Y98.466 E3.15812
G1 X73.472 Y98.466 E3.26661
G1 X73.472 Y102.946 E3.41503
G1 X70.927 Y102.946 E3.49936
G1 X70.927 Y91.886 E3.86579
G1 X71.192 Y92.091 F7800.000
G1 F1800.000
G1 X73.207 Y92.091 E3.93252
G1 X73.207 Y96.315 E4.07246
G1 X77.012 Y96.315 E4.19854
G1 X77.012 Y92.091 E4.33848
G1 X79.026 Y92.091 E4.40517
G1 X79.026 Y102.681 E4.75599
G1 X77.012 Y102.681 E4.82269
G1 X77.012 Y98.201 E4.97111
G1 X73.207 Y98.201 E5.09719
G1 X73.207 Y102.681 E5.24561
G1 X71.192 Y102.681 E5.31234
G1 X71.192 Y92.151 E5.66117
G1 X71.458 Y92.357 F7800.000
G1 F1800.000
G1 X72.941 Y92.357 E5.71030
G1 X72.941 Y96.581 E5.85024
G1 X77.278 Y96.581 E5.99392
G1 X77.278 Y92.357 E6.13386
G1 X78.760 Y92.357 E6.18296
G1 X78.760 Y102.415 E6.51618
G1 X77.278 Y102.415 E6.56528
