; Gcode updated with 'stl_info' on 2019-12-09 21:18:24.906458

; stl_min_x = -7.889729891814596e-15
; stl_max_x = 121.06700134277344
; stl_min_y = 1.8039099741414856e-14
; stl_max_y = 115.0
; stl_min_z = 0.0

; generated by Slic3r 1.3.1-dev (Build adea0d9) on 2019-12-09 at 21:18:24

; external perimeters extrusion width = 0.44mm (2.86mm^3/s)
; perimeters extrusion width = 0.56mm (4.14mm^3/s)
; infill extrusion width = 0.50mm (3.66mm^3/s)
; solid infill extrusion width = 0.56mm (3.10mm^3/s)
; top infill extrusion width = 0.56mm (3.10mm^3/s)

M107
G92 E0
;D3D:START:START
T0
M104 S215 T0

G21
G90
M107
T0
G28
G29
M109 T0 S215 T0
G0 F3000
M107
T0
G92 E0
G0 X0 Y149 Z0.1 F3600
G1 Y49 E6.5 F1200
G0 Z1
G92 E0
; Filament gcode

G21 ; set units to millimeters
G90 ; use absolute coordinates
M82 ; use absolute distances for extrusion
G92 E0
G1 Z0.300 F7800.000
G1 E-2.00000 F2400.00000
G92 E0
G1 X33.586 Y131.004 F7800.000
G1 E2.00000 F2400.00000
G1 F1800.000
G1 X33.586 Y131.804 E2.02650
G1 X33.329 Y131.804 E2.03504
G1 X33.329 Y128.196 E2.15455
G1 X53.542 Y128.196 E2.82420
G1 X54.133 Y127.994 E2.84488
G1 X57.584 Y126.690 E2.96712
G1 X60.992 Y125.278 E3.08934
G1 X64.355 Y123.760 E3.21156
G1 X67.668 Y122.137 E3.33379
G1 X70.928 Y120.411 E3.45600
G1 X74.133 Y118.582 E3.57824
G1 X77.278 Y116.655 E3.70045
G1 X80.362 Y114.630 E3.82267
G1 X83.380 Y112.508 E3.94490
G1 X86.330 Y110.293 E4.06712
G1 X89.209 Y107.987 E4.18934
G1 X92.015 Y105.591 E4.31156
G1 X94.743 Y103.108 E4.43378
G1 X97.393 Y100.540 E4.55601
G1 X99.960 Y97.891 E4.67823
G1 X102.443 Y95.162 E4.80045
G1 X104.839 Y92.357 E4.92268
G1 X107.146 Y89.478 E5.04490
G1 X109.361 Y86.528 E5.16712
G1 X111.482 Y83.509 E5.28934
G1 X113.508 Y80.426 E5.41157
G1 X115.435 Y77.280 E5.53378
G1 X117.263 Y74.076 E5.65601
G1 X118.989 Y70.815 E5.77823
G1 X120.613 Y67.502 E5.90046
G1 X122.130 Y64.140 E6.02268
G1 X123.542 Y60.731 E6.14490
G1 X124.847 Y57.280 E6.26713
G1 X126.042 Y53.790 E6.38935
G1 X127.126 Y50.264 E6.51157
G1 X128.100 Y46.705 E6.63379
G1 X128.961 Y43.118 E6.75601
G1 X129.709 Y39.505 E6.87823
G1 X130.343 Y35.871 E7.00046
G1 X130.864 Y32.219 E7.12268
G1 X131.268 Y28.552 E7.24490
G1 X131.557 Y24.874 E7.36712
G1 X131.731 Y21.189 E7.48935
G1 X131.778 Y18.196 E7.58850
G1 X134.234 Y18.196 E7.66987
G1 X134.185 Y21.266 E7.77157
G1 X134.082 Y23.446 E7.84389
G1 X134.896 Y23.446 E7.87085
G1 X134.819 Y25.079 E7.92501
G1 X134.522 Y28.859 E8.05063
G1 X134.106 Y32.628 E8.17626
G1 X133.572 Y36.382 E8.30188
G1 X132.920 Y40.118 E8.42750
G1 X132.150 Y43.831 E8.55313
G1 X131.265 Y47.518 E8.67875
G1 X130.264 Y51.176 E8.80438
G1 X129.150 Y54.800 E8.93000
G1 X127.921 Y58.387 E9.05563
G1 X126.581 Y61.934 E9.18125
G1 X125.130 Y65.438 E9.30687
G1 X123.569 Y68.894 E9.43250
G1 X121.901 Y72.299 E9.55813
G1 X120.127 Y75.650 E9.68375
G1 X118.248 Y78.944 E9.80937
G1 X116.267 Y82.177 E9.93500
G1 X114.185 Y85.346 E10.06062
G1 X112.005 Y88.449 E10.18624
G1 X109.728 Y91.481 E10.31186
G1 X107.357 Y94.440 E10.43749
G1 X104.894 Y97.324 E10.56311
G1 X102.343 Y100.128 E10.68873
G1 X99.704 Y102.851 E10.81436
G1 X96.981 Y105.490 E10.93998
G1 X94.176 Y108.042 E11.06560
G1 X91.293 Y110.505 E11.19123
G1 X88.333 Y112.876 E11.31685
G1 X85.301 Y115.152 E11.44248
G1 X82.199 Y117.332 E11.56810
G1 X79.029 Y119.414 E11.69372
G1 X75.796 Y121.395 E11.81934
G1 X72.502 Y123.274 E11.94497
G1 X69.151 Y125.049 E12.07059
G1 X65.746 Y126.717 E12.19621
G1 X62.290 Y128.277 E12.32184
G1 X58.787 Y129.729 E12.44747
G1 X55.240 Y131.069 E12.57309
G1 X53.093 Y131.804 E12.64825
G1 X45.479 Y131.804 E12.90052
G1 X45.479 Y131.004 E12.92702
G1 X33.646 Y131.004 E13.31903
G1 X33.852 Y131.269 F7800.000
G1 F1800.000
G1 X33.852 Y132.069 E13.34553
G1 X33.063 Y132.069 E13.37166
G1 X33.063 Y127.931 E13.50878
G1 X53.498 Y127.931 E14.18576
G1 X54.043 Y127.744 E14.20485
G1 X57.486 Y126.443 E14.32680
G1 X60.887 Y125.034 E14.44875
G1 X64.242 Y123.520 E14.57069
G1 X67.547 Y121.900 E14.69264
G1 X70.800 Y120.178 E14.81458
G1 X73.997 Y118.354 E14.93654
G1 X77.136 Y116.431 E15.05848
G1 X80.212 Y114.410 E15.18042
G1 X83.224 Y112.293 E15.30237
G1 X86.167 Y110.083 E15.42431
G1 X89.040 Y107.782 E15.54626
G1 X91.839 Y105.391 E15.66821
G1 X94.562 Y102.914 E15.79015
G1 X97.205 Y100.352 E15.91210
G1 X99.767 Y97.709 E16.03405
G1 X102.244 Y94.987 E16.15599
G1 X104.634 Y92.188 E16.27794
G1 X106.936 Y89.315 E16.39988
G1 X109.146 Y86.371 E16.52183
G1 X111.262 Y83.360 E16.64378
G1 X113.283 Y80.283 E16.76572
G1 X115.206 Y77.145 E16.88766
G1 X117.031 Y73.948 E17.00962
G1 X118.752 Y70.695 E17.13156
G1 X120.372 Y67.389 E17.25351
G1 X121.887 Y64.034 E17.37545
G1 X123.295 Y60.634 E17.49740
G1 X124.597 Y57.190 E17.61935
G1 X125.789 Y53.708 E17.74129
G1 X126.871 Y50.190 E17.86323
G1 X127.842 Y46.639 E17.98518
G1 X128.701 Y43.060 E18.10712
G1 X129.448 Y39.456 E18.22907
G1 X130.081 Y35.830 E18.35102
G1 X130.600 Y32.185 E18.47296
G1 X131.003 Y28.527 E18.59491
G1 X131.292 Y24.857 E18.71686
G1 X131.466 Y21.180 E18.83880
G1 X131.516 Y17.931 E18.94648
G1 X134.504 Y17.931 E19.04545
G1 X134.451 Y21.274 E19.15623
G1 X134.361 Y23.181 E19.21946
G1 X135.175 Y23.181 E19.24643
G1 X135.084 Y25.096 E19.30995
G1 X134.786 Y28.884 E19.43585
G1 X134.369 Y32.662 E19.56175
G1 X133.834 Y36.424 E19.68765
G1 X133.180 Y40.168 E19.81355
G1 X132.409 Y43.889 E19.93945
G1 X131.523 Y47.584 E20.06535
G1 X130.520 Y51.250 E20.19125
G1 X129.403 Y54.882 E20.31715
G1 X128.171 Y58.477 E20.44305
G1 X126.828 Y62.032 E20.56895
G1 X125.374 Y65.543 E20.69485
G1 X123.810 Y69.007 E20.82076
G1 X122.138 Y72.420 E20.94665
G1 X120.359 Y75.778 E21.07256
G1 X118.477 Y79.079 E21.19846
G1 X116.491 Y82.319 E21.32436
G1 X114.405 Y85.496 E21.45025
G1 X112.220 Y88.605 E21.57615
G1 X109.938 Y91.644 E21.70205
G1 X107.562 Y94.609 E21.82795
G1 X105.094 Y97.499 E21.95385
G1 X102.536 Y100.310 E22.07975
G1 X99.892 Y103.039 E22.20565
G1 X97.163 Y105.684 E22.33155
G1 X94.352 Y108.241 E22.45745
G1 X91.462 Y110.709 E22.58335
G1 X88.496 Y113.085 E22.70925
G1 X85.457 Y115.367 E22.83515
G1 X82.348 Y117.552 E22.96105
G1 X79.172 Y119.638 E23.08695
G1 X75.932 Y121.624 E23.21285
G1 X72.630 Y123.507 E23.33875
G1 X69.272 Y125.285 E23.46465
G1 X65.859 Y126.957 E23.59055
G1 X62.396 Y128.521 E23.71645
G1 X58.885 Y129.976 E23.84236
G1 X55.330 Y131.319 E23.96825
G1 X53.138 Y132.069 E24.04502
G1 X45.213 Y132.069 E24.30755
G1 X45.213 Y131.269 E24.33406
G1 X33.912 Y131.269 E24.70846
G1 X34.117 Y131.535 F7800.000
G1 F1800.000
G1 X34.117 Y132.335 E24.73497
G1 X14.517 Y132.335 E25.38430
G1 X14.517 Y127.665 E25.53902
G1 X14.987 Y127.665 E25.55459
G1 X14.987 Y131.865 E25.69373
G1 X32.797 Y131.865 E26.28377
G1 X32.797 Y127.665 E26.42291
G1 X53.453 Y127.665 E27.10724
G1 X53.953 Y127.494 E27.12472
G1 X57.388 Y126.196 E27.24639
G1 X60.781 Y124.790 E27.36806
G1 X64.128 Y123.279 E27.48973
G1 X67.426 Y121.663 E27.61140
G1 X70.672 Y119.945 E27.73307
G1 X73.862 Y118.125 E27.85475
G1 X76.994 Y116.207 E27.97641
G1 X80.063 Y114.190 E28.09808
G1 X83.068 Y112.078 E28.21975
G1 X86.005 Y109.873 E28.34142
G1 X88.871 Y107.577 E28.46309
G1 X91.663 Y105.192 E28.58476
G1 X94.380 Y102.720 E28.70642
G1 X97.017 Y100.165 E28.82810
G1 X99.573 Y97.527 E28.94977
G1 X102.045 Y94.811 E29.07143
G1 X104.430 Y92.018 E29.19310
G1 X106.726 Y89.152 E29.31477
G1 X108.931 Y86.215 E29.43644
G1 X111.043 Y83.211 E29.55811
G1 X113.059 Y80.141 E29.67978
G1 X114.978 Y77.010 E29.80144
G1 X116.798 Y73.820 E29.92313
G1 X118.516 Y70.574 E30.04479
G1 X120.132 Y67.276 E30.16646
G1 X121.643 Y63.929 E30.28813
G1 X123.048 Y60.536 E30.40980
G1 X124.347 Y57.100 E30.53147
G1 X125.536 Y53.626 E30.65314
G1 X126.616 Y50.116 E30.77481
G1 X127.585 Y46.573 E30.89648
G1 X128.442 Y43.002 E31.01814
G1 X129.187 Y39.406 E31.13981
G1 X129.819 Y35.788 E31.26149
G1 X130.336 Y32.152 E31.38316
G1 X130.739 Y28.502 E31.50483
G1 X131.027 Y24.841 E31.62649
G1 X131.200 Y21.172 E31.74816
G1 X131.255 Y17.665 E31.86437
G1 X134.774 Y17.665 E31.98094
G1 X134.716 Y21.283 E32.10080
G1 X134.639 Y22.915 E32.15494
G1 X135.453 Y22.915 E32.18191
G1 X135.350 Y25.112 E32.25479
G1 X135.051 Y28.909 E32.38097
G1 X134.633 Y32.695 E32.50714
G1 X134.096 Y36.466 E32.63332
G1 X133.441 Y40.217 E32.75949
G1 X132.669 Y43.947 E32.88567
G1 X131.780 Y47.650 E33.01185
G1 X130.775 Y51.324 E33.13803
G1 X129.655 Y54.964 E33.26420
G1 X128.421 Y58.567 E33.39038
G1 X127.075 Y62.130 E33.51655
G1 X125.617 Y65.649 E33.64273
G1 X124.050 Y69.120 E33.76892
G1 X122.374 Y72.540 E33.89509
G1 X120.592 Y75.906 E34.02127
G1 X118.705 Y79.214 E34.14745
G1 X116.715 Y82.462 E34.27362
G1 X114.624 Y85.645 E34.39980
G1 X112.435 Y88.761 E34.52597
G1 X110.148 Y91.807 E34.65215
G1 X107.767 Y94.779 E34.77832
G1 X105.293 Y97.675 E34.90450
G1 X102.730 Y100.492 E35.03068
G1 X100.079 Y103.227 E35.15685
G1 X97.344 Y105.877 E35.28303
G1 X94.527 Y108.441 E35.40921
G1 X91.631 Y110.914 E35.53538
G1 X88.659 Y113.295 E35.66156
G1 X85.613 Y115.582 E35.78774
G1 X82.497 Y117.772 E35.91391
G1 X79.314 Y119.863 E36.04008
G1 X76.067 Y121.853 E36.16626
G1 X72.758 Y123.740 E36.29244
G1 X69.393 Y125.522 E36.41861
G1 X65.972 Y127.197 E36.54479
G1 X62.501 Y128.765 E36.67097
G1 X58.983 Y130.223 E36.79715
G1 X55.420 Y131.569 E36.92333
G1 X53.182 Y132.335 E37.00170
G1 X44.947 Y132.335 E37.27449
G1 X44.947 Y131.535 E37.30100
G1 X34.177 Y131.535 E37.65780
G1 X32.930 Y132.100 F7800.000
G1 F1800.000
G1 X14.855 Y132.100 E37.97343
G1 X14.770 Y132.082 E37.97494
G1 X14.752 Y131.998 E37.97645
G1 X14.752 Y127.798 E38.04979
G1 E36.04979 F2400.00000
G92 E0
G1 X33.630 Y128.565 F7800.000
G1 E2.00000 F2400.00000
G1 F1800.000
G1 X33.491 Y128.565 E2.00462
G1 X33.491 Y128.704 E2.00924
G1 X33.837 Y128.359 E2.02549
G1 X34.214 Y128.359 E2.03804
G1 X33.491 Y129.081 E2.07204
G1 X33.491 Y129.458 E2.08459
G1 X34.591 Y128.359 E2.13634
G1 X34.968 Y128.359 E2.14889
G1 X33.491 Y129.836 E2.21838
G1 X33.491 Y130.213 E2.23093
G1 X35.345 Y128.359 E2.31817
G1 X35.723 Y128.359 E2.33072
G1 X33.491 Y130.590 E2.43571
G1 X33.491 Y130.841 E2.44407
G1 X33.617 Y130.841 E2.44826
G1 X36.100 Y128.359 E2.56507
G1 X36.477 Y128.359 E2.57762
G1 X33.994 Y130.841 E2.69444
G1 X34.371 Y130.841 E2.70699
G1 X36.854 Y128.359 E2.82380
G1 X37.231 Y128.359 E2.83635
G1 X34.748 Y130.841 E2.95317
G1 X35.126 Y130.841 E2.96572
G1 X37.609 Y128.359 E3.08253
G1 X37.986 Y128.359 E3.09508
G1 X35.503 Y130.841 E3.21190
G1 X35.880 Y130.841 E3.22445
G1 X38.363 Y128.359 E3.34126
G1 X38.740 Y128.359 E3.35381
G1 X36.257 Y130.841 E3.47063
G1 X36.635 Y130.841 E3.48317
G1 X39.117 Y128.359 E3.59999
G1 X39.495 Y128.359 E3.61254
G1 X37.012 Y130.841 E3.72935
G1 X37.389 Y130.841 E3.74190
G1 X39.872 Y128.359 E3.85872
G1 X40.249 Y128.359 E3.87127
G1 X37.766 Y130.841 E3.98808
G1 X38.143 Y130.841 E4.00063
G1 X40.626 Y128.359 E4.11745
G1 X41.003 Y128.359 E4.13000
G1 X38.521 Y130.841 E4.24681
G1 X38.898 Y130.841 E4.25936
G1 X41.381 Y128.359 E4.37618
G1 X41.758 Y128.359 E4.38873
G1 X39.275 Y130.841 E4.50554
G1 X39.652 Y130.841 E4.51809
G1 X42.135 Y128.359 E4.63491
G1 X42.512 Y128.359 E4.64746
G1 X40.029 Y130.841 E4.76427
G1 X40.407 Y130.841 E4.77682
G1 X42.890 Y128.359 E4.89364
G1 X43.267 Y128.359 E4.90619
G1 X40.784 Y130.841 E5.02300
G1 X41.161 Y130.841 E5.03555
G1 X43.644 Y128.359 E5.15237
G1 X44.021 Y128.359 E5.16492
G1 X41.538 Y130.841 E5.28173
G1 X41.915 Y130.841 E5.29428
G1 X44.398 Y128.359 E5.41110
G1 X44.776 Y128.359 E5.42365
G1 X42.293 Y130.841 E5.54046
G1 X42.670 Y130.841 E5.55301
G1 X45.153 Y128.359 E5.66983
G1 X45.530 Y128.359 E5.68238
G1 X43.047 Y130.841 E5.79919
G1 X43.424 Y130.841 E5.81174
G1 X45.907 Y128.359 E5.92856
G1 X46.284 Y128.359 E5.94110
G1 X43.801 Y130.841 E6.05792
G1 X44.179 Y130.841 E6.07047
G1 X46.662 Y128.359 E6.18729
G1 X47.039 Y128.359 E6.19983
G1 X44.556 Y130.841 E6.31665
G1 X44.933 Y130.841 E6.32920
G1 X47.416 Y128.359 E6.44601
G1 X47.793 Y128.359 E6.45856
G1 X45.310 Y130.841 E6.57538
G1 X45.641 Y130.841 E6.58638
G1 X45.641 Y130.888 E6.58793
G1 X48.170 Y128.359 E6.70693
G1 X48.548 Y128.359 E6.71948
G1 X45.641 Y131.265 E6.85623
G1 X45.642 Y131.641 E6.86875
G1 X48.925 Y128.359 E7.02320
G1 X49.302 Y128.359 E7.03575
G1 X46.019 Y131.641 E7.19021
G1 X46.396 Y131.641 E7.20275
G1 X49.679 Y128.359 E7.35721
G1 X50.056 Y128.359 E7.36976
G1 X46.774 Y131.641 E7.52421
G1 X47.151 Y131.641 E7.53676
G1 X50.434 Y128.359 E7.69121
G1 X50.811 Y128.359 E7.70376
G1 X47.528 Y131.641 E7.85822
G1 X47.905 Y131.641 E7.87077
G1 X51.188 Y128.359 E8.02522
G1 X51.565 Y128.359 E8.03777
G1 X48.282 Y131.641 E8.19222
G1 X48.660 Y131.641 E8.20477
G1 X51.943 Y128.359 E8.35922
G1 X52.320 Y128.359 E8.37177
G1 X49.037 Y131.641 E8.52623
G1 X49.414 Y131.641 E8.53878
G1 X52.697 Y128.359 E8.69323
G1 X53.074 Y128.359 E8.70578
G1 X49.791 Y131.641 E8.86023
G1 X50.168 Y131.641 E8.87278
G1 X53.451 Y128.359 E9.02724
G1 X53.689 Y128.359 E9.03515
G1 X53.901 Y128.286 E9.04259
G1 X50.546 Y131.641 E9.20045
G1 X50.923 Y131.641 E9.21300
G1 X54.483 Y128.082 E9.38048
G1 X55.089 Y127.853 E9.40204
G1 X51.300 Y131.641 E9.58030
G1 X51.677 Y131.641 E9.59285
G1 X55.695 Y127.623 E9.78190
G1 X56.302 Y127.394 E9.80346
G1 X52.054 Y131.641 E10.00329
G1 X52.432 Y131.641 E10.01584
G1 X56.908 Y127.165 E10.22645
G1 X57.515 Y126.936 E10.24801
G1 X52.809 Y131.641 E10.46941
G1 X52.946 Y131.641 E10.47396
G1 X53.311 Y131.516 E10.48681
G1 X58.142 Y126.686 E10.71408
G1 X58.786 Y126.419 E10.73727
G1 X53.885 Y131.320 E10.96785
G1 X54.458 Y131.124 E10.98802
G1 X59.430 Y126.152 E11.22192
G1 X60.074 Y125.885 E11.24511
G1 X55.032 Y130.927 E11.48231
G1 X55.638 Y130.699 E11.50383
G1 X60.718 Y125.619 E11.74285
G1 X61.373 Y125.341 E11.76652
G1 X56.244 Y130.470 E12.00782
G1 X56.850 Y130.241 E12.02938
G1 X62.060 Y125.031 E12.27452
G1 X62.748 Y124.720 E12.29961
G1 X57.456 Y130.012 E12.54858
G1 X58.062 Y129.783 E12.57014
G1 X63.436 Y124.410 E12.82292
G1 X64.123 Y124.099 E12.84802
G1 X58.674 Y129.549 E13.10439
G1 X59.318 Y129.282 E13.12758
G1 X64.829 Y123.771 E13.38686
G1 X65.569 Y123.408 E13.41426
G1 X59.962 Y129.015 E13.67804
G1 X60.606 Y128.748 E13.70123
G1 X66.308 Y123.046 E13.96951
G1 X67.048 Y122.683 E13.99691
G1 X61.250 Y128.481 E14.26968
G1 X61.894 Y128.215 E14.29288
G1 X67.787 Y122.321 E14.57015
G1 X68.580 Y121.905 E14.59993
G1 X62.569 Y127.917 E14.88274
G1 X63.257 Y127.606 E14.90785
G1 X69.382 Y121.481 E15.19601
G1 X70.183 Y121.057 E15.22617
G1 X63.945 Y127.295 E15.51967
G1 X64.633 Y126.985 E15.54478
G1 X70.985 Y120.633 E15.84363
G1 X71.846 Y120.148 E15.87651
G1 X65.320 Y126.674 E16.18353
G1 X66.044 Y126.328 E16.21023
G1 X72.725 Y119.647 E16.52452
G1 X73.603 Y119.146 E16.55817
G1 X66.784 Y125.965 E16.87901
G1 X67.523 Y125.603 E16.90640
G1 X74.493 Y118.633 E17.23434
G1 X75.467 Y118.036 E17.27233
G1 X68.262 Y125.241 E17.61130
G1 X69.008 Y124.873 E17.63897
G1 X76.441 Y117.439 E17.98868
G1 X77.415 Y116.843 E18.02668
G1 X69.810 Y124.448 E18.38449
G1 X70.612 Y124.024 E18.41467
G1 X78.500 Y116.135 E18.78582
G1 X79.600 Y115.412 E18.82958
G1 X71.413 Y123.599 E19.21473
G1 X72.215 Y123.175 E19.24491
G1 X80.712 Y114.677 E19.64469
G1 X81.982 Y113.785 E19.69630
G1 X73.088 Y122.679 E20.11474
G1 X73.966 Y122.178 E20.14837
G1 X83.251 Y112.893 E20.58521
G1 X84.690 Y111.831 E20.64470
G1 X74.844 Y121.677 E21.10793
G1 X75.740 Y121.159 E21.14237
G1 X86.203 Y110.695 E21.63466
G1 X88.001 Y109.275 E21.71087
G1 X76.714 Y120.562 E22.24189
G1 X77.688 Y119.964 E22.27990
G1 X90.049 Y107.604 E22.86143
G1 X92.294 Y105.687 E22.95965
G1 X92.844 Y105.185 E22.98442
G1 X78.662 Y119.367 E23.65166
G1 E21.65166 F2400.00000
G92 E0
G1 X99.408 Y102.771 F7800.000
G1 E2.00000 F2400.00000
G1 F1800.000
G1 X102.252 Y99.843 E2.13580
G1 X105.039 Y96.763 E2.27399
G1 X93.615 Y108.187 E2.81146
G1 X91.030 Y110.395 E2.92456
G1 X107.247 Y94.178 E3.68755
G1 X108.770 Y92.278 E3.76854
G1 X89.130 Y111.917 E4.69254
G1 X88.067 Y112.769 E4.73785
G1 X87.402 Y113.269 E4.76553
G1 X110.121 Y90.549 E5.83442
G1 X111.258 Y89.036 E5.89739
G1 X85.888 Y114.405 E7.09096
G1 X85.042 Y115.041 E7.12618
G1 X84.482 Y115.434 E7.14892
G1 X112.286 Y87.630 E8.45703
G1 X113.178 Y86.361 E8.50864
G1 X83.213 Y116.326 E9.91843
G1 X81.944 Y117.217 E9.97002
G1 X114.070 Y85.092 E11.48146
G1 X114.792 Y83.993 E11.52520
G1 X80.845 Y117.939 E13.12231
