; Gcode updated with 'stl_info' on 2019-12-09 21:19:41.009893

; stl_min_x = -98.77459716796875
; stl_max_x = 115.0
; stl_min_y = -106.5
; stl_max_y = 30.0
; stl_min_z = -60.005001068115234

; generated by Slic3r 1.3.1-dev (Build adea0d9) on 2019-12-09 at 21:19:40

; external perimeters extrusion width = 0.44mm (2.86mm^3/s)
; perimeters extrusion width = 0.56mm (4.14mm^3/s)
; infill extrusion width = 0.50mm (3.66mm^3/s)
; solid infill extrusion width = 0.56mm (3.10mm^3/s)
; top infill extrusion width = 0.56mm (3.10mm^3/s)

M107
G92 E0
;D3D:START:START
T0
M104 S215 T0

G21
G90
M107
T0
G28
G29
M109 T0 S215 T0
G0 F3000
M107
T0
G92 E0
G0 X0 Y149 Z0.1 F3600
G1 Y49 E6.5 F1200
G0 Z1
G92 E0
; Filament gcode

G21 ; set units to millimeters
G90 ; use absolute coordinates
M82 ; use absolute distances for extrusion
G92 E0
G1 Z0.300 F7800.000
G1 E-2.00000 F2400.00000
G92 E0
G1 X104.694 Y34.871 F7800.000
G1 E2.00000 F2400.00000
G1 F1800.000
G1 X105.019 Y34.221 E2.02407
G1 X105.527 Y33.702 E2.04813
G1 X106.171 Y33.368 E2.07217
G1 X106.887 Y33.252 E2.09620
G1 X107.603 Y33.368 E2.12023
G1 X108.247 Y33.702 E2.14427
G1 X108.756 Y34.221 E2.16833
G1 X109.080 Y34.871 E2.19240
G1 X109.192 Y35.589 E2.21648
G1 X109.080 Y36.308 E2.24057
G1 X108.756 Y36.958 E2.26464
G1 X108.247 Y37.476 E2.28869
G1 X107.603 Y37.811 E2.31274
G1 X106.887 Y37.926 E2.33677
G1 X106.171 Y37.811 E2.36079
G1 X105.527 Y37.476 E2.38484
G1 X105.019 Y36.958 E2.40890
G1 X104.694 Y36.308 E2.43297
G1 X104.583 Y35.589 E2.45705
G1 X104.685 Y34.930 E2.47915
G1 X104.950 Y34.952 F7800.000
G1 F1800.000
G1 X105.238 Y34.377 E2.50046
G1 X105.687 Y33.918 E2.52173
G1 X106.256 Y33.623 E2.54296
G1 X106.887 Y33.521 E2.56415
G1 X107.519 Y33.623 E2.58534
G1 X108.087 Y33.918 E2.60656
G1 X108.537 Y34.377 E2.62783
G1 X108.824 Y34.952 E2.64915
G1 X108.923 Y35.589 E2.67049
G1 X108.824 Y36.226 E2.69184
G1 X108.537 Y36.801 E2.71316
G1 X108.087 Y37.260 E2.73443
G1 X107.519 Y37.555 E2.75565
G1 X106.887 Y37.657 E2.77684
G1 X106.256 Y37.555 E2.79803
G1 X105.687 Y37.260 E2.81926
G1 X105.238 Y36.801 E2.84053
G1 X104.950 Y36.226 E2.86184
G1 X104.852 Y35.589 E2.88319
G1 X104.941 Y35.012 E2.90255
G1 X105.206 Y35.034 F7800.000
G1 F1800.000
G1 X105.457 Y34.533 E2.92111
G1 X105.847 Y34.135 E2.93959
G1 X106.340 Y33.879 E2.95799
G1 X106.887 Y33.790 E2.97635
G1 X107.434 Y33.879 E2.99470
G1 X107.927 Y34.135 E3.01311
G1 X108.318 Y34.533 E3.03159
G1 X108.568 Y35.034 E3.05015
G1 X108.654 Y35.589 E3.06876
G1 X108.568 Y36.144 E3.08736
G1 X108.318 Y36.645 E3.10592
G1 X107.927 Y37.044 E3.12441
G1 X107.434 Y37.300 E3.14281
G1 X106.887 Y37.388 E3.16117
G1 X106.340 Y37.300 E3.17952
G1 X105.847 Y37.044 E3.19793
G1 X105.457 Y36.645 E3.21641
G1 X105.206 Y36.144 E3.23497
G1 X105.120 Y35.589 E3.25358
G1 X105.197 Y35.093 E3.27020
G1 E1.27020 F2400.00000
G92 E0
G1 X93.088 Y28.217 F7800.000
G1 E2.00000 F2400.00000
G1 F1800.000
G1 X88.993 Y27.367 E2.13856
G1 X85.110 Y26.697 E2.26912
G1 X85.110 Y22.718 E2.40095
G1 X85.959 Y22.838 E2.42935
G1 X89.731 Y23.497 E2.55624
G1 X93.482 Y24.274 E2.68312
G1 X97.206 Y25.168 E2.81000
G1 X100.900 Y26.178 E2.93688
G1 X104.560 Y27.304 E3.06376
G1 X108.184 Y28.545 E3.19064
G1 X111.766 Y29.899 E3.31752
G1 X115.305 Y31.364 E3.44440
G1 X118.795 Y32.940 E3.57128
G1 X122.234 Y34.625 E3.69816
G1 X125.619 Y36.417 E3.82504
G1 X128.946 Y38.315 E3.95192
G1 X132.211 Y40.316 E4.07880
G1 X135.412 Y42.418 E4.20568
G1 X138.546 Y44.621 E4.33256
G1 X141.608 Y46.920 E4.45945
G1 X144.597 Y49.315 E4.58632
G1 X147.509 Y51.802 E4.71321
G1 X150.342 Y54.380 E4.84009
G1 X153.092 Y57.045 E4.96697
G1 X155.758 Y59.795 E5.09385
G1 X158.335 Y62.628 E5.22073
G1 X160.822 Y65.540 E5.34761
G1 X163.217 Y68.529 E5.47449
G1 X165.517 Y71.592 E5.60137
G1 X167.719 Y74.725 E5.72826
G1 X169.821 Y77.926 E5.85513
G1 X171.823 Y81.191 E5.98201
G1 X173.720 Y84.518 E6.10889
G1 X175.512 Y87.903 E6.23578
G1 X177.197 Y91.342 E6.36266
G1 X178.773 Y94.833 E6.48954
G1 X180.239 Y98.371 E6.61642
G1 X181.191 Y100.891 E6.70568
G1 X181.191 Y124.274 E7.48032
G1 X177.584 Y124.274 E7.59984
G1 X177.584 Y102.489 E8.32157
G1 X176.576 Y99.821 E8.41603
G1 X175.158 Y96.397 E8.53882
G1 X173.632 Y93.020 E8.66160
G1 X172.002 Y89.691 E8.78438
G1 X170.268 Y86.416 E8.90716
G1 X168.432 Y83.197 E9.02993
G1 X166.495 Y80.037 E9.15272
G1 X164.460 Y76.939 E9.27550
G1 X162.329 Y73.907 E9.39828
G1 X160.104 Y70.944 E9.52106
G1 X157.787 Y68.051 E9.64384
G1 X155.380 Y65.233 E9.76662
G1 X152.886 Y62.492 E9.88940
G1 X150.307 Y59.831 E10.01218
G1 X147.645 Y57.252 E10.13496
G1 X144.904 Y54.757 E10.25774
G1 X142.086 Y52.350 E10.38052
G1 X139.194 Y50.033 E10.50330
G1 X136.230 Y47.808 E10.62608
G1 X133.198 Y45.677 E10.74886
G1 X130.100 Y43.642 E10.87165
G1 X126.940 Y41.706 E10.99442
G1 X123.392 Y39.682 E11.12974
G1 X122.219 Y40.501 E11.17715
G1 X121.813 Y40.756 E11.19304
G1 X121.703 Y40.756 E11.19670
G1 X118.455 Y42.327 E11.31621
G1 X115.222 Y43.224 E11.42738
G1 X111.887 Y43.526 E11.53830
G1 X108.553 Y43.224 E11.64921
G1 X105.320 Y42.327 E11.76038
G1 X102.072 Y40.756 E11.87990
G1 X101.962 Y40.756 E11.88356
G1 X101.555 Y40.500 E11.89950
G1 X100.550 Y39.793 E11.94018
G1 X99.592 Y39.024 E11.98090
G1 X98.682 Y38.193 E12.02172
G1 X97.824 Y37.305 E12.06264
G1 X97.021 Y36.362 E12.10365
G1 X96.277 Y35.369 E12.14476
G1 X95.595 Y34.329 E12.18597
G1 X94.976 Y33.247 E12.22726
G1 X94.425 Y32.126 E12.26863
G1 X93.942 Y30.972 E12.31008
G1 X93.531 Y29.788 E12.35161
G1 X93.105 Y28.275 E12.40369
G1 X92.876 Y28.444 F7800.000
G1 F1800.000
G1 X88.944 Y27.628 E12.53677
G1 X85.301 Y26.992 E12.65927
G1 X84.844 Y26.927 E12.67455
G1 X84.844 Y22.411 E12.82415
G1 X86.000 Y22.576 E12.86284
G1 X89.781 Y23.236 E12.99000
G1 X93.540 Y24.014 E13.11715
G1 X97.272 Y24.910 E13.24431
G1 X100.974 Y25.923 E13.37147
G1 X104.642 Y27.052 E13.49862
G1 X108.274 Y28.295 E13.62578
G1 X111.864 Y29.652 E13.75294
G1 X115.410 Y31.120 E13.88009
G1 X118.908 Y32.700 E14.00725
G1 X122.355 Y34.388 E14.13441
G1 X125.747 Y36.184 E14.26157
G1 X129.081 Y38.086 E14.38873
G1 X132.354 Y40.092 E14.51588
G1 X135.562 Y42.199 E14.64304
G1 X138.702 Y44.406 E14.77020
G1 X141.771 Y46.710 E14.89735
G1 X144.767 Y49.110 E15.02451
G1 X147.685 Y51.603 E15.15167
G1 X150.524 Y54.186 E15.27883
G1 X153.280 Y56.857 E15.40598
G1 X155.951 Y59.613 E15.53314
G1 X158.534 Y62.452 E15.66030
G1 X161.027 Y65.371 E15.78745
G1 X163.427 Y68.366 E15.91461
G1 X165.732 Y71.435 E16.04177
G1 X167.938 Y74.576 E16.16893
G1 X170.046 Y77.784 E16.29608
G1 X172.051 Y81.056 E16.42324
G1 X173.953 Y84.390 E16.55039
G1 X175.749 Y87.782 E16.67756
G1 X177.438 Y91.229 E16.80472
G1 X179.017 Y94.727 E16.93187
G1 X180.486 Y98.273 E17.05903
G1 X181.457 Y100.843 E17.15003
G1 X181.457 Y124.539 E17.93509
G1 X177.318 Y124.539 E18.07220
G1 X177.318 Y102.537 E18.80112
G1 X176.329 Y99.919 E18.89384
G1 X174.914 Y96.503 E19.01635
G1 X173.392 Y93.133 E19.13886
G1 X171.765 Y89.812 E19.26136
G1 X170.035 Y86.544 E19.38386
G1 X168.203 Y83.332 E19.50636
G1 X166.271 Y80.179 E19.62887
G1 X164.241 Y77.089 E19.75137
G1 X162.114 Y74.063 E19.87388
G1 X159.894 Y71.106 E19.99638
G1 X157.582 Y68.221 E20.11888
G1 X155.181 Y65.409 E20.24139
G1 X152.692 Y62.674 E20.36389
G1 X150.119 Y60.018 E20.48640
G1 X147.463 Y57.445 E20.60890
G1 X144.728 Y54.957 E20.73140
G1 X141.917 Y52.555 E20.85391
G1 X139.031 Y50.243 E20.97641
G1 X136.074 Y48.023 E21.09892
G1 X133.048 Y45.897 E21.22142
G1 X129.958 Y43.867 E21.34392
G1 X126.805 Y41.935 E21.46643
G1 X123.407 Y39.996 E21.59604
G1 X122.366 Y40.722 E21.63809
G1 X121.890 Y41.022 E21.65673
G1 X121.763 Y41.022 E21.66092
G1 X118.549 Y42.577 E21.77921
G1 X115.269 Y43.487 E21.89197
G1 X111.887 Y43.793 E22.00447
G1 X108.505 Y43.487 E22.11698
G1 X105.225 Y42.577 E22.22974
G1 X102.011 Y41.022 E22.34803
G1 X101.885 Y41.022 E22.35221
G1 X101.407 Y40.721 E22.37093
G1 X100.391 Y40.005 E22.41211
G1 X99.419 Y39.225 E22.45339
G1 X98.497 Y38.383 E22.49476
G1 X97.627 Y37.483 E22.53623
G1 X96.814 Y36.528 E22.57780
G1 X96.060 Y35.522 E22.61945
G1 X95.368 Y34.468 E22.66120
G1 X94.742 Y33.372 E22.70304
G1 X94.183 Y32.236 E22.74496
G1 X93.694 Y31.067 E22.78695
G1 X93.277 Y29.868 E22.82901
G1 X92.893 Y28.502 E22.87601
G1 E20.87601 F2400.00000
G92 E0
G1 X85.040 Y22.171 F7800.000
G1 E2.00000 F2400.00000
G1 F1800.000
G1 X86.042 Y22.314 E2.03353
G1 X89.831 Y22.975 E2.16097
G1 X93.598 Y23.755 E2.28840
G1 X97.338 Y24.653 E2.41583
G1 X101.048 Y25.668 E2.54327
G1 X104.725 Y26.799 E2.67070
G1 X108.364 Y28.045 E2.79813
G1 X111.962 Y29.405 E2.92557
G1 X115.516 Y30.877 E3.05300
G1 X119.021 Y32.459 E3.18043
G1 X122.476 Y34.152 E3.30787
G1 X125.875 Y35.952 E3.43530
G1 X129.216 Y37.857 E3.56274
G1 X132.496 Y39.867 E3.69017
G1 X135.711 Y41.979 E3.81760
G1 X138.858 Y44.191 E3.94504
G1 X141.934 Y46.500 E4.07247
G1 X144.936 Y48.905 E4.19990
G1 X147.861 Y51.404 E4.32734
G1 X150.706 Y53.992 E4.45477
G1 X153.468 Y56.669 E4.58220
G1 X156.145 Y59.431 E4.70964
G1 X158.734 Y62.276 E4.83707
G1 X161.232 Y65.201 E4.96451
G1 X163.637 Y68.203 E5.09194
G1 X165.946 Y71.279 E5.21937
G1 X168.158 Y74.426 E5.34681
G1 X168.414 Y74.815 E5.36220
G1 X170.270 Y77.641 E5.47424
G1 X172.280 Y80.921 E5.60168
G1 X174.185 Y84.262 E5.72910
G1 X175.986 Y87.662 E5.85654
G1 X177.678 Y91.116 E5.98398
G1 X179.261 Y94.622 E6.11141
G1 X180.733 Y98.175 E6.23884
G1 X181.722 Y100.794 E6.33159
G1 X181.722 Y143.085 E7.73266
G1 X177.052 Y143.085 E7.88738
G1 X177.052 Y142.615 E7.90295
G1 X181.252 Y142.615 E8.04209
G1 X181.252 Y124.805 E8.63213
G1 X177.052 Y124.805 E8.77127
G1 X177.052 Y102.586 E9.50739
G1 X176.082 Y100.017 E9.59836
G1 X174.670 Y96.608 E9.72059
G1 X173.151 Y93.246 E9.84282
G1 X171.528 Y89.933 E9.96505
G1 X169.802 Y86.672 E10.08728
G1 X167.975 Y83.467 E10.20949
G1 X166.046 Y80.322 E10.33173
G1 X164.021 Y77.238 E10.45396
G1 X161.899 Y74.220 E10.57618
G1 X159.684 Y71.269 E10.69841
G1 X157.378 Y68.390 E10.82064
G1 X154.981 Y65.585 E10.94287
G1 X152.498 Y62.856 E11.06509
G1 X149.931 Y60.206 E11.18732
G1 X147.282 Y57.639 E11.30955
G1 X144.553 Y55.156 E11.43178
G1 X141.747 Y52.760 E11.55400
G1 X138.868 Y50.453 E11.67623
G1 X135.918 Y48.238 E11.79846
G1 X132.899 Y46.116 E11.92069
G1 X129.816 Y44.091 E12.04291
G1 X126.670 Y42.163 E12.16514
G1 X123.421 Y40.310 E12.28906
G1 X122.513 Y40.943 E12.32575
G1 X121.966 Y41.288 E12.34714
G1 X121.824 Y41.288 E12.35185
G1 X118.643 Y42.826 E12.46891
G1 X115.317 Y43.749 E12.58326
G1 X111.887 Y44.060 E12.69736
G1 X108.457 Y43.749 E12.81146
G1 X105.131 Y42.826 E12.92581
G1 X101.950 Y41.288 E13.04287
G1 X101.808 Y41.288 E13.04758
G1 X101.260 Y40.942 E13.06907
G1 X100.231 Y40.218 E13.11075
G1 X99.246 Y39.427 E13.15258
G1 X98.311 Y38.574 E13.19451
G1 X97.430 Y37.662 E13.23654
G1 X96.606 Y36.694 E13.27865
G1 X95.842 Y35.674 E13.32086
G1 X95.141 Y34.607 E13.36315
G1 X94.507 Y33.496 E13.40553
G1 X93.941 Y32.346 E13.44799
G1 X93.446 Y31.162 E13.49052
G1 X93.024 Y29.948 E13.53312
G1 X92.664 Y28.672 E13.57703
G1 X88.894 Y27.889 E13.70462
G1 X85.259 Y27.254 E13.82684
G1 X84.578 Y27.158 E13.84962
G1 X84.578 Y6.915 E14.52025
G1 X85.040 Y6.915 E14.53553
G1 X85.040 Y22.111 E15.03897
G1 X84.809 Y22.272 F7800.000
G1 F1800.000
G1 X84.809 Y7.048 E15.28811
G1 E13.28811 F2400.00000
G92 E0
G1 X85.272 Y23.127 F7800.000
G1 E2.00000 F2400.00000
G1 F1800.000
G1 X85.479 Y22.920 E2.00968
G1 X85.808 Y22.967 E2.02070
G1 X85.272 Y23.503 E2.04582
G1 X85.272 Y23.879 E2.05827
G1 X86.134 Y23.017 E2.09867
G1 X86.454 Y23.073 E2.10943
G1 X85.272 Y24.255 E2.16482
G1 X85.272 Y24.631 E2.17727
G1 X86.774 Y23.129 E2.24765
G1 X87.094 Y23.185 E2.25842
G1 X85.272 Y25.006 E2.34380
G1 X85.272 Y25.382 E2.35625
G1 X87.414 Y23.241 E2.45663
G1 X87.734 Y23.296 E2.46739
G1 X85.272 Y25.758 E2.58276
G1 X85.272 Y26.134 E2.59521
G1 X88.053 Y23.352 E2.72558
G1 X88.373 Y23.408 E2.73634
G1 X85.272 Y26.510 E2.88170
G1 X85.272 Y26.576 E2.88391
G1 X85.536 Y26.622 E2.89278
G1 X88.693 Y23.464 E3.04078
G1 X89.013 Y23.520 E3.05154
G1 X85.856 Y26.677 E3.19952
G1 X86.177 Y26.732 E3.21030
G1 X89.333 Y23.576 E3.35825
G1 X89.653 Y23.631 E3.36901
G1 X86.497 Y26.788 E3.51694
G1 X86.818 Y26.843 E3.52772
G1 X89.968 Y23.692 E3.67538
G1 X90.279 Y23.757 E3.68592
G1 X87.138 Y26.898 E3.83315
G1 X87.458 Y26.954 E3.84393
G1 X90.591 Y23.821 E3.99073
G1 X90.902 Y23.886 E4.00127
G1 X87.779 Y27.009 E4.14764
G1 X88.099 Y27.064 E4.15842
G1 X91.213 Y23.950 E4.30437
G1 X91.525 Y24.015 E4.31491
G1 X88.420 Y27.119 E4.46042
G1 X88.740 Y27.175 E4.47120
G1 X91.836 Y24.079 E4.61629
G1 X92.147 Y24.144 E4.62682
G1 X89.057 Y27.234 E4.77165
G1 X89.368 Y27.298 E4.78218
G1 X92.459 Y24.208 E4.92701
G1 X92.770 Y24.273 E4.93755
G1 X89.680 Y27.363 E5.08238
G1 X89.991 Y27.427 E5.09291
G1 X93.081 Y24.337 E5.23776
G1 X93.392 Y24.402 E5.24829
G1 X90.302 Y27.492 E5.39314
G1 X90.613 Y27.557 E5.40368
G1 X93.699 Y24.471 E5.54831
G1 X94.002 Y24.544 E5.55864
G1 X90.924 Y27.621 E5.70290
G1 X91.235 Y27.686 E5.71343
G1 X94.305 Y24.616 E5.85730
G1 X94.608 Y24.689 E5.86763
G1 X91.547 Y27.751 E6.01112
G1 X91.858 Y27.815 E6.02165
G1 X94.911 Y24.762 E6.16476
G1 X95.214 Y24.835 E6.17509
G1 X92.169 Y27.880 E6.31782
G1 X92.480 Y27.944 E6.32835
G1 X95.517 Y24.907 E6.47070
G1 X95.820 Y24.980 E6.48103
G1 X92.791 Y28.009 E6.62299
G1 X93.102 Y28.074 E6.63353
G1 X96.123 Y25.053 E6.77511
G1 X96.426 Y25.126 E6.78544
G1 X93.254 Y28.297 E6.93410
G1 X93.337 Y28.591 E6.94420
G1 X96.729 Y25.198 E7.10320
G1 X97.032 Y25.271 E7.11352
G1 X93.420 Y28.884 E7.28285
G1 X93.502 Y29.177 E7.29295
G1 X97.333 Y25.346 E7.47250
G1 X97.628 Y25.427 E7.48264
G1 X93.585 Y29.470 E7.67215
G1 X93.667 Y29.763 E7.68224
G1 X97.923 Y25.508 E7.88171
G1 X98.218 Y25.588 E7.89185
G1 X93.762 Y30.045 E8.10071
G1 X93.859 Y30.323 E8.11050
G1 X98.513 Y25.669 E8.32865
G1 X98.808 Y25.750 E8.33879
G1 X93.956 Y30.602 E8.56622
G1 X94.053 Y30.881 E8.57600
G1 X99.103 Y25.831 E8.81273
G1 X99.398 Y25.911 E8.82286
G1 X94.159 Y31.151 E9.06845
G1 X94.269 Y31.416 E9.07797
G1 X99.694 Y25.992 E9.33220
G1 X99.989 Y26.073 E9.34234
G1 X94.380 Y31.681 E9.60520
G1 X94.491 Y31.946 E9.61472
G1 X100.284 Y26.153 E9.88622
G1 X100.579 Y26.234 E9.89636
G1 X94.606 Y32.207 E10.17629
G1 X94.730 Y32.458 E10.18559
G1 X100.874 Y26.315 E10.47354
G1 X101.163 Y26.402 E10.48354
G1 X94.854 Y32.710 E10.77921
G1 X94.978 Y32.962 E10.78851
G1 X101.450 Y26.490 E11.09185
G1 X101.737 Y26.579 E11.10181
G1 X95.102 Y33.214 E11.41281
G1 X95.238 Y33.454 E11.42194
G1 X102.025 Y26.667 E11.74003
G1 X102.312 Y26.755 E11.74999
G1 X95.375 Y33.693 E12.07515
G1 X95.511 Y33.932 E12.08428
G1 X102.599 Y26.844 E12.41650
G1 X102.887 Y26.932 E12.42646
G1 X95.648 Y34.171 E12.76575
G1 X95.790 Y34.404 E12.77481
G1 X103.174 Y27.021 E13.12088
G1 X103.462 Y27.109 E13.13085
G1 X95.939 Y34.631 E13.48341
G1 X96.088 Y34.858 E13.49240
G1 X103.749 Y27.197 E13.85145
G1 X104.036 Y27.286 E13.86141
G1 X96.237 Y35.085 E14.22695
G1 X96.386 Y35.312 E14.23595
G1 X104.324 Y27.374 E14.60797
G1 X104.610 Y27.463 E14.61792
G1 X96.547 Y35.527 E14.99586
G1 X96.708 Y35.742 E15.00475
G1 X104.890 Y27.559 E15.38827
G1 X105.170 Y27.655 E15.39807
G1 X96.869 Y35.957 E15.78716
G1 X97.030 Y36.172 E15.79606
G1 X105.450 Y27.751 E16.19073
G1 X105.730 Y27.847 E16.20053
G1 X97.195 Y36.382 E16.60055
G1 X97.368 Y36.584 E16.60939
G1 X106.010 Y27.943 E17.01442
G1 X106.290 Y28.039 E17.02423
G1 X97.541 Y36.787 E17.43429
G1 X97.714 Y36.990 E17.44312
G1 X106.570 Y28.134 E17.85820
G1 X106.850 Y28.230 E17.86801
G1 X97.887 Y37.193 E18.28811
G1 X98.069 Y37.387 E18.29692
G1 X107.130 Y28.326 E18.72158
G1 X107.410 Y28.422 E18.73138
G1 X98.254 Y37.578 E19.16051
G1 X98.438 Y37.769 E19.16932
G1 X107.690 Y28.518 E19.60292
G1 X107.970 Y28.614 E19.61272
G1 X98.623 Y37.960 E20.05079
G1 X98.811 Y38.148 E20.05959
G1 X108.248 Y28.711 E20.50193
G1 X108.521 Y28.814 E20.51159
G1 X99.007 Y38.328 E20.95750
G1 X99.204 Y38.507 E20.96631
G1 X108.794 Y28.917 E21.41580
G1 X109.066 Y29.020 E21.42546
G1 X99.400 Y38.686 E21.87852
G1 X99.596 Y38.866 E21.88733
G1 X109.339 Y29.123 E22.34396
G1 X109.612 Y29.226 E22.35363
G1 X99.801 Y39.037 E22.81346
G1 X100.009 Y39.204 E22.82232
G1 X104.348 Y34.865 E23.02569
G1 X104.697 Y34.168 E23.05152
G1 X105.264 Y33.589 E23.07837
G1 X106.001 Y33.213 E23.10580
G1 X109.884 Y29.329 E23.28782
