; Gcode updated with 'stl_info' on 2019-12-09 21:17:43.017106

; stl_min_x = 0.0
; stl_max_x = 100.0
; stl_min_y = -35.0
; stl_max_y = -1.1686900032049767e-15
; stl_min_z = -12.0

; generated by Slic3r 1.3.1-dev (Build adea0d9) on 2019-12-09 at 21:17:42

; external perimeters extrusion width = 0.44mm (2.86mm^3/s)
; perimeters extrusion width = 0.56mm (4.14mm^3/s)
; infill extrusion width = 0.50mm (3.66mm^3/s)
; solid infill extrusion width = 0.56mm (3.10mm^3/s)
; top infill extrusion width = 0.56mm (3.10mm^3/s)

M107
G92 E0
;D3D:START:START
T0
M104 S215 T0

G21
G90
M107
T0
G28
G29
M109 T0 S215 T0
G0 F3000
M107
T0
G92 E0
G0 X0 Y149 Z0.1 F3600
G1 Y49 E6.5 F1200
G0 Z1
G92 E0
; Filament gcode

G21 ; set units to millimeters
G90 ; use absolute coordinates
M82 ; use absolute distances for extrusion
G92 E0
G1 Z0.300 F7800.000
G1 E-2.00000 F2400.00000
G92 E0
G1 X53.218 Y80.092 F7800.000
G1 E2.00000 F2400.00000
G1 F1800.000
G1 X54.782 Y80.092 E2.05184
G1 X56.048 Y81.012 E2.10369
G1 X56.532 Y82.500 E2.15553
G1 X56.048 Y83.988 E2.20738
G1 X54.782 Y84.908 E2.25922
G1 X53.218 Y84.908 E2.31106
G1 X51.952 Y83.988 E2.36291
G1 X51.468 Y82.500 E2.41475
G1 X51.952 Y81.012 E2.46660
G1 X53.169 Y80.127 E2.51645
G1 X53.304 Y80.357 F7800.000
G1 F1800.000
G1 X54.696 Y80.357 E2.56258
G1 X55.822 Y81.176 E2.60870
G1 X56.253 Y82.500 E2.65483
G1 X55.822 Y83.824 E2.70096
G1 X54.696 Y84.643 E2.74708
G1 X53.304 Y84.643 E2.79321
G1 X52.177 Y83.824 E2.83933
G1 X51.747 Y82.500 E2.88546
G1 X52.177 Y81.176 E2.93158
G1 X53.255 Y80.393 E2.97572
G1 X53.390 Y80.623 F7800.000
G1 F1800.000
G1 X54.610 Y80.623 E3.01613
G1 X55.597 Y81.340 E3.05654
G1 X55.973 Y82.500 E3.09694
G1 X55.597 Y83.660 E3.13735
G1 X54.610 Y84.377 E3.17776
G1 X53.390 Y84.377 E3.21816
G1 X52.403 Y83.660 E3.25857
G1 X52.027 Y82.500 E3.29898
G1 X52.403 Y81.340 E3.33939
G1 X53.342 Y80.658 E3.37781
G1 E1.37781 F2400.00000
G92 E0
G1 X53.508 Y70.665 F7800.000
G1 E2.00000 F2400.00000
G1 F1800.000
G1 X53.045 Y69.385 E2.04510
G1 X51.729 Y69.385 E2.08869
G1 X51.266 Y70.665 E2.13379
G1 X49.039 Y70.665 E2.20756
G1 X49.154 Y70.366 E2.21817
G1 X48.373 Y70.696 E2.24625
G1 X47.528 Y70.798 E2.27446
G1 X46.680 Y70.696 E2.30273
G1 X45.866 Y70.355 E2.33198
G1 X45.985 Y70.665 E2.34299
G1 X43.769 Y70.665 E2.41640
G1 X43.306 Y69.385 E2.46150
G1 X41.990 Y69.385 E2.50510
G1 X41.527 Y70.665 E2.55019
G1 X39.301 Y70.665 E2.62396
G1 X41.776 Y64.217 E2.85280
G1 X43.514 Y64.217 E2.91035
G1 X44.486 Y66.754 E3.00039
G1 X44.824 Y65.735 E3.03596
G1 X45.288 Y65.038 E3.06368
G1 X45.920 Y64.505 E3.09109
G1 X46.680 Y64.185 E3.11839
G1 X47.527 Y64.084 E3.14667
G1 X48.373 Y64.186 E3.17489
G1 X49.131 Y64.506 E3.20214
G1 X49.761 Y65.039 E3.22951
G1 X50.224 Y65.735 E3.25720
G1 X50.552 Y66.725 E3.29173
G1 X51.515 Y64.217 E3.38074
G1 X53.252 Y64.217 E3.43830
G1 X54.508 Y67.494 E3.55457
G1 X54.638 Y67.470 E3.55896
G1 X54.638 Y65.689 E3.61797
G1 X56.749 Y65.689 E3.68788
G1 X56.749 Y67.977 E3.76370
G1 X54.693 Y67.977 E3.83180
G1 X54.846 Y68.376 E3.84597
G1 X56.749 Y68.376 E3.90900
G1 X56.749 Y70.665 E3.98482
G1 X53.568 Y70.665 E4.09021
G1 X53.694 Y70.399 F7800.000
G1 F1800.000
G1 X53.231 Y69.119 E4.13531
G1 X51.542 Y69.119 E4.19126
G1 X51.079 Y70.399 E4.23635
G1 X49.426 Y70.399 E4.29114
G1 X49.689 Y69.712 E4.31552
G1 X49.588 Y69.641 E4.31962
G1 X48.990 Y70.147 E4.34558
G1 X48.304 Y70.437 E4.37025
G1 X47.527 Y70.530 E4.39617
G1 X46.749 Y70.437 E4.42215
G1 X46.061 Y70.148 E4.44685
G1 X45.488 Y69.667 E4.47165
G1 X45.445 Y69.603 E4.47421
G1 X45.319 Y69.668 E4.47893
G1 X45.599 Y70.399 E4.50488
G1 X43.956 Y70.399 E4.55932
G1 X43.493 Y69.119 E4.60442
G1 X41.804 Y69.119 E4.66037
G1 X41.341 Y70.399 E4.70546
G1 X39.687 Y70.399 E4.76025
G1 X41.959 Y64.482 E4.97024
G1 X43.331 Y64.482 E5.01569
G1 X44.643 Y67.906 E5.13716
G1 X44.779 Y67.874 E5.14177
G1 X44.738 Y67.443 E5.15611
G1 X44.818 Y66.599 E5.18420
G1 X45.065 Y65.852 E5.21025
G1 X45.488 Y65.217 E5.23553
G1 X46.061 Y64.734 E5.26035
G1 X46.749 Y64.445 E5.28508
G1 X47.527 Y64.351 E5.31107
G1 X48.304 Y64.445 E5.33698
G1 X48.990 Y64.735 E5.36165
G1 X49.561 Y65.218 E5.38643
G1 X49.983 Y65.853 E5.41169
G1 X50.230 Y66.599 E5.43774
G1 X50.310 Y67.443 E5.46582
G1 X50.276 Y67.799 E5.47769
G1 X50.411 Y67.831 E5.48230
G1 X51.697 Y64.482 E5.60114
G1 X53.069 Y64.482 E5.64660
G1 X54.774 Y68.929 E5.80436
G1 X54.904 Y68.905 E5.80876
G1 X54.904 Y68.642 E5.81745
G1 X56.483 Y68.642 E5.86977
G1 X56.483 Y70.399 E5.92799
G1 X53.754 Y70.399 E6.01841
G1 E4.01841 F2400.00000
G92 E0
G1 X49.742 Y68.912 F7800.000
G1 E2.00000 F2400.00000
G1 F1800.000
G1 X49.361 Y69.486 E2.02281
G1 X48.849 Y69.918 E2.04500
G1 X48.235 Y70.178 E2.06709
G1 X47.527 Y70.263 E2.09071
G1 X46.817 Y70.178 E2.11440
G1 X46.201 Y69.919 E2.13654
G1 X45.688 Y69.488 E2.15875
G1 X45.306 Y68.915 E2.18156
G1 X45.079 Y68.231 E2.20542
G1 X45.005 Y67.443 E2.23166
G1 X45.079 Y66.654 E2.25791
G1 X45.306 Y65.970 E2.28179
G1 X45.688 Y65.396 E2.30463
G1 X46.201 Y64.963 E2.32686
G1 X46.817 Y64.704 E2.34901
G1 X47.527 Y64.619 E2.37271
G1 X48.235 Y64.704 E2.39632
G1 X48.849 Y64.963 E2.41842
G1 X49.361 Y65.396 E2.44060
G1 X49.742 Y65.970 E2.46343
G1 X49.969 Y66.654 E2.48731
G1 X50.043 Y67.443 E2.51356
G1 X49.969 Y68.229 E2.53973
G1 X49.761 Y68.855 E2.56158
G1 E0.56158 F2400.00000
G92 E0
G1 X45.213 Y70.134 F7800.000
G1 E2.00000 F2400.00000
G1 F1800.000
G1 X44.142 Y70.134 E2.03547
G1 X43.679 Y68.854 E2.08057
G1 X41.618 Y68.854 E2.14887
G1 X41.155 Y70.134 E2.19396
G1 X40.074 Y70.134 E2.22977
G1 X42.141 Y64.748 E2.42090
G1 X43.148 Y64.748 E2.45426
G1 X45.191 Y70.078 E2.64337
G1 E0.64337 F2400.00000
G92 E0
G1 X49.812 Y70.134 F7800.000
G1 E2.00000 F2400.00000
G1 F1800.000
G1 X51.880 Y64.748 E2.19113
G1 X52.887 Y64.748 E2.22449
G1 X54.951 Y70.134 E2.41558
G1 X53.880 Y70.134 E2.45106
G1 X53.417 Y68.854 E2.49616
G1 X51.356 Y68.854 E2.56445
G1 X50.893 Y70.134 E2.60955
G1 X49.872 Y70.134 E2.64337
G1 E0.64337 F2400.00000
G92 E0
G1 X55.170 Y70.134 F7800.000
G1 E2.00000 F2400.00000
G1 F1800.000
G1 X55.170 Y68.908 E2.04062
G1 X56.218 Y68.908 E2.07534
G1 X56.218 Y70.134 E2.11596
G1 X55.230 Y70.134 E2.14869
G1 E0.14869 F2400.00000
G92 E0
G1 X54.904 Y67.711 F7800.000
G1 E2.00000 F2400.00000
G1 F1800.000
G1 X54.904 Y65.954 E2.05822
G1 X56.483 Y65.954 E2.11054
G1 X56.483 Y67.711 E2.16875
G1 X54.964 Y67.711 E2.21908
G1 X55.170 Y67.446 F7800.000
G1 F1800.000
G1 X55.170 Y66.220 E2.25970
G1 X56.218 Y66.220 E2.29442
G1 X56.218 Y67.446 E2.33504
G1 X55.230 Y67.446 E2.36777
G1 E0.36777 F2400.00000
G92 E0
G1 X36.532 Y64.500 F7800.000
G1 E2.00000 F2400.00000
G1 F1800.000
G1 X36.048 Y65.988 E2.05184
G1 X34.782 Y66.908 E2.10369
G1 X33.218 Y66.908 E2.15553
G1 X31.952 Y65.988 E2.20738
G1 X31.468 Y64.500 E2.25922
G1 X31.952 Y63.012 E2.31107
G1 X33.218 Y62.092 E2.36291
G1 X34.782 Y62.092 E2.41476
G1 X36.048 Y63.012 E2.46660
G1 X36.514 Y64.443 E2.51646
G1 X36.253 Y64.500 F7800.000
G1 F1800.000
G1 X35.823 Y65.824 E2.56258
G1 X34.696 Y66.643 E2.60871
G1 X33.304 Y66.643 E2.65483
G1 X32.177 Y65.824 E2.70096
G1 X31.747 Y64.500 E2.74709
G1 X32.177 Y63.176 E2.79321
G1 X33.304 Y62.357 E2.83934
G1 X34.696 Y62.357 E2.88546
G1 X35.823 Y63.176 E2.93159
G1 X36.234 Y64.443 E2.97573
G1 X35.973 Y64.500 F7800.000
G1 F1800.000
G1 X35.597 Y65.660 E3.01613
G1 X34.610 Y66.377 E3.05654
G1 X33.390 Y66.377 E3.09695
G1 X32.403 Y65.660 E3.13736
G1 X32.027 Y64.500 E3.17776
G1 X32.403 Y63.340 E3.21817
G1 X33.390 Y62.623 E3.25858
G1 X34.610 Y62.623 E3.29899
G1 X35.597 Y63.340 E3.33939
G1 X35.955 Y64.443 E3.37781
G1 E1.37781 F2400.00000
G92 E0
G1 X59.027 Y64.604 F7800.000
G1 E2.00000 F2400.00000
G1 F1800.000
G1 X60.868 Y64.217 E2.06232
G1 X62.324 Y64.217 E2.11058
G1 X62.324 Y68.696 E2.25900
G1 X63.321 Y68.696 E2.29203
G1 X63.321 Y68.376 E2.30263
G1 X65.269 Y68.376 E2.36714
G1 X65.269 Y68.145 E2.37481
G1 X65.483 Y68.237 E2.38256
G1 X65.483 Y64.217 E2.51575
G1 X69.577 Y64.217 E2.65137
G1 X69.577 Y66.185 E2.71659
G1 X68.932 Y66.185 E2.73796
G1 X68.896 Y66.296 E2.74181
G1 X69.244 Y66.543 E2.75594
G1 X69.646 Y67.057 E2.77757
G1 X69.882 Y67.667 E2.79923
G1 X69.956 Y68.337 E2.82155
G1 X69.881 Y69.021 E2.84435
G1 X69.637 Y69.640 E2.86639
G1 X69.218 Y70.156 E2.88842
G1 X68.662 Y70.525 E2.91054
G1 X68.016 Y70.732 E2.93300
G1 X67.309 Y70.795 E2.95651
G1 X66.553 Y70.740 E2.98162
G1 X65.433 Y70.504 E3.01956
G1 X65.433 Y70.665 E3.02488
G1 X59.126 Y70.665 E3.23383
G1 X59.126 Y68.696 E3.29904
G1 X60.250 Y68.696 E3.33628
G1 X60.250 Y66.346 E3.41416
G1 X59.027 Y66.602 E3.45555
G1 X59.027 Y64.664 E3.51976
G1 E1.51976 F2400.00000
G92 E0
G1 X65.749 Y64.482 F7800.000
G1 E2.00000 F2400.00000
G1 F1800.000
G1 X69.311 Y64.482 E2.11802
G1 X69.311 Y65.919 E2.16563
G1 X67.240 Y65.919 E2.23424
G1 X67.240 Y66.159 E2.24219
G1 X67.413 Y66.144 E2.24791
G1 X68.032 Y66.206 E2.26854
G1 X68.587 Y66.402 E2.28805
G1 X69.058 Y66.737 E2.30720
G1 X69.413 Y67.190 E2.32625
G1 X69.622 Y67.730 E2.34545
G1 X69.689 Y68.337 E2.36566
G1 X69.621 Y68.956 E2.38632
G1 X69.405 Y69.504 E2.40582
G1 X69.038 Y69.957 E2.42514
G1 X68.546 Y70.283 E2.44469
G1 X67.963 Y70.470 E2.46496
G1 X67.307 Y70.529 E2.48678
G1 X66.591 Y70.476 E2.51059
G1 X65.534 Y70.254 E2.54635
G1 X65.534 Y68.548 E2.60289
G1 X66.519 Y68.970 E2.63839
G1 X66.888 Y69.059 E2.65096
G1 X67.285 Y69.089 E2.66415
G1 X67.564 Y69.062 E2.67344
G1 X67.771 Y68.991 E2.68070
G1 X67.927 Y68.883 E2.68698
G1 X68.039 Y68.745 E2.69286
G1 X68.108 Y68.570 E2.69908
G1 X68.134 Y68.337 E2.70686
G1 X68.108 Y68.103 E2.71464
G1 X68.039 Y67.929 E2.72086
G1 X67.927 Y67.790 E2.72675
G1 X67.771 Y67.683 E2.73303
G1 X67.565 Y67.612 E2.74027
G1 X67.278 Y67.584 E2.74980
G1 X67.140 Y67.589 E2.75440
G1 X66.681 Y67.678 E2.76986
G1 X65.749 Y68.035 E2.80293
G1 X65.749 Y64.542 E2.91864
G1 X66.015 Y64.748 F7800.000
G1 F1800.000
G1 X69.046 Y64.748 E3.01906
G1 X69.046 Y65.654 E3.04907
G1 X66.975 Y65.654 E3.11768
G1 X66.975 Y66.467 E3.14462
G1 X67.082 Y66.440 E3.14829
G1 X67.411 Y66.411 E3.15921
G1 X67.974 Y66.467 E3.17796
G1 X68.464 Y66.640 E3.19517
G1 X68.873 Y66.931 E3.21181
G1 X69.179 Y67.323 E3.22828
G1 X69.362 Y67.794 E3.24503
G1 X69.422 Y68.337 E3.26311
G1 X69.361 Y68.892 E3.28162
G1 X69.173 Y69.369 E3.29860
G1 X68.857 Y69.758 E3.31521
G1 X68.430 Y70.042 E3.33220
G1 X67.910 Y70.208 E3.35027
G1 X67.305 Y70.262 E3.37040
G1 X66.628 Y70.212 E3.39290
G1 X65.800 Y70.039 E3.42092
G1 X65.800 Y68.950 E3.45697
G1 X66.435 Y69.223 E3.47988
G1 X66.847 Y69.322 E3.49390
G1 X67.288 Y69.355 E3.50856
G1 X67.621 Y69.323 E3.51963
G1 X67.892 Y69.230 E3.52914
G1 X68.110 Y69.080 E3.53792
G1 X68.271 Y68.880 E3.54641
G1 X68.368 Y68.635 E3.55513
G1 X68.402 Y68.337 E3.56508
G1 X68.368 Y68.038 E3.57503
G1 X68.271 Y67.794 E3.58375
G1 X68.110 Y67.594 E3.59224
G1 X67.892 Y67.443 E3.60102
G1 X67.621 Y67.351 E3.61051
G1 X67.286 Y67.318 E3.62167
G1 X66.951 Y67.344 E3.63280
G1 X66.604 Y67.423 E3.64459
G1 X66.015 Y67.649 E3.66550
G1 X66.015 Y64.808 E3.75961
G1 E1.75961 F2400.00000
G92 E0
G1 X65.167 Y68.642 F7800.000
G1 E2.00000 F2400.00000
G1 F1800.000
G1 X65.167 Y70.399 E2.05822
G1 X63.587 Y70.399 E2.11057
G1 X63.587 Y68.642 E2.16879
G1 X65.107 Y68.642 E2.21916
G1 X64.901 Y68.908 F7800.000
G1 F1800.000
G1 X64.901 Y70.134 E2.25978
G1 X63.852 Y70.134 E2.29453
G1 X63.852 Y68.908 E2.33515
G1 X64.841 Y68.908 E2.36791
G1 X63.183 Y68.962 F7800.000
G1 F1800.000
G1 X63.183 Y70.399 E2.41553
G1 X59.391 Y70.399 E2.54114
G1 X59.391 Y68.962 E2.58875
G1 X60.515 Y68.962 E2.62599
G1 X60.515 Y66.019 E2.72350
G1 X59.292 Y66.275 E2.76489
G1 X59.292 Y64.819 E2.81311
G1 X60.895 Y64.482 E2.86738
G1 X62.059 Y64.482 E2.90592
G1 X62.059 Y68.962 E3.05434
G1 X63.123 Y68.962 E3.08959
G1 X62.917 Y69.228 F7800.000
G1 F1800.000
G1 X62.917 Y70.134 E3.11961
G1 X59.657 Y70.134 E3.22761
G1 X59.657 Y69.228 E3.25763
G1 X60.781 Y69.228 E3.29486
G1 X60.781 Y65.692 E3.41200
G1 X59.558 Y65.948 E3.45340
G1 X59.558 Y65.035 E3.48365
G1 X60.923 Y64.748 E3.52985
G1 X61.793 Y64.748 E3.55868
G1 X61.793 Y69.228 E3.70710
G1 X62.857 Y69.228 E3.74235
G1 E1.74235 F2400.00000
G92 E0
G1 X70.567 Y71.629 F7800.000
G1 E2.00000 F2400.00000
G1 F1800.000
G1 X73.330 Y71.629 E2.09152
G1 X73.330 Y75.789 E2.22934
G1 X76.914 Y75.789 E2.34809
G1 X76.914 Y71.629 E2.48591
G1 X79.677 Y71.629 E2.57743
G1 X79.677 Y83.134 E2.95857
G1 X76.914 Y83.134 E3.05009
G1 X76.914 Y78.334 E3.20911
G1 X73.330 Y78.334 E3.32786
G1 X73.330 Y83.134 E3.48688
G1 X70.567 Y83.134 E3.57840
G1 X70.567 Y71.689 E3.95755
G1 X70.833 Y71.895 F7800.000
G1 F1800.000
G1 X73.064 Y71.895 E4.03147
G1 X73.064 Y76.055 E4.16929
G1 X77.180 Y76.055 E4.30565
G1 X77.180 Y71.895 E4.44346
G1 X79.411 Y71.895 E4.51738
G1 X79.411 Y82.868 E4.88092
G1 X77.180 Y82.868 E4.95484
G1 X77.180 Y78.068 E5.11386
G1 X73.064 Y78.068 E5.25022
G1 X73.064 Y82.868 E5.40924
G1 X70.833 Y82.868 E5.48316
G1 X70.833 Y71.955 E5.84471
G1 X71.098 Y72.160 F7800.000
G1 F1800.000
G1 X72.798 Y72.160 E5.90103
G1 X72.798 Y76.320 E6.03885
G1 X77.445 Y76.320 E6.19280
G1 X77.445 Y72.160 E6.33062
G1 X79.145 Y72.160 E6.38694
G1 X79.145 Y82.602 E6.73288
G1 X77.445 Y82.602 E6.78920
G1 X77.445 Y77.802 E6.94822
G1 X72.798 Y77.802 E7.10217
G1 X72.798 Y82.602 E7.26120
G1 X71.098 Y82.602 E7.31752
G1 X71.098 Y72.221 E7.66147
G1 E5.66147 F2400.00000
G92 E0
G1 X73.218 Y66.908 F7800.000
G1 E2.00000 F2400.00000
G1 F1800.000
G1 X71.952 Y65.988 E2.05184
G1 X71.468 Y64.500 E2.10369
G1 X71.952 Y63.012 E2.15553
G1 X73.218 Y62.092 E2.20738
G1 X74.782 Y62.092 E2.25922
G1 X76.048 Y63.012 E2.31107
G1 X76.532 Y64.500 E2.36291
G1 X76.048 Y65.988 E2.41475
G1 X74.782 Y66.908 E2.46660
G1 X73.278 Y66.908 E2.51645
G1 X73.304 Y66.643 F7800.000
G1 F1800.000
G1 X72.177 Y65.824 E2.56258
G1 X71.747 Y64.500 E2.60871
G1 X72.177 Y63.176 E2.65483
G1 X73.304 Y62.357 E2.70096
G1 X74.696 Y62.357 E2.74708
G1 X75.822 Y63.176 E2.79321
G1 X76.253 Y64.500 E2.83933
G1 X75.822 Y65.824 E2.88546
G1 X74.696 Y66.643 E2.93159
G1 X73.364 Y66.643 E2.97572
G1 X73.390 Y66.377 F7800.000
G1 F1800.000
G1 X72.403 Y65.660 E3.01613
G1 X72.027 Y64.500 E3.05654
G1 X72.403 Y63.340 E3.09695
G1 X73.390 Y62.623 E3.13735
G1 X74.610 Y62.623 E3.17776
G1 X75.597 Y63.340 E3.21817
G1 X75.973 Y64.500 E3.25857
G1 X75.597 Y65.660 E3.29898
G1 X74.610 Y66.377 E3.33939
G1 X73.450 Y66.377 E3.37781
G1 E1.37781 F2400.00000
G92 E0
G1 X91.952 Y79.012 F7800.000
G1 E2.00000 F2400.00000
G1 F1800.000
G1 X93.218 Y78.092 E2.05184
G1 X94.782 Y78.092 E2.10369
G1 X96.048 Y79.012 E2.15553
G1 X96.532 Y80.500 E2.20738
G1 X96.048 Y81.988 E2.25922
G1 X94.782 Y82.908 E2.31106
G1 X93.218 Y82.908 E2.36291
G1 X91.952 Y81.988 E2.41475
G1 X91.468 Y80.500 E2.46660
G1 X91.933 Y79.069 E2.51645
G1 X92.177 Y79.176 F7800.000
G1 F1800.000
G1 X93.304 Y78.357 E2.56258
G1 X94.696 Y78.357 E2.60870
G1 X95.822 Y79.176 E2.65483
G1 X96.253 Y80.500 E2.70096
G1 X95.822 Y81.824 E2.74708
G1 X94.696 Y82.643 E2.79321
G1 X93.304 Y82.643 E2.83933
G1 X92.177 Y81.824 E2.88546
G1 X91.747 Y80.500 E2.93158
G1 X92.159 Y79.233 E2.97572
G1 X92.403 Y79.340 F7800.000
G1 F1800.000
G1 X93.390 Y78.623 E3.01613
G1 X94.610 Y78.623 E3.05654
G1 X95.597 Y79.340 E3.09694
G1 X95.973 Y80.500 E3.13735
G1 X95.597 Y81.660 E3.17776
G1 X94.610 Y82.377 E3.21817
G1 X93.390 Y82.377 E3.25857
G1 X92.403 Y81.660 E3.29898
G1 X92.027 Y80.500 E3.33939
G1 X92.385 Y79.397 E3.37781
G1 E1.37781 F2400.00000
G92 E0
G1 X111.952 Y65.988 F7800.000
G1 E2.00000 F2400.00000
G1 F1800.000
G1 X111.468 Y64.500 E2.05184
G1 X111.952 Y63.012 E2.10369
G1 X113.218 Y62.092 E2.15553
G1 X114.782 Y62.092 E2.20738
G1 X116.048 Y63.012 E2.25922
G1 X116.532 Y64.500 E2.31107
G1 X116.048 Y65.988 E2.36291
G1 X114.782 Y66.908 E2.41475
G1 X113.218 Y66.908 E2.46660
G1 X112.000 Y66.024 E2.51645
G1 X112.177 Y65.824 F7800.000
G1 F1800.000
G1 X111.747 Y64.500 E2.56258
G1 X112.177 Y63.176 E2.60871
G1 X113.304 Y62.357 E2.65483
G1 X114.696 Y62.357 E2.70096
G1 X115.822 Y63.176 E2.74708
G1 X116.253 Y64.500 E2.79321
G1 X115.822 Y65.824 E2.83933
G1 X114.696 Y66.643 E2.88546
G1 X113.304 Y66.643 E2.93158
G1 X112.226 Y65.859 E2.97572
G1 X112.403 Y65.660 F7800.000
G1 F1800.000
G1 X112.027 Y64.500 E3.01613
G1 X112.403 Y63.340 E3.05654
G1 X113.390 Y62.623 E3.09695
G1 X114.610 Y62.623 E3.13735
G1 X115.597 Y63.340 E3.17776
