; generated by Slic3r 1.3.1-dev (Build adea0d9) on 2020-02-28 at 18:10:51

; external perimeters extrusion width = 0.44mm (2.86mm^3/s)
; perimeters extrusion width = 0.56mm (4.14mm^3/s)
; infill extrusion width = 0.50mm (3.66mm^3/s)
; solid infill extrusion width = 0.56mm (3.10mm^3/s)
; top infill extrusion width = 0.56mm (3.10mm^3/s)

M107
G92 E0
;D3D:START:START
T0
M104 S215 T0

G21
G90
M107
T0
G28
G29
M109 T0 S215 T0
G0 F3000
M107
T0
G92 E0
G0 X0 Y149 Z0.1 F3600
G1 Y49 E6.5 F1200
G0 Z1
G92 E0
; Filament gcode

G21 ; set units to millimeters
G90 ; use absolute coordinates
M82 ; use absolute distances for extrusion
G92 E0
G1 Z0.300 F7800.000
G1 E-2.00000 F2400.00000
G92 E0
G1 X71.835 Y80.681 F7800.000
G1 E2.00000 F2400.00000
G1 F1800.000
G1 X72.125 Y80.470 E2.01188
G1 X72.716 Y80.145 E2.03420
G1 X73.342 Y79.897 E2.05653
G1 X73.995 Y79.730 E2.07885
G1 X74.663 Y79.645 E2.10117
G1 X75.337 Y79.645 E2.12349
G1 X76.005 Y79.730 E2.14581
G1 X76.658 Y79.897 E2.16814
G1 X77.284 Y80.145 E2.19046
G1 X77.875 Y80.470 E2.21278
G1 X78.165 Y80.681 E2.22466
G1 X78.165 Y89.319 E2.51085
G1 X77.875 Y89.530 E2.52273
G1 X77.284 Y89.855 E2.54505
G1 X76.658 Y90.103 E2.56738
G1 X76.005 Y90.270 E2.58970
G1 X75.337 Y90.355 E2.61202
G1 X74.663 Y90.355 E2.63434
G1 X73.995 Y90.270 E2.65667
G1 X73.342 Y90.103 E2.67899
G1 X72.716 Y89.855 E2.70131
G1 X72.125 Y89.530 E2.72363
G1 X71.835 Y89.319 E2.73551
G1 X71.835 Y80.741 E3.01972
G1 X71.686 Y80.355 F7800.000
G1 E1.01972 F2400.00000
G92 E0
G1 X78.696 Y80.925 F7800.000
G1 E2.00000 F2400.00000
G1 F1800.000
G1 X79.089 Y81.318 E2.01842
G1 X79.452 Y81.766 E2.03750
G1 X79.766 Y82.249 E2.05658
G1 X80.027 Y82.762 E2.07567
G1 X80.233 Y83.300 E2.09475
G1 X80.383 Y83.856 E2.11383
G1 X80.473 Y84.425 E2.13291
G1 X80.503 Y85.000 E2.15200
G1 X80.473 Y85.575 E2.17108
G1 X80.383 Y86.144 E2.19017
G1 X80.233 Y86.700 E2.20924
G1 X80.027 Y87.238 E2.22833
G1 X79.766 Y87.751 E2.24741
G1 X79.452 Y88.234 E2.26649
G1 X79.089 Y88.682 E2.28557
G1 X78.696 Y89.075 E2.30399
G1 X78.696 Y80.985 E2.57202
G1 X78.431 Y80.365 F7800.000
G1 F1800.000
G1 X78.860 Y80.713 E2.59033
G1 X79.287 Y81.140 E2.61034
G1 X79.667 Y81.609 E2.63034
G1 X79.996 Y82.116 E2.65035
G1 X80.270 Y82.654 E2.67035
G1 X80.486 Y83.217 E2.69036
G1 X80.643 Y83.801 E2.71036
G1 X80.737 Y84.397 E2.73036
G1 X80.769 Y85.000 E2.75037
G1 X80.737 Y85.603 E2.77037
G1 X80.643 Y86.200 E2.79039
G1 X80.486 Y86.783 E2.81038
G1 X80.270 Y87.346 E2.83039
G1 X79.996 Y87.884 E2.85039
G1 X79.667 Y88.391 E2.87040
G1 X79.287 Y88.860 E2.89040
G1 X78.860 Y89.287 E2.91041
G1 X78.431 Y89.635 E2.92871
G1 X78.431 Y80.425 E3.23382
G1 E1.23382 F2400.00000
G92 E0
G1 X71.304 Y80.925 F7800.000
G1 E2.00000 F2400.00000
G1 F1800.000
G1 X71.304 Y89.075 E2.27002
G1 X70.911 Y88.682 E2.28844
G1 X70.548 Y88.234 E2.30752
G1 X70.234 Y87.751 E2.32661
G1 X69.973 Y87.238 E2.34569
G1 X69.767 Y86.700 E2.36477
G1 X69.617 Y86.144 E2.38385
G1 X69.527 Y85.575 E2.40293
G1 X69.497 Y85.000 E2.42202
G1 X69.527 Y84.425 E2.44110
G1 X69.617 Y83.856 E2.46018
G1 X69.767 Y83.300 E2.47926
G1 X69.973 Y82.762 E2.49835
G1 X70.234 Y82.249 E2.51743
G1 X70.548 Y81.766 E2.53651
G1 X70.911 Y81.318 E2.55559
G1 X71.261 Y80.967 E2.57203
G1 X71.569 Y80.365 F7800.000
G1 F1800.000
G1 X71.569 Y89.635 E2.87912
G1 X71.140 Y89.287 E2.89743
G1 X70.713 Y88.860 E2.91744
G1 X70.333 Y88.391 E2.93744
G1 X70.004 Y87.884 E2.95744
G1 X69.730 Y87.346 E2.97745
G1 X69.514 Y86.783 E2.99745
G1 X69.357 Y86.199 E3.01746
G1 X69.263 Y85.603 E3.03746
G1 X69.231 Y85.000 E3.05747
G1 X69.263 Y84.397 E3.07747
G1 X69.357 Y83.801 E3.09748
G1 X69.514 Y83.217 E3.11748
G1 X69.730 Y82.654 E3.13749
G1 X70.004 Y82.116 E3.15749
G1 X70.333 Y81.609 E3.17750
G1 X70.713 Y81.140 E3.19750
G1 X71.140 Y80.713 E3.21750
G1 X71.523 Y80.403 E3.23382
G1 X71.453 Y80.118 F7800.000
G1 F1800.000
G1 X71.983 Y79.774 E3.25475
G1 X72.545 Y79.487 E3.27568
G1 X73.135 Y79.261 E3.29661
G1 X73.745 Y79.097 E3.31753
G1 X74.369 Y78.998 E3.33846
G1 X75.000 Y78.965 E3.35939
G1 X75.631 Y78.998 E3.38031
G1 X76.255 Y79.097 E3.40124
G1 X76.865 Y79.261 E3.42217
G1 X77.455 Y79.487 E3.44309
G1 X78.017 Y79.774 E3.46402
G1 X78.547 Y80.118 E3.48495
G1 X79.038 Y80.515 E3.50588
G1 X79.485 Y80.962 E3.52680
G1 X79.882 Y81.453 E3.54773
G1 X80.226 Y81.983 E3.56866
G1 X80.513 Y82.545 E3.58958
G1 X80.739 Y83.135 E3.61051
G1 X80.903 Y83.745 E3.63144
G1 X81.002 Y84.369 E3.65236
G1 X81.035 Y85.000 E3.67329
G1 X81.002 Y85.631 E3.69422
G1 X80.903 Y86.255 E3.71515
G1 X80.739 Y86.865 E3.73607
G1 X80.513 Y87.455 E3.75700
G1 X80.226 Y88.017 E3.77793
G1 X79.882 Y88.547 E3.79885
G1 X79.485 Y89.038 E3.81978
G1 X79.038 Y89.485 E3.84071
G1 X78.547 Y89.882 E3.86163
G1 X78.017 Y90.226 E3.88256
G1 X77.455 Y90.513 E3.90349
G1 X76.865 Y90.739 E3.92442
G1 X76.255 Y90.903 E3.94534
G1 X75.631 Y91.002 E3.96627
G1 X75.000 Y91.035 E3.98720
G1 X74.369 Y91.002 E4.00812
G1 X73.745 Y90.903 E4.02905
G1 X73.135 Y90.739 E4.04998
G1 X72.545 Y90.513 E4.07090
G1 X71.983 Y90.226 E4.09183
G1 X71.453 Y89.882 E4.11276
G1 X70.962 Y89.485 E4.13369
G1 X70.515 Y89.038 E4.15461
G1 X70.118 Y88.547 E4.17554
G1 X69.774 Y88.017 E4.19647
G1 X69.487 Y87.455 E4.21739
G1 X69.261 Y86.865 E4.23832
G1 X69.097 Y86.255 E4.25925
G1 X68.998 Y85.631 E4.28017
G1 X68.965 Y85.000 E4.30110
G1 X68.998 Y84.369 E4.32203
G1 X69.097 Y83.745 E4.34296
G1 X69.261 Y83.135 E4.36388
G1 X69.487 Y82.545 E4.38481
G1 X69.774 Y81.983 E4.40574
G1 X70.118 Y81.453 E4.42666
G1 X70.515 Y80.962 E4.44759
G1 X70.962 Y80.515 E4.46852
G1 X71.406 Y80.156 E4.48746
G1 X71.818 Y80.280 F7800.000
G1 X71.702 Y80.359 F7800.000
G1 F1800.000
G1 X72.152 Y80.068 E4.50978
G1 X72.563 Y79.850 E4.52912
G1 X73.239 Y79.579 E4.55944
G1 X73.945 Y79.402 E4.58975
G1 X74.405 Y79.336 E4.60910
G1 X75.000 Y79.305 E4.63391
G1 X75.595 Y79.336 E4.65873
G1 X76.055 Y79.402 E4.67807
G1 X76.761 Y79.579 E4.70839
G1 X77.437 Y79.850 E4.73870
G1 X77.848 Y80.068 E4.75804
G1 X78.298 Y80.359 E4.78037
G1 X79.065 Y81.479 F7800.000
G1 F1800.000
G1 X78.859 Y81.686 E4.79016
G1 X78.859 Y82.066 E4.80287
G1 X79.235 Y81.689 E4.82071
G1 X79.397 Y81.907 E4.82980
G1 X78.859 Y82.445 E4.85531
G1 X78.859 Y82.825 E4.86802
G1 X79.547 Y82.137 E4.90062
G1 X79.688 Y82.375 E4.90990
G1 X78.859 Y83.205 E4.94918
G1 X78.859 Y83.584 E4.96190
G1 X79.816 Y82.627 E5.00725
G1 X79.934 Y82.889 E5.01686
G1 X78.859 Y83.964 E5.06780
G1 X78.859 Y84.344 E5.08052
G1 X80.039 Y83.163 E5.13645
G1 X80.130 Y83.452 E5.14659
G1 X78.859 Y84.724 E5.20682
G1 X78.859 Y85.103 E5.21954
G1 X80.211 Y83.751 E5.28357
G1 X80.268 Y84.074 E5.29454
G1 X78.859 Y85.483 E5.36128
G1 X78.859 Y85.863 E5.37400
G1 X80.314 Y84.407 E5.44295
G1 X80.333 Y84.768 E5.45505
G1 X78.859 Y86.242 E5.52490
G1 X78.859 Y86.622 E5.53761
G1 X80.327 Y85.154 E5.60714
G1 X80.292 Y85.569 E5.62108
G1 X78.859 Y87.002 E5.68895
G1 X78.859 Y87.382 E5.70167
G1 X80.215 Y86.025 E5.76592
G1 X80.071 Y86.549 E5.78412
G1 X78.859 Y87.761 E5.84153
G1 X78.859 Y88.141 E5.85425
G1 X79.799 Y87.201 E5.89877
G1 X79.639 Y87.515 E5.91058
G1 X79.340 Y87.975 E5.92894
G1 X79.066 Y88.314 E5.94353
G1 X78.859 Y88.521 E5.95335
G1 X78.298 Y89.641 F7800.000
G1 F1800.000
G1 X77.848 Y89.932 E5.97567
G1 X77.437 Y90.150 E5.99502
G1 X76.761 Y90.421 E6.02533
G1 X76.055 Y90.598 E6.05565
G1 X75.595 Y90.664 E6.07499
G1 X75.000 Y90.695 E6.09980
G1 X74.405 Y90.664 E6.12462
G1 X73.945 Y90.598 E6.14396
G1 X73.239 Y90.421 E6.17428
G1 X72.563 Y90.150 E6.20459
G1 X72.152 Y89.932 E6.22393
G1 X71.702 Y89.641 E6.24626
G1 X70.935 Y88.521 F7800.000
G1 F1800.000
G1 X71.141 Y88.314 E6.25605
G1 X71.141 Y87.934 E6.26876
G1 X70.765 Y88.311 E6.28660
G1 X70.603 Y88.093 E6.29569
G1 X71.141 Y87.555 E6.32120
G1 X71.141 Y87.175 E6.33391
G1 X70.453 Y87.863 E6.36651
G1 X70.312 Y87.625 E6.37579
G1 X71.141 Y86.795 E6.41507
G1 X71.141 Y86.416 E6.42779
G1 X70.184 Y87.373 E6.47314
G1 X70.066 Y87.111 E6.48275
G1 X71.141 Y86.036 E6.53369
G1 X71.141 Y85.656 E6.54641
G1 X69.961 Y86.837 E6.60234
G1 X69.870 Y86.548 E6.61248
G1 X71.141 Y85.276 E6.67271
G1 X71.141 Y84.897 E6.68543
G1 X69.789 Y86.249 E6.74946
G1 X69.732 Y85.926 E6.76043
G1 X71.141 Y84.517 E6.82717
G1 X71.141 Y84.137 E6.83989
G1 X69.686 Y85.593 E6.90884
G1 X69.667 Y85.232 E6.92094
G1 X71.141 Y83.758 E6.99079
G1 X71.141 Y83.378 E7.00351
G1 X69.673 Y84.846 E7.07304
G1 X69.708 Y84.431 E7.08697
G1 X71.141 Y82.998 E7.15485
G1 X71.141 Y82.618 E7.16756
G1 X69.785 Y83.975 E7.23181
G1 X69.929 Y83.451 E7.25002
G1 X71.141 Y82.239 E7.30743
G1 X71.141 Y81.859 E7.32015
G1 X70.201 Y82.799 E7.36467
G1 X70.361 Y82.485 E7.37648
G1 X70.660 Y82.025 E7.39484
G1 X70.934 Y81.687 E7.40943
G1 X71.141 Y81.479 E7.41925
G1 E5.41925 F2400.00000
G92 E0
G1 X71.835 Y69.319 F7800.000
G1 E2.00000 F2400.00000
G1 F1800.000
G1 X71.835 Y60.681 E2.28619
G1 X72.125 Y60.470 E2.29807
G1 X72.716 Y60.145 E2.32040
G1 X73.342 Y59.897 E2.34272
G1 X73.995 Y59.730 E2.36504
G1 X74.663 Y59.645 E2.38736
G1 X75.337 Y59.645 E2.40968
G1 X76.005 Y59.730 E2.43201
G1 X76.658 Y59.897 E2.45433
G1 X77.284 Y60.145 E2.47665
G1 X77.875 Y60.470 E2.49897
G1 X78.165 Y60.681 E2.51085
G1 X78.165 Y69.319 E2.79705
G1 X77.875 Y69.530 E2.80893
G1 X77.284 Y69.855 E2.83125
G1 X76.658 Y70.103 E2.85357
G1 X76.005 Y70.270 E2.87589
G1 X75.337 Y70.355 E2.89822
G1 X74.663 Y70.355 E2.92054
G1 X73.995 Y70.270 E2.94286
G1 X73.342 Y70.103 E2.96518
G1 X72.716 Y69.855 E2.98750
G1 X72.125 Y69.530 E3.00983
G1 X71.884 Y69.355 E3.01972
G1 X71.442 Y69.247 F7800.000
G1 E1.01972 F2400.00000
G92 E0
G1 X78.696 Y69.075 F7800.000
G1 E2.00000 F2400.00000
G1 F1800.000
G1 X78.696 Y60.925 E2.27002
G1 X79.089 Y61.318 E2.28844
G1 X79.452 Y61.766 E2.30752
G1 X79.766 Y62.249 E2.32661
G1 X80.027 Y62.762 E2.34569
G1 X80.233 Y63.300 E2.36477
G1 X80.383 Y63.856 E2.38385
G1 X80.473 Y64.425 E2.40293
G1 X80.503 Y65.000 E2.42202
G1 X80.473 Y65.575 E2.44110
G1 X80.383 Y66.144 E2.46019
G1 X80.233 Y66.700 E2.47926
G1 X80.027 Y67.238 E2.49835
G1 X79.766 Y67.751 E2.51743
G1 X79.452 Y68.234 E2.53651
G1 X79.089 Y68.682 E2.55559
G1 X78.739 Y69.033 E2.57202
G1 X78.431 Y69.635 F7800.000
G1 F1800.000
G1 X78.431 Y60.365 E2.87912
G1 X78.860 Y60.713 E2.89743
G1 X79.287 Y61.140 E2.91743
G1 X79.667 Y61.609 E2.93744
G1 X79.996 Y62.116 E2.95744
G1 X80.270 Y62.654 E2.97745
G1 X80.486 Y63.217 E2.99745
G1 X80.643 Y63.801 E3.01746
G1 X80.737 Y64.397 E3.03746
G1 X80.769 Y65.000 E3.05747
G1 X80.737 Y65.603 E3.07747
G1 X80.643 Y66.200 E3.09748
G1 X80.486 Y66.783 E3.11748
G1 X80.270 Y67.346 E3.13749
G1 X79.996 Y67.884 E3.15749
G1 X79.667 Y68.391 E3.17749
G1 X79.287 Y68.860 E3.19750
G1 X78.860 Y69.287 E3.21750
G1 X78.477 Y69.597 E3.23382
G1 E1.23382 F2400.00000
G92 E0
G1 X71.304 Y69.075 F7800.000
G1 E2.00000 F2400.00000
G1 F1800.000
G1 X70.911 Y68.682 E2.01842
G1 X70.548 Y68.234 E2.03750
G1 X70.234 Y67.751 E2.05658
G1 X69.973 Y67.238 E2.07567
G1 X69.767 Y66.700 E2.09475
G1 X69.617 Y66.144 E2.11383
G1 X69.527 Y65.575 E2.13291
G1 X69.497 Y65.000 E2.15200
G1 X69.527 Y64.425 E2.17108
G1 X69.617 Y63.856 E2.19016
G1 X69.767 Y63.300 E2.20924
G1 X69.973 Y62.762 E2.22832
G1 X70.234 Y62.249 E2.24741
G1 X70.548 Y61.766 E2.26649
G1 X70.911 Y61.318 E2.28557
G1 X71.304 Y60.925 E2.30399
G1 X71.304 Y69.015 E2.57203
G1 X71.569 Y69.635 F7800.000
G1 F1800.000
G1 X71.140 Y69.287 E2.59033
G1 X70.713 Y68.860 E2.61034
G1 X70.333 Y68.391 E2.63034
G1 X70.004 Y67.884 E2.65035
G1 X69.730 Y67.346 E2.67035
G1 X69.514 Y66.783 E2.69036
G1 X69.357 Y66.199 E2.71036
G1 X69.263 Y65.603 E2.73037
G1 X69.231 Y65.000 E2.75037
G1 X69.263 Y64.397 E2.77037
G1 X69.357 Y63.801 E2.79038
G1 X69.514 Y63.217 E2.81038
G1 X69.730 Y62.654 E2.83039
G1 X70.004 Y62.116 E2.85039
G1 X70.333 Y61.609 E2.87040
G1 X70.713 Y61.140 E2.89040
G1 X71.140 Y60.713 E2.91041
G1 X71.569 Y60.365 E2.92871
G1 X71.569 Y69.575 E3.23382
G1 X71.453 Y69.882 F7800.000
G1 F1800.000
G1 X70.962 Y69.485 E3.25475
G1 X70.515 Y69.038 E3.27568
G1 X70.118 Y68.547 E3.29661
G1 X69.774 Y68.017 E3.31753
G1 X69.487 Y67.455 E3.33846
G1 X69.261 Y66.865 E3.35939
G1 X69.097 Y66.255 E3.38031
G1 X68.998 Y65.631 E3.40124
G1 X68.965 Y65.000 E3.42217
G1 X68.998 Y64.369 E3.44309
G1 X69.097 Y63.745 E3.46402
G1 X69.261 Y63.135 E3.48495
G1 X69.487 Y62.545 E3.50588
G1 X69.774 Y61.983 E3.52680
G1 X70.118 Y61.453 E3.54773
G1 X70.515 Y60.962 E3.56866
G1 X70.962 Y60.515 E3.58958
G1 X71.453 Y60.118 E3.61051
G1 X71.983 Y59.774 E3.63144
G1 X72.545 Y59.487 E3.65236
G1 X73.135 Y59.261 E3.67329
G1 X73.745 Y59.097 E3.69422
G1 X74.369 Y58.998 E3.71514
G1 X75.000 Y58.965 E3.73607
G1 X75.631 Y58.998 E3.75700
G1 X76.255 Y59.097 E3.77793
G1 X76.865 Y59.261 E3.79885
G1 X77.455 Y59.487 E3.81978
G1 X78.017 Y59.774 E3.84071
G1 X78.547 Y60.118 E3.86163
G1 X79.038 Y60.515 E3.88256
G1 X79.485 Y60.962 E3.90349
G1 X79.882 Y61.453 E3.92441
G1 X80.226 Y61.983 E3.94534
G1 X80.513 Y62.545 E3.96627
G1 X80.739 Y63.135 E3.98720
G1 X80.903 Y63.745 E4.00812
G1 X81.002 Y64.369 E4.02905
G1 X81.035 Y65.000 E4.04998
G1 X81.002 Y65.631 E4.07090
G1 X80.903 Y66.255 E4.09184
G1 X80.739 Y66.865 E4.11276
G1 X80.513 Y67.455 E4.13368
G1 X80.226 Y68.017 E4.15461
G1 X79.882 Y68.547 E4.17554
G1 X79.485 Y69.038 E4.19647
G1 X79.038 Y69.485 E4.21739
G1 X78.547 Y69.882 E4.23832
G1 X78.017 Y70.226 E4.25925
G1 X77.455 Y70.513 E4.28017
G1 X76.865 Y70.739 E4.30110
G1 X76.255 Y70.903 E4.32203
G1 X75.631 Y71.002 E4.34295
G1 X75.000 Y71.035 E4.36388
G1 X74.369 Y71.002 E4.38481
G1 X73.745 Y70.903 E4.40573
G1 X73.135 Y70.739 E4.42666
G1 X72.545 Y70.513 E4.44759
G1 X71.983 Y70.226 E4.46852
G1 X71.503 Y69.915 E4.48746
G1 X71.495 Y69.484 F7800.000
G1 X71.702 Y69.641 F7800.000
G1 F1800.000
G1 X72.152 Y69.932 E4.50978
G1 X72.563 Y70.150 E4.52912
G1 X73.239 Y70.421 E4.55943
G1 X73.945 Y70.598 E4.58975
G1 X74.405 Y70.664 E4.60909
G1 X75.000 Y70.695 E4.63390
G1 X75.595 Y70.664 E4.65872
G1 X76.055 Y70.598 E4.67806
G1 X76.761 Y70.421 E4.70837
G1 X77.437 Y70.150 E4.73869
G1 X77.848 Y69.932 E4.75803
G1 X78.298 Y69.641 E4.78035
G1 X78.859 Y68.521 F7800.000
G1 F1800.000
G1 X79.066 Y68.314 E4.79016
G1 X79.340 Y67.975 E4.80476
G1 X79.639 Y67.515 E4.82312
G1 X79.799 Y67.201 E4.83493
G1 X78.859 Y68.141 E4.87945
G1 X78.859 Y67.761 E4.89216
G1 X80.071 Y66.549 E4.94957
G1 X80.215 Y66.025 E4.96778
G1 X78.859 Y67.382 E5.03203
G1 X78.859 Y67.002 E5.04474
G1 X80.292 Y65.569 E5.11262
G1 X80.327 Y65.154 E5.12655
G1 X78.859 Y66.622 E5.19608
G1 X78.859 Y66.242 E5.20880
G1 X80.333 Y64.768 E5.27865
G1 X80.314 Y64.407 E5.29075
G1 X78.859 Y65.863 E5.35970
G1 X78.859 Y65.483 E5.37242
G1 X80.268 Y64.074 E5.43916
G1 X80.211 Y63.751 E5.45013
G1 X78.859 Y65.103 E5.51416
G1 X78.859 Y64.724 E5.52687
G1 X80.130 Y63.452 E5.58710
G1 X80.039 Y63.163 E5.59724
G1 X78.859 Y64.344 E5.65317
G1 X78.859 Y63.964 E5.66589
G1 X79.934 Y62.889 E5.71683
G1 X79.816 Y62.627 E5.72645
G1 X78.859 Y63.584 E5.77180
G1 X78.859 Y63.205 E5.78451
G1 X79.688 Y62.375 E5.82380
G1 X79.547 Y62.137 E5.83308
G1 X78.859 Y62.825 E5.86567
G1 X78.859 Y62.445 E5.87839
G1 X79.397 Y61.907 E5.90390
G1 X79.235 Y61.689 E5.91298
G1 X78.859 Y62.066 E5.93082
G1 X78.859 Y61.686 E5.94353
G1 X79.065 Y61.479 E5.95332
G1 X78.298 Y60.359 F7800.000
G1 F1800.000
G1 X77.848 Y60.068 E5.97565
G1 X77.437 Y59.850 E5.99499
G1 X76.761 Y59.579 E6.02530
G1 X76.055 Y59.402 E6.05561
G1 X75.595 Y59.336 E6.07495
G1 X75.000 Y59.305 E6.09977
G1 X74.405 Y59.336 E6.12459
G1 X73.945 Y59.402 E6.14393
G1 X73.239 Y59.579 E6.17424
G1 X72.563 Y59.850 E6.20455
G1 X72.152 Y60.068 E6.22389
G1 X71.702 Y60.359 E6.24622
G1 X71.141 Y61.479 F7800.000
G1 F1800.000
G1 X70.934 Y61.687 E6.25603
G1 X70.660 Y62.025 E6.27062
G1 X70.361 Y62.485 E6.28898
G1 X70.201 Y62.799 E6.30079
G1 X71.141 Y61.859 E6.34532
G1 X71.141 Y62.239 E6.35803
G1 X69.929 Y63.451 E6.41544
G1 X69.785 Y63.975 E6.43365
G1 X71.141 Y62.618 E6.49790
G1 X71.141 Y62.998 E6.51061
G1 X69.708 Y64.431 E6.57849
G1 X69.673 Y64.846 E6.59242
G1 X71.141 Y63.378 E6.66195
G1 X71.141 Y63.758 E6.67467
G1 X69.667 Y65.232 E6.74452
G1 X69.686 Y65.593 E6.75662
G1 X71.141 Y64.137 E6.82557
G1 X71.141 Y64.517 E6.83829
G1 X69.732 Y65.926 E6.90503
G1 X69.789 Y66.249 E6.91600
G1 X71.141 Y64.897 E6.98003
G1 X71.141 Y65.276 E6.99275
G1 X69.870 Y66.548 E7.05298
G1 X69.961 Y66.837 E7.06312
G1 X71.141 Y65.656 E7.11905
