; generated by Slic3r 1.3.1-dev (Build 2ef957d) on 2019-11-25 at 09:21:48

; external perimeters extrusion width = 0.55mm (4.37mm^3/s)
; perimeters extrusion width = 0.70mm (11.44mm^3/s)
; infill extrusion width = 0.62mm (13.45mm^3/s)
; solid infill extrusion width = 0.70mm (3.81mm^3/s)
; top infill extrusion width = 0.70mm (2.86mm^3/s)

M107
G92 E0
M104 S200 ; set temperature
G28 ; home all axes
G1 Z5 F5000 ; lift nozzle

; Filament gcode

M109 S200 ; set temperature and wait for it to be reached
G21 ; set units to millimeters
G90 ; use absolute coordinates
M82 ; use absolute distances for extrusion
G92 E0
G1 Z0.350 F7800.000
G1 E-2.00000 F2400.00000
G92 E0
G1 X46.668 Y56.774 F7800.000
G1 E2.00000 F2400.00000
G1 F1800.000
G1 X48.820 Y55.981 E2.07096
G1 X50.000 Y55.875 E2.10761
G1 X150.000 Y55.875 E5.20174
G1 X152.259 Y56.272 E5.27271
G1 X154.247 Y57.415 E5.34367
G1 X155.726 Y59.168 E5.41463
G1 X156.519 Y61.320 E5.48559
G1 X156.625 Y62.500 E5.52225
G1 X156.625 Y137.500 E7.84284
G1 X156.228 Y139.759 E7.91381
G1 X155.085 Y141.747 E7.98477
G1 X153.332 Y143.226 E8.05573
G1 X151.180 Y144.019 E8.12669
G1 X150.000 Y144.125 E8.16334
G1 X50.000 Y144.125 E11.25748
G1 X47.741 Y143.728 E11.32844
G1 X45.753 Y142.585 E11.39940
G1 X44.274 Y140.832 E11.47036
G1 X43.481 Y138.680 E11.54132
G1 X43.375 Y137.500 E11.57798
G1 X43.375 Y62.500 E13.89857
G1 X43.772 Y60.241 E13.96954
G1 X44.915 Y58.253 E14.04050
G1 X46.611 Y56.822 E14.10914
G1 E12.10914 F2400.00000
G92 E0
G1 X81.817 Y125.453 F7800.000
G1 E2.00000 F2400.00000
G1 F1800.000
G1 X82.482 Y127.500 E2.06659
G1 X81.817 Y129.547 E2.13318
G1 X80.076 Y130.812 E2.19976
G1 X77.924 Y130.812 E2.26635
G1 X76.183 Y129.547 E2.33294
G1 X75.518 Y127.500 E2.39952
G1 X76.183 Y125.453 E2.46611
G1 X77.924 Y124.188 E2.53270
G1 X80.076 Y124.188 E2.59929
G1 X81.756 Y125.409 E2.66355
G1 X81.285 Y125.839 F7800.000
G1 F1800.000
G1 X81.825 Y127.500 E2.71757
G1 X81.285 Y129.161 E2.77160
G1 X79.873 Y130.187 E2.82562
G1 X78.127 Y130.187 E2.87964
G1 X76.715 Y129.161 E2.93366
G1 X76.175 Y127.500 E2.98769
G1 X76.715 Y125.839 E3.04171
G1 X78.127 Y124.813 E3.09573
G1 X79.873 Y124.813 E3.14976
G1 X81.225 Y125.795 E3.20146
G1 X80.754 Y126.226 F7800.000
G1 F1800.000
G1 X81.168 Y127.500 E3.24292
G1 X80.754 Y128.774 E3.28437
G1 X79.670 Y129.562 E3.32583
G1 X78.330 Y129.562 E3.36729
G1 X77.246 Y128.774 E3.40875
G1 X76.832 Y127.500 E3.45021
G1 X77.246 Y126.226 E3.49166
G1 X78.330 Y125.438 E3.53312
G1 X79.670 Y125.438 E3.57458
G1 X80.693 Y126.182 E3.61372
G1 X80.754 Y126.226 F7800.000
G1 E1.61372 F2400.00000
G92 E0
G1 X82.652 Y116.569 F7800.000
G1 E2.00000 F2400.00000
G1 F1800.000
G1 X77.874 Y116.569 E2.14786
G1 X77.387 Y115.222 E2.19216
G1 X76.900 Y116.569 E2.23645
G1 X73.629 Y116.569 E2.33764
G1 X72.528 Y116.708 E2.37200
G1 X71.424 Y116.569 E2.40643
G1 X68.135 Y116.569 E2.50818
G1 X67.648 Y115.222 E2.55248
G1 X67.161 Y116.569 E2.59677
G1 X62.986 Y116.569 E2.72596
G1 X66.155 Y108.313 E2.99958
G1 X69.135 Y108.313 E3.09177
G1 X69.574 Y109.458 E3.12972
G1 X70.443 Y108.726 E3.16490
G1 X71.446 Y108.303 E3.19857
G1 X72.528 Y108.173 E3.23227
G1 X73.607 Y108.304 E3.26592
G1 X74.609 Y108.727 E3.29957
G1 X75.459 Y109.446 E3.33400
G1 X75.894 Y108.313 E3.37154
G1 X78.873 Y108.313 E3.46373
G1 X79.437 Y109.785 E3.51251
G1 X82.652 Y109.785 E3.61198
G1 X82.652 Y116.494 E3.81955
G1 X82.027 Y115.944 F7800.000
G1 F1800.000
G1 X78.312 Y115.944 E3.93452
G1 X77.849 Y114.664 E3.97663
G1 X76.924 Y114.664 E4.00525
G1 X76.461 Y115.944 E4.04737
G1 X73.503 Y115.944 E4.13891
G1 X73.445 Y115.968 E4.14084
G1 X72.528 Y116.079 E4.16944
G1 X71.608 Y115.968 E4.19808
G1 X71.549 Y115.944 E4.20006
G1 X68.574 Y115.944 E4.29213
G1 X68.111 Y114.664 E4.33425
G1 X67.186 Y114.664 E4.36287
G1 X66.723 Y115.944 E4.40499
G1 X63.895 Y115.944 E4.49248
G1 X66.585 Y108.938 E4.72467
G1 X68.705 Y108.938 E4.79028
G1 X69.429 Y110.826 E4.85284
G1 X70.078 Y109.851 E4.88908
G1 X70.773 Y109.265 E4.91723
G1 X71.608 Y108.913 E4.94524
G1 X72.528 Y108.803 E4.97391
G1 X73.445 Y108.914 E5.00251
G1 X74.278 Y109.265 E5.03049
G1 X74.972 Y109.852 E5.05859
G1 X75.606 Y110.806 E5.09405
G1 X76.323 Y108.938 E5.15597
G1 X78.443 Y108.938 E5.22158
G1 X79.053 Y110.528 E5.27428
G1 X79.360 Y110.471 E5.28393
G1 X79.360 Y110.410 E5.28583
G1 X82.027 Y110.410 E5.36837
G1 X82.027 Y115.869 E5.53728
G1 X81.403 Y115.319 F7800.000
G1 F1800.000
G1 X78.751 Y115.319 E5.61933
G1 X78.288 Y114.039 E5.66145
G1 X76.486 Y114.039 E5.71720
G1 X76.023 Y115.319 E5.75932
G1 X74.543 Y115.319 E5.80511
G1 X74.757 Y114.762 E5.82356
G1 X74.519 Y114.594 E5.83256
G1 X73.947 Y115.077 E5.85574
G1 X73.283 Y115.358 E5.87805
G1 X72.527 Y115.449 E5.90161
G1 X71.770 Y115.358 E5.92522
G1 X71.104 Y115.079 E5.94757
G1 X70.495 Y114.567 E5.97219
G1 X70.258 Y114.735 E5.98117
G1 X70.482 Y115.319 E6.00050
G1 X69.012 Y115.319 E6.04597
G1 X68.549 Y114.039 E6.08809
G1 X66.747 Y114.039 E6.14384
G1 X66.284 Y115.319 E6.18596
G1 X64.805 Y115.319 E6.23175
G1 X67.014 Y109.563 E6.42252
G1 X68.275 Y109.563 E6.46154
G1 X69.530 Y112.837 E6.57003
G1 X69.849 Y112.762 E6.58016
G1 X69.819 Y112.443 E6.59008
G1 X69.897 Y111.616 E6.61579
G1 X70.138 Y110.888 E6.63951
G1 X70.549 Y110.271 E6.66243
G1 X71.103 Y109.804 E6.68488
G1 X71.769 Y109.523 E6.70724
G1 X72.527 Y109.432 E6.73086
G1 X73.283 Y109.523 E6.75441
G1 X73.947 Y109.804 E6.77672
G1 X74.500 Y110.272 E6.79913
G1 X74.910 Y110.888 E6.82203
G1 X75.151 Y111.616 E6.84574
G1 X75.229 Y112.443 E6.87145
G1 X75.206 Y112.688 E6.87907
G1 X75.524 Y112.763 E6.88919
G1 X76.753 Y109.563 E6.99525
G1 X78.014 Y109.563 E7.03427
G1 X79.678 Y113.904 E7.17813
G1 X79.985 Y113.848 E7.18779
G1 X79.985 Y113.723 E7.19165
G1 X81.403 Y113.723 E7.23552
G1 X81.403 Y115.244 E7.28259
G1 X81.522 Y115.804 F7800.000
G1 E5.28259 F2400.00000
G92 E0
G1 X81.403 Y112.631 F7800.000
G1 E2.00000 F2400.00000
G1 F1800.000
G1 X79.985 Y112.631 E2.04387
G1 X79.985 Y111.035 E2.09326
G1 X81.403 Y111.035 E2.13713
G1 X81.403 Y112.556 E2.18419
G1 X81.522 Y113.116 F7800.000
G1 E0.18419 F2400.00000
G92 E0
G1 X62.482 Y109.500 F7800.000
G1 E2.00000 F2400.00000
G1 F1800.000
G1 X61.817 Y111.547 E2.06659
G1 X60.076 Y112.812 E2.13317
G1 X57.924 Y112.812 E2.19976
G1 X56.183 Y111.547 E2.26635
G1 X55.518 Y109.500 E2.33294
G1 X56.183 Y107.453 E2.39952
G1 X57.924 Y106.188 E2.46611
G1 X60.076 Y106.188 E2.53270
G1 X61.817 Y107.453 E2.59929
G1 X62.459 Y109.429 E2.66355
G1 X61.825 Y109.500 F7800.000
G1 F1800.000
G1 X61.285 Y111.161 E2.71758
G1 X59.873 Y112.187 E2.77160
G1 X58.127 Y112.187 E2.82562
G1 X56.714 Y111.161 E2.87964
G1 X56.175 Y109.500 E2.93367
G1 X56.714 Y107.839 E2.98769
G1 X58.127 Y106.813 E3.04171
G1 X59.873 Y106.813 E3.09574
G1 X61.285 Y107.839 E3.14976
G1 X61.802 Y109.429 E3.20146
G1 X61.168 Y109.500 F7800.000
G1 F1800.000
G1 X60.754 Y110.774 E3.24292
G1 X59.670 Y111.562 E3.28438
G1 X58.330 Y111.562 E3.32584
G1 X57.246 Y110.774 E3.36729
G1 X56.832 Y109.500 E3.40875
G1 X57.246 Y108.226 E3.45021
G1 X58.330 Y107.438 E3.49167
G1 X59.670 Y107.438 E3.53313
G1 X60.754 Y108.226 E3.57458
G1 X61.145 Y109.429 E3.61372
G1 X61.168 Y109.500 F7800.000
G1 E1.61372 F2400.00000
G92 E0
G1 X83.123 Y108.871 F7800.000
G1 E2.00000 F2400.00000
G1 F1800.000
G1 X85.774 Y108.313 E2.08380
G1 X88.228 Y108.313 E2.15974
G1 X88.228 Y112.473 E2.28845
G1 X89.365 Y112.473 E2.32364
G1 X89.365 Y111.775 E2.34524
G1 X89.580 Y111.867 E2.35247
G1 X89.580 Y108.313 E2.46243
G1 X95.481 Y108.313 E2.64501
G1 X95.481 Y108.591 E2.65362
G1 X95.797 Y108.641 E2.66353
G1 X96.183 Y107.453 E2.70219
G1 X97.924 Y106.188 E2.76877
G1 X100.076 Y106.188 E2.83536
G1 X101.817 Y107.453 E2.90195
G1 X102.482 Y109.500 E2.96853
G1 X101.817 Y111.547 E3.03512
G1 X100.076 Y112.812 E3.10171
G1 X97.924 Y112.812 E3.16830
G1 X96.183 Y111.547 E3.23488
G1 X95.797 Y110.358 E3.27354
G1 X95.481 Y110.409 E3.28345
G1 X95.481 Y111.710 E3.32371
G1 X95.768 Y112.450 E3.34829
G1 X95.865 Y113.337 E3.37588
G1 X95.766 Y114.240 E3.40398
G1 X95.427 Y115.101 E3.43261
G1 X94.920 Y115.726 E3.45751
G1 X99.233 Y115.726 E3.59098
G1 X99.233 Y119.886 E3.71969
G1 X101.011 Y119.886 E3.77469
G1 X101.011 Y115.726 E3.90341
G1 X105.580 Y115.726 E4.04479
G1 X105.580 Y129.037 E4.45667
G1 X101.011 Y129.037 E4.59806
G1 X101.011 Y124.237 E4.74658
G1 X99.233 Y124.237 E4.80157
G1 X99.233 Y129.037 E4.95009
G1 X94.664 Y129.037 E5.09148
G1 X94.664 Y115.945 E5.49657
G1 X94.057 Y116.347 E5.51910
G1 X93.197 Y116.623 E5.54705
G1 X92.317 Y116.702 E5.57439
G1 X91.427 Y116.636 E5.60199
G1 X91.104 Y116.569 E5.61220
G1 X83.222 Y116.569 E5.85607
G1 X83.222 Y112.693 E5.97597
G1 X83.123 Y112.714 E5.97910
G1 X83.123 Y108.946 E6.09571
G1 E4.09571 F2400.00000
G92 E0
G1 X95.289 Y116.351 F7800.000
G1 E2.00000 F2400.00000
G1 F1800.000
G1 X98.608 Y116.351 E2.10272
G1 X98.608 Y120.511 E2.23143
G1 X101.636 Y120.511 E2.32510
G1 X101.636 Y116.351 E2.45382
G1 X104.955 Y116.351 E2.55653
G1 X104.955 Y128.412 E2.92974
G1 X101.636 Y128.412 E3.03246
G1 X101.636 Y123.612 E3.18098
G1 X98.608 Y123.612 E3.27464
G1 X98.608 Y128.412 E3.42316
G1 X95.289 Y128.412 E3.52588
G1 X95.289 Y116.426 E3.89677
G1 X95.913 Y116.976 F7800.000
G1 F1800.000
G1 X97.983 Y116.976 E3.96082
G1 X97.983 Y121.136 E4.08953
G1 X102.260 Y121.136 E4.22187
G1 X102.260 Y116.976 E4.35058
G1 X104.330 Y116.976 E4.41463
G1 X104.330 Y127.787 E4.74917
G1 X102.260 Y127.787 E4.81322
G1 X102.260 Y122.987 E4.96174
G1 X97.983 Y122.987 E5.09407
G1 X97.983 Y127.787 E5.24259
G1 X95.913 Y127.787 E5.30664
G1 X95.913 Y117.051 E5.63886
G1 X95.882 Y116.476 F7800.000
G1 E3.63886 F2400.00000
G92 E0
G1 X98.127 Y112.187 F7800.000
G1 E2.00000 F2400.00000
G1 F1800.000
G1 X96.715 Y111.161 E2.05402
G1 X96.175 Y109.500 E2.10805
G1 X96.715 Y107.839 E2.16207
G1 X98.127 Y106.813 E2.21609
G1 X99.873 Y106.813 E2.27011
G1 X101.285 Y107.839 E2.32414
G1 X101.825 Y109.500 E2.37816
G1 X101.285 Y111.161 E2.43218
G1 X99.873 Y112.187 E2.48620
G1 X98.202 Y112.187 E2.53791
G1 X98.330 Y111.562 F7800.000
G1 F1800.000
G1 X97.246 Y110.774 E2.57936
G1 X96.832 Y109.500 E2.62082
G1 X97.246 Y108.226 E2.66228
G1 X98.330 Y107.438 E2.70374
G1 X99.670 Y107.438 E2.74520
G1 X100.754 Y108.226 E2.78665
G1 X101.168 Y109.500 E2.82811
G1 X100.754 Y110.774 E2.86957
G1 X99.670 Y111.562 E2.91103
G1 X98.405 Y111.562 E2.95017
G1 X98.330 Y111.562 F7800.000
G1 E0.95017 F2400.00000
G92 E0
G1 X94.856 Y111.464 F7800.000
G1 E2.00000 F2400.00000
G1 F1800.000
G1 X94.535 Y111.464 E2.00991
G1 X94.891 Y111.918 E2.02776
G1 X95.155 Y112.600 E2.05039
G1 X95.237 Y113.337 E2.07332
G1 X95.154 Y114.088 E2.09672
G1 X94.881 Y114.782 E2.11979
G1 X94.408 Y115.365 E2.14300
G1 X93.784 Y115.779 E2.16618
G1 X93.072 Y116.007 E2.18931
G1 X92.312 Y116.075 E2.21292
G1 X91.514 Y116.016 E2.23766
G1 X90.711 Y115.848 E2.26304
G1 X90.711 Y115.944 E2.26601
G1 X83.847 Y115.944 E2.47840
G1 X83.847 Y113.418 E2.55656
G1 X84.971 Y113.418 E2.59134
G1 X84.971 Y111.689 E2.64483
G1 X83.748 Y111.945 E2.68349
G1 X83.748 Y109.378 E2.76293
G1 X85.839 Y108.938 E2.82902
G1 X87.603 Y108.938 E2.88361
G1 X87.603 Y113.418 E3.02223
G1 X88.043 Y113.418 E3.03583
G1 X88.043 Y113.098 E3.04574
G1 X89.990 Y113.098 E3.10599
G1 X89.990 Y112.722 E3.11761
G1 X90.205 Y112.814 E3.12484
G1 X90.205 Y108.938 E3.24478
G1 X94.856 Y108.938 E3.38869
G1 X94.856 Y111.389 E3.46452
G1 X94.231 Y110.839 F7800.000
G1 F1800.000
G1 X92.160 Y110.839 E3.52860
G1 X92.160 Y111.247 E3.54123
G1 X92.412 Y111.225 E3.54906
G1 X93.014 Y111.285 E3.56779
G1 X93.550 Y111.474 E3.58537
G1 X94.002 Y111.796 E3.60254
G1 X94.342 Y112.230 E3.61960
G1 X94.543 Y112.750 E3.63684
G1 X94.608 Y113.337 E3.65511
G1 X94.542 Y113.937 E3.67379
G1 X94.334 Y114.463 E3.69129
G1 X93.983 Y114.897 E3.70857
G1 X93.510 Y115.210 E3.72610
G1 X92.947 Y115.391 E3.74441
G1 X92.307 Y115.448 E3.76431
G1 X91.602 Y115.396 E3.78617
G1 X90.615 Y115.189 E3.81738
G1 X90.615 Y113.670 E3.86437
G1 X91.494 Y114.047 E3.89396
G1 X91.875 Y114.139 E3.90611
G1 X92.286 Y114.169 E3.91885
G1 X92.581 Y114.141 E3.92803
G1 X92.808 Y114.063 E3.93544
G1 X92.983 Y113.943 E3.94202
G1 X93.109 Y113.786 E3.94825
G1 X93.187 Y113.590 E3.95477
G1 X93.215 Y113.337 E3.96265
G1 X93.187 Y113.084 E3.97053
G1 X93.109 Y112.888 E3.97705
G1 X92.983 Y112.731 E3.98329
G1 X92.808 Y112.610 E3.98986
G1 X92.582 Y112.533 E3.99726
G1 X92.281 Y112.503 E4.00663
G1 X91.982 Y112.526 E4.01588
G1 X91.658 Y112.600 E4.02618
G1 X90.830 Y112.918 E4.05362
G1 X90.830 Y109.563 E4.15742
G1 X94.231 Y109.563 E4.26265
G1 X94.231 Y110.764 E4.29981
G1 X94.427 Y111.299 F7800.000
G1 E2.29981 F2400.00000
G92 E0
G1 X90.086 Y113.723 F7800.000
G1 E2.00000 F2400.00000
G1 F1800.000
G1 X90.086 Y115.319 E2.04939
G1 X88.668 Y115.319 E2.09329
G1 X88.668 Y113.723 E2.14268
G1 X90.011 Y113.723 E2.18426
G1 X90.567 Y113.584 F7800.000
G1 X88.102 Y114.043 F7800.000
G1 F1800.000
G1 X88.102 Y115.319 E2.22375
G1 X84.472 Y115.319 E2.33606
G1 X84.472 Y114.043 E2.37555
G1 X85.596 Y114.043 E2.41032
G1 X85.596 Y110.920 E2.50696
G1 X84.373 Y111.176 E2.54562
G1 X84.373 Y109.885 E2.58556
G1 X85.904 Y109.563 E2.63395
G1 X86.978 Y109.563 E2.66720
G1 X86.978 Y114.043 E2.80581
G1 X88.027 Y114.043 E2.83827
G1 X88.554 Y114.256 F7800.000
G1 E0.83827 F2400.00000
G92 E0
G1 X116.183 Y123.453 F7800.000
G1 E2.00000 F2400.00000
G1 F1800.000
G1 X117.924 Y122.188 E2.06659
G1 X120.076 Y122.188 E2.13317
G1 X121.817 Y123.453 E2.19976
G1 X122.482 Y125.500 E2.26635
G1 X121.817 Y127.547 E2.33294
G1 X120.076 Y128.812 E2.39952
G1 X117.924 Y128.812 E2.46611
G1 X116.183 Y127.547 E2.53270
G1 X115.518 Y125.500 E2.59928
G1 X116.160 Y123.525 E2.66355
G1 X116.715 Y123.839 F7800.000
G1 F1800.000
G1 X118.127 Y122.813 E2.71757
G1 X119.873 Y122.813 E2.77160
G1 X121.285 Y123.839 E2.82562
G1 X121.825 Y125.500 E2.87964
G1 X121.285 Y127.161 E2.93366
G1 X119.873 Y128.187 E2.98769
G1 X118.127 Y128.187 E3.04171
G1 X116.715 Y127.161 E3.09573
G1 X116.175 Y125.500 E3.14975
G1 X116.691 Y123.911 E3.20146
G1 X117.246 Y124.226 F7800.000
G1 F1800.000
G1 X118.330 Y123.438 E3.24292
G1 X119.670 Y123.438 E3.28437
G1 X120.754 Y124.226 E3.32583
G1 X121.168 Y125.500 E3.36729
G1 X120.754 Y126.774 E3.40875
G1 X119.670 Y127.562 E3.45021
G1 X118.330 Y127.562 E3.49166
G1 X117.246 Y126.774 E3.53312
G1 X116.832 Y125.500 E3.57458
G1 X117.223 Y124.297 E3.61372
G1 X117.246 Y124.226 F7800.000
G1 E1.61372 F2400.00000
G92 E0
G1 X136.183 Y111.547 F7800.000
G1 E2.00000 F2400.00000
G1 F1800.000
G1 X135.518 Y109.500 E2.06659
G1 X136.183 Y107.453 E2.13318
G1 X137.924 Y106.188 E2.19976
G1 X140.076 Y106.188 E2.26635
G1 X141.817 Y107.453 E2.33294
G1 X142.482 Y109.500 E2.39952
G1 X141.817 Y111.547 E2.46611
G1 X140.076 Y112.812 E2.53270
G1 X137.924 Y112.812 E2.59929
G1 X136.244 Y111.591 E2.66355
G1 X136.715 Y111.161 F7800.000
G1 F1800.000
G1 X136.175 Y109.500 E2.71757
G1 X136.715 Y107.839 E2.77160
G1 X138.127 Y106.813 E2.82562
G1 X139.873 Y106.813 E2.87964
G1 X141.285 Y107.839 E2.93366
G1 X141.825 Y109.500 E2.98769
G1 X141.285 Y111.161 E3.04171
G1 X139.873 Y112.187 E3.09573
G1 X138.127 Y112.187 E3.14976
G1 X136.775 Y111.205 E3.20146
G1 X137.246 Y110.774 F7800.000
G1 F1800.000
G1 X136.832 Y109.500 E3.24292
G1 X137.246 Y108.226 E3.28437
G1 X138.330 Y107.438 E3.32583
G1 X139.670 Y107.438 E3.36729
G1 X140.754 Y108.226 E3.40875
G1 X141.168 Y109.500 E3.45021
G1 X140.754 Y110.774 E3.49166
G1 X139.670 Y111.562 E3.53312
G1 X138.330 Y111.562 E3.57458
G1 X137.307 Y110.818 E3.61372
G1 X137.246 Y110.774 F7800.000
G1 E1.61372 F2400.00000
G92 E0
G1 X148.400 Y104.100 F7800.000
G1 E2.00000 F2400.00000
G1 F1800.000
G1 X148.400 Y135.900 E2.98395
G1 X51.600 Y135.900 E5.97908
G1 X51.600 Y104.100 E6.96303
G1 X148.325 Y104.100 E9.95584
G1 X149.025 Y103.475 F7800.000
G1 F1800.000
G1 X149.025 Y136.525 E10.97846
G1 X50.975 Y136.525 E14.01226
G1 X50.975 Y103.475 E15.03488
G1 X148.950 Y103.475 E18.06636
G1 E16.06636 F2400.00000
G92 E0
G1 X92.567 Y113.159 F7800.000
G1 E2.00000 F2400.00000
G1 F1800.000
G1 X92.587 Y113.337 E2.00553
G1 X92.567 Y113.514 E2.01107
G1 X92.279 Y113.542 E2.02001
G1 X91.898 Y113.514 E2.03182
G1 X91.874 Y113.192 E2.04181
G1 X92.181 Y113.133 E2.05148
G1 X92.492 Y113.152 E2.06112
G1 E0.06112 F2400.00000
G92 E0
G1 X50.350 Y102.850 F7800.000
G1 E2.00000 F2400.00000
G1 F1800.000
