; generated by Slic3r 1.3.1-dev (Build adea0d9) on 2020-02-19 at 18:02:46

; external perimeters extrusion width = 0.44mm (2.86mm^3/s)
; perimeters extrusion width = 0.56mm (4.14mm^3/s)
; infill extrusion width = 0.50mm (3.66mm^3/s)
; solid infill extrusion width = 0.56mm (3.10mm^3/s)
; top infill extrusion width = 0.56mm (3.10mm^3/s)

M107
G92 E0
;D3D:START:START
T0
M104 S215 T0

G21
G90
M107
T0
G28
G29
M109 T0 S215 T0
G0 F3000
M107
T0
G92 E0
G0 X0 Y149 Z0.1 F3600
G1 Y49 E6.5 F1200
G0 Z1
G92 E0
; Filament gcode

G21 ; set units to millimeters
G90 ; use absolute coordinates
M82 ; use absolute distances for extrusion
G92 E0
G1 Z0.300 F7800.000
G1 E-2.00000 F2400.00000
G92 E0
G1 X67.765 Y93.216 F7800.000
G1 E2.00000 F2400.00000
G1 F1800.000
G1 X69.531 Y92.337 E2.06535
G1 X71.495 Y92.155 E2.13071
G1 X73.393 Y92.695 E2.19606
G1 X74.967 Y93.884 E2.26142
G1 X76.005 Y95.561 E2.32677
G1 X76.368 Y97.500 E2.39212
G1 X76.005 Y99.439 E2.45748
G1 X74.967 Y101.116 E2.52283
G1 X73.393 Y102.305 E2.58819
G1 X71.495 Y102.845 E2.65354
G1 X69.531 Y102.663 E2.71889
G1 X67.765 Y101.784 E2.78425
G1 X66.436 Y100.326 E2.84960
G1 X65.724 Y98.486 E2.91496
G1 X65.724 Y96.514 E2.98031
G1 X66.436 Y94.674 E3.04566
G1 X67.725 Y93.261 E3.10903
G1 E1.10903 F2400.00000
G92 E0
G1 X71.495 Y57.845 F7800.000
G1 E2.00000 F2400.00000
G1 F1800.000
G1 X69.531 Y57.663 E2.06535
G1 X67.765 Y56.784 E2.13071
G1 X66.436 Y55.326 E2.19606
G1 X65.724 Y53.486 E2.26142
G1 X65.724 Y51.514 E2.32677
G1 X66.436 Y49.674 E2.39212
G1 X67.765 Y48.216 E2.45748
G1 X69.531 Y47.337 E2.52283
G1 X71.495 Y47.155 E2.58819
G1 X73.393 Y47.695 E2.65354
G1 X74.967 Y48.884 E2.71889
G1 X76.005 Y50.561 E2.78425
G1 X76.368 Y52.500 E2.84960
G1 X76.005 Y54.439 E2.91496
G1 X74.967 Y56.116 E2.98031
G1 X73.393 Y57.305 E3.04566
G1 X71.553 Y57.829 E3.10903
G1 E1.10903 F2400.00000
G92 E0
G1 X63.165 Y20.231 F7800.000
G1 E2.00000 F2400.00000
G1 F1800.000
G1 X62.344 Y20.348 E2.02748
G1 X60.165 Y20.743 E2.10084
G1 X60.165 Y12.380 E2.37790
G1 X61.057 Y12.224 E2.40791
G1 X63.034 Y11.943 E2.47406
G1 X65.019 Y11.724 E2.54020
G1 X67.009 Y11.567 E2.60635
G1 X68.235 Y11.510 E2.64701
G1 X68.235 Y16.480 E2.81169
G1 X69.160 Y16.437 E2.84235
G1 X71.165 Y16.405 E2.90880
G1 X71.165 Y11.445 E3.07314
G1 X72.996 Y11.473 E3.13382
G1 X74.991 Y11.567 E3.19997
G1 X76.981 Y11.724 E3.26611
G1 X78.966 Y11.943 E3.33226
G1 X80.942 Y12.224 E3.39839
G1 X83.235 Y12.639 E3.47558
G1 X83.235 Y17.706 E3.64345
G1 X83.781 Y17.819 E3.66193
G1 X86.165 Y18.405 E3.74326
G1 X86.165 Y13.285 E3.91290
G1 X86.806 Y13.439 E3.93474
G1 X88.732 Y13.966 E4.00089
G1 X89.835 Y14.305 E4.03912
G1 X89.835 Y135.695 E8.06071
G1 X88.732 Y136.034 E8.09894
G1 X86.806 Y136.561 E8.16509
G1 X86.165 Y136.715 E8.18694
G1 X86.165 Y131.595 E8.35657
G1 X83.781 Y132.181 E8.43791
G1 X83.235 Y132.294 E8.45638
G1 X83.235 Y137.361 E8.62425
G1 X80.942 Y137.776 E8.70144
G1 X78.966 Y138.057 E8.76757
G1 X76.981 Y138.276 E8.83372
G1 X74.991 Y138.433 E8.89987
G1 X72.996 Y138.527 E8.96602
G1 X71.165 Y138.555 E9.02670
G1 X71.165 Y133.595 E9.19104
G1 X69.160 Y133.563 E9.25748
G1 X68.235 Y133.520 E9.28815
G1 X68.235 Y138.490 E9.45283
G1 X67.009 Y138.433 E9.49348
G1 X65.019 Y138.276 E9.55963
G1 X63.034 Y138.057 E9.62578
G1 X61.057 Y137.775 E9.69193
G1 X60.165 Y137.620 E9.72194
G1 X60.165 Y129.257 E9.99899
G1 X62.344 Y129.652 E10.07236
G1 X63.165 Y129.769 E10.09983
G1 X63.165 Y20.291 E13.72680
G1 E11.72680 F2400.00000
G92 E0
G1 X63.327 Y24.760 F7800.000
G1 E2.00000 F2400.00000
G1 F1800.000
G1 X71.524 Y16.563 E2.38472
G1 X71.142 Y16.569 E2.39741
G1 X63.327 Y24.384 E2.76419
G1 X63.327 Y24.007 E2.77668
G1 X70.759 Y16.575 E3.12551
G1 X70.377 Y16.582 E3.13820
G1 X63.327 Y23.631 E3.46908
G1 X63.327 Y23.255 E3.48157
G1 X69.994 Y16.588 E3.79451
G1 X69.612 Y16.594 E3.80720
G1 X63.327 Y22.878 E4.10219
G1 X63.327 Y22.502 E4.11468
G1 X69.228 Y16.601 E4.39166
G1 X68.834 Y16.620 E4.40478
G1 X63.327 Y22.126 E4.66323
G1 X63.327 Y21.749 E4.67572
G1 X68.439 Y16.638 E4.91562
G1 X68.073 Y16.655 E4.92778
G1 X68.073 Y16.628 E4.92870
G1 X63.327 Y21.373 E5.15143
G1 X63.327 Y20.997 E5.16392
G1 X68.073 Y16.251 E5.38666
G1 X68.073 Y15.875 E5.39915
G1 X63.327 Y20.620 E5.62188
G1 X63.327 Y20.244 E5.63437
G1 X68.073 Y15.499 E5.85710
G1 X68.073 Y15.122 E5.86959
G1 X63.141 Y20.055 E6.10109
G1 X62.702 Y20.117 E6.11580
G1 X68.073 Y14.746 E6.36790
G1 X68.073 Y14.370 E6.38039
G1 X62.263 Y20.179 E6.65307
G1 X61.806 Y20.260 E6.66846
G1 X68.073 Y13.993 E6.96258
G1 X68.073 Y13.617 E6.97507
G1 X61.347 Y20.343 E7.29077
G1 X60.887 Y20.427 E7.30628
G1 X68.073 Y13.241 E7.64356
G1 X68.073 Y12.865 E7.65605
G1 X60.427 Y20.510 E8.01491
G1 X60.327 Y20.528 E8.01828
G1 X60.327 Y20.234 E8.02806
G1 X68.073 Y12.488 E8.39160
G1 X68.073 Y12.112 E8.40409
G1 X60.327 Y19.857 E8.76764
G1 X60.327 Y19.481 E8.78013
G1 X68.073 Y11.736 E9.14367
G1 X68.073 Y11.685 E9.14536
G1 X67.731 Y11.701 E9.15671
G1 X60.327 Y19.105 E9.50422
G1 X60.327 Y18.728 E9.51671
G1 X67.336 Y11.720 E9.84568
G1 X66.935 Y11.745 E9.85903
G1 X60.327 Y18.352 E10.16916
G1 X60.327 Y17.976 E10.18165
G1 X66.526 Y11.777 E10.47261
G1 X66.118 Y11.809 E10.48621
G1 X60.327 Y17.599 E10.75799
G1 X60.327 Y17.223 E10.77048
G1 X65.709 Y11.841 E11.02310
G1 X65.301 Y11.873 E11.03670
G1 X60.327 Y16.847 E11.27014
G1 X60.327 Y16.470 E11.28263
G1 X64.883 Y11.914 E11.49648
G1 X64.460 Y11.961 E11.51061
G1 X60.327 Y16.094 E11.70460
G1 X60.327 Y15.718 E11.71709
G1 X64.037 Y12.008 E11.89122
G1 X63.614 Y12.054 E11.90535
G1 X60.327 Y15.341 E12.05963
G1 X60.327 Y14.965 E12.07212
G1 X63.191 Y12.101 E12.20654
G1 X62.753 Y12.163 E12.22122
G1 X60.327 Y14.589 E12.33508
G1 X60.327 Y14.212 E12.34757
G1 X62.314 Y12.225 E12.44084
G1 X61.876 Y12.288 E12.45555
G1 X60.327 Y13.836 E12.52823
G1 X60.327 Y13.460 E12.54072
G1 X61.437 Y12.350 E12.59281
G1 X60.990 Y12.421 E12.60782
G1 X60.327 Y13.084 E12.63893
G1 X60.327 Y12.707 E12.65142
G1 X60.534 Y12.500 E12.66114
G1 E10.66114 F2400.00000
G92 E0
G1 X71.583 Y11.612 F7800.000
G1 E2.00000 F2400.00000
G1 F1800.000
G1 X71.327 Y11.868 E2.01201
G1 X71.327 Y12.244 E2.02450
G1 X71.954 Y11.618 E2.05391
G1 X72.324 Y11.624 E2.06621
G1 X71.327 Y12.620 E2.11300
G1 X71.327 Y12.997 E2.12549
G1 X72.695 Y11.629 E2.18967
G1 X73.065 Y11.635 E2.20197
G1 X71.327 Y13.373 E2.28355
G1 X71.327 Y13.749 E2.29603
G1 X73.425 Y11.651 E2.39451
G1 X73.785 Y11.668 E2.40645
G1 X71.327 Y14.126 E2.52180
G1 X71.327 Y14.502 E2.53429
G1 X74.144 Y11.685 E2.66650
G1 X74.503 Y11.702 E2.67844
G1 X71.327 Y14.878 E2.82752
G1 X71.327 Y15.255 E2.84001
G1 X74.863 Y11.719 E3.00596
G1 X75.218 Y11.740 E3.01777
G1 X71.327 Y15.631 E3.20039
G1 X71.327 Y16.007 E3.21288
G1 X75.567 Y11.768 E3.41187
G1 X75.916 Y11.795 E3.42348
G1 X71.327 Y16.384 E3.63885
G1 X71.327 Y16.760 E3.65134
G1 X76.265 Y11.823 E3.88308
G1 X76.614 Y11.850 E3.89470
G1 X63.327 Y25.136 E4.51831
G1 X63.327 Y25.513 E4.53080
G1 X76.962 Y11.878 E5.17079
G1 X77.304 Y11.912 E5.18219
G1 X63.327 Y25.889 E5.83821
G1 X63.327 Y26.265 E5.85070
G1 X77.643 Y11.950 E6.52263
G1 X77.982 Y11.987 E6.53395
G1 X63.327 Y26.642 E7.22179
G1 X63.327 Y27.018 E7.23428
G1 X78.321 Y12.024 E7.93802
G1 X78.660 Y12.062 E7.94934
G1 X63.327 Y27.394 E8.66899
G1 X63.327 Y27.771 E8.68148
G1 X78.999 Y12.099 E9.41704
G1 X79.329 Y12.145 E9.42811
G1 X63.327 Y28.147 E10.17918
G1 X63.327 Y28.523 E10.19167
G1 X79.658 Y12.192 E10.95820
G1 X79.988 Y12.239 E10.96925
G1 X63.327 Y28.900 E11.75124
G1 X63.327 Y29.276 E11.76373
G1 X80.317 Y12.286 E12.56119
G1 X80.647 Y12.333 E12.57224
G1 X63.327 Y29.652 E13.38516
G1 X63.327 Y30.029 E13.39765
G1 X80.976 Y12.380 E14.22604
G1 X81.296 Y12.436 E14.23681
G1 X63.327 Y30.405 E15.08020
G1 X63.327 Y30.781 E15.09269
G1 X81.615 Y12.494 E15.95103
G1 X81.933 Y12.551 E15.96178
G1 X63.327 Y31.157 E16.83509
G1 X63.327 Y31.534 E16.84758
G1 X82.252 Y12.609 E17.73585
G1 X82.571 Y12.667 E17.74660
G1 X63.327 Y31.910 E18.64982
G1 X63.327 Y32.286 E18.66231
G1 X82.889 Y12.724 E19.58050
G1 X83.073 Y12.757 E19.58668
G1 X83.073 Y12.917 E19.59199
G1 X63.327 Y32.663 E20.51878
G1 X63.327 Y33.039 E20.53127
G1 X83.073 Y13.294 E21.45805
G1 X83.073 Y13.670 E21.47054
G1 X63.327 Y33.415 E22.39733
G1 X63.327 Y33.792 E22.40982
G1 X83.073 Y14.046 E23.33660
G1 X83.073 Y14.423 E23.34909
G1 X63.327 Y34.168 E24.27588
G1 X63.327 Y34.544 E24.28837
G1 X83.073 Y14.799 E25.21516
G1 X83.073 Y15.175 E25.22765
G1 X63.327 Y34.921 E26.15443
G1 X63.327 Y35.297 E26.16692
G1 X83.073 Y15.552 E27.09371
G1 X83.073 Y15.928 E27.10620
G1 X63.327 Y35.673 E28.03298
G1 X63.327 Y36.050 E28.04547
G1 X83.073 Y16.304 E28.97226
G1 X83.073 Y16.681 E28.98475
G1 X63.327 Y36.426 E29.91154
G1 X63.327 Y36.802 E29.92403
G1 X83.073 Y17.057 E30.85081
G1 X83.073 Y17.433 E30.86330
G1 X63.327 Y37.179 E31.79009
G1 X63.327 Y37.555 E31.80258
G1 X83.073 Y17.810 E32.72936
G1 X83.377 Y17.882 E32.73974
G1 X63.327 Y37.931 E33.68080
G1 X63.327 Y38.308 E33.69329
G1 X83.689 Y17.946 E34.64899
G1 X83.995 Y18.016 E34.65942
G1 X63.327 Y38.684 E35.62950
G1 X63.327 Y39.060 E35.64198
G1 X84.297 Y18.091 E36.62624
G1 X84.599 Y18.165 E36.63656
G1 X63.327 Y39.437 E37.63498
G1 X63.327 Y39.813 E37.64747
G1 X84.901 Y18.239 E38.66007
G1 X85.203 Y18.313 E38.67040
G1 X63.327 Y40.189 E39.69717
G1 X63.327 Y40.565 E39.70966
G1 X85.505 Y18.388 E40.75061
G1 X85.807 Y18.462 E40.76094
G1 X63.327 Y40.942 E41.81606
G1 X63.327 Y41.318 E41.82855
G1 X86.109 Y18.536 E42.89786
G1 X86.411 Y18.611 E42.90818
G1 X63.327 Y41.694 E43.99166
G1 E41.99166 F2400.00000
G92 E0
G1 X63.327 Y52.231 F7800.000
G1 E2.00000 F2400.00000
G1 F1800.000
G1 X63.327 Y52.608 E2.01249
G1 X66.185 Y49.750 E2.14664
G1 X65.947 Y50.364 E2.16850
G1 X63.327 Y52.984 E2.29148
G1 X63.327 Y53.360 E2.30397
G1 X65.709 Y50.978 E2.41578
G1 X65.561 Y51.361 E2.42939
G1 X65.561 Y51.503 E2.43411
G1 X63.327 Y53.737 E2.53896
G1 X63.327 Y54.113 E2.55145
G1 X65.561 Y51.879 E2.65630
G1 X65.561 Y52.255 E2.66879
G1 X63.327 Y54.489 E2.77365
G1 X63.327 Y54.866 E2.78614
G1 X65.561 Y52.632 E2.89099
G1 X65.561 Y53.008 E2.90348
G1 X63.327 Y55.242 E3.00834
G1 X63.327 Y55.618 E3.02083
G1 X65.561 Y53.384 E3.12568
G1 X65.561 Y53.433 E3.12728
G1 X65.653 Y53.669 E3.13570
G1 X63.327 Y55.995 E3.24485
G1 X63.327 Y56.371 E3.25734
G1 X65.758 Y53.940 E3.37143
G1 X65.863 Y54.212 E3.38108
G1 X63.327 Y56.747 E3.50010
G1 X63.327 Y57.124 E3.51259
G1 X65.968 Y54.483 E3.63654
G1 X66.073 Y54.754 E3.64619
G1 X63.327 Y57.500 E3.77507
G1 X63.327 Y57.876 E3.78756
G1 X66.178 Y55.025 E3.92138
G1 X66.283 Y55.297 E3.93103
G1 X63.327 Y58.253 E4.06978
G1 X63.327 Y58.629 E4.08227
G1 X66.444 Y55.512 E4.22856
G1 X66.624 Y55.709 E4.23740
G1 X63.327 Y59.005 E4.39212
G1 X63.327 Y59.382 E4.40461
G1 X66.803 Y55.906 E4.56775
G1 X66.982 Y56.103 E4.57659
G1 X63.327 Y59.758 E4.74815
G1 X63.327 Y60.134 E4.76064
G1 X67.162 Y56.300 E4.94062
G1 X67.341 Y56.496 E4.94946
G1 X63.327 Y60.510 E5.13787
G1 X63.327 Y60.887 E5.15036
G1 X67.521 Y56.693 E5.34719
G1 X67.700 Y56.890 E5.35603
G1 X63.327 Y61.263 E5.56129
G1 X63.327 Y61.639 E5.57378
G1 X67.949 Y57.017 E5.79072
G1 X68.201 Y57.142 E5.80004
G1 X63.327 Y62.016 E6.02878
G1 X63.327 Y62.392 E6.04127
G1 X68.452 Y57.268 E6.28180
G1 X68.703 Y57.393 E6.29111
G1 X63.327 Y62.768 E6.54343
G1 X63.327 Y63.145 E6.55592
G1 X68.954 Y57.518 E6.82003
G1 X69.206 Y57.643 E6.82935
G1 X63.327 Y63.521 E7.10525
G1 X63.327 Y63.897 E7.11774
G1 X69.457 Y57.768 E7.40544
G1 X69.560 Y57.820 E7.40928
G1 X69.763 Y57.838 E7.41603
G1 X63.327 Y64.274 E7.71808
G1 X63.327 Y64.650 E7.73057
G1 X70.107 Y57.870 E8.04880
G1 X70.452 Y57.902 E8.06028
G1 X63.327 Y65.026 E8.39467
G1 X63.327 Y65.403 E8.40716
G1 X70.796 Y57.934 E8.75771
G1 X71.140 Y57.966 E8.76919
G1 X63.327 Y65.779 E9.13591
G1 X63.327 Y66.155 E9.14840
G1 X71.485 Y57.998 E9.53129
G1 X71.624 Y58.011 E9.53591
G1 X71.938 Y57.921 E9.54675
G1 X63.327 Y66.532 E9.95089
G1 X63.327 Y66.908 E9.96338
G1 X72.464 Y57.772 E10.39220
G1 X72.989 Y57.622 E10.41035
G1 X63.327 Y67.284 E10.86386
G1 X63.327 Y67.661 E10.87635
G1 X73.515 Y57.472 E11.35455
G1 X73.616 Y57.444 E11.35803
G1 X74.859 Y56.506 E11.40970
G1 X63.327 Y68.037 E11.95094
G1 E9.95094 F2400.00000
G92 E0
G1 X66.322 Y94.396 F7800.000
G1 E2.00000 F2400.00000
G1 F1800.000
G1 X67.499 Y93.104 E2.05800
G1 X67.726 Y92.991 E2.06643
G1 X89.673 Y71.045 E3.09652
G1 X89.673 Y71.421 E3.10901
G1 X68.476 Y92.618 E4.10392
G1 X69.226 Y92.244 E4.13171
G1 X89.673 Y71.797 E5.09143
G1 X89.673 Y72.173 E5.10392
G1 X69.698 Y92.149 E6.04149
G1 X70.112 Y92.110 E6.05532
G1 X89.673 Y72.550 E6.97342
G1 X89.673 Y72.926 E6.98591
G1 X70.527 Y92.072 E7.88454
G1 X70.942 Y92.033 E7.89837
G1 X89.673 Y73.302 E8.77753
G1 X89.673 Y73.679 E8.79002
G1 X71.357 Y91.995 E9.64973
G1 X71.417 Y91.989 E9.65174
G1 X71.667 Y92.061 E9.66038
G1 X89.673 Y74.055 E10.50549
G1 X89.673 Y74.431 E10.51798
G1 X71.960 Y92.144 E11.34935
G1 X72.253 Y92.227 E11.35946
G1 X89.673 Y74.808 E12.17708
G1 X89.673 Y75.184 E12.18957
G1 X72.546 Y92.311 E12.99343
G1 X72.839 Y92.394 E13.00354
G1 X89.673 Y75.560 E13.79365
G1 X89.673 Y75.937 E13.80614
G1 X73.132 Y92.477 E14.58250
G1 X73.421 Y92.565 E14.59252
G1 X89.673 Y76.313 E15.35532
G1 X89.673 Y76.689 E15.36781
G1 X73.635 Y92.727 E16.12055
G1 X73.850 Y92.889 E16.12947
G1 X89.673 Y77.066 E16.87215
G1 X89.673 Y77.442 E16.88464
G1 X74.064 Y93.050 E17.61725
G1 X74.279 Y93.212 E17.62617
G1 X89.673 Y77.818 E18.34872
G1 X89.673 Y78.195 E18.36121
G1 X74.493 Y93.374 E19.07369
G1 X74.707 Y93.536 E19.08261
G1 X89.673 Y78.571 E19.78503
G1 X89.673 Y78.947 E19.79752
G1 X74.922 Y93.698 E20.48988
G1 X75.063 Y93.805 E20.49577
G1 X75.112 Y93.884 E20.49885
G1 X89.673 Y79.324 E21.18228
G1 X89.673 Y79.700 E21.19477
G1 X75.256 Y94.116 E21.87143
G1 X75.400 Y94.349 E21.88051
G1 X89.673 Y80.076 E22.55042
G1 X89.673 Y80.453 E22.56291
G1 X75.544 Y94.581 E23.22607
G1 X75.688 Y94.814 E23.23514
G1 X89.673 Y80.829 E23.89154
G1 X89.673 Y81.205 E23.90403
G1 X75.832 Y95.046 E24.55368
G1 X75.976 Y95.279 E24.56276
G1 X89.673 Y81.582 E25.20565
G1 X89.673 Y81.958 E25.21814
G1 X76.120 Y95.511 E25.85428
G1 X76.154 Y95.567 E25.85645
G1 X76.199 Y95.808 E25.86459
G1 X89.673 Y82.334 E26.49700
G1 X89.673 Y82.710 E26.50949
G1 X76.258 Y96.125 E27.13912
G1 X76.318 Y96.442 E27.14982
G1 X89.673 Y83.087 E27.77666
G1 X89.673 Y83.463 E27.78915
G1 X76.377 Y96.759 E28.41322
G1 X76.436 Y97.076 E28.42392
G1 X89.673 Y83.839 E29.04520
G1 X89.673 Y84.216 E29.05769
G1 X76.495 Y97.393 E29.67619
G1 X76.535 Y97.603 E29.68329
G1 X76.506 Y97.759 E29.68855
G1 X89.673 Y84.592 E30.30657
G1 X89.673 Y84.968 E30.31906
G1 X76.419 Y98.222 E30.94114
G1 X76.333 Y98.685 E30.95677
G1 X89.673 Y85.345 E31.58291
G1 X89.673 Y85.721 E31.59540
G1 X76.246 Y99.148 E32.22561
G1 X76.160 Y99.610 E32.24123
G1 X89.673 Y86.097 E32.87550
G1 X89.673 Y86.474 E32.88799
G1 X75.581 Y100.565 E33.54940
G1 E31.54940 F2400.00000
G92 E0
G1 X63.327 Y130.130 F7800.000
G1 E2.00000 F2400.00000
G1 F1800.000
G1 X89.673 Y103.784 E3.23657
G1 X89.673 Y103.408 E3.24906
G1 X63.327 Y129.754 E4.48563
G1 X63.327 Y129.377 E4.49812
G1 X89.673 Y103.032 E5.73469
G1 X89.673 Y102.655 E5.74718
G1 X63.327 Y129.001 E6.98375
G1 X63.327 Y128.625 E6.99624
G1 X89.673 Y102.279 E8.23280
G1 X89.673 Y101.903 E8.24529
G1 X63.327 Y128.248 E9.48186
G1 X63.327 Y127.872 E9.49435
G1 X89.673 Y101.527 E10.73092
G1 X89.673 Y101.150 E10.74341
G1 X63.327 Y127.496 E11.97998
G1 X63.327 Y127.119 E11.99247
G1 X89.673 Y100.774 E13.22904
G1 X89.673 Y100.398 E13.24153
G1 X63.327 Y126.743 E14.47810
G1 X63.327 Y126.367 E14.49059
G1 X89.673 Y100.021 E15.72716
G1 X89.673 Y99.645 E15.73965
G1 X63.327 Y125.990 E16.97622
G1 X63.327 Y125.614 E16.98871
G1 X89.673 Y99.269 E18.22527
G1 X89.673 Y98.892 E18.23776
G1 X63.327 Y125.238 E19.47433
G1 X63.327 Y124.861 E19.48682
G1 X89.673 Y98.516 E20.72339
G1 X89.673 Y98.140 E20.73588
G1 X63.327 Y124.485 E21.97245
G1 X63.327 Y124.109 E21.98494
G1 X89.673 Y97.763 E23.22151
G1 X89.673 Y97.387 E23.23400
G1 X63.327 Y123.732 E24.47057
G1 X63.327 Y123.356 E24.48306
G1 X89.673 Y97.011 E25.71963
G1 X89.673 Y96.634 E25.73212
G1 X63.327 Y122.980 E26.96869
G1 X63.327 Y122.603 E26.98118
G1 X89.673 Y96.258 E28.21774
G1 X89.673 Y95.882 E28.23023
G1 X63.327 Y122.227 E29.46680
G1 X63.327 Y121.851 E29.47929
