; generated by Slic3r 1.3.1-dev (Build 2ef957d) on 2019-11-25 at 09:21:26

; external perimeters extrusion width = 0.55mm (4.37mm^3/s)
; perimeters extrusion width = 0.70mm (11.44mm^3/s)
; infill extrusion width = 0.62mm (13.45mm^3/s)
; solid infill extrusion width = 0.70mm (3.81mm^3/s)
; top infill extrusion width = 0.70mm (2.86mm^3/s)

M107
G92 E0
M104 S200 ; set temperature
G28 ; home all axes
G1 Z5 F5000 ; lift nozzle

; Filament gcode

M109 S200 ; set temperature and wait for it to be reached
G21 ; set units to millimeters
G90 ; use absolute coordinates
M82 ; use absolute distances for extrusion
G92 E0
G1 Z0.350 F7800.000
G1 E-2.00000 F2400.00000
G92 E0
G1 X34.809 Y147.678 F7800.000
G1 E2.00000 F2400.00000
G1 F1800.000
G1 X151.546 Y37.678 E6.96292
G1 X153.462 Y36.418 E7.03388
G1 X156.089 Y35.875 E7.11688
G1 X159.938 Y35.875 E7.23597
G1 X162.197 Y36.272 E7.30693
G1 X164.185 Y37.415 E7.37789
G1 X165.664 Y39.168 E7.44885
G1 X166.507 Y41.643 E7.52975
G1 X167.192 Y46.893 E7.69357
G1 X167.240 Y48.062 E7.72977
G1 X167.115 Y50.642 E7.80969
G1 X166.797 Y54.652 E7.93416
G1 X166.352 Y58.648 E8.05856
G1 X165.782 Y62.630 E8.18303
G1 X165.088 Y66.590 E8.30742
G1 X164.268 Y70.528 E8.43188
G1 X163.326 Y74.439 E8.55635
G1 X162.262 Y78.316 E8.68075
G1 X161.076 Y82.160 E8.80523
G1 X159.770 Y85.963 E8.92964
G1 X158.346 Y89.724 E9.05407
G1 X156.805 Y93.437 E9.17844
G1 X155.145 Y97.103 E9.30297
G1 X153.373 Y100.713 E9.42741
G1 X151.489 Y104.265 E9.55179
G1 X149.494 Y107.756 E9.67620
G1 X147.389 Y111.185 E9.80071
G1 X145.178 Y114.545 E9.92516
G1 X142.985 Y117.665 E10.04315
G1 X140.573 Y120.883 E10.16759
G1 X137.929 Y124.184 E10.29847
G1 X135.314 Y127.240 E10.42291
G1 X132.605 Y130.213 E10.54734
G1 X129.951 Y132.951 E10.66535
G1 X127.065 Y135.753 E10.78979
G1 X124.093 Y138.462 E10.91423
G1 X121.037 Y141.076 E11.03866
G1 X117.736 Y143.721 E11.16954
G1 X114.686 Y146.011 E11.28754
G1 X111.397 Y148.326 E11.41198
G1 X108.037 Y150.536 E11.53642
G1 X105.117 Y152.330 E11.64246
G1 X104.432 Y152.746 E11.66727
G1 X100.936 Y154.736 E11.79173
G1 X97.380 Y156.615 E11.91617
G1 X93.768 Y158.381 E12.04057
G1 X90.289 Y159.952 E12.15869
G1 X86.576 Y161.494 E12.28308
G1 X82.816 Y162.918 E12.40750
G1 X80.344 Y163.768 E12.48836
G1 X78.198 Y164.125 E12.55568
G1 X39.352 Y164.125 E13.75762
G1 X37.094 Y163.728 E13.82858
G1 X35.106 Y162.585 E13.89954
G1 X33.626 Y160.832 E13.97050
G1 X32.834 Y158.680 E14.04147
G1 X32.728 Y157.500 E14.07812
G1 X32.728 Y152.500 E14.23282
G1 X33.125 Y150.241 E14.30379
G1 X34.768 Y147.741 E14.39636
G1 E12.39636 F2400.00000
G92 E0
G1 X71.382 Y155.100 F7800.000
G1 E2.00000 F2400.00000
G1 F1800.000
G1 X59.232 Y155.100 E2.37594
G1 X59.232 Y154.100 E2.40689
G1 X78.681 Y154.100 E3.00866
G1 X79.437 Y153.841 E3.03339
G1 X82.915 Y152.527 E3.14843
G1 X86.350 Y151.104 E3.26346
G1 X89.738 Y149.575 E3.37848
G1 X93.076 Y147.939 E3.49351
G1 X96.362 Y146.200 E3.60853
G1 X99.591 Y144.357 E3.72356
G1 X102.761 Y142.415 E3.83858
G1 X105.868 Y140.374 E3.95360
G1 X108.909 Y138.237 E4.06863
G1 X111.882 Y136.004 E4.18365
G1 X114.783 Y133.680 E4.29868
G1 X117.610 Y131.266 E4.41370
G1 X120.360 Y128.764 E4.52873
G1 X123.029 Y126.177 E4.64375
G1 X125.616 Y123.507 E4.75878
G1 X128.118 Y120.758 E4.87380
G1 X130.533 Y117.931 E4.98883
G1 X132.857 Y115.030 E5.10385
G1 X135.089 Y112.057 E5.21887
G1 X137.227 Y109.015 E5.33390
G1 X139.268 Y105.908 E5.44893
G1 X141.210 Y102.738 E5.56394
G1 X143.052 Y99.509 E5.67898
G1 X144.791 Y96.224 E5.79400
G1 X146.427 Y92.885 E5.90902
G1 X147.957 Y89.497 E6.02405
G1 X149.379 Y86.063 E6.13907
G1 X150.694 Y82.585 E6.25410
G1 X151.898 Y79.068 E6.36913
G1 X152.991 Y75.515 E6.48415
G1 X153.972 Y71.929 E6.59917
G1 X154.839 Y68.314 E6.71419
G1 X155.593 Y64.674 E6.82922
G1 X156.232 Y61.012 E6.94424
G1 X156.757 Y57.332 E7.05927
G1 X157.164 Y53.636 E7.17430
G1 X157.456 Y49.930 E7.28932
G1 X157.631 Y46.217 E7.40435
G1 X157.664 Y44.100 E7.46986
G1 X158.312 Y44.100 E7.48992
G1 X158.279 Y46.237 E7.55607
G1 X158.132 Y49.350 E7.65248
G1 X158.946 Y49.350 E7.67766
G1 X158.914 Y50.022 E7.69849
G1 X158.619 Y53.774 E7.81493
G1 X158.205 Y57.515 E7.93138
G1 X157.676 Y61.241 E8.04783
G1 X157.028 Y64.948 E8.16426
G1 X156.265 Y68.633 E8.28072
G1 X155.387 Y72.292 E8.39716
G1 X154.393 Y75.923 E8.51361
G1 X153.287 Y79.520 E8.63005
G1 X152.068 Y83.080 E8.74649
G1 X150.738 Y86.600 E8.86293
G1 X149.297 Y90.077 E8.97938
G1 X147.748 Y93.507 E9.09583
G1 X146.093 Y96.887 E9.21227
G1 X144.332 Y100.213 E9.32872
G1 X143.844 Y101.068 E9.35918
G1 X142.467 Y103.482 E9.44516
G1 X140.501 Y106.691 E9.56161
G1 X138.435 Y109.836 E9.67805
G1 X136.271 Y112.915 E9.79449
G1 X134.011 Y115.925 E9.91094
G1 X131.658 Y118.862 E10.02738
G1 X129.214 Y121.724 E10.14383
G1 X126.681 Y124.507 E10.26027
G1 X124.062 Y127.210 E10.37671
G1 X121.360 Y129.829 E10.49316
G1 X118.576 Y132.361 E10.60960
G1 X115.714 Y134.806 E10.72605
G1 X112.777 Y137.159 E10.84249
G1 X109.768 Y139.418 E10.95894
G1 X106.689 Y141.582 E11.07538
G1 X103.543 Y143.648 E11.19182
G1 X100.334 Y145.615 E11.30826
G1 X97.065 Y147.479 E11.42471
G1 X93.740 Y149.240 E11.54115
G1 X90.360 Y150.896 E11.65760
G1 X86.930 Y152.445 E11.77405
G1 X83.453 Y153.885 E11.89049
G1 X79.933 Y155.215 E12.00693
G1 X77.932 Y155.900 E12.07236
G1 X71.382 Y155.900 E12.27502
G1 X71.382 Y155.175 E12.29745
G1 X70.757 Y155.725 F7800.000
G1 F1800.000
G1 X58.607 Y155.725 E12.67339
G1 X58.607 Y153.475 E12.74301
G1 X78.577 Y153.475 E13.36091
G1 X79.226 Y153.253 E13.38211
G1 X82.685 Y151.946 E13.49654
G1 X86.101 Y150.531 E13.61096
G1 X89.472 Y149.009 E13.72537
G1 X92.793 Y147.382 E13.83979
G1 X96.061 Y145.652 E13.95420
G1 X99.273 Y143.819 E14.06863
G1 X102.426 Y141.887 E14.18304
G1 X105.516 Y139.857 E14.29746
G1 X108.542 Y137.731 E14.41188
G1 X111.499 Y135.511 E14.52629
G1 X114.385 Y133.199 E14.64071
G1 X117.197 Y130.797 E14.75513
G1 X119.932 Y128.308 E14.86954
G1 X122.587 Y125.735 E14.98396
G1 X125.161 Y123.079 E15.09838
G1 X127.650 Y120.344 E15.21280
G1 X130.051 Y117.532 E15.32721
G1 X132.363 Y114.646 E15.44163
G1 X134.583 Y111.689 E15.55605
G1 X136.710 Y108.664 E15.67047
G1 X138.740 Y105.573 E15.78488
G1 X140.672 Y102.420 E15.89929
G1 X142.504 Y99.208 E16.01372
G1 X144.234 Y95.940 E16.12813
G1 X145.862 Y92.619 E16.24255
G1 X147.383 Y89.249 E16.35697
G1 X148.798 Y85.833 E16.47138
G1 X150.106 Y82.373 E16.58581
G1 X151.303 Y78.875 E16.70022
G1 X152.390 Y75.341 E16.81464
G1 X153.366 Y71.774 E16.92905
G1 X154.229 Y68.178 E17.04347
G1 X154.979 Y64.557 E17.15789
G1 X155.615 Y60.914 E17.27230
G1 X156.137 Y57.253 E17.38672
G1 X156.542 Y53.578 E17.50114
G1 X156.832 Y49.891 E17.61556
G1 X157.007 Y46.197 E17.72998
G1 X157.049 Y43.475 E17.81422
G1 X158.947 Y43.475 E17.87297
G1 X158.903 Y46.257 E17.95906
G1 X158.787 Y48.725 E18.03550
G1 X159.601 Y48.725 E18.06068
G1 X159.538 Y50.061 E18.10208
G1 X159.241 Y53.833 E18.21914
G1 X158.826 Y57.593 E18.33619
G1 X158.293 Y61.338 E18.45324
G1 X157.642 Y65.065 E18.57029
G1 X156.875 Y68.769 E18.68735
G1 X155.992 Y72.448 E18.80439
G1 X154.993 Y76.097 E18.92145
G1 X153.882 Y79.713 E19.03850
G1 X152.656 Y83.292 E19.15555
G1 X151.319 Y86.831 E19.27260
G1 X149.871 Y90.326 E19.38966
G1 X148.314 Y93.773 E19.50671
G1 X146.650 Y97.171 E19.62377
G1 X144.879 Y100.514 E19.74082
G1 X144.387 Y101.378 E19.77158
G1 X143.005 Y103.800 E19.85787
G1 X141.028 Y107.026 E19.97492
G1 X138.952 Y110.188 E20.09197
G1 X136.776 Y113.283 E20.20902
G1 X134.505 Y116.308 E20.32607
G1 X132.140 Y119.260 E20.44312
G1 X129.683 Y122.137 E20.56018
G1 X127.137 Y124.935 E20.67723
G1 X124.504 Y127.652 E20.79428
G1 X121.787 Y130.284 E20.91133
G1 X118.989 Y132.830 E21.02838
G1 X116.113 Y135.287 E21.14544
G1 X113.160 Y137.653 E21.26249
G1 X110.135 Y139.924 E21.37954
G1 X107.040 Y142.099 E21.49659
G1 X103.878 Y144.176 E21.61364
G1 X100.653 Y146.152 E21.73069
G1 X97.367 Y148.027 E21.84774
G1 X94.023 Y149.797 E21.96479
G1 X90.626 Y151.461 E22.08185
G1 X87.178 Y153.018 E22.19890
G1 X83.683 Y154.466 E22.31596
G1 X80.144 Y155.803 E22.43301
G1 X78.036 Y156.525 E22.50195
G1 X70.757 Y156.525 E22.72716
G1 X70.757 Y155.800 E22.74960
G1 X70.132 Y156.350 F7800.000
G1 F1800.000
G1 X58.933 Y156.350 E23.09614
G1 X58.933 Y157.150 E23.12089
G1 X57.982 Y157.150 E23.15029
G1 X57.982 Y152.850 E23.28333
G1 X78.473 Y152.850 E23.91735
G1 X79.014 Y152.665 E23.93503
G1 X82.455 Y151.365 E24.04885
G1 X85.853 Y149.957 E24.16266
G1 X89.206 Y148.444 E24.27647
G1 X92.509 Y146.825 E24.39028
G1 X95.760 Y145.104 E24.50408
G1 X98.955 Y143.281 E24.61790
G1 X102.091 Y141.360 E24.73171
G1 X105.165 Y139.340 E24.84552
G1 X108.174 Y137.225 E24.95933
G1 X111.116 Y135.017 E25.07314
G1 X113.987 Y132.717 E25.18695
G1 X116.784 Y130.328 E25.30076
G1 X119.504 Y127.853 E25.41456
G1 X122.145 Y125.293 E25.52837
G1 X124.705 Y122.651 E25.64219
G1 X127.181 Y119.931 E25.75599
G1 X129.570 Y117.134 E25.86980
G1 X131.869 Y114.263 E25.98361
G1 X134.078 Y111.322 E26.09742
G1 X136.193 Y108.313 E26.21123
G1 X138.212 Y105.238 E26.32504
G1 X140.134 Y102.102 E26.43885
G1 X141.957 Y98.907 E26.55267
G1 X143.678 Y95.656 E26.66647
G1 X145.296 Y92.353 E26.78028
G1 X146.809 Y89.001 E26.89409
G1 X148.217 Y85.603 E27.00790
G1 X149.518 Y82.162 E27.12171
G1 X150.709 Y78.682 E27.23552
G1 X151.790 Y75.166 E27.34933
G1 X152.761 Y71.618 E27.46314
G1 X153.619 Y68.042 E27.57695
G1 X154.365 Y64.440 E27.69076
G1 X154.998 Y60.816 E27.80457
G1 X155.517 Y57.175 E27.91838
G1 X155.920 Y53.519 E28.03219
G1 X156.208 Y49.852 E28.14600
G1 X156.382 Y46.178 E28.25981
G1 X156.434 Y42.850 E28.36279
G1 X159.582 Y42.850 E28.46021
G1 X159.528 Y46.277 E28.56624
G1 X159.442 Y48.100 E28.62272
G1 X160.256 Y48.100 E28.64791
G1 X160.161 Y50.101 E28.70988
G1 X159.863 Y53.892 E28.82754
G1 X159.446 Y57.671 E28.94520
G1 X158.910 Y61.436 E29.06286
G1 X158.256 Y65.182 E29.18051
G1 X157.485 Y68.906 E29.29818
G1 X156.597 Y72.603 E29.41583
G1 X155.594 Y76.271 E29.53350
G1 X154.476 Y79.906 E29.65115
G1 X153.244 Y83.503 E29.76881
G1 X151.900 Y87.061 E29.88647
G1 X150.444 Y90.574 E30.00413
G1 X148.879 Y94.040 E30.12180
G1 X147.206 Y97.454 E30.23946
G1 X145.427 Y100.815 E30.35711
G1 X144.930 Y101.687 E30.38818
G1 X143.543 Y104.118 E30.47477
G1 X141.556 Y107.361 E30.59243
G1 X139.468 Y110.539 E30.71009
G1 X137.282 Y113.650 E30.82775
G1 X134.999 Y116.691 E30.94541
G1 X132.621 Y119.659 E31.06307
G1 X130.152 Y122.550 E31.18073
G1 X127.592 Y125.363 E31.29838
G1 X124.946 Y128.094 E31.41604
G1 X122.215 Y130.740 E31.53370
G1 X119.403 Y133.299 E31.65136
G1 X116.511 Y135.769 E31.76902
G1 X113.543 Y138.146 E31.88668
G1 X110.502 Y140.430 E32.00434
G1 X107.391 Y142.616 E32.12200
G1 X104.213 Y144.703 E32.23965
G1 X100.971 Y146.690 E32.35731
G1 X97.668 Y148.575 E32.47498
G1 X94.307 Y150.354 E32.59263
G1 X90.892 Y152.027 E32.71029
G1 X87.426 Y153.592 E32.82796
G1 X83.913 Y155.047 E32.94562
G1 X80.356 Y156.391 E33.06327
G1 X78.140 Y157.150 E33.13574
G1 X70.132 Y157.150 E33.38351
G1 X70.132 Y156.425 E33.40594
G1 X69.897 Y155.909 F7800.000
G1 E31.40594 F2400.00000
G92 E0
G1 X57.982 Y157.100 F7800.000
G1 E2.00000 F2400.00000
G1 F1800.000
G1 X40.152 Y157.100 E2.63997
G1 X40.042 Y157.077 E2.64402
G1 F1800.000
G1 X39.821 Y157.031 E2.65314
G1 X39.752 Y156.700 E2.66682
G1 F1800.000
G1 X39.752 Y152.500 E2.81757
G1 E0.81757 F2400.00000
G92 E0
G1 X58.457 Y156.038 F7800.000
G1 E2.00000 F2400.00000
G1 F1800.000
G1 X58.457 Y156.838 E2.00990
G1 E0.00990 F2400.00000
G92 E0
G1 X59.545 Y154.600 F7800.000
G1 E2.00000 F2400.00000
G1 F1800.000
G1 X71.695 Y154.600 E2.18075
G1 X72.077 Y154.968 F7800.000
G1 F1800.000
G1 X72.563 Y154.482 E2.20253
G1 X73.468 Y154.482 E2.23119
G1 X72.431 Y155.518 E2.27764
G1 X73.336 Y155.518 E2.30631
G1 X74.372 Y154.482 E2.35276
G1 X75.277 Y154.482 E2.38142
G1 X74.240 Y155.518 E2.42787
G1 X75.145 Y155.518 E2.45653
G1 X76.182 Y154.482 E2.50298
G1 X77.087 Y154.482 E2.53165
G1 X76.050 Y155.518 E2.57810
G1 X76.955 Y155.518 E2.60676
G1 X77.992 Y154.482 E2.65321
G1 X78.350 Y154.482 E2.66455
G1 X78.489 Y154.889 E2.67820
G1 X78.003 Y155.375 E2.69998
G1 X78.803 Y154.830 F7800.000
G1 F1800.000
G1 X79.685 Y154.528 E2.73511
G1 X83.184 Y153.206 E2.87606
G1 X86.640 Y151.774 E3.01701
G1 X90.049 Y150.235 E3.15797
G1 X93.408 Y148.589 E3.29892
G1 X96.719 Y146.836 E3.44012
G1 X99.963 Y144.986 E3.58083
G1 X103.146 Y143.035 E3.72153
G1 X106.278 Y140.978 E3.86274
G1 X109.338 Y138.827 E4.00368
G1 X112.330 Y136.582 E4.14464
G1 X115.254 Y134.239 E4.28583
G1 X118.093 Y131.814 E4.42654
G1 X120.855 Y129.301 E4.56725
G1 X123.541 Y126.698 E4.70820
G1 X126.149 Y124.007 E4.84940
G1 X128.666 Y121.241 E4.99035
G1 X131.095 Y118.396 E5.13130
G1 X133.438 Y115.472 E5.27251
G1 X135.680 Y112.486 E5.41321
G1 X137.834 Y109.420 E5.55441
G1 X139.888 Y106.294 E5.69537
G1 X141.838 Y103.110 E5.83607
G1 X143.692 Y99.861 E5.97701
G1 X145.442 Y96.555 E6.11797
G1 X147.090 Y93.190 E6.25918
G1 X148.627 Y89.787 E6.39988
G1 X150.056 Y86.338 E6.54058
G1 X151.378 Y82.839 E6.68154
G1 X152.594 Y79.287 E6.82299
G1 X153.692 Y75.719 E6.96369
G1 X154.677 Y72.117 E7.10440
G1 X155.552 Y68.474 E7.24559
G1 X156.309 Y64.818 E7.38630
G1 X156.954 Y61.126 E7.52750
G1 X157.481 Y57.423 E7.66845
G1 X157.891 Y53.705 E7.80941
G1 X158.210 Y49.662 E7.96223
G1 Z0.650 F7800.000
G1 E5.96223 F2400.00000
G92 E0
G1 X71.254 Y155.229 F7800.000
G1 E2.00000 F2400.00000
G1 F3600.000
G1 X59.104 Y155.229 E2.32776
G1 X59.104 Y153.971 E2.36169
G1 X78.520 Y153.971 E2.88547
G1 X79.379 Y153.677 E2.90996
G1 X82.851 Y152.365 E3.01009
G1 X86.281 Y150.945 E3.11023
G1 X89.664 Y149.417 E3.21037
G1 X92.997 Y147.784 E3.31052
G1 X96.278 Y146.047 E3.41064
G1 X99.502 Y144.207 E3.51079
G1 X102.667 Y142.268 E3.61092
G1 X105.770 Y140.230 E3.71106
G1 X108.807 Y138.096 E3.81120
G1 X111.775 Y135.867 E3.91134
G1 X114.672 Y133.546 E4.01148
G1 X117.495 Y131.135 E4.11161
G1 X120.241 Y128.637 E4.21175
G1 X122.906 Y126.054 E4.31189
G1 X125.490 Y123.388 E4.41203
G1 X127.988 Y120.643 E4.51217
G1 X130.399 Y117.820 E4.61231
G1 X132.720 Y114.923 E4.71244
G1 X134.948 Y111.954 E4.81258
G1 X137.083 Y108.917 E4.91272
G1 X139.121 Y105.815 E5.01286
G1 X141.060 Y102.650 E5.11299
G1 X142.900 Y99.425 E5.21314
G1 X144.636 Y96.145 E5.31327
G1 X146.270 Y92.811 E5.41341
G1 X147.797 Y89.428 E5.51355
G1 X149.218 Y85.999 E5.61369
G1 X150.530 Y82.526 E5.71382
G1 X151.732 Y79.014 E5.81396
G1 X152.824 Y75.466 E5.91410
G1 X153.803 Y71.886 E6.01424
G1 X154.669 Y68.276 E6.11438
G1 X155.422 Y64.642 E6.21451
G1 X156.060 Y60.985 E6.31465
G1 X156.584 Y57.310 E6.41479
G1 X156.991 Y53.620 E6.51493
G1 X157.282 Y49.920 E6.61506
G1 X157.457 Y46.212 E6.71520
G1 X157.492 Y43.971 E6.77565
G1 X158.397 Y43.971 E6.80006
G1 X158.361 Y46.240 E6.86127
G1 X158.221 Y49.221 E6.94178
G1 X159.034 Y49.221 E6.96373
G1 X158.996 Y50.027 E6.98550
G1 X158.701 Y53.782 E7.08709
G1 X158.287 Y57.525 E7.18869
G1 X157.757 Y61.253 E7.29028
G1 X157.109 Y64.963 E7.39187
G1 X156.345 Y68.651 E7.49347
G1 X155.466 Y72.313 E7.59506
G1 X154.472 Y75.945 E7.69665
G1 X153.365 Y79.545 E7.79824
G1 X152.145 Y83.108 E7.89984
G1 X150.814 Y86.631 E8.00143
G1 X149.373 Y90.110 E8.10302
G1 X147.823 Y93.542 E8.20462
G1 X146.166 Y96.924 E8.30622
G1 X144.404 Y100.253 E8.40781
G1 X142.538 Y103.524 E8.50940
G1 X140.570 Y106.735 E8.61100
G1 X138.503 Y109.883 E8.71259
G1 X136.337 Y112.964 E8.81418
G1 X134.076 Y115.975 E8.91577
G1 X131.722 Y118.914 E9.01736
G1 X129.276 Y121.778 E9.11896
G1 X126.741 Y124.564 E9.22055
G1 X124.121 Y127.268 E9.32214
G1 X121.416 Y129.889 E9.42374
G1 X118.631 Y132.423 E9.52533
G1 X115.767 Y134.869 E9.62692
G1 X112.828 Y137.224 E9.72852
G1 X109.816 Y139.485 E9.83011
G1 X106.735 Y141.650 E9.93170
G1 X103.587 Y143.718 E10.03329
G1 X100.376 Y145.686 E10.13489
G1 X97.105 Y147.551 E10.23648
G1 X93.777 Y149.314 E10.33807
G1 X90.395 Y150.970 E10.43967
G1 X86.963 Y152.520 E10.54126
G1 X83.483 Y153.962 E10.64286
G1 X79.960 Y155.293 E10.74445
G1 X77.811 Y156.029 E10.80574
G1 X71.254 Y156.029 E10.98263
G1 X71.254 Y155.304 E11.00219
G1 X70.618 Y155.864 F7800.000
G1 F3600.000
G1 X58.468 Y155.864 E11.32995
G1 X58.468 Y153.336 E11.39817
G1 X78.414 Y153.336 E11.93624
G1 X79.163 Y153.079 E11.95761
G1 X82.617 Y151.774 E12.05721
G1 X86.028 Y150.361 E12.15680
