; generated by Slic3r 1.3.1-dev (Build adea0d9) on 2020-02-19 at 16:53:09

; external perimeters extrusion width = 0.44mm (2.86mm^3/s)
; perimeters extrusion width = 0.56mm (4.14mm^3/s)
; infill extrusion width = 0.50mm (3.66mm^3/s)
; solid infill extrusion width = 0.56mm (3.10mm^3/s)
; top infill extrusion width = 0.56mm (3.10mm^3/s)

M107
G92 E0
;D3D:START:START
T0
M104 S215 T0

G21
G90
M107
T0
G28
G29
M109 T0 S215 T0
G0 F3000
M107
T0
G92 E0
G0 X0 Y149 Z0.1 F3600
G1 Y49 E6.5 F1200
G0 Z1
G92 E0
; Filament gcode

G21 ; set units to millimeters
G90 ; use absolute coordinates
M82 ; use absolute distances for extrusion
G92 E0
G1 Z0.300 F7800.000
G1 E-2.00000 F2400.00000
G92 E0
G1 X87.637 Y87.606 F7800.000
G1 E2.00000 F2400.00000
G1 F1800.000
G1 X88.016 Y87.312 E2.01590
G1 X88.457 Y87.122 E2.03179
G1 X88.744 Y87.057 E2.04155
G1 X89.202 Y87.043 E2.05671
G1 X89.471 Y87.086 E2.06575
G1 X89.733 Y87.162 E2.07479
G1 X90.141 Y87.370 E2.08995
G1 X90.374 Y87.550 E2.09971
G1 X90.676 Y87.894 E2.11488
G1 X90.826 Y88.147 E2.12464
G1 X90.981 Y88.578 E2.13980
G1 X91.027 Y88.869 E2.14957
G1 X91.012 Y89.348 E2.16546
G1 X90.872 Y89.830 E2.18209
G1 X90.617 Y90.262 E2.19870
G1 X90.278 Y90.601 E2.21460
G1 X90.052 Y90.755 E2.22364
G1 X89.809 Y90.878 E2.23267
G1 X89.348 Y91.012 E2.24857
G1 X88.869 Y91.027 E2.26446
G1 X88.578 Y90.981 E2.27422
G1 X88.147 Y90.826 E2.28938
G1 X87.894 Y90.676 E2.29915
G1 X87.550 Y90.374 E2.31431
G1 X87.370 Y90.141 E2.32408
G1 X87.152 Y89.713 E2.33997
G1 X87.047 Y89.245 E2.35586
G1 X87.038 Y88.950 E2.36563
G1 X87.113 Y88.477 E2.38152
G1 X87.303 Y88.037 E2.39741
G1 X87.457 Y87.811 E2.40645
G1 X87.597 Y87.651 E2.41350
G1 X87.820 Y87.801 F7800.000
G1 F1800.000
G1 X88.153 Y87.543 E2.42745
G1 X88.539 Y87.376 E2.44139
G1 X88.778 Y87.322 E2.44950
G1 X89.185 Y87.309 E2.46299
G1 X89.413 Y87.346 E2.47065
G1 X89.635 Y87.410 E2.47830
G1 X89.998 Y87.595 E2.49179
G1 X90.191 Y87.745 E2.49990
G1 X90.460 Y88.050 E2.51339
G1 X90.585 Y88.261 E2.52150
G1 X90.723 Y88.644 E2.53499
G1 X90.761 Y88.886 E2.54310
G1 X90.748 Y89.307 E2.55704
G1 X90.627 Y89.724 E2.57145
G1 X90.405 Y90.098 E2.58584
G1 X90.108 Y90.396 E2.59979
G1 X89.917 Y90.526 E2.60745
G1 X89.711 Y90.630 E2.61510
G1 X89.307 Y90.748 E2.62905
G1 X88.886 Y90.761 E2.64299
G1 X88.644 Y90.723 E2.65110
G1 X88.261 Y90.585 E2.66459
G1 X88.050 Y90.460 E2.67270
G1 X87.745 Y90.191 E2.68619
G1 X87.595 Y89.998 E2.69430
G1 X87.404 Y89.623 E2.70824
G1 X87.312 Y89.212 E2.72219
G1 X87.304 Y88.967 E2.73030
G1 X87.370 Y88.552 E2.74424
G1 X87.537 Y88.165 E2.75819
G1 X87.780 Y87.846 E2.77148
G1 X88.003 Y87.995 F7800.000
G1 F1800.000
G1 X88.289 Y87.773 E2.78349
G1 X88.621 Y87.629 E2.79549
G1 X88.811 Y87.587 E2.80193
G1 X89.168 Y87.576 E2.81376
G1 X89.537 Y87.658 E2.82627
G1 X89.855 Y87.820 E2.83810
G1 X90.008 Y87.939 E2.84455
G1 X90.245 Y88.207 E2.85638
G1 X90.344 Y88.375 E2.86282
G1 X90.465 Y88.711 E2.87465
G1 X90.495 Y88.903 E2.88109
G1 X90.484 Y89.265 E2.89309
G1 X90.381 Y89.618 E2.90527
G1 X90.194 Y89.934 E2.91744
G1 X89.938 Y90.190 E2.92945
G1 X89.781 Y90.297 E2.93572
G1 X89.613 Y90.382 E2.94198
G1 X89.265 Y90.484 E2.95399
G1 X88.902 Y90.495 E2.96600
G1 X88.711 Y90.465 E2.97243
G1 X88.375 Y90.344 E2.98426
G1 X88.207 Y90.245 E2.99071
G1 X87.939 Y90.008 E3.00254
G1 X87.820 Y89.855 E3.00898
G1 X87.656 Y89.532 E3.02098
G1 X87.577 Y89.178 E3.03299
G1 X87.570 Y88.984 E3.03943
G1 X87.627 Y88.626 E3.05143
G1 X87.771 Y88.294 E3.06343
G1 X87.963 Y88.040 E3.07396
G1 E1.07396 F2400.00000
G92 E0
G1 X142.046 Y142.153 F7800.000
G1 E2.00000 F2400.00000
G1 F1800.000
G1 X136.156 Y136.904 E2.26138
G1 X127.980 Y129.569 E2.62527
G1 X118.438 Y120.950 E3.05128
G1 X107.779 Y111.245 E3.52886
G1 X96.278 Y100.680 E4.04624
G1 X84.232 Y89.502 E4.59067
G1 X71.956 Y77.969 E5.14869
G1 X59.771 Y66.347 E5.70655
G1 X48.000 Y54.899 E6.25051
G1 X36.953 Y43.890 E6.76722
G1 X26.918 Y33.573 E7.24401
G1 X18.153 Y24.196 E7.66927
G1 X10.875 Y15.989 E8.03265
G1 X5.264 Y9.167 E8.32530
G1 X1.458 Y3.923 E8.53997
G1 X-0.408 Y0.502 E8.66907
G1 X-0.430 Y-0.430 E8.69996
G1 X0.502 Y-0.408 E8.73085
G1 X3.923 Y1.458 E8.85995
G1 X9.167 Y5.264 E9.07461
G1 X15.990 Y10.876 E9.36728
G1 X24.196 Y18.153 E9.73065
G1 X33.573 Y26.918 E10.15590
G1 X43.890 Y36.953 E10.63270
G1 X54.899 Y48.000 E11.14941
G1 X66.347 Y59.771 E11.69337
G1 X77.969 Y71.956 E12.25123
G1 X89.502 Y84.232 E12.80925
G1 X100.680 Y96.278 E13.35368
G1 X111.245 Y107.779 E13.87106
G1 X120.950 Y118.438 E14.34864
G1 X129.569 Y127.980 E14.77464
G1 X136.904 Y136.156 E15.13853
G1 X142.153 Y142.046 E15.39992
G1 X142.089 Y142.110 E15.40292
G1 E13.40292 F2400.00000
G92 E0
G1 X145.172 Y145.278 F7800.000
G1 E2.00000 F2400.00000
G1 F1800.000
G1 X135.979 Y137.102 E2.40759
G1 X127.802 Y129.767 E2.77151
G1 X118.260 Y121.146 E3.19755
G1 X107.600 Y111.441 E3.67517
G1 X96.097 Y100.875 E4.19259
G1 X84.051 Y89.696 E4.73707
G1 X71.773 Y78.162 E5.29515
G1 X59.587 Y66.538 E5.85308
G1 X47.814 Y55.089 E6.39714
G1 X36.764 Y44.076 E6.91397
G1 X26.726 Y33.757 E7.39092
G1 X17.956 Y24.375 E7.81638
G1 X10.674 Y16.162 E8.18004
G1 X5.054 Y9.330 E8.47313
G1 X1.233 Y4.065 E8.68862
G1 X-0.672 Y0.573 E8.82042
G1 X-0.702 Y-0.702 E8.86267
G1 X0.573 Y-0.672 E8.90492
G1 X4.065 Y1.233 E9.03672
G1 X9.330 Y5.054 E9.25222
G1 X16.162 Y10.674 E9.54531
G1 X24.375 Y17.956 E9.90896
G1 X33.757 Y26.726 E10.33442
G1 X44.076 Y36.764 E10.81137
G1 X55.089 Y47.814 E11.32820
G1 X66.538 Y59.587 E11.87226
G1 X78.162 Y71.773 E12.43020
G1 X89.696 Y84.051 E12.98828
G1 X100.875 Y96.097 E13.53275
G1 X111.441 Y107.600 E14.05017
G1 X121.146 Y118.260 E14.52779
G1 X129.767 Y127.802 E14.95383
G1 X137.102 Y135.979 E15.31775
G1 X145.278 Y145.172 E15.72534
G1 X145.215 Y145.236 E15.72832
G1 E13.72832 F2400.00000
G92 E0
G1 X148.257 Y148.363 F7800.000
G1 E2.00000 F2400.00000
G1 F1800.000
G1 X142.402 Y143.182 E2.25900
G1 X135.802 Y137.300 E2.55189
G1 X127.624 Y129.964 E2.91584
G1 X118.081 Y121.343 E3.34191
G1 X107.420 Y111.637 E3.81956
G1 X95.917 Y101.070 E4.33703
G1 X83.869 Y89.890 E4.88156
G1 X71.591 Y78.355 E5.43969
G1 X59.403 Y66.729 E5.99770
G1 X47.628 Y55.278 E6.54186
G1 X36.575 Y44.263 E7.05881
G1 X26.534 Y33.940 E7.53592
G1 X17.760 Y24.554 E7.96158
G1 X10.472 Y16.335 E8.32551
G1 X4.844 Y9.492 E8.61903
G1 X1.008 Y4.208 E8.83536
G1 X-0.936 Y0.644 E8.96986
G1 X-0.974 Y-0.974 E9.02347
G1 X0.644 Y-0.936 E9.07708
G1 X4.208 Y1.008 E9.21158
G1 X9.492 Y4.844 E9.42791
G1 X16.335 Y10.472 E9.72143
G1 X24.554 Y17.760 E10.08536
G1 X33.940 Y26.534 E10.51102
G1 X44.263 Y36.575 E10.98813
G1 X55.278 Y47.628 E11.50508
G1 X66.729 Y59.403 E12.04924
G1 X78.355 Y71.591 E12.60725
G1 X89.890 Y83.869 E13.16539
G1 X101.070 Y95.917 E13.70991
G1 X111.637 Y107.420 E14.22738
G1 X121.343 Y118.081 E14.70503
G1 X129.964 Y127.624 E15.13110
G1 X137.300 Y135.802 E15.49505
G1 X143.182 Y142.402 E15.78795
G1 X148.363 Y148.257 E16.04694
G1 X148.299 Y148.320 E16.04992
G1 X148.310 Y148.310 F7800.000
G1 F1800.000
G1 X148.996 Y148.996 E16.08850
G1 F1800.000
G1 X149.682 Y149.682 E16.11499
G1 F1800.000
G1 X150.368 Y150.368 E16.12938
G1 E14.12938 F2400.00000
G92 E0
G1 X147.421 Y147.421 F7800.000
G1 E2.00000 F2400.00000
G1 F1800.000
G1 X146.820 Y146.820 E2.00247
G1 F1800.000
G1 X146.220 Y146.220 E2.01512
G1 F1800.000
G1 X145.619 Y145.619 E2.03796
G1 F1800.000
G1 X145.319 Y145.319 E2.05447
G1 X144.336 Y144.336 F7800.000
G1 F1800.000
G1 X143.814 Y143.814 E2.05630
G1 F1800.000
G1 X143.291 Y143.291 E2.06633
G1 F1800.000
G1 X142.769 Y142.769 E2.08459
G1 X142.769 Y142.769 F7800.000
G1 F1800.000
G1 X142.194 Y142.194 E2.11286
G1 X141.160 Y141.160 F7800.000
G1 F1800.000
G1 X140.521 Y140.521 E2.11552
G1 F1800.000
G1 X139.883 Y139.883 E2.12911
G1 F1800.000
G1 X139.244 Y139.244 E2.15361
G1 F1800.000
G1 X138.925 Y138.925 E2.17132
G1 X138.575 Y138.899 F7800.000
G1 F1800.000
G1 X138.899 Y138.575 E2.18650
G1 X138.722 Y138.376 E2.19533
G1 X138.376 Y138.722 E2.21152
G1 X138.177 Y138.544 E2.22035
G1 X138.544 Y138.177 E2.23756
G1 X138.367 Y137.979 E2.24639
G1 X137.979 Y138.367 E2.26461
G1 X137.780 Y138.190 E2.27344
G1 X138.190 Y137.780 E2.29268
G1 X138.013 Y137.581 E2.30151
G1 X137.581 Y138.013 E2.32176
G1 X137.382 Y137.836 E2.33059
G1 X137.836 Y137.382 E2.35185
G1 X137.659 Y137.184 E2.36068
G1 X137.184 Y137.659 E2.38296
G1 X136.985 Y137.482 E2.39179
G1 X137.482 Y136.985 E2.41509
G1 X137.305 Y136.786 E2.42391
G1 X136.786 Y137.305 E2.44822
G1 X136.587 Y137.127 E2.45705
G1 X137.127 Y136.587 E2.48238
G1 X136.950 Y136.388 E2.49120
G1 X136.388 Y136.950 E2.51754
G1 X136.190 Y136.773 E2.52637
G1 X136.773 Y136.190 E2.55371
G1 X136.595 Y135.992 E2.56254
G1 X135.992 Y136.595 E2.59084
G1 X135.794 Y136.418 E2.59966
G1 X136.418 Y135.794 E2.62892
G1 X136.240 Y135.595 E2.63774
G1 X135.595 Y136.240 E2.66795
G1 X135.397 Y136.062 E2.67678
G1 X136.062 Y135.397 E2.70795
G1 X135.884 Y135.199 E2.71677
G1 X135.199 Y135.884 E2.74890
G1 X135.001 Y135.707 E2.75773
G1 X135.707 Y135.001 E2.79081
G1 X135.529 Y134.803 E2.79964
G1 X134.803 Y135.529 E2.83368
G1 X134.605 Y135.351 E2.84250
G1 X135.351 Y134.605 E2.87750
G1 X135.173 Y134.406 E2.88632
G1 X134.406 Y135.173 E2.92228
G1 X134.208 Y134.996 E2.93110
G1 X134.996 Y134.208 E2.96802
G1 X134.818 Y134.010 E2.97684
G1 X134.010 Y134.818 E3.01471
G1 X133.812 Y134.640 E3.02353
G1 X134.640 Y133.812 E3.06236
G1 X134.462 Y133.614 E3.07118
G1 X133.614 Y134.462 E3.11097
G1 X133.416 Y134.285 E3.11979
G1 X134.285 Y133.416 E3.16053
G1 X134.107 Y133.218 E3.16936
G1 X133.218 Y134.107 E3.21105
G1 X133.019 Y133.929 E3.21988
G1 X133.929 Y133.019 E3.26253
G1 X133.751 Y132.821 E3.27135
G1 X132.821 Y133.751 E3.31497
G1 X132.623 Y133.574 E3.32379
G1 X133.574 Y132.623 E3.36836
G1 X133.396 Y132.425 E3.37718
G1 X132.425 Y133.396 E3.42271
G1 X132.227 Y133.218 E3.43153
G1 X133.218 Y132.227 E3.47801
G1 X133.040 Y132.029 E3.48684
G1 X132.029 Y133.040 E3.53428
G1 X131.830 Y132.863 E3.54310
G1 X132.863 Y131.830 E3.59149
G1 X132.685 Y131.632 E3.60032
G1 X131.632 Y132.685 E3.64967
G1 X131.434 Y132.507 E3.65850
G1 X132.507 Y131.434 E3.70881
G1 X132.329 Y131.236 E3.71763
G1 X131.236 Y132.329 E3.76890
G1 X131.038 Y132.152 E3.77772
G1 X132.152 Y131.038 E3.82994
G1 X131.974 Y130.840 E3.83877
G1 X130.840 Y131.974 E3.89195
G1 X130.642 Y131.796 E3.90077
G1 X131.796 Y130.642 E3.95491
G1 X131.618 Y130.443 E3.96373
G1 X130.443 Y131.618 E4.01883
G1 X130.245 Y131.441 E4.02765
G1 X131.441 Y130.245 E4.08370
G1 X131.263 Y130.047 E4.09253
G1 X130.047 Y131.263 E4.14953
G1 X129.849 Y131.085 E4.15836
G1 X131.085 Y129.849 E4.21632
G1 X130.907 Y129.651 E4.22515
G1 X129.651 Y130.907 E4.28407
G1 X129.453 Y130.730 E4.29289
G1 X130.730 Y129.453 E4.35277
G1 X130.552 Y129.254 E4.36160
G1 X129.254 Y130.552 E4.42243
G1 X129.056 Y130.374 E4.43126
G1 X130.374 Y129.056 E4.49305
G1 X130.197 Y128.858 E4.50187
G1 X128.858 Y130.197 E4.56462
G1 X128.660 Y130.019 E4.57345
G1 X130.019 Y128.660 E4.63715
G1 X129.841 Y128.462 E4.64598
G1 X128.462 Y129.841 E4.71064
G1 X128.264 Y129.663 E4.71947
G1 X129.663 Y128.264 E4.78509
G1 X129.486 Y128.066 E4.79391
G1 X128.066 Y129.486 E4.86049
G1 X127.868 Y129.307 E4.86931
G1 X129.307 Y127.868 E4.93679
G1 X129.129 Y127.670 E4.94561
G1 X127.670 Y129.129 E5.01398
G1 X127.473 Y128.950 E5.02280
G1 X128.950 Y127.473 E5.09207
G1 X128.772 Y127.276 E5.10089
G1 X127.276 Y128.772 E5.17105
G1 X127.078 Y128.594 E5.17987
G1 X128.594 Y127.078 E5.25093
G1 X128.415 Y126.881 E5.25975
G1 X126.881 Y128.415 E5.33170
G1 X126.683 Y128.237 E5.34052
G1 X128.237 Y126.683 E5.41336
G1 X128.058 Y126.486 E5.42219
G1 X126.486 Y128.058 E5.49592
G1 X126.288 Y127.880 E5.50475
G1 X127.880 Y126.288 E5.57938
G1 X127.701 Y126.091 E5.58820
G1 X126.091 Y127.701 E5.66373
G1 X125.893 Y127.523 E5.67255
G1 X127.523 Y125.893 E5.74898
G1 X127.345 Y125.696 E5.75780
G1 X125.696 Y127.345 E5.83511
G1 X125.498 Y127.166 E5.84394
G1 X127.166 Y125.498 E5.92215
G1 X126.988 Y125.301 E5.93097
G1 X125.301 Y126.988 E6.01008
G1 X125.103 Y126.809 E6.01890
G1 X126.809 Y125.103 E6.09890
G1 X126.631 Y124.906 E6.10773
G1 X124.906 Y126.631 E6.18862
G1 X124.708 Y126.453 E6.19744
G1 X126.453 Y124.708 E6.27923
G1 X126.274 Y124.511 E6.28806
G1 X124.511 Y126.274 E6.37074
G1 X124.313 Y126.096 E6.37957
G1 X126.096 Y124.313 E6.46314
G1 X125.917 Y124.116 E6.47197
G1 X124.116 Y125.917 E6.55644
G1 X123.918 Y125.739 E6.56527
G1 X125.739 Y123.918 E6.65063
G1 X125.561 Y123.721 E6.65946
G1 X123.721 Y125.561 E6.74572
G1 X123.523 Y125.382 E6.75454
G1 X125.382 Y123.523 E6.84170
G1 X125.204 Y123.326 E6.85053
G1 X123.326 Y125.204 E6.93858
G1 X123.128 Y125.025 E6.94740
G1 X125.025 Y123.128 E7.03635
G1 X124.847 Y122.931 E7.04517
G1 X122.931 Y124.847 E7.13501
G1 X122.733 Y124.669 E7.14384
G1 X124.669 Y122.733 E7.23457
G1 X124.490 Y122.536 E7.24340
G1 X122.536 Y124.490 E7.33503
G1 X122.338 Y124.312 E7.34385
G1 X124.312 Y122.338 E7.43638
G1 X124.133 Y122.141 E7.44520
G1 X122.141 Y124.133 E7.53862
G1 X121.943 Y123.955 E7.54745
G1 X123.955 Y121.943 E7.64176
G1 X123.777 Y121.746 E7.65059
G1 X121.746 Y123.777 E7.74580
G1 X121.548 Y123.598 E7.75462
G1 X123.598 Y121.548 E7.85072
G1 X123.420 Y121.351 E7.85955
G1 X121.351 Y123.420 E7.95655
G1 X121.153 Y123.241 E7.96537
G1 X123.241 Y121.153 E8.06327
G1 X123.063 Y120.956 E8.07209
G1 X120.956 Y123.063 E8.17088
G1 X120.758 Y122.884 E8.17970
G1 X122.884 Y120.758 E8.27939
G1 X122.706 Y120.561 E8.28821
G1 X120.561 Y122.706 E8.38879
G1 X120.363 Y122.528 E8.39761
G1 X122.528 Y120.363 E8.49908
G1 X122.349 Y120.166 E8.50791
G1 X120.166 Y122.349 E8.61028
G1 X119.968 Y122.171 E8.61910
G1 X122.171 Y119.968 E8.72236
G1 X121.992 Y119.771 E8.73118
G1 X119.771 Y121.992 E8.83534
G1 X119.573 Y121.814 E8.84417
G1 X121.814 Y119.573 E8.94922
G1 X121.636 Y119.376 E8.95804
G1 X119.376 Y121.636 E9.06399
G1 X119.178 Y121.457 E9.07281
G1 X121.457 Y119.178 E9.17965
G1 X121.279 Y118.981 E9.18848
G1 X118.981 Y121.279 E9.29621
G1 X118.783 Y121.100 E9.30503
G1 X121.100 Y118.783 E9.41367
G1 X120.922 Y118.586 E9.42249
G1 X118.586 Y120.922 E9.53201
G1 X118.389 Y120.743 E9.54084
G1 X120.743 Y118.389 E9.65121
G1 X120.564 Y118.192 E9.66004
G1 X118.192 Y120.564 E9.77124
G1 X117.995 Y120.385 E9.78006
G1 X120.385 Y117.995 E9.89209
G1 X120.206 Y117.799 E9.90091
G1 X117.799 Y120.206 E10.01376
G1 X117.602 Y120.027 E10.02258
G1 X120.027 Y117.602 E10.13626
G1 X119.847 Y117.405 E10.14508
G1 X117.405 Y119.847 E10.25959
G1 X117.208 Y119.668 E10.26841
G1 X119.668 Y117.208 E10.38374
G1 X119.489 Y117.012 E10.39256
G1 X117.012 Y119.489 E10.50872
G1 X116.815 Y119.310 E10.51754
G1 X119.310 Y116.815 E10.63452
G1 X119.131 Y116.618 E10.64334
G1 X116.618 Y119.131 E10.76115
G1 X116.421 Y118.952 E10.76997
G1 X118.952 Y116.421 E10.88861
G1 X118.773 Y116.225 E10.89743
G1 X116.225 Y118.773 E11.01689
G1 X116.028 Y118.593 E11.02571
G1 X118.593 Y116.028 E11.14599
G1 X118.414 Y115.831 E11.15481
G1 X115.831 Y118.414 E11.27593
G1 X115.634 Y118.235 E11.28475
G1 X118.235 Y115.634 E11.40668
G1 X118.056 Y115.438 E11.41550
G1 X115.438 Y118.056 E11.53827
G1 X115.241 Y117.877 E11.54709
G1 X117.877 Y115.241 E11.67067
G1 X117.698 Y115.044 E11.67950
G1 X115.044 Y117.698 E11.80391
G1 X114.847 Y117.519 E11.81273
G1 X117.519 Y114.847 E11.93797
G1 X117.339 Y114.651 E11.94679
G1 X114.651 Y117.339 E12.07285
G1 X114.454 Y117.160 E12.08168
G1 X117.160 Y114.454 E12.20857
G1 X116.981 Y114.257 E12.21739
G1 X114.257 Y116.981 E12.34510
G1 X114.060 Y116.802 E12.35392
G1 X116.802 Y114.060 E12.48246
G1 X116.623 Y113.864 E12.49129
G1 X113.864 Y116.623 E12.62065
G1 X113.667 Y116.444 E12.62947
G1 X116.444 Y113.667 E12.75967
G1 X116.265 Y113.470 E12.76849
G1 X113.470 Y116.265 E12.89951
G1 X113.273 Y116.085 E12.90833
G1 X116.085 Y113.273 E13.04017
G1 X115.906 Y113.077 E13.04899
G1 X113.077 Y115.906 E13.18166
G1 X112.880 Y115.727 E13.19048
G1 X115.727 Y112.880 E13.32398
G1 X115.548 Y112.683 E13.33280
G1 X112.683 Y115.548 E13.46712
G1 X112.486 Y115.369 E13.47594
G1 X115.369 Y112.486 E13.61109
G1 X115.190 Y112.290 E13.61991
G1 X112.290 Y115.190 E13.75588
G1 X112.093 Y115.011 E13.76470
G1 X115.011 Y112.093 E13.90150
G1 X114.831 Y111.896 E13.91032
G1 X111.896 Y114.831 E14.04795
G1 X111.699 Y114.652 E14.05677
G1 X114.652 Y111.699 E14.19522
G1 X114.473 Y111.502 E14.20404
