; generated by Slic3r 1.3.1-dev (Build adea0d9) on 2020-02-19 at 17:01:29

; external perimeters extrusion width = 0.44mm (2.86mm^3/s)
; perimeters extrusion width = 0.56mm (4.14mm^3/s)
; infill extrusion width = 0.50mm (3.66mm^3/s)
; solid infill extrusion width = 0.56mm (3.10mm^3/s)
; top infill extrusion width = 0.56mm (3.10mm^3/s)

M107
G92 E0
;D3D:START:START
T0
M104 S215 T0

G21
G90
M107
T0
G28
G29
M109 T0 S215 T0
G0 F3000
M107
T0
G92 E0
G0 X0 Y149 Z0.1 F3600
G1 Y49 E6.5 F1200
G0 Z1
G92 E0
; Filament gcode

G21 ; set units to millimeters
G90 ; use absolute coordinates
M82 ; use absolute distances for extrusion
G92 E0
G1 Z0.300 F7800.000
G1 E-2.00000 F2400.00000
G92 E0
G1 X53.218 Y80.092 F7800.000
G1 E2.00000 F2400.00000
G1 F1800.000
G1 X54.782 Y80.092 E2.05184
G1 X56.048 Y81.012 E2.10369
G1 X56.532 Y82.500 E2.15553
G1 X56.048 Y83.988 E2.20738
G1 X54.782 Y84.908 E2.25922
G1 X53.218 Y84.908 E2.31106
G1 X51.952 Y83.988 E2.36291
G1 X51.468 Y82.500 E2.41475
G1 X51.952 Y81.012 E2.46660
G1 X53.169 Y80.127 E2.51645
G1 X53.304 Y80.357 F7800.000
G1 F1800.000
G1 X54.696 Y80.357 E2.56258
G1 X55.822 Y81.176 E2.60870
G1 X56.253 Y82.500 E2.65483
G1 X55.822 Y83.824 E2.70096
G1 X54.696 Y84.643 E2.74708
G1 X53.304 Y84.643 E2.79321
G1 X52.177 Y83.824 E2.83933
G1 X51.747 Y82.500 E2.88546
G1 X52.177 Y81.176 E2.93158
G1 X53.255 Y80.393 E2.97572
G1 X53.390 Y80.623 F7800.000
G1 F1800.000
G1 X54.610 Y80.623 E3.01613
G1 X55.597 Y81.340 E3.05654
G1 X55.973 Y82.500 E3.09694
G1 X55.597 Y83.660 E3.13735
G1 X54.610 Y84.377 E3.17776
G1 X53.390 Y84.377 E3.21816
G1 X52.403 Y83.660 E3.25857
G1 X52.027 Y82.500 E3.29898
G1 X52.403 Y81.340 E3.33939
G1 X53.342 Y80.658 E3.37781
G1 E1.37781 F2400.00000
G92 E0
G1 X54.834 Y70.571 F7800.000
G1 E2.00000 F2400.00000
G1 F1800.000
G1 X52.392 Y70.571 E2.08092
G1 X52.419 Y70.495 E2.08361
G1 X52.157 Y70.608 E2.09306
G1 X51.384 Y70.702 E2.11887
G1 X50.936 Y70.675 E2.13374
G1 X50.467 Y70.571 E2.14965
G1 X47.860 Y70.571 E2.23603
G1 X47.469 Y69.483 E2.27433
G1 X46.957 Y69.483 E2.29127
G1 X46.588 Y70.571 E2.32933
G1 X44.146 Y70.571 E2.41026
G1 X46.400 Y64.251 E2.63258
G1 X48.087 Y64.251 E2.68846
G1 X48.708 Y65.992 E2.74971
G1 X48.824 Y65.988 E2.75357
G1 X48.884 Y65.777 E2.76083
G1 X49.282 Y65.103 E2.78679
G1 X49.855 Y64.585 E2.81237
G1 X50.565 Y64.278 E2.83799
G1 X51.342 Y64.184 E2.86392
G1 X51.787 Y64.211 E2.87868
G1 X52.192 Y64.292 E2.89235
G1 X52.570 Y64.432 E2.90573
G1 X52.914 Y64.627 E2.91881
G1 X53.218 Y64.872 E2.93175
G1 X53.478 Y65.161 E2.94462
G1 X53.691 Y65.484 E2.95745
G1 X53.858 Y65.837 E2.97039
G1 X53.910 Y65.994 E2.97588
G1 X54.024 Y65.996 E2.97965
G1 X54.647 Y64.251 E3.04103
G1 X56.333 Y64.251 E3.09692
G1 X57.335 Y67.060 E3.19572
G1 X57.473 Y67.028 E3.20042
G1 X57.458 Y66.895 E3.20487
G1 X57.494 Y66.574 E3.21556
G1 X57.615 Y66.262 E3.22665
G1 X57.825 Y65.993 E3.23796
G1 X58.099 Y65.798 E3.24909
G1 X58.404 Y65.687 E3.25985
G1 X58.715 Y65.655 E3.27021
G1 X59.032 Y65.686 E3.28076
G1 X59.343 Y65.795 E3.29167
G1 X59.620 Y65.991 E3.30290
G1 X59.831 Y66.260 E3.31424
G1 X59.954 Y66.573 E3.32537
G1 X59.989 Y66.895 E3.33610
G1 X59.954 Y67.216 E3.34681
G1 X59.834 Y67.528 E3.35788
G1 X59.625 Y67.799 E3.36922
G1 X59.348 Y67.999 E3.38053
G1 X59.092 Y68.091 E3.38955
G1 X59.092 Y68.203 E3.39329
G1 X59.343 Y68.291 E3.40210
G1 X59.620 Y68.487 E3.41333
G1 X59.831 Y68.756 E3.42467
G1 X59.954 Y69.069 E3.43580
G1 X59.989 Y69.391 E3.44653
G1 X59.954 Y69.712 E3.45724
G1 X59.834 Y70.024 E3.46831
G1 X59.625 Y70.295 E3.47965
G1 X59.348 Y70.495 E3.49097
G1 X59.035 Y70.607 E3.50197
G1 X58.715 Y70.639 E3.51262
G1 X58.401 Y70.606 E3.52308
G1 X58.308 Y70.571 E3.52639
G1 X56.106 Y70.571 E3.59933
G1 X55.715 Y69.483 E3.63763
G1 X55.203 Y69.483 E3.65457
G1 X54.854 Y70.514 E3.69065
G1 X54.644 Y70.306 F7800.000
G1 F1800.000
G1 X52.769 Y70.306 E3.75278
G1 X52.875 Y70.008 E3.76326
G1 X52.087 Y70.349 E3.79170
G1 X51.376 Y70.435 E3.81544
G1 X50.970 Y70.411 E3.82891
G1 X50.601 Y70.337 E3.84138
G1 X50.260 Y70.212 E3.85341
G1 X49.847 Y69.978 E3.86913
G1 X49.964 Y70.306 E3.88065
G1 X48.046 Y70.306 E3.94418
G1 X47.655 Y69.218 E3.98248
G1 X46.767 Y69.218 E4.01191
G1 X46.398 Y70.306 E4.04997
G1 X44.522 Y70.306 E4.11211
G1 X46.588 Y64.516 E4.31574
G1 X47.900 Y64.516 E4.35921
G1 X48.771 Y66.959 E4.44511
G1 X48.898 Y66.942 E4.44938
G1 X48.925 Y66.609 E4.46044
G1 X49.130 Y65.883 E4.48544
G1 X49.490 Y65.272 E4.50892
G1 X50.001 Y64.812 E4.53170
G1 X50.635 Y64.537 E4.55460
G1 X51.350 Y64.451 E4.57846
G1 X51.752 Y64.475 E4.59181
G1 X52.119 Y64.549 E4.60419
G1 X52.458 Y64.674 E4.61617
G1 X52.764 Y64.848 E4.62783
G1 X53.035 Y65.065 E4.63934
G1 X53.267 Y65.323 E4.65083
G1 X53.459 Y65.615 E4.66239
G1 X53.611 Y65.936 E4.67417
G1 X53.725 Y66.282 E4.68625
G1 X53.804 Y66.650 E4.69870
G1 X53.839 Y66.940 E4.70838
G1 X53.964 Y66.954 E4.71256
G1 X54.834 Y64.516 E4.79829
G1 X56.146 Y64.516 E4.84176
G1 X57.774 Y69.082 E5.00236
G1 X57.849 Y68.891 E5.00918
G1 X58.011 Y68.683 E5.01791
G1 X58.223 Y68.531 E5.02656
G1 X58.464 Y68.444 E5.03503
G1 X58.716 Y68.418 E5.04343
G1 X58.975 Y68.444 E5.05204
G1 X59.220 Y68.529 E5.06065
G1 X59.435 Y68.682 E5.06937
G1 X59.598 Y68.889 E5.07813
G1 X59.694 Y69.133 E5.08680
G1 X59.722 Y69.391 E5.09539
G1 X59.694 Y69.649 E5.10399
G1 X59.600 Y69.892 E5.11264
G1 X59.438 Y70.102 E5.12142
G1 X59.223 Y70.258 E5.13021
G1 X58.976 Y70.346 E5.13888
G1 X58.716 Y70.372 E5.14755
G1 X58.462 Y70.345 E5.15601
G1 X58.188 Y70.244 E5.16567
G1 X58.210 Y70.306 E5.16782
G1 X56.293 Y70.306 E5.23135
G1 X55.902 Y69.218 E5.26965
G1 X55.013 Y69.218 E5.29909
G1 X54.663 Y70.249 E5.33516
G1 X53.023 Y69.445 F7800.000
G1 F1800.000
G1 X52.574 Y69.849 E5.35516
G1 X52.017 Y70.090 E5.37528
G1 X51.368 Y70.169 E5.39694
G1 X51.004 Y70.147 E5.40902
G1 X50.673 Y70.081 E5.42019
G1 X50.372 Y69.970 E5.43081
G1 X50.103 Y69.818 E5.44105
G1 X49.867 Y69.628 E5.45111
G1 X49.664 Y69.400 E5.46120
G1 X49.496 Y69.140 E5.47146
G1 X49.360 Y68.851 E5.48203
G1 X49.256 Y68.534 E5.49309
G1 X49.183 Y68.192 E5.50467
G1 X49.140 Y67.829 E5.51680
G1 X49.126 Y67.440 E5.52970
G1 X49.187 Y66.656 E5.55574
G1 X49.377 Y65.988 E5.57873
G1 X49.699 Y65.442 E5.59973
G1 X50.147 Y65.038 E5.61972
G1 X50.705 Y64.796 E5.63989
G1 X51.358 Y64.717 E5.66167
G1 X51.718 Y64.739 E5.67363
G1 X52.046 Y64.805 E5.68471
G1 X52.346 Y64.916 E5.69529
G1 X52.615 Y65.068 E5.70553
G1 X52.852 Y65.259 E5.71561
G1 X53.056 Y65.486 E5.72573
G1 X53.227 Y65.745 E5.73602
G1 X53.364 Y66.035 E5.74663
G1 X53.468 Y66.352 E5.75769
G1 X53.542 Y66.694 E5.76927
G1 X53.586 Y67.057 E5.78140
G1 X53.600 Y67.446 E5.79431
G1 X53.538 Y68.230 E5.82036
G1 X53.347 Y68.899 E5.84339
G1 X53.054 Y69.393 E5.86244
G1 E3.86244 F2400.00000
G92 E0
G1 X49.587 Y70.040 F7800.000
G1 E2.00000 F2400.00000
G1 F1800.000
G1 X48.233 Y70.040 E2.04486
G1 X47.842 Y68.952 E2.08316
G1 X46.577 Y68.952 E2.12509
G1 X46.208 Y70.040 E2.16315
G1 X44.899 Y70.040 E2.20650
G1 X46.775 Y64.782 E2.39145
G1 X47.713 Y64.782 E2.42251
G1 X49.567 Y69.983 E2.60546
G1 E0.60546 F2400.00000
G92 E0
G1 X53.145 Y70.040 F7800.000
G1 E2.00000 F2400.00000
G1 F1800.000
G1 X55.021 Y64.782 E2.18495
G1 X55.959 Y64.782 E2.21601
G1 X57.833 Y70.040 E2.40095
G1 X56.479 Y70.040 E2.44581
G1 X56.088 Y68.952 E2.48411
G1 X54.823 Y68.952 E2.52604
G1 X54.454 Y70.040 E2.56410
G1 X53.205 Y70.040 E2.60546
G1 E0.60546 F2400.00000
G92 E0
G1 X59.365 Y69.023 F7800.000
G1 E2.00000 F2400.00000
G1 F1800.000
G1 X59.433 Y69.197 E2.00620
G1 X59.455 Y69.391 E2.01266
G1 X59.433 Y69.585 E2.01914
G1 X59.366 Y69.761 E2.02537
G1 X59.251 Y69.910 E2.03160
G1 X59.098 Y70.020 E2.03785
G1 X58.918 Y70.085 E2.04420
G1 X58.716 Y70.105 E2.05089
G1 X58.523 Y70.084 E2.05735
G1 X58.347 Y70.020 E2.06356
G1 X58.195 Y69.909 E2.06977
G1 X58.081 Y69.760 E2.07598
G1 X58.014 Y69.585 E2.08220
G1 X57.993 Y69.391 E2.08867
G1 X58.014 Y69.197 E2.09512
G1 X58.082 Y69.023 E2.10131
G1 X58.197 Y68.877 E2.10748
G1 X58.348 Y68.768 E2.11364
G1 X58.523 Y68.705 E2.11982
G1 X58.717 Y68.685 E2.12625
G1 X58.917 Y68.705 E2.13292
G1 X59.097 Y68.768 E2.13924
G1 X59.250 Y68.876 E2.14545
G1 X59.328 Y68.976 E2.14964
G1 X58.976 Y67.850 F7800.000
G1 F1800.000
G1 X58.716 Y67.876 E2.15832
G1 X58.462 Y67.849 E2.16678
G1 X58.220 Y67.760 E2.17531
G1 X58.008 Y67.605 E2.18402
G1 X57.847 Y67.395 E2.19278
G1 X57.754 Y67.152 E2.20140
G1 X57.726 Y66.895 E2.20998
G1 X57.754 Y66.638 E2.21855
G1 X57.849 Y66.395 E2.22719
G1 X58.011 Y66.187 E2.23593
G1 X58.223 Y66.035 E2.24458
G1 X58.464 Y65.948 E2.25304
G1 X58.716 Y65.922 E2.26144
G1 X58.975 Y65.948 E2.27005
G1 X59.220 Y66.033 E2.27866
G1 X59.435 Y66.186 E2.28739
G1 X59.598 Y66.393 E2.29615
G1 X59.694 Y66.637 E2.30481
G1 X59.722 Y66.895 E2.31341
G1 X59.694 Y67.153 E2.32200
G1 X59.600 Y67.396 E2.33065
G1 X59.438 Y67.606 E2.33944
G1 X59.223 Y67.762 E2.34822
G1 X59.033 Y67.830 E2.35491
G1 X59.365 Y66.527 F7800.000
G1 F1800.000
G1 X59.433 Y66.701 E2.36111
G1 X59.455 Y66.895 E2.36757
G1 X59.433 Y67.089 E2.37405
G1 X59.366 Y67.265 E2.38028
G1 X59.251 Y67.414 E2.38651
G1 X59.098 Y67.524 E2.39276
G1 X58.918 Y67.589 E2.39911
G1 X58.716 Y67.609 E2.40580
G1 X58.523 Y67.588 E2.41226
G1 X58.347 Y67.524 E2.41847
G1 X58.195 Y67.413 E2.42468
G1 X58.081 Y67.264 E2.43089
G1 X58.014 Y67.089 E2.43711
G1 X57.993 Y66.895 E2.44358
G1 X58.014 Y66.701 E2.45003
G1 X58.082 Y66.527 E2.45622
G1 X58.197 Y66.381 E2.46239
G1 X58.348 Y66.272 E2.46855
G1 X58.523 Y66.209 E2.47473
G1 X58.717 Y66.189 E2.48116
G1 X58.917 Y66.209 E2.48783
G1 X59.097 Y66.272 E2.49415
G1 X59.250 Y66.380 E2.50036
G1 X59.328 Y66.480 E2.50456
G1 X60.926 Y66.475 F7800.000
G1 F1800.000
G1 X60.926 Y64.315 E2.57613
G1 X64.983 Y64.315 E2.71055
G1 X64.983 Y65.740 E2.75776
G1 X64.317 Y66.625 E2.79447
G1 X64.628 Y66.871 E2.80760
G1 X64.821 Y67.107 E2.81770
G1 X65.044 Y67.529 E2.83352
G1 X65.138 Y67.833 E2.84404
G1 X65.194 Y68.363 E2.86170
G1 X65.173 Y68.729 E2.87385
G1 X65.110 Y69.064 E2.88517
G1 X64.999 Y69.379 E2.89623
G1 X64.847 Y69.662 E2.90687
G1 X64.659 Y69.915 E2.91729
G1 X64.435 Y70.135 E2.92768
G1 X64.186 Y70.317 E2.93792
G1 X63.915 Y70.462 E2.94810
G1 X63.630 Y70.570 E2.95820
G1 X63.320 Y70.647 E2.96878
G1 X62.733 Y70.702 E2.98832
G1 X61.980 Y70.636 E3.01336
G1 X61.490 Y70.513 E3.03008
G1 X60.708 Y70.176 E3.05829
G1 X61.407 Y68.018 E3.13343
G1 X61.407 Y66.935 E3.16930
G1 X61.748 Y66.475 E3.18827
G1 X60.986 Y66.475 E3.21351
G1 X61.191 Y66.210 F7800.000
G1 F1800.000
G1 X61.191 Y64.580 E3.26749
G1 X64.718 Y64.580 E3.38431
G1 X64.718 Y65.651 E3.41977
G1 X63.921 Y66.710 E3.46370
G1 X64.126 Y66.812 E3.47128
G1 X64.440 Y67.062 E3.48460
G1 X64.599 Y67.255 E3.49287
G1 X64.798 Y67.631 E3.50696
G1 X64.876 Y67.886 E3.51582
G1 X64.928 Y68.369 E3.53191
G1 X64.909 Y68.696 E3.54276
G1 X64.852 Y68.995 E3.55283
G1 X64.755 Y69.272 E3.56254
G1 X64.622 Y69.519 E3.57186
G1 X64.458 Y69.740 E3.58096
G1 X64.263 Y69.932 E3.59003
G1 X64.044 Y70.092 E3.59902
G1 X63.805 Y70.220 E3.60799
G1 X63.550 Y70.316 E3.61701
G1 X63.275 Y70.385 E3.62641
G1 X62.732 Y70.435 E3.64448
G1 X62.024 Y70.373 E3.66803
G1 X61.576 Y70.260 E3.68334
G1 X61.036 Y70.027 E3.70283
G1 X61.543 Y68.459 E3.75745
G1 X62.202 Y68.728 E3.78103
G1 X62.430 Y68.784 E3.78881
G1 X62.697 Y68.803 E3.79768
G1 X62.874 Y68.786 E3.80355
G1 X62.982 Y68.747 E3.80736
G1 X63.054 Y68.693 E3.81035
G1 X63.143 Y68.534 E3.81636
G1 X63.156 Y68.425 E3.81999
G1 X63.141 Y68.284 E3.82470
G1 X63.075 Y68.166 E3.82920
G1 X63.000 Y68.123 E3.83203
G1 X62.846 Y68.083 E3.83732
G1 X62.591 Y68.066 E3.84577
G1 X61.672 Y68.066 E3.87621
G1 X61.672 Y67.023 E3.91076
G1 X62.275 Y66.210 E3.94430
G1 X61.251 Y66.210 E3.97822
G1 X61.457 Y65.944 F7800.000
G1 F1800.000
G1 X61.457 Y64.846 E4.01460
G1 X64.452 Y64.846 E4.11382
G1 X64.452 Y65.562 E4.13755
G1 X63.480 Y66.854 E4.19111
G1 X63.814 Y66.954 E4.20265
G1 X63.982 Y67.038 E4.20888
G1 X64.253 Y67.253 E4.22034
G1 X64.377 Y67.403 E4.22678
G1 X64.551 Y67.733 E4.23914
G1 X64.615 Y67.940 E4.24633
G1 X64.662 Y68.376 E4.26085
G1 X64.645 Y68.664 E4.27041
G1 X64.595 Y68.926 E4.27924
G1 X64.511 Y69.164 E4.28760
G1 X64.397 Y69.376 E4.29559
G1 X64.257 Y69.565 E4.30338
G1 X64.090 Y69.729 E4.31113
G1 X63.902 Y69.867 E4.31885
G1 X63.695 Y69.978 E4.32662
G1 X63.471 Y70.062 E4.33455
G1 X63.230 Y70.122 E4.34278
G1 X62.731 Y70.169 E4.35938
G1 X62.068 Y70.110 E4.38143
G1 X61.661 Y70.008 E4.39533
G1 X61.363 Y69.879 E4.40611
G1 X61.708 Y68.813 E4.44323
G1 X62.120 Y68.981 E4.45799
G1 X62.389 Y69.047 E4.46716
G1 X62.701 Y69.069 E4.47752
G1 X62.932 Y69.047 E4.48522
G1 X63.109 Y68.984 E4.49144
G1 X63.244 Y68.882 E4.49703
G1 X63.343 Y68.750 E4.50249
G1 X63.402 Y68.600 E4.50785
G1 X63.423 Y68.427 E4.51362
G1 X63.401 Y68.220 E4.52051
G1 X63.340 Y68.067 E4.52596
G1 X63.246 Y67.957 E4.53077
G1 X63.101 Y67.875 E4.53628
G1 X62.888 Y67.820 E4.54356
G1 X62.600 Y67.800 E4.55313
G1 X61.938 Y67.800 E4.57507
G1 X61.938 Y67.110 E4.59791
G1 X62.803 Y65.944 E4.64602
G1 X61.517 Y65.944 E4.68863
G1 E2.68863 F2400.00000
G92 E0
G1 X70.722 Y71.826 F7800.000
G1 E2.00000 F2400.00000
G1 F1800.000
G1 X74.017 Y71.826 E2.10918
G1 X74.017 Y75.794 E2.24064
G1 X76.180 Y75.794 E2.31228
G1 X76.180 Y71.826 E2.44373
G1 X79.475 Y71.826 E2.55291
G1 X79.475 Y82.946 E2.92133
G1 X76.180 Y82.946 E3.03050
G1 X76.180 Y78.850 E3.16620
G1 X74.017 Y78.850 E3.23784
G1 X74.017 Y82.946 E3.37354
G1 X70.722 Y82.946 E3.48272
G1 X70.722 Y71.886 E3.84915
G1 X70.987 Y72.091 F7800.000
G1 F1800.000
G1 X73.752 Y72.091 E3.94073
G1 X73.752 Y76.059 E4.07218
G1 X76.445 Y76.059 E4.16142
G1 X76.445 Y72.091 E4.29288
G1 X79.210 Y72.091 E4.38446
G1 X79.210 Y82.681 E4.73528
G1 X76.445 Y82.681 E4.82685
G1 X76.445 Y78.585 E4.96255
G1 X73.752 Y78.585 E5.05179
G1 X73.752 Y82.681 E5.18749
G1 X70.987 Y82.681 E5.27907
G1 X70.987 Y72.151 E5.62790
G1 X71.253 Y72.357 F7800.000
G1 F1800.000
G1 X73.486 Y72.357 E5.70188
G1 X73.486 Y76.325 E5.83333
G1 X76.711 Y76.325 E5.94017
G1 X76.711 Y72.357 E6.07163
G1 X78.944 Y72.357 E6.14561
G1 X78.944 Y82.415 E6.47883
G1 X76.711 Y82.415 E6.55280
G1 X76.711 Y78.319 E6.68850
G1 X73.486 Y78.319 E6.79534
G1 X73.486 Y82.415 E6.93104
G1 X71.253 Y82.415 E7.00502
G1 X71.253 Y72.417 E7.33625
G1 E5.33625 F2400.00000
G92 E0
G1 X73.218 Y66.908 F7800.000
G1 E2.00000 F2400.00000
G1 F1800.000
G1 X71.952 Y65.988 E2.05184
G1 X71.468 Y64.500 E2.10369
G1 X71.952 Y63.012 E2.15553
G1 X73.218 Y62.092 E2.20738
G1 X74.782 Y62.092 E2.25922
G1 X76.048 Y63.012 E2.31107
G1 X76.532 Y64.500 E2.36291
G1 X76.048 Y65.988 E2.41475
G1 X74.782 Y66.908 E2.46660
G1 X73.278 Y66.908 E2.51645
G1 X73.304 Y66.643 F7800.000
G1 F1800.000
G1 X72.177 Y65.824 E2.56258
G1 X71.747 Y64.500 E2.60871
G1 X72.177 Y63.176 E2.65483
G1 X73.304 Y62.357 E2.70096
G1 X74.696 Y62.357 E2.74708
G1 X75.822 Y63.176 E2.79321
G1 X76.253 Y64.500 E2.83933
G1 X75.822 Y65.824 E2.88546
G1 X74.696 Y66.643 E2.93159
G1 X73.364 Y66.643 E2.97572
G1 X73.390 Y66.377 F7800.000
G1 F1800.000
G1 X72.403 Y65.660 E3.01613
G1 X72.027 Y64.500 E3.05654
G1 X72.403 Y63.340 E3.09695
G1 X73.390 Y62.623 E3.13735
G1 X74.610 Y62.623 E3.17776
G1 X75.597 Y63.340 E3.21817
G1 X75.973 Y64.500 E3.25857
G1 X75.597 Y65.660 E3.29898
G1 X74.610 Y66.377 E3.33939
G1 X73.450 Y66.377 E3.37781
G1 E1.37781 F2400.00000
G92 E0
G1 X91.952 Y79.012 F7800.000
G1 E2.00000 F2400.00000
G1 F1800.000
G1 X93.218 Y78.092 E2.05184
G1 X94.782 Y78.092 E2.10369
G1 X96.048 Y79.012 E2.15553
G1 X96.532 Y80.500 E2.20738
G1 X96.048 Y81.988 E2.25922
G1 X94.782 Y82.908 E2.31106
G1 X93.218 Y82.908 E2.36291
G1 X91.952 Y81.988 E2.41475
G1 X91.468 Y80.500 E2.46660
G1 X91.933 Y79.069 E2.51645
G1 X92.177 Y79.176 F7800.000
G1 F1800.000
G1 X93.304 Y78.357 E2.56258
G1 X94.696 Y78.357 E2.60870
G1 X95.822 Y79.176 E2.65483
G1 X96.253 Y80.500 E2.70096
G1 X95.822 Y81.824 E2.74708
G1 X94.696 Y82.643 E2.79321
G1 X93.304 Y82.643 E2.83933
G1 X92.177 Y81.824 E2.88546
G1 X91.747 Y80.500 E2.93158
G1 X92.159 Y79.233 E2.97572
G1 X92.403 Y79.340 F7800.000
G1 F1800.000
G1 X93.390 Y78.623 E3.01613
G1 X94.610 Y78.623 E3.05654
G1 X95.597 Y79.340 E3.09694
G1 X95.973 Y80.500 E3.13735
G1 X95.597 Y81.660 E3.17776
G1 X94.610 Y82.377 E3.21817
G1 X93.390 Y82.377 E3.25857
G1 X92.403 Y81.660 E3.29898
G1 X92.027 Y80.500 E3.33939
G1 X92.385 Y79.397 E3.37781
G1 E1.37781 F2400.00000
