; generated by Slic3r 1.3.1-dev (Build adea0d9) on 2020-02-19 at 13:24:02

; external perimeters extrusion width = 0.44mm (2.86mm^3/s)
; perimeters extrusion width = 0.56mm (4.14mm^3/s)
; infill extrusion width = 0.50mm (3.66mm^3/s)
; solid infill extrusion width = 0.56mm (3.10mm^3/s)
; top infill extrusion width = 0.56mm (3.10mm^3/s)

M107
G92 E0
;D3D:START:START
T0
M104 S215 T0

G21
G90
M107
T0
G28
G29
M109 T0 S215 T0
G0 F3000
M107
T0
G92 E0
G0 X0 Y149 Z0.1 F3600
G1 Y49 E6.5 F1200
G0 Z1
G92 E0
; Filament gcode

G21 ; set units to millimeters
G90 ; use absolute coordinates
M82 ; use absolute distances for extrusion
G92 E0
G1 Z0.300 F7800.000
G1 E-2.00000 F2400.00000
G92 E0
G1 X74.479 Y77.218 F7800.000
G1 E2.00000 F2400.00000
G1 F1800.000
G1 X75.521 Y77.218 E2.03450
G1 X75.521 Y134.304 E3.92572
G1 X74.479 Y134.304 E3.96023
G1 X74.479 Y77.278 E5.84946
G1 X74.366 Y76.952 F7800.000
G1 F1800.000
G1 X75.634 Y76.952 E5.89150
G1 X75.786 Y76.842 E5.89772
G1 X75.786 Y134.569 E7.81020
G1 X74.214 Y134.569 E7.86230
G1 X74.214 Y76.842 E9.77478
G1 X74.317 Y76.917 E9.77902
G1 X73.948 Y76.321 F7800.000
G1 F1800.000
G1 X74.452 Y76.687 E9.79965
G1 X75.548 Y76.687 E9.83596
G1 X76.052 Y76.321 E9.85659
G1 X76.052 Y134.835 E11.79515
G1 X73.948 Y134.835 E11.86485
G1 X73.948 Y76.381 E13.80141
G1 X74.642 Y77.587 F7800.000
G1 F1800.000
G1 X74.848 Y77.380 E13.81115
G1 X75.226 Y77.380 E13.82375
G1 X74.642 Y77.965 E13.85131
G1 X74.642 Y78.343 E13.86390
G1 X75.358 Y77.626 E13.89768
G1 X75.358 Y78.004 E13.91028
G1 X74.642 Y78.721 E13.94406
G1 X74.642 Y79.099 E13.95665
G1 X75.358 Y78.382 E13.99043
G1 X75.358 Y78.760 E14.00303
G1 X74.642 Y79.477 E14.03681
G1 X74.642 Y79.854 E14.04941
G1 X75.358 Y79.138 E14.08319
G1 X75.358 Y79.516 E14.09578
G1 X74.642 Y80.232 E14.12956
G1 X74.642 Y80.610 E14.14216
G1 X75.358 Y79.894 E14.17594
G1 X75.358 Y80.272 E14.18853
G1 X74.642 Y80.988 E14.22231
G1 X74.642 Y81.366 E14.23491
G1 X75.358 Y80.649 E14.26869
G1 X75.358 Y81.027 E14.28129
G1 X74.642 Y81.744 E14.31507
G1 X74.642 Y82.122 E14.32766
G1 X75.358 Y81.405 E14.36144
G1 X75.358 Y81.783 E14.37404
G1 X74.642 Y82.500 E14.40782
G1 X74.642 Y82.878 E14.42042
G1 X75.358 Y82.161 E14.45420
G1 X75.358 Y82.539 E14.46679
G1 X74.642 Y83.256 E14.50057
G1 X74.642 Y83.634 E14.51317
G1 X75.358 Y82.917 E14.54695
G1 X75.358 Y83.295 E14.55955
G1 X74.642 Y84.012 E14.59333
G1 X74.642 Y84.389 E14.60592
G1 X75.358 Y83.673 E14.63970
G1 X75.358 Y84.051 E14.65230
G1 X74.642 Y84.767 E14.68608
G1 X74.642 Y85.145 E14.69868
G1 X75.358 Y84.429 E14.73246
G1 X75.358 Y84.806 E14.74505
G1 X74.642 Y85.523 E14.77884
G1 X74.642 Y85.901 E14.79143
G1 X75.358 Y85.184 E14.82521
G1 X75.358 Y85.562 E14.83781
G1 X74.642 Y86.279 E14.87159
G1 X74.642 Y86.657 E14.88418
G1 X75.358 Y85.940 E14.91797
G1 X75.358 Y86.318 E14.93056
G1 X74.642 Y87.035 E14.96434
G1 X74.642 Y87.413 E14.97694
G1 X75.358 Y86.696 E15.01072
G1 X75.358 Y87.074 E15.02332
G1 X74.642 Y87.791 E15.05710
G1 X74.642 Y88.169 E15.06969
G1 X75.358 Y87.452 E15.10347
G1 X75.358 Y87.830 E15.11607
G1 X74.642 Y88.546 E15.14985
G1 X74.642 Y88.924 E15.16245
G1 X75.358 Y88.208 E15.19623
G1 X75.358 Y88.586 E15.20883
G1 X74.642 Y89.302 E15.24261
G1 X74.642 Y89.680 E15.25520
G1 X75.358 Y88.963 E15.28898
G1 X75.358 Y89.341 E15.30158
G1 X74.642 Y90.058 E15.33536
G1 X74.642 Y90.436 E15.34796
G1 X75.358 Y89.719 E15.38174
G1 X75.358 Y90.097 E15.39434
G1 X74.642 Y90.814 E15.42812
G1 X74.642 Y91.192 E15.44071
G1 X75.358 Y90.475 E15.47450
G1 X75.358 Y90.853 E15.48709
G1 X74.642 Y91.570 E15.52087
G1 X74.642 Y91.948 E15.53347
G1 X75.358 Y91.231 E15.56725
G1 X75.358 Y91.609 E15.57985
G1 X74.642 Y92.326 E15.61363
G1 X74.642 Y92.703 E15.62622
G1 X75.358 Y91.987 E15.66001
G1 X75.358 Y92.365 E15.67260
G1 X74.642 Y93.081 E15.70639
G1 X74.642 Y93.459 E15.71898
G1 X75.358 Y92.743 E15.75276
G1 X75.358 Y93.120 E15.76536
G1 X74.642 Y93.837 E15.79914
G1 X74.642 Y94.215 E15.81174
G1 X75.358 Y93.498 E15.84552
G1 X75.358 Y93.876 E15.85812
G1 X74.642 Y94.593 E15.89190
G1 X74.642 Y94.971 E15.90449
G1 X75.358 Y94.254 E15.93828
G1 X75.358 Y94.632 E15.95087
G1 X74.642 Y95.349 E15.98466
G1 X74.642 Y95.727 E15.99725
G1 X75.358 Y95.010 E16.03103
G1 X75.358 Y95.388 E16.04363
G1 X74.642 Y96.105 E16.07741
G1 X74.642 Y96.483 E16.09001
G1 X75.358 Y95.766 E16.12379
G1 X75.358 Y96.144 E16.13639
G1 X74.642 Y96.860 E16.17017
G1 X74.642 Y97.238 E16.18277
G1 X75.358 Y96.522 E16.21655
G1 X75.358 Y96.900 E16.22914
G1 X74.642 Y97.616 E16.26293
G1 X74.642 Y97.994 E16.27552
G1 X75.358 Y97.277 E16.30931
G1 X75.358 Y97.655 E16.32190
G1 X74.642 Y98.372 E16.35569
G1 X74.642 Y98.750 E16.36828
G1 X75.358 Y98.033 E16.40206
G1 X75.358 Y98.411 E16.41466
G1 X74.642 Y99.128 E16.44844
G1 X74.642 Y99.506 E16.46104
G1 X75.358 Y98.789 E16.49482
G1 X75.358 Y99.167 E16.50742
G1 X74.642 Y99.884 E16.54120
G1 X74.642 Y100.262 E16.55380
G1 X75.358 Y99.545 E16.58758
G1 X75.358 Y99.923 E16.60018
G1 X74.642 Y100.640 E16.63396
G1 X74.642 Y101.017 E16.64656
G1 X75.358 Y100.301 E16.68034
G1 X75.358 Y100.679 E16.69294
G1 X74.642 Y101.395 E16.72672
G1 X74.642 Y101.773 E16.73932
G1 X75.358 Y101.057 E16.77310
G1 X75.358 Y101.434 E16.78569
G1 X74.642 Y102.151 E16.81948
G1 X74.642 Y102.529 E16.83207
G1 X75.358 Y101.812 E16.86586
G1 X75.358 Y102.190 E16.87845
G1 X74.642 Y102.907 E16.91224
G1 X74.642 Y103.285 E16.92483
G1 X75.358 Y102.568 E16.95862
G1 X75.358 Y102.946 E16.97121
G1 X74.642 Y103.663 E17.00500
G1 X74.642 Y104.041 E17.01759
G1 X75.358 Y103.324 E17.05138
G1 X75.358 Y103.702 E17.06397
G1 X74.642 Y104.419 E17.09776
G1 X74.642 Y104.797 E17.11035
G1 X75.358 Y104.080 E17.14414
G1 X75.358 Y104.458 E17.15673
G1 X74.642 Y105.175 E17.19052
G1 X74.642 Y105.552 E17.20311
G1 X75.358 Y104.836 E17.23690
G1 X75.358 Y105.214 E17.24949
G1 X74.642 Y105.930 E17.28328
G1 X74.642 Y106.308 E17.29587
G1 X75.358 Y105.591 E17.32966
G1 X75.358 Y105.969 E17.34225
G1 X74.642 Y106.686 E17.37604
G1 X74.642 Y107.064 E17.38863
G1 X75.358 Y106.347 E17.42242
G1 X75.358 Y106.725 E17.43501
G1 X74.642 Y107.442 E17.46880
G1 X74.642 Y107.820 E17.48139
G1 X75.358 Y107.103 E17.51518
G1 X75.358 Y107.481 E17.52777
G1 X74.642 Y108.198 E17.56156
G1 X74.642 Y108.576 E17.57415
G1 X75.358 Y107.859 E17.60794
G1 X75.358 Y108.237 E17.62053
G1 X74.642 Y108.954 E17.65432
G1 X74.642 Y109.332 E17.66692
G1 X75.358 Y108.615 E17.70070
G1 X75.358 Y108.993 E17.71330
G1 X74.642 Y109.709 E17.74708
G1 X74.642 Y110.087 E17.75968
G1 X75.358 Y109.371 E17.79346
G1 X75.358 Y109.749 E17.80606
G1 X74.642 Y110.465 E17.83984
G1 X74.642 Y110.843 E17.85244
G1 X75.358 Y110.126 E17.88622
G1 X75.358 Y110.504 E17.89882
G1 X74.642 Y111.221 E17.93260
G1 X74.642 Y111.599 E17.94520
G1 X75.358 Y110.882 E17.97899
G1 X75.358 Y111.260 E17.99158
G1 X74.642 Y111.977 E18.02537
G1 X74.642 Y112.355 E18.03796
G1 X75.358 Y111.638 E18.07175
G1 X75.358 Y112.016 E18.08434
G1 X74.642 Y112.733 E18.11813
G1 X74.642 Y113.111 E18.13073
G1 X75.358 Y112.394 E18.16451
G1 X75.358 Y112.772 E18.17711
G1 X74.642 Y113.489 E18.21089
G1 X74.642 Y113.866 E18.22349
G1 X75.358 Y113.150 E18.25727
G1 X75.358 Y113.528 E18.26987
G1 X74.642 Y114.244 E18.30366
G1 X74.642 Y114.622 E18.31625
G1 X75.358 Y113.906 E18.35004
G1 X75.358 Y114.283 E18.36263
G1 X74.642 Y115.000 E18.39642
G1 X74.642 Y115.378 E18.40901
G1 X75.358 Y114.661 E18.44280
G1 X75.358 Y115.039 E18.45540
G1 X74.642 Y115.756 E18.48918
G1 X74.642 Y116.134 E18.50178
G1 X75.358 Y115.417 E18.53556
G1 X75.358 Y115.795 E18.54816
G1 X74.642 Y116.512 E18.58194
G1 X74.642 Y116.890 E18.59454
G1 X75.358 Y116.173 E18.62833
G1 X75.358 Y116.551 E18.64092
G1 X74.642 Y117.268 E18.67471
G1 X74.642 Y117.646 E18.68730
G1 X75.358 Y116.929 E18.72109
G1 X75.358 Y117.307 E18.73369
G1 X74.642 Y118.023 E18.76747
G1 X74.642 Y118.401 E18.78007
G1 X75.358 Y117.685 E18.81385
G1 X75.358 Y118.063 E18.82645
G1 X74.642 Y118.779 E18.86024
G1 X74.642 Y119.157 E18.87283
G1 X75.358 Y118.440 E18.90662
G1 X75.358 Y118.818 E18.91921
G1 X74.642 Y119.535 E18.95300
G1 X74.642 Y119.913 E18.96560
G1 X75.358 Y119.196 E18.99938
G1 X75.358 Y119.574 E19.01198
G1 X74.642 Y120.291 E19.04576
G1 X74.642 Y120.669 E19.05836
G1 X75.358 Y119.952 E19.09215
G1 X75.358 Y120.330 E19.10474
G1 X74.642 Y121.047 E19.13853
G1 X74.642 Y121.425 E19.15112
G1 X75.358 Y120.708 E19.18491
G1 X75.358 Y121.086 E19.19751
G1 X74.642 Y121.803 E19.23129
G1 X74.642 Y122.181 E19.24389
G1 X75.358 Y121.464 E19.27768
G1 X75.358 Y121.842 E19.29027
G1 X74.642 Y122.558 E19.32406
G1 X74.642 Y122.936 E19.33665
G1 X75.358 Y122.220 E19.37044
G1 X75.358 Y122.597 E19.38304
G1 X74.642 Y123.314 E19.41682
G1 X74.642 Y123.692 E19.42942
G1 X75.358 Y122.975 E19.46321
G1 X75.358 Y123.353 E19.47580
G1 X74.642 Y124.070 E19.50959
G1 X74.642 Y124.448 E19.52219
G1 X75.358 Y123.731 E19.55597
G1 X75.358 Y124.109 E19.56857
G1 X74.642 Y124.826 E19.60236
G1 X74.642 Y125.204 E19.61495
G1 X75.358 Y124.487 E19.64874
G1 X75.358 Y124.865 E19.66134
G1 X74.642 Y125.582 E19.69512
G1 X74.642 Y125.960 E19.70772
G1 X75.358 Y125.243 E19.74151
G1 X75.358 Y125.621 E19.75410
G1 X74.642 Y126.338 E19.78789
G1 X74.642 Y126.715 E19.80048
G1 X75.358 Y125.999 E19.83427
G1 X75.358 Y126.377 E19.84687
G1 X74.642 Y127.093 E19.88066
G1 X74.642 Y127.471 E19.89325
G1 X75.358 Y126.754 E19.92704
G1 X75.358 Y127.132 E19.93964
G1 X74.642 Y127.849 E19.97342
G1 X74.642 Y128.227 E19.98602
G1 X75.358 Y127.510 E20.01981
G1 X75.358 Y127.888 E20.03240
G1 X74.642 Y128.605 E20.06619
G1 X74.642 Y128.983 E20.07879
G1 X75.358 Y128.266 E20.11257
G1 X75.358 Y128.644 E20.12517
G1 X74.642 Y129.361 E20.15896
G1 X74.642 Y129.739 E20.17155
G1 X75.358 Y129.022 E20.20534
G1 X75.358 Y129.400 E20.21794
G1 X74.642 Y130.117 E20.25172
G1 X74.642 Y130.495 E20.26432
G1 X75.358 Y129.778 E20.29811
G1 X75.358 Y130.156 E20.31070
G1 X74.642 Y130.872 E20.34449
G1 X74.642 Y131.250 E20.35709
G1 X75.358 Y130.534 E20.39088
G1 X75.358 Y130.911 E20.40347
G1 X74.642 Y131.628 E20.43726
G1 X74.642 Y132.006 E20.44986
G1 X75.358 Y131.289 E20.48364
G1 X75.358 Y131.667 E20.49624
G1 X74.642 Y132.384 E20.53003
G1 X74.642 Y132.762 E20.54262
G1 X75.358 Y132.045 E20.57641
G1 X75.358 Y132.423 E20.58901
G1 X74.642 Y133.140 E20.62280
G1 X74.642 Y133.518 E20.63539
G1 X75.358 Y132.801 E20.66918
G1 X75.358 Y133.179 E20.68178
G1 X74.642 Y133.896 E20.71556
G1 X74.642 Y134.141 E20.72375
G1 X74.774 Y134.141 E20.72816
G1 X75.358 Y133.557 E20.75572
G1 X75.358 Y133.935 E20.76831
G1 X75.152 Y134.141 E20.77806
G1 E18.77806 F2400.00000
G92 E0
G1 X74.479 Y72.782 F7800.000
G1 E2.00000 F2400.00000
G1 F1800.000
G1 X74.479 Y15.696 E3.89123
G1 X75.521 Y15.696 E3.92573
G1 X75.521 Y72.782 E5.81696
G1 X74.539 Y72.782 E5.84946
G1 X74.214 Y73.158 F7800.000
G1 F1800.000
G1 X74.214 Y15.431 E7.76195
G1 X75.786 Y15.431 E7.81405
G1 X75.786 Y73.158 E9.72653
G1 X75.634 Y73.048 E9.73275
G1 X74.366 Y73.048 E9.77478
G1 X74.262 Y73.123 E9.77902
G1 X73.948 Y73.679 F7800.000
G1 F1800.000
G1 X73.948 Y15.165 E11.71757
G1 X76.052 Y15.165 E11.78727
G1 X76.052 Y73.679 E13.72582
G1 X75.548 Y73.313 E13.74646
G1 X74.452 Y73.313 E13.78277
G1 X73.997 Y73.644 E13.80141
G1 X75.152 Y72.620 F7800.000
G1 F1800.000
G1 X75.358 Y72.413 E13.81116
G1 X75.358 Y72.035 E13.82375
G1 X74.774 Y72.620 E13.85131
G1 X74.642 Y72.620 E13.85571
G1 X74.642 Y72.374 E13.86391
G1 X75.358 Y71.657 E13.89769
G1 X75.358 Y71.279 E13.91028
G1 X74.642 Y71.996 E13.94406
G1 X74.642 Y71.618 E13.95666
G1 X75.358 Y70.901 E13.99044
G1 X75.358 Y70.523 E14.00303
G1 X74.642 Y71.240 E14.03681
G1 X74.642 Y70.862 E14.04941
G1 X75.358 Y70.146 E14.08319
G1 X75.358 Y69.768 E14.09579
G1 X74.642 Y70.484 E14.12957
G1 X74.642 Y70.106 E14.14216
G1 X75.358 Y69.390 E14.17594
G1 X75.358 Y69.012 E14.18854
G1 X74.642 Y69.729 E14.22232
G1 X74.642 Y69.351 E14.23491
G1 X75.358 Y68.634 E14.26869
G1 X75.358 Y68.256 E14.28129
G1 X74.642 Y68.973 E14.31507
G1 X74.642 Y68.595 E14.32767
G1 X75.358 Y67.878 E14.36145
G1 X75.358 Y67.500 E14.37404
G1 X74.642 Y68.217 E14.40782
G1 X74.642 Y67.839 E14.42042
G1 X75.358 Y67.122 E14.45420
G1 X75.358 Y66.744 E14.46680
G1 X74.642 Y67.461 E14.50058
G1 X74.642 Y67.083 E14.51317
G1 X75.358 Y66.366 E14.54695
G1 X75.358 Y65.989 E14.55955
G1 X74.642 Y66.705 E14.59333
G1 X74.642 Y66.327 E14.60593
G1 X75.358 Y65.611 E14.63971
G1 X75.358 Y65.233 E14.65230
G1 X74.642 Y65.949 E14.68608
G1 X74.642 Y65.572 E14.69868
G1 X75.358 Y64.855 E14.73246
G1 X75.358 Y64.477 E14.74506
G1 X74.642 Y65.194 E14.77884
G1 X74.642 Y64.816 E14.79143
G1 X75.358 Y64.099 E14.82522
G1 X75.358 Y63.721 E14.83781
G1 X74.642 Y64.438 E14.87159
G1 X74.642 Y64.060 E14.88419
G1 X75.358 Y63.343 E14.91797
G1 X75.358 Y62.965 E14.93057
G1 X74.642 Y63.682 E14.96435
G1 X74.642 Y63.304 E14.97694
G1 X75.358 Y62.587 E15.01072
G1 X75.358 Y62.209 E15.02332
G1 X74.642 Y62.926 E15.05710
G1 X74.642 Y62.548 E15.06970
G1 X75.358 Y61.832 E15.10348
G1 X75.358 Y61.454 E15.11607
G1 X74.642 Y62.170 E15.14986
G1 X74.642 Y61.792 E15.16245
G1 X75.358 Y61.076 E15.19623
G1 X75.358 Y60.698 E15.20883
G1 X74.642 Y61.414 E15.24261
G1 X74.642 Y61.037 E15.25521
G1 X75.358 Y60.320 E15.28899
G1 X75.358 Y59.942 E15.30158
G1 X74.642 Y60.659 E15.33537
G1 X74.642 Y60.281 E15.34796
G1 X75.358 Y59.564 E15.38174
G1 X75.358 Y59.186 E15.39434
G1 X74.642 Y59.903 E15.42812
G1 X74.642 Y59.525 E15.44072
G1 X75.358 Y58.808 E15.47450
G1 X75.358 Y58.430 E15.48710
G1 X74.642 Y59.147 E15.52088
G1 X74.642 Y58.769 E15.53347
G1 X75.358 Y58.052 E15.56726
G1 X75.358 Y57.675 E15.57985
G1 X74.642 Y58.391 E15.61363
G1 X74.642 Y58.013 E15.62623
G1 X75.358 Y57.297 E15.66001
G1 X75.358 Y56.919 E15.67261
G1 X74.642 Y57.635 E15.70639
G1 X74.642 Y57.257 E15.71899
G1 X75.358 Y56.541 E15.75277
G1 X75.358 Y56.163 E15.76536
G1 X74.642 Y56.880 E15.79915
G1 X74.642 Y56.502 E15.81174
G1 X75.358 Y55.785 E15.84552
G1 X75.358 Y55.407 E15.85812
G1 X74.642 Y56.124 E15.89190
G1 X74.642 Y55.746 E15.90450
G1 X75.358 Y55.029 E15.93828
G1 X75.358 Y54.651 E15.95088
G1 X74.642 Y55.368 E15.98466
G1 X74.642 Y54.990 E15.99726
G1 X75.358 Y54.273 E16.03104
G1 X75.358 Y53.895 E16.04363
G1 X74.642 Y54.612 E16.07742
G1 X74.642 Y54.234 E16.09001
G1 X75.358 Y53.517 E16.12380
G1 X75.358 Y53.140 E16.13639
G1 X74.642 Y53.856 E16.17017
G1 X74.642 Y53.478 E16.18277
G1 X75.358 Y52.762 E16.21655
G1 X75.358 Y52.384 E16.22915
G1 X74.642 Y53.100 E16.26293
G1 X74.642 Y52.723 E16.27553
G1 X75.358 Y52.006 E16.30931
G1 X75.358 Y51.628 E16.32191
G1 X74.642 Y52.345 E16.35569
G1 X74.642 Y51.967 E16.36829
G1 X75.358 Y51.250 E16.40207
G1 X75.358 Y50.872 E16.41466
G1 X74.642 Y51.589 E16.44845
G1 X74.642 Y51.211 E16.46104
G1 X75.358 Y50.494 E16.49483
G1 X75.358 Y50.116 E16.50742
G1 X74.642 Y50.833 E16.54121
G1 X74.642 Y50.455 E16.55380
G1 X75.358 Y49.738 E16.58759
G1 X75.358 Y49.360 E16.60018
G1 X74.642 Y50.077 E16.63396
G1 X74.642 Y49.699 E16.64656
G1 X75.358 Y48.983 E16.68034
G1 X75.358 Y48.605 E16.69294
G1 X74.642 Y49.321 E16.72672
G1 X74.642 Y48.943 E16.73932
G1 X75.358 Y48.227 E16.77310
G1 X75.358 Y47.849 E16.78570
G1 X74.642 Y48.566 E16.81948
G1 X74.642 Y48.188 E16.83208
G1 X75.358 Y47.471 E16.86586
G1 X75.358 Y47.093 E16.87846
G1 X74.642 Y47.810 E16.91224
G1 X74.642 Y47.432 E16.92484
G1 X75.358 Y46.715 E16.95862
G1 X75.358 Y46.337 E16.97122
G1 X74.642 Y47.054 E17.00500
G1 X74.642 Y46.676 E17.01760
G1 X75.358 Y45.959 E17.05138
G1 X75.358 Y45.581 E17.06398
G1 X74.642 Y46.298 E17.09776
G1 X74.642 Y45.920 E17.11036
G1 X75.358 Y45.203 E17.14414
G1 X75.358 Y44.826 E17.15674
G1 X74.642 Y45.542 E17.19052
G1 X74.642 Y45.164 E17.20312
G1 X75.358 Y44.448 E17.23690
G1 X75.358 Y44.070 E17.24950
G1 X74.642 Y44.786 E17.28328
G1 X74.642 Y44.409 E17.29588
G1 X75.358 Y43.692 E17.32966
G1 X75.358 Y43.314 E17.34226
G1 X74.642 Y44.031 E17.37604
G1 X74.642 Y43.653 E17.38864
G1 X75.358 Y42.936 E17.42242
G1 X75.358 Y42.558 E17.43502
G1 X74.642 Y43.275 E17.46880
G1 X74.642 Y42.897 E17.48140
G1 X75.358 Y42.180 E17.51518
G1 X75.358 Y41.802 E17.52778
G1 X74.642 Y42.519 E17.56156
G1 X74.642 Y42.141 E17.57416
G1 X75.358 Y41.424 E17.60794
G1 X75.358 Y41.046 E17.62054
G1 X74.642 Y41.763 E17.65432
G1 X74.642 Y41.385 E17.66692
G1 X75.358 Y40.669 E17.70070
G1 X75.358 Y40.291 E17.71330
G1 X74.642 Y41.007 E17.74709
