; generated by Slic3r 1.3.1-dev (Build adea0d9) on 2020-02-19 at 18:04:20

; external perimeters extrusion width = 0.44mm (2.86mm^3/s)
; perimeters extrusion width = 0.56mm (4.14mm^3/s)
; infill extrusion width = 0.50mm (3.66mm^3/s)
; solid infill extrusion width = 0.56mm (3.10mm^3/s)
; top infill extrusion width = 0.56mm (3.10mm^3/s)

M107
G92 E0
;D3D:START:START
T0
M104 S215 T0

G21
G90
M107
T0
G28
G29
M109 T0 S215 T0
G0 F3000
M107
T0
G92 E0
G0 X0 Y149 Z0.1 F3600
G1 Y49 E6.5 F1200
G0 Z1
G92 E0
; Filament gcode

G21 ; set units to millimeters
G90 ; use absolute coordinates
M82 ; use absolute distances for extrusion
G92 E0
G1 Z0.300 F7800.000
G1 E-2.00000 F2400.00000
G92 E0
G1 X31.212 Y46.937 F7800.000
G1 E2.00000 F2400.00000
G1 F1800.000
G1 X30.359 Y46.937 E2.02826
G1 X30.306 Y46.679 E2.03697
G1 X33.960 Y46.679 E2.15803
G1 X34.115 Y47.431 E2.18347
G1 X34.779 Y50.194 E2.27759
G1 X35.528 Y52.934 E2.37172
G1 X36.364 Y55.649 E2.46584
G1 X37.284 Y58.337 E2.55996
G1 X38.288 Y60.995 E2.65408
G1 X39.375 Y63.620 E2.74820
G1 X40.545 Y66.209 E2.84233
G1 X41.794 Y68.760 E2.93645
G1 X43.124 Y71.271 E3.03057
G1 X44.531 Y73.739 E3.12469
G1 X46.016 Y76.161 E3.21881
G1 X47.576 Y78.536 E3.31294
G1 X49.209 Y80.860 E3.40706
G1 X50.915 Y83.132 E3.50118
G1 X52.691 Y85.349 E3.59530
G1 X54.537 Y87.510 E3.68943
G1 X56.449 Y89.611 E3.78355
G1 X58.426 Y91.651 E3.87767
G1 X60.466 Y93.628 E3.97179
G1 X62.567 Y95.540 E4.06592
G1 X64.728 Y97.386 E4.16004
G1 X66.945 Y99.162 E4.25416
G1 X69.217 Y100.868 E4.34828
G1 X71.541 Y102.501 E4.44240
G1 X73.916 Y104.061 E4.53653
G1 X76.338 Y105.546 E4.63065
G1 X78.806 Y106.953 E4.72477
G1 X81.317 Y108.283 E4.81889
G1 X83.868 Y109.532 E4.91301
G1 X86.457 Y110.702 E5.00714
G1 X89.082 Y111.789 E5.10126
G1 X91.740 Y112.793 E5.19538
G1 X94.428 Y113.713 E5.28950
G1 X97.143 Y114.549 E5.38363
G1 X99.883 Y115.298 E5.47775
G1 X102.646 Y115.962 E5.57187
G1 X105.428 Y116.538 E5.66599
G1 X108.227 Y117.026 E5.76012
G1 X111.039 Y117.427 E5.85424
G1 X113.863 Y117.738 E5.94836
G1 X116.696 Y117.961 E6.04248
G1 X119.533 Y118.095 E6.13660
G1 X121.678 Y118.129 E6.20766
G1 X121.678 Y120.872 E6.29854
G1 X119.447 Y120.837 E6.37245
G1 X116.428 Y120.695 E6.47259
G1 X116.428 Y121.529 E6.50025
G1 X113.527 Y121.301 E6.59667
G1 X110.591 Y120.977 E6.69452
G1 X107.667 Y120.561 E6.79236
G1 X104.757 Y120.053 E6.89021
G1 X101.865 Y119.454 E6.98806
G1 X98.993 Y118.765 E7.08590
G1 X96.145 Y117.985 E7.18375
G1 X93.322 Y117.117 E7.28160
G1 X90.528 Y116.160 E7.37944
G1 X87.765 Y115.116 E7.47729
G1 X85.036 Y113.986 E7.57514
G1 X82.344 Y112.771 E7.67298
G1 X79.692 Y111.471 E7.77083
G1 X77.082 Y110.089 E7.86868
G1 X74.516 Y108.626 E7.96652
G1 X71.998 Y107.083 E8.06437
G1 X69.530 Y105.461 E8.16222
G1 X67.113 Y103.763 E8.26006
G1 X64.751 Y101.990 E8.35791
G1 X62.446 Y100.143 E8.45576
G1 X60.201 Y98.225 E8.55361
G1 X58.016 Y96.237 E8.65145
G1 X55.895 Y94.182 E8.74930
G1 X53.840 Y92.061 E8.84714
G1 X51.852 Y89.876 E8.94499
G1 X49.934 Y87.631 E9.04284
G1 X48.087 Y85.326 E9.14068
G1 X46.314 Y82.964 E9.23853
G1 X44.616 Y80.547 E9.33638
G1 X42.994 Y78.079 E9.43422
G1 X41.451 Y75.561 E9.53207
G1 X39.988 Y72.995 E9.62992
G1 X38.606 Y70.385 E9.72777
G1 X37.306 Y67.733 E9.82561
G1 X36.091 Y65.041 E9.92346
G1 X34.961 Y62.312 E10.02130
G1 X33.917 Y59.549 E10.11915
G1 X33.670 Y58.829 E10.14438
G1 X34.553 Y58.829 E10.17362
G1 X33.755 Y56.497 E10.25529
G1 X32.894 Y53.699 E10.35226
G1 X32.122 Y50.876 E10.44924
G1 X31.438 Y48.029 E10.54622
G1 X31.224 Y46.995 E10.58120
G1 X30.996 Y47.202 F7800.000
G1 F1800.000
G1 X30.143 Y47.202 E10.60946
G1 X29.979 Y46.413 E10.63615
G1 X34.176 Y46.413 E10.77518
G1 X34.375 Y47.373 E10.80765
G1 X35.036 Y50.128 E10.90149
G1 X35.783 Y52.860 E10.99534
G1 X36.616 Y55.567 E11.08918
G1 X37.534 Y58.247 E11.18303
G1 X38.535 Y60.897 E11.27688
G1 X39.619 Y63.514 E11.37072
G1 X40.785 Y66.096 E11.46457
G1 X42.031 Y68.640 E11.55841
G1 X43.357 Y71.143 E11.65226
G1 X44.760 Y73.604 E11.74610
G1 X46.240 Y76.019 E11.83995
G1 X47.795 Y78.387 E11.93380
G1 X49.424 Y80.704 E12.02764
G1 X51.125 Y82.969 E12.12149
G1 X52.896 Y85.180 E12.21533
G1 X54.736 Y87.334 E12.30918
G1 X56.642 Y89.429 E12.40302
G1 X58.614 Y91.463 E12.49687
G1 X60.648 Y93.435 E12.59072
G1 X62.743 Y95.341 E12.68456
G1 X64.897 Y97.181 E12.77841
G1 X67.108 Y98.952 E12.87225
G1 X69.373 Y100.653 E12.96610
G1 X71.690 Y102.282 E13.05994
G1 X74.058 Y103.837 E13.15379
G1 X76.473 Y105.317 E13.24764
G1 X78.934 Y106.720 E13.34148
G1 X81.437 Y108.046 E13.43533
G1 X83.981 Y109.292 E13.52917
G1 X86.563 Y110.458 E13.62302
G1 X89.180 Y111.542 E13.71686
G1 X91.830 Y112.543 E13.81071
G1 X94.510 Y113.461 E13.90456
G1 X97.217 Y114.294 E13.99840
G1 X99.949 Y115.041 E14.09225
G1 X102.704 Y115.702 E14.18609
G1 X105.478 Y116.277 E14.27994
G1 X108.268 Y116.764 E14.37379
G1 X111.073 Y117.163 E14.46763
G1 X113.888 Y117.474 E14.56148
G1 X116.712 Y117.696 E14.65532
G1 X119.542 Y117.829 E14.74917
G1 X121.944 Y117.867 E14.82875
G1 X121.944 Y121.142 E14.93723
G1 X119.439 Y121.102 E15.02022
G1 X116.694 Y120.973 E15.11127
G1 X116.694 Y121.809 E15.13898
G1 X113.502 Y121.566 E15.24503
G1 X110.558 Y121.241 E15.34316
G1 X107.625 Y120.823 E15.44128
G1 X104.708 Y120.314 E15.53941
G1 X101.807 Y119.713 E15.63753
G1 X98.927 Y119.022 E15.73565
G1 X96.071 Y118.240 E15.83377
G1 X93.240 Y117.370 E15.93190
G1 X90.438 Y116.410 E16.03002
G1 X87.667 Y115.363 E16.12814
G1 X84.931 Y114.230 E16.22627
G1 X82.231 Y113.011 E16.32439
G1 X79.571 Y111.708 E16.42251
G1 X76.954 Y110.322 E16.52063
G1 X74.381 Y108.855 E16.61876
G1 X71.856 Y107.307 E16.71688
G1 X69.380 Y105.681 E16.81500
G1 X66.957 Y103.978 E16.91313
G1 X64.589 Y102.199 E17.01125
G1 X62.277 Y100.348 E17.10937
G1 X60.025 Y98.424 E17.20750
G1 X57.834 Y96.431 E17.30562
G1 X55.707 Y94.370 E17.40374
G1 X53.646 Y92.243 E17.50187
G1 X51.653 Y90.052 E17.59999
G1 X49.729 Y87.800 E17.69812
G1 X47.878 Y85.488 E17.79624
G1 X46.099 Y83.120 E17.89436
G1 X44.396 Y80.697 E17.99249
G1 X42.770 Y78.221 E18.09061
G1 X41.222 Y75.696 E18.18873
G1 X39.755 Y73.123 E18.28686
G1 X38.369 Y70.506 E18.38498
G1 X37.066 Y67.846 E18.48310
G1 X35.847 Y65.146 E18.58122
G1 X34.714 Y62.410 E18.67935
G1 X33.667 Y59.639 E18.77747
G1 X33.299 Y58.563 E18.81515
G1 X34.181 Y58.563 E18.84439
G1 X33.502 Y56.579 E18.91388
G1 X32.639 Y53.773 E19.01113
G1 X31.864 Y50.942 E19.10839
G1 X31.179 Y48.087 E19.20564
G1 X31.008 Y47.261 E19.23360
G1 X30.779 Y47.468 F7800.000
G1 F1800.000
G1 X29.926 Y47.468 E19.26186
G1 X29.502 Y45.419 E19.33117
G1 X28.991 Y42.493 E19.42957
G1 X28.573 Y39.553 E19.52797
G1 X28.247 Y36.600 E19.62637
G1 X28.014 Y33.639 E19.72477
G1 X27.874 Y30.673 E19.82317
G1 X27.830 Y27.868 E19.91610
G1 X32.471 Y27.868 E20.06987
G1 X32.479 Y28.338 E20.08544
G1 X28.343 Y28.338 E20.22246
G1 X28.379 Y30.657 E20.29930
G1 X28.518 Y33.608 E20.39717
G1 X28.750 Y36.553 E20.49504
G1 X29.074 Y39.489 E20.59292
G1 X29.491 Y42.414 E20.69079
G1 X29.998 Y45.324 E20.78866
G1 X30.169 Y46.148 E20.81652
G1 X34.392 Y46.148 E20.95644
G1 X34.634 Y47.315 E20.99593
G1 X35.293 Y50.061 E21.08950
G1 X36.038 Y52.786 E21.18307
G1 X36.869 Y55.485 E21.27664
G1 X37.784 Y58.157 E21.37020
G1 X38.782 Y60.799 E21.46378
G1 X39.863 Y63.409 E21.55734
G1 X41.025 Y65.983 E21.65091
G1 X42.268 Y68.519 E21.74448
G1 X43.589 Y71.015 E21.83805
G1 X44.989 Y73.468 E21.93162
G1 X46.464 Y75.877 E22.02519
G1 X48.015 Y78.237 E22.11876
G1 X49.639 Y80.548 E22.21233
G1 X51.335 Y82.807 E22.30590
G1 X53.101 Y85.011 E22.39947
G1 X54.935 Y87.158 E22.49304
G1 X56.836 Y89.247 E22.58661
G1 X58.801 Y91.276 E22.68017
G1 X60.830 Y93.241 E22.77374
G1 X62.919 Y95.142 E22.86731
G1 X65.066 Y96.976 E22.96088
G1 X67.270 Y98.742 E23.05445
G1 X69.529 Y100.438 E23.14802
G1 X71.840 Y102.062 E23.24159
G1 X74.200 Y103.613 E23.33516
G1 X76.609 Y105.088 E23.42873
G1 X79.062 Y106.488 E23.52230
G1 X81.558 Y107.809 E23.61587
G1 X84.094 Y109.052 E23.70944
G1 X86.668 Y110.214 E23.80301
G1 X89.278 Y111.295 E23.89657
G1 X91.920 Y112.293 E23.99015
G1 X94.592 Y113.208 E24.08371
G1 X97.291 Y114.038 E24.17728
G1 X100.016 Y114.784 E24.27085
G1 X102.762 Y115.443 E24.36442
G1 X105.528 Y116.016 E24.45799
G1 X108.310 Y116.501 E24.55156
G1 X111.106 Y116.899 E24.64513
G1 X113.913 Y117.209 E24.73870
G1 X116.729 Y117.431 E24.83227
G1 X119.550 Y117.564 E24.92584
G1 X122.209 Y117.606 E25.01394
G1 X122.209 Y121.412 E25.14003
G1 X119.431 Y121.368 E25.23209
G1 X116.959 Y121.251 E25.31406
G1 X116.959 Y122.088 E25.34176
G1 X116.438 Y122.063 E25.35906
G1 X113.477 Y121.830 E25.45746
G1 X110.524 Y121.504 E25.55586
G1 X107.584 Y121.086 E25.65426
G1 X104.658 Y120.575 E25.75266
G1 X101.749 Y119.973 E25.85106
G1 X98.861 Y119.279 E25.94946
G1 X95.996 Y118.496 E26.04786
G1 X93.158 Y117.622 E26.14626
G1 X90.348 Y116.660 E26.24466
G1 X87.569 Y115.610 E26.34306
G1 X84.825 Y114.474 E26.44146
G1 X82.118 Y113.251 E26.53986
G1 X79.451 Y111.945 E26.63826
G1 X76.826 Y110.555 E26.73666
G1 X74.246 Y109.083 E26.83506
G1 X71.713 Y107.531 E26.93346
G1 X69.231 Y105.901 E27.03186
G1 X66.801 Y104.193 E27.13026
G1 X64.426 Y102.409 E27.22866
G1 X62.108 Y100.552 E27.32706
G1 X59.849 Y98.623 E27.42546
G1 X57.652 Y96.624 E27.52386
G1 X55.519 Y94.558 E27.62226
G1 X53.453 Y92.425 E27.72066
G1 X51.454 Y90.228 E27.81905
G1 X49.525 Y87.969 E27.91746
G1 X47.668 Y85.651 E28.01585
G1 X45.884 Y83.276 E28.11426
G1 X44.176 Y80.846 E28.21266
G1 X42.546 Y78.364 E28.31105
G1 X40.994 Y75.831 E28.40945
G1 X39.522 Y73.251 E28.50786
G1 X38.132 Y70.626 E28.60625
G1 X36.826 Y67.959 E28.70465
G1 X35.603 Y65.252 E28.80305
G1 X34.467 Y62.508 E28.90145
G1 X33.417 Y59.729 E28.99985
G1 X32.927 Y58.298 E29.04998
G1 X33.810 Y58.298 E29.07923
G1 X33.249 Y56.661 E29.13654
G1 X32.384 Y53.847 E29.23407
G1 X31.607 Y51.008 E29.33160
G1 X30.920 Y48.145 E29.42913
G1 X30.791 Y47.527 E29.45006
G1 X31.382 Y47.048 F7800.000
G1 F1800.000
G1 X31.588 Y46.841 E29.45975
G1 X31.964 Y46.841 E29.47223
G1 X31.446 Y47.360 E29.49655
G1 X31.511 Y47.671 E29.50710
G1 X32.341 Y46.841 E29.54603
G1 X32.717 Y46.841 E29.55850
G1 X31.575 Y47.983 E29.61204
G1 X31.645 Y48.289 E29.62245
G1 X33.093 Y46.841 E29.69033
G1 X33.469 Y46.841 E29.70280
G1 X31.718 Y48.592 E29.78490
G1 X31.791 Y48.895 E29.79525
G1 X33.847 Y46.841 E29.89162
G1 X33.911 Y47.151 E29.90212
G1 X31.864 Y49.198 E29.99814
G1 X31.937 Y49.502 E30.00848
G1 X33.977 Y47.461 E30.10420
G1 X34.050 Y47.764 E30.11455
G1 X32.009 Y49.805 E30.21027
G1 X32.082 Y50.108 E30.22061
G1 X34.123 Y48.067 E30.31634
G1 X34.196 Y48.371 E30.32668
G1 X32.155 Y50.411 E30.42240
G1 X32.228 Y50.715 E30.43275
G1 X34.269 Y48.674 E30.52847
G1 X34.341 Y48.977 E30.53881
G1 X32.303 Y51.015 E30.63441
G1 X32.384 Y51.310 E30.64456
G1 X34.414 Y49.280 E30.73978
G1 X34.487 Y49.584 E30.75012
G1 X32.465 Y51.606 E30.84497
G1 X32.546 Y51.901 E30.85512
G1 X34.560 Y49.887 E30.94959
G1 X34.634 Y50.189 E30.95991
G1 X32.627 Y52.196 E31.05405
G1 X32.707 Y52.492 E31.06421
G1 X34.714 Y50.484 E31.15834
G1 X34.795 Y50.780 E31.16850
G1 X32.788 Y52.787 E31.26264
G1 X32.869 Y53.082 E31.27279
G1 X34.876 Y51.075 E31.36693
G1 X34.957 Y51.370 E31.37708
G1 X32.950 Y53.377 E31.47122
G1 X33.030 Y53.673 E31.48137
G1 X35.038 Y51.666 E31.57551
G1 X35.118 Y51.961 E31.58567
G1 X33.117 Y53.962 E31.67951
G1 X33.206 Y54.249 E31.68949
G1 X35.199 Y52.256 E31.78298
G1 X35.280 Y52.551 E31.79313
G1 X33.294 Y54.537 E31.88626
G1 X33.383 Y54.824 E31.89624
G1 X35.361 Y52.847 E31.98900
G1 X35.448 Y53.136 E31.99901
G1 X33.471 Y55.112 E32.09171
G1 X33.560 Y55.400 E32.10169
G1 X35.536 Y53.423 E32.19438
G1 X35.625 Y53.711 E32.20436
G1 X33.648 Y55.687 E32.29706
G1 X33.737 Y55.975 E32.30704
G1 X35.713 Y53.999 E32.39973
G1 X35.801 Y54.286 E32.40971
G1 X33.825 Y56.262 E32.50240
G1 X33.914 Y56.549 E32.51237
G1 X35.890 Y54.574 E32.60502
G1 X35.978 Y54.861 E32.61500
G1 X34.010 Y56.829 E32.70731
G1 X34.106 Y57.109 E32.71713
G1 X36.067 Y55.149 E32.80909
G1 X36.155 Y55.436 E32.81907
G1 X34.202 Y57.390 E32.91068
G1 X34.298 Y57.670 E32.92050
G1 X36.246 Y55.722 E33.01188
G1 X36.342 Y56.002 E33.02170
G1 X34.394 Y57.950 E33.11307
G1 X34.490 Y58.230 E33.12289
G1 X36.438 Y56.282 E33.21427
G1 X36.534 Y56.562 E33.22409
G1 X34.586 Y58.510 E33.31547
G1 X34.682 Y58.790 E33.32529
G1 X36.630 Y56.842 E33.41666
G1 X36.726 Y57.122 E33.42648
G1 X34.778 Y59.070 E33.51786
G1 X34.274 Y59.198 F7800.000
G1 F1800.000
G1 X33.939 Y59.198 E33.52898
G1 X34.024 Y59.448 E33.53775
G1 X34.481 Y58.991 E33.55916
G1 X34.857 Y58.991 E33.57163
G1 X34.124 Y59.724 E33.60598
G1 X34.227 Y59.997 E33.61566
G1 X36.822 Y57.402 E33.73734
G1 X36.918 Y57.683 E33.74716
G1 X34.331 Y60.270 E33.86851
G1 X34.434 Y60.543 E33.87819
G1 X37.014 Y57.963 E33.99919
G1 X37.110 Y58.243 E34.00901
G1 X34.537 Y60.816 E34.12968
G1 X34.640 Y61.088 E34.13936
G1 X37.211 Y58.518 E34.25993
G1 X37.314 Y58.791 E34.26961
G1 X34.743 Y61.361 E34.39018
G1 X34.846 Y61.634 E34.39985
G1 X37.417 Y59.064 E34.52042
G1 X37.520 Y59.337 E34.53010
G1 X34.949 Y61.907 E34.65067
G1 X35.052 Y62.180 E34.66035
G1 X37.623 Y59.610 E34.78092
G1 X37.726 Y59.882 E34.79060
G1 X35.159 Y62.450 E34.91100
G1 X35.269 Y62.716 E34.92055
G1 X37.829 Y60.155 E35.04063
G1 X37.932 Y60.428 E35.05031
G1 X35.379 Y62.981 E35.17006
G1 X35.490 Y63.247 E35.17960
G1 X38.036 Y60.701 E35.29902
G1 X38.139 Y60.974 E35.30870
G1 X35.600 Y63.513 E35.42779
G1 X35.710 Y63.779 E35.43734
G1 X38.248 Y61.240 E35.55641
G1 X38.359 Y61.506 E35.56596
G1 X35.820 Y64.045 E35.68503
G1 X35.930 Y64.311 E35.69458
G1 X38.469 Y61.772 E35.81365
G1 X38.579 Y62.038 E35.82320
G1 X36.040 Y64.577 E35.94227
G1 X36.150 Y64.843 E35.95182
G1 X38.689 Y62.304 E36.07089
G1 X38.799 Y62.570 E36.08044
G1 X36.262 Y65.107 E36.19943
G1 X36.379 Y65.366 E36.20886
G1 X38.909 Y62.836 E36.32753
G1 X39.020 Y63.102 E36.33708
G1 X36.496 Y65.625 E36.45542
G1 X36.613 Y65.884 E36.46485
G1 X39.130 Y63.368 E36.58288
G1 X39.240 Y63.633 E36.59242
G1 X36.730 Y66.143 E36.71015
G1 X36.847 Y66.402 E36.71957
G1 X39.357 Y63.892 E36.83730
G1 X39.474 Y64.152 E36.84672
G1 X36.964 Y66.661 E36.96445
G1 X37.081 Y66.920 E36.97387
G1 X39.591 Y64.411 E37.09160
G1 X39.708 Y64.670 E37.10103
G1 X37.198 Y67.180 E37.21875
G1 X37.315 Y67.439 E37.22818
G1 X39.825 Y64.929 E37.34590
G1 X39.942 Y65.188 E37.35533
G1 X37.432 Y67.698 E37.47305
G1 X37.555 Y67.951 E37.48238
G1 X40.059 Y65.447 E37.59982
G1 X40.176 Y65.706 E37.60925
G1 X37.679 Y68.203 E37.72638
G1 X37.802 Y68.456 E37.73570
G1 X40.293 Y65.965 E37.85251
G1 X40.410 Y66.224 E37.86194
G1 X37.926 Y68.708 E37.97844
G1 X38.050 Y68.960 E37.98777
G1 X40.534 Y66.476 E38.10427
G1 X40.657 Y66.729 E38.11359
G1 X38.173 Y69.213 E38.23010
G1 X38.297 Y69.465 E38.23942
G1 X40.781 Y66.981 E38.35593
G1 X40.905 Y67.234 E38.36525
G1 X38.421 Y69.718 E38.48175
G1 X38.544 Y69.970 E38.49108
G1 X41.028 Y67.486 E38.60758
G1 X41.152 Y67.738 E38.61690
G1 X38.668 Y70.222 E38.73341
G1 X38.794 Y70.472 E38.74269
G1 X41.276 Y67.991 E38.85906
G1 X41.399 Y68.243 E38.86839
G1 X38.925 Y70.718 E38.98445
G1 X39.055 Y70.964 E38.99368
G1 X41.523 Y68.496 E39.10944
G1 X41.647 Y68.748 E39.11877
G1 X39.185 Y71.210 E39.23422
G1 X39.315 Y71.456 E39.24345
G1 X41.776 Y68.995 E39.35887
G1 X41.906 Y69.241 E39.36810
G1 X39.445 Y71.701 E39.48352
G1 X39.576 Y71.947 E39.49274
G1 X42.036 Y69.486 E39.60816
G1 X42.166 Y69.732 E39.61739
G1 X39.706 Y72.193 E39.73281
G1 X39.836 Y72.439 E39.74204
G1 X42.297 Y69.978 E39.85746
G1 X42.427 Y70.224 E39.86669
G1 X39.966 Y72.685 E39.98211
G1 X40.096 Y72.931 E39.99134
G1 X42.557 Y70.470 E40.10676
G1 X42.687 Y70.716 E40.11599
G1 X40.232 Y73.171 E40.23116
G1 X40.368 Y73.411 E40.24030
G1 X42.817 Y70.962 E40.35517
G1 X42.948 Y71.208 E40.36439
G1 X40.505 Y73.650 E40.47896
G1 X40.642 Y73.890 E40.48811
G1 X43.082 Y71.449 E40.60257
G1 X43.218 Y71.689 E40.61171
G1 X40.778 Y74.129 E40.72617
G1 X40.915 Y74.369 E40.73531
G1 X43.355 Y71.928 E40.84977
G1 X43.492 Y72.168 E40.85892
G1 X41.051 Y74.608 E40.97338
G1 X41.188 Y74.848 E40.98252
G1 X43.628 Y72.407 E41.09698
G1 X43.765 Y72.647 E41.10613
G1 X41.325 Y75.087 E41.22059
G1 X41.461 Y75.326 E41.22973
G1 X43.901 Y72.886 E41.34419
G1 X44.038 Y73.126 E41.35333
G1 X41.599 Y75.565 E41.46775
G1 X41.742 Y75.798 E41.47682
G1 X44.175 Y73.365 E41.59094
