; generated by Slic3r 1.3.1-dev (Build adea0d9) on 2020-02-19 at 16:52:26

; external perimeters extrusion width = 0.44mm (2.86mm^3/s)
; perimeters extrusion width = 0.56mm (4.14mm^3/s)
; infill extrusion width = 0.50mm (3.66mm^3/s)
; solid infill extrusion width = 0.56mm (3.10mm^3/s)
; top infill extrusion width = 0.56mm (3.10mm^3/s)

M107
G92 E0
;D3D:START:START
T0
M104 S215 T0

G21
G90
M107
T0
G28
G29
M109 T0 S215 T0
G0 F3000
M107
T0
G92 E0
G0 X0 Y149 Z0.1 F3600
G1 Y49 E6.5 F1200
G0 Z1
G92 E0
; Filament gcode

G21 ; set units to millimeters
G90 ; use absolute coordinates
M82 ; use absolute distances for extrusion
G92 E0
G1 Z0.300 F7800.000
G1 E-2.00000 F2400.00000
G92 E0
G1 X134.696 Y76.804 F7800.000
G1 E2.00000 F2400.00000
G1 F1800.000
G1 X134.696 Y108.196 E3.04002
G1 X101.878 Y108.196 E4.12728
G1 X101.151 Y107.826 E4.15429
G1 X99.598 Y106.817 E4.21565
G1 X98.158 Y105.652 E4.27702
G1 X96.848 Y104.342 E4.33839
G1 X95.683 Y102.902 E4.39976
G1 X94.674 Y101.349 E4.46113
G1 X93.833 Y99.698 E4.52250
G1 X93.169 Y97.969 E4.58387
G1 X92.690 Y96.179 E4.64524
G1 X92.400 Y94.350 E4.70661
G1 X92.303 Y92.500 E4.76798
G1 X92.400 Y90.650 E4.82935
G1 X92.690 Y88.821 E4.89071
G1 X93.169 Y87.031 E4.95208
G1 X93.833 Y85.302 E5.01345
G1 X94.674 Y83.651 E5.07482
G1 X95.683 Y82.098 E5.13619
G1 X96.848 Y80.658 E5.19756
G1 X98.158 Y79.348 E5.25893
G1 X99.598 Y78.183 E5.32030
G1 X101.151 Y77.174 E5.38167
G1 X101.878 Y76.804 E5.40867
G1 X134.636 Y76.804 E6.49395
G1 X134.431 Y77.069 F7800.000
G1 F1800.000
G1 X134.431 Y107.931 E7.51636
G1 X101.941 Y107.931 E8.59272
G1 X101.284 Y107.596 E8.61715
G1 X99.754 Y106.602 E8.67759
G1 X98.336 Y105.454 E8.73804
G1 X97.046 Y104.164 E8.79849
G1 X95.898 Y102.746 E8.85893
G1 X94.904 Y101.216 E8.91938
G1 X94.076 Y99.590 E8.97983
G1 X93.422 Y97.887 E9.04027
G1 X92.950 Y96.124 E9.10072
G1 X92.664 Y94.322 E9.16117
G1 X92.569 Y92.500 E9.22161
G1 X92.664 Y90.678 E9.28206
G1 X92.950 Y88.876 E9.34251
G1 X93.422 Y87.113 E9.40295
G1 X94.076 Y85.410 E9.46340
G1 X94.904 Y83.784 E9.52385
G1 X95.898 Y82.254 E9.58429
G1 X97.046 Y80.836 E9.64474
G1 X98.336 Y79.546 E9.70519
G1 X99.754 Y78.398 E9.76564
G1 X101.284 Y77.404 E9.82608
G1 X101.941 Y77.069 E9.85051
G1 X134.371 Y77.069 E10.92487
G1 X134.165 Y77.335 F7800.000
G1 F1800.000
G1 X134.165 Y107.665 E11.92969
G1 X102.005 Y107.665 E12.99513
G1 X101.417 Y107.365 E13.01699
G1 X99.911 Y106.387 E13.07651
G1 X98.514 Y105.256 E13.13603
G1 X97.244 Y103.986 E13.19556
G1 X96.113 Y102.589 E13.25509
G1 X95.135 Y101.083 E13.31461
G1 X94.319 Y99.482 E13.37413
G1 X93.675 Y97.804 E13.43366
G1 X93.210 Y96.069 E13.49318
G1 X92.929 Y94.294 E13.55271
G1 X92.835 Y92.500 E13.61223
G1 X92.929 Y90.706 E13.67176
G1 X93.210 Y88.931 E13.73128
G1 X93.675 Y87.196 E13.79080
G1 X94.319 Y85.518 E13.85033
G1 X95.135 Y83.917 E13.90985
G1 X96.113 Y82.411 E13.96938
G1 X97.244 Y81.014 E14.02890
G1 X98.514 Y79.744 E14.08843
G1 X99.911 Y78.613 E14.14795
G1 X101.417 Y77.635 E14.20747
G1 X102.005 Y77.335 E14.22933
G1 X134.105 Y77.335 E15.29278
G1 E13.29278 F2400.00000
G92 E0
G1 X77.225 Y91.929 F7800.000
G1 E2.00000 F2400.00000
G1 F1800.000
G1 X77.279 Y92.212 E2.00956
G1 X77.298 Y92.500 E2.01912
G1 X77.279 Y92.788 E2.02868
G1 X77.225 Y93.071 E2.03824
G1 X77.136 Y93.346 E2.04779
G1 X77.013 Y93.607 E2.05735
G1 X76.859 Y93.851 E2.06691
G1 X76.675 Y94.073 E2.07648
G1 X76.465 Y94.270 E2.08603
G1 X76.231 Y94.440 E2.09559
G1 X75.978 Y94.579 E2.10515
G1 X75.710 Y94.685 E2.11470
G1 X75.430 Y94.757 E2.12427
G1 X75.144 Y94.793 E2.13383
G1 X74.856 Y94.793 E2.14338
G1 X74.570 Y94.757 E2.15294
G1 X74.290 Y94.685 E2.16251
G1 X74.022 Y94.579 E2.17207
G1 X73.769 Y94.440 E2.18162
G1 X73.535 Y94.270 E2.19118
G1 X73.325 Y94.073 E2.20074
G1 X73.141 Y93.851 E2.21030
G1 X72.987 Y93.607 E2.21986
G1 X72.864 Y93.346 E2.22942
G1 X72.775 Y93.071 E2.23898
G1 X72.721 Y92.788 E2.24854
G1 X72.702 Y92.500 E2.25809
G1 X72.721 Y92.212 E2.26765
G1 X72.775 Y91.929 E2.27721
G1 X72.864 Y91.654 E2.28677
G1 X72.987 Y91.393 E2.29633
G1 X73.141 Y91.149 E2.30589
G1 X73.325 Y90.927 E2.31545
G1 X73.535 Y90.730 E2.32501
G1 X73.769 Y90.560 E2.33457
G1 X74.022 Y90.421 E2.34412
G1 X74.290 Y90.315 E2.35368
G1 X74.570 Y90.243 E2.36325
G1 X74.856 Y90.207 E2.37281
G1 X75.144 Y90.207 E2.38236
G1 X75.430 Y90.243 E2.39192
G1 X75.710 Y90.315 E2.40148
G1 X75.978 Y90.421 E2.41104
G1 X76.231 Y90.560 E2.42060
G1 X76.465 Y90.730 E2.43016
G1 X76.675 Y90.927 E2.43971
G1 X76.859 Y91.149 E2.44928
G1 X77.013 Y91.393 E2.45884
G1 X77.136 Y91.654 E2.46839
G1 X77.207 Y91.872 E2.47597
G1 X76.968 Y91.995 F7800.000
G1 F1800.000
G1 X77.015 Y92.245 E2.48442
G1 X77.031 Y92.500 E2.49287
G1 X77.015 Y92.755 E2.50132
G1 X76.968 Y93.005 E2.50977
G1 X76.889 Y93.248 E2.51822
G1 X76.780 Y93.479 E2.52668
G1 X76.644 Y93.694 E2.53513
G1 X76.481 Y93.891 E2.54358
G1 X76.295 Y94.065 E2.55203
G1 X76.089 Y94.215 E2.56048
G1 X75.865 Y94.338 E2.56893
G1 X75.628 Y94.432 E2.57739
G1 X75.381 Y94.496 E2.58584
G1 X75.127 Y94.527 E2.59429
G1 X74.873 Y94.527 E2.60274
G1 X74.619 Y94.496 E2.61119
G1 X74.372 Y94.432 E2.61965
G1 X74.135 Y94.338 E2.62810
G1 X73.911 Y94.215 E2.63655
G1 X73.705 Y94.065 E2.64500
G1 X73.519 Y93.891 E2.65345
G1 X73.356 Y93.694 E2.66190
G1 X73.220 Y93.479 E2.67036
G1 X73.111 Y93.248 E2.67881
G1 X73.032 Y93.005 E2.68726
G1 X72.985 Y92.755 E2.69571
G1 X72.969 Y92.500 E2.70416
G1 X72.985 Y92.245 E2.71262
G1 X73.032 Y91.995 E2.72107
G1 X73.111 Y91.752 E2.72952
G1 X73.220 Y91.521 E2.73797
G1 X73.356 Y91.306 E2.74642
G1 X73.519 Y91.109 E2.75488
G1 X73.705 Y90.935 E2.76333
G1 X73.911 Y90.785 E2.77178
G1 X74.135 Y90.662 E2.78023
G1 X74.372 Y90.568 E2.78868
G1 X74.619 Y90.504 E2.79714
G1 X74.873 Y90.473 E2.80559
G1 X75.127 Y90.473 E2.81403
G1 X75.381 Y90.504 E2.82249
G1 X75.628 Y90.568 E2.83094
G1 X75.865 Y90.662 E2.83939
G1 X76.089 Y90.785 E2.84785
G1 X76.295 Y90.935 E2.85630
G1 X76.481 Y91.109 E2.86475
G1 X76.644 Y91.306 E2.87320
G1 X76.780 Y91.521 E2.88165
G1 X76.889 Y91.752 E2.89010
G1 X76.949 Y91.938 E2.89657
G1 X76.710 Y92.061 F7800.000
G1 F1800.000
G1 X76.751 Y92.279 E2.90391
G1 X76.765 Y92.500 E2.91126
G1 X76.751 Y92.721 E2.91860
G1 X76.710 Y92.939 E2.92595
G1 X76.641 Y93.150 E2.93329
G1 X76.547 Y93.350 E2.94063
G1 X76.428 Y93.538 E2.94798
G1 X76.287 Y93.708 E2.95533
G1 X76.125 Y93.860 E2.96267
G1 X75.946 Y93.990 E2.97001
G1 X75.752 Y94.097 E2.97736
G1 X75.546 Y94.179 E2.98470
G1 X75.331 Y94.234 E2.99205
G1 X75.111 Y94.262 E2.99939
G1 X74.889 Y94.262 E3.00673
G1 X74.669 Y94.234 E3.01408
G1 X74.454 Y94.179 E3.02143
G1 X74.248 Y94.097 E3.02877
G1 X74.054 Y93.990 E3.03611
G1 X73.875 Y93.860 E3.04346
G1 X73.713 Y93.708 E3.05080
G1 X73.572 Y93.538 E3.05815
G1 X73.453 Y93.350 E3.06549
G1 X73.359 Y93.150 E3.07284
G1 X73.290 Y92.939 E3.08018
G1 X73.249 Y92.721 E3.08753
G1 X73.235 Y92.500 E3.09487
G1 X73.249 Y92.279 E3.10221
G1 X73.290 Y92.061 E3.10956
G1 X73.359 Y91.850 E3.11690
G1 X73.453 Y91.650 E3.12425
G1 X73.572 Y91.462 E3.13159
G1 X73.713 Y91.292 E3.13894
G1 X73.875 Y91.140 E3.14628
G1 X74.054 Y91.010 E3.15363
G1 X74.248 Y90.903 E3.16097
G1 X74.454 Y90.821 E3.16831
G1 X74.669 Y90.766 E3.17566
G1 X74.889 Y90.738 E3.18301
G1 X75.111 Y90.738 E3.19035
G1 X75.331 Y90.766 E3.19769
G1 X75.546 Y90.821 E3.20504
G1 X75.752 Y90.903 E3.21238
G1 X75.946 Y91.010 E3.21973
G1 X76.125 Y91.140 E3.22707
G1 X76.287 Y91.292 E3.23442
G1 X76.428 Y91.462 E3.24176
G1 X76.547 Y91.650 E3.24911
G1 X76.691 Y92.004 E3.26178
G1 E1.26178 F2400.00000
G92 E0
G1 X27.298 Y92.500 F7800.000
G1 E2.00000 F2400.00000
G1 F1800.000
G1 X27.280 Y92.788 E2.00956
G1 X27.225 Y93.071 E2.01912
G1 X27.136 Y93.346 E2.02868
G1 X27.013 Y93.607 E2.03823
G1 X26.859 Y93.850 E2.04779
G1 X26.675 Y94.073 E2.05735
G1 X26.464 Y94.270 E2.06692
G1 X26.231 Y94.440 E2.07648
G1 X25.978 Y94.579 E2.08603
G1 X25.710 Y94.685 E2.09559
G1 X25.430 Y94.757 E2.10515
G1 X25.144 Y94.793 E2.11471
G1 X24.856 Y94.793 E2.12426
G1 X24.570 Y94.757 E2.13382
G1 X24.290 Y94.685 E2.14339
G1 X24.022 Y94.579 E2.15295
G1 X23.769 Y94.440 E2.16250
G1 X23.535 Y94.270 E2.17206
G1 X23.325 Y94.073 E2.18162
G1 X23.141 Y93.851 E2.19118
G1 X22.987 Y93.607 E2.20074
G1 X22.864 Y93.346 E2.21030
G1 X22.775 Y93.071 E2.21985
G1 X22.720 Y92.788 E2.22942
G1 X22.702 Y92.500 E2.23898
G1 X22.720 Y92.212 E2.24854
G1 X22.775 Y91.929 E2.25810
G1 X22.864 Y91.654 E2.26765
G1 X22.987 Y91.393 E2.27721
G1 X23.141 Y91.149 E2.28677
G1 X23.325 Y90.927 E2.29633
G1 X23.535 Y90.730 E2.30589
G1 X23.769 Y90.560 E2.31545
G1 X24.022 Y90.421 E2.32501
G1 X24.290 Y90.315 E2.33456
G1 X24.570 Y90.243 E2.34413
G1 X24.856 Y90.207 E2.35369
G1 X25.144 Y90.207 E2.36324
G1 X25.430 Y90.243 E2.37280
G1 X25.710 Y90.315 E2.38237
G1 X25.978 Y90.421 E2.39192
G1 X26.231 Y90.560 E2.40148
G1 X26.464 Y90.730 E2.41103
G1 X26.675 Y90.927 E2.42060
G1 X26.859 Y91.150 E2.43016
G1 X27.013 Y91.393 E2.43972
G1 X27.136 Y91.654 E2.44928
G1 X27.225 Y91.929 E2.45883
G1 X27.280 Y92.212 E2.46839
G1 X27.294 Y92.440 E2.47596
G1 X27.031 Y92.500 F7800.000
G1 F1800.000
G1 X27.015 Y92.755 E2.48442
G1 X26.968 Y93.005 E2.49287
G1 X26.889 Y93.248 E2.50132
G1 X26.780 Y93.479 E2.50977
G1 X26.643 Y93.694 E2.51822
G1 X26.481 Y93.891 E2.52668
G1 X26.295 Y94.065 E2.53513
G1 X26.088 Y94.215 E2.54358
G1 X25.865 Y94.338 E2.55203
G1 X25.628 Y94.432 E2.56048
G1 X25.381 Y94.496 E2.56894
G1 X25.128 Y94.527 E2.57739
G1 X24.872 Y94.527 E2.58584
G1 X24.619 Y94.496 E2.59429
G1 X24.372 Y94.432 E2.60274
G1 X24.135 Y94.338 E2.61119
G1 X23.912 Y94.215 E2.61964
G1 X23.705 Y94.065 E2.62810
G1 X23.519 Y93.891 E2.63655
G1 X23.357 Y93.694 E2.64500
G1 X23.220 Y93.479 E2.65345
G1 X23.111 Y93.248 E2.66190
G1 X23.032 Y93.005 E2.67035
G1 X22.985 Y92.755 E2.67881
G1 X22.969 Y92.500 E2.68726
G1 X22.985 Y92.245 E2.69571
G1 X23.032 Y91.995 E2.70416
G1 X23.111 Y91.752 E2.71261
G1 X23.220 Y91.521 E2.72106
G1 X23.357 Y91.306 E2.72952
G1 X23.519 Y91.109 E2.73797
G1 X23.705 Y90.935 E2.74642
G1 X23.912 Y90.785 E2.75487
G1 X24.135 Y90.662 E2.76332
G1 X24.372 Y90.568 E2.77177
G1 X24.619 Y90.504 E2.78023
G1 X24.872 Y90.473 E2.78868
G1 X25.128 Y90.473 E2.79713
G1 X25.381 Y90.504 E2.80558
G1 X25.628 Y90.568 E2.81404
G1 X25.865 Y90.662 E2.82249
G1 X26.088 Y90.785 E2.83094
G1 X26.295 Y90.935 E2.83939
G1 X26.481 Y91.109 E2.84784
G1 X26.643 Y91.306 E2.85629
G1 X26.780 Y91.521 E2.86475
G1 X26.889 Y91.752 E2.87320
G1 X26.968 Y91.995 E2.88165
G1 X27.015 Y92.245 E2.89010
G1 X27.028 Y92.440 E2.89657
G1 X26.765 Y92.500 F7800.000
G1 F1800.000
G1 X26.751 Y92.721 E2.90391
G1 X26.710 Y92.939 E2.91126
G1 X26.641 Y93.150 E2.91860
G1 X26.547 Y93.350 E2.92594
G1 X26.428 Y93.538 E2.93329
G1 X26.287 Y93.708 E2.94063
G1 X26.125 Y93.860 E2.94798
G1 X25.946 Y93.990 E2.95532
G1 X25.752 Y94.097 E2.96267
G1 X25.546 Y94.179 E2.97001
G1 X25.331 Y94.234 E2.97736
G1 X25.111 Y94.262 E2.98470
G1 X24.889 Y94.262 E2.99204
G1 X24.669 Y94.234 E2.99939
G1 X24.454 Y94.179 E3.00673
G1 X24.248 Y94.097 E3.01408
G1 X24.054 Y93.990 E3.02142
G1 X23.875 Y93.860 E3.02877
G1 X23.713 Y93.708 E3.03611
G1 X23.572 Y93.538 E3.04345
G1 X23.453 Y93.350 E3.05080
G1 X23.359 Y93.150 E3.05814
G1 X23.290 Y92.939 E3.06549
G1 X23.249 Y92.721 E3.07283
G1 X23.235 Y92.500 E3.08018
G1 X23.249 Y92.279 E3.08752
G1 X23.290 Y92.061 E3.09487
G1 X23.359 Y91.850 E3.10221
G1 X23.453 Y91.650 E3.10956
G1 X23.572 Y91.462 E3.11690
G1 X23.713 Y91.292 E3.12425
G1 X23.875 Y91.140 E3.13159
G1 X24.054 Y91.009 E3.13893
G1 X24.248 Y90.903 E3.14628
G1 X24.454 Y90.821 E3.15362
G1 X24.669 Y90.766 E3.16097
G1 X24.889 Y90.738 E3.16831
G1 X25.111 Y90.738 E3.17566
G1 X25.331 Y90.766 E3.18300
G1 X25.546 Y90.821 E3.19035
G1 X25.752 Y90.903 E3.19769
G1 X25.946 Y91.010 E3.20503
G1 X26.125 Y91.140 E3.21238
G1 X26.287 Y91.292 E3.21972
G1 X26.428 Y91.462 E3.22707
G1 X26.547 Y91.650 E3.23441
G1 X26.641 Y91.850 E3.24176
G1 X26.710 Y92.061 E3.24910
G1 X26.762 Y92.440 E3.26178
G1 E1.26178 F2400.00000
G92 E0
G1 X136.304 Y75.196 F7800.000
G1 E2.00000 F2400.00000
G1 F1800.000
G1 X136.304 Y109.804 E3.14653
G1 X101.501 Y109.804 E4.29954
G1 X100.349 Y109.217 E4.34238
G1 X99.347 Y108.567 E4.38192
G1 X75.094 Y106.809 E5.18755
G1 X23.359 Y96.464 E6.93544
G1 X21.966 Y95.534 E6.99091
G1 X21.036 Y94.142 E7.04636
G1 X20.710 Y92.500 E7.10182
G1 X21.036 Y90.858 E7.15727
G1 X21.966 Y89.466 E7.21273
G1 X23.359 Y88.536 E7.26820
G1 X75.094 Y78.191 E9.01609
G1 X99.347 Y76.433 E9.82171
G1 X100.349 Y75.783 E9.86126
G1 X101.501 Y75.196 E9.90410
G1 X136.244 Y75.196 E11.05512
G1 X136.569 Y74.931 F7800.000
G1 F1800.000
G1 X136.569 Y110.069 E12.21925
G1 X101.437 Y110.069 E13.38317
G1 X100.216 Y109.447 E13.42858
G1 X99.260 Y108.827 E13.46633
G1 X75.058 Y107.072 E14.27024
G1 X23.255 Y96.714 E16.02043
G1 X21.775 Y95.725 E16.07939
G1 X20.786 Y94.245 E16.13835
G1 X20.439 Y92.500 E16.19730
G1 X20.786 Y90.755 E16.25626
G1 X21.775 Y89.275 E16.31522
G1 X23.255 Y88.286 E16.37418
G1 X75.058 Y77.928 E18.12437
G1 X99.260 Y76.173 E18.92828
G1 X100.216 Y75.553 E18.96602
G1 X101.437 Y74.931 E19.01144
G1 X136.509 Y74.931 E20.17337
G1 X136.835 Y74.665 F7800.000
G1 F1800.000
G1 X136.835 Y110.335 E21.35510
G1 X101.373 Y110.335 E22.52993
G1 X100.083 Y109.677 E22.57792
G1 X99.173 Y109.087 E22.61386
G1 X75.022 Y107.336 E23.41606
G1 X23.151 Y96.964 E25.16854
G1 X21.583 Y95.917 E25.23100
G1 X20.536 Y94.349 E25.29346
G1 X20.168 Y92.500 E25.35592
G1 X20.536 Y90.651 E25.41838
G1 X21.583 Y89.083 E25.48083
G1 X23.151 Y88.036 E25.54329
G1 X75.022 Y77.664 E27.29578
G1 X99.173 Y75.913 E28.09797
G1 X100.083 Y75.323 E28.13392
G1 X101.373 Y74.665 E28.18190
G1 X136.775 Y74.665 E29.35475
G1 E27.35475 F2400.00000
G92 E0
G1 X134.859 Y108.463 F7800.000
G1 E2.00000 F2400.00000
G1 F1800.000
G1 X136.141 Y107.180 E2.06012
G1 X136.141 Y106.805 E2.07257
G1 X134.859 Y108.088 E2.13269
G1 X134.859 Y107.712 E2.14515
G1 X136.141 Y106.429 E2.20527
G1 X136.141 Y106.053 E2.21772
G1 X134.859 Y107.336 E2.27784
G1 X134.859 Y106.960 E2.29029
G1 X136.141 Y105.677 E2.35041
G1 X136.141 Y105.302 E2.36286
G1 X134.859 Y106.585 E2.42299
G1 X134.859 Y106.209 E2.43544
G1 X136.141 Y104.926 E2.49556
G1 X136.141 Y104.550 E2.50801
G1 X134.859 Y105.833 E2.56813
G1 X134.859 Y105.457 E2.58058
G1 X136.141 Y104.175 E2.64070
G1 X136.141 Y103.799 E2.65315
G1 X134.859 Y105.082 E2.71328
G1 X134.859 Y104.706 E2.72573
G1 X136.141 Y103.423 E2.78585
G1 X136.141 Y103.047 E2.79830
G1 X134.859 Y104.330 E2.85842
G1 X134.859 Y103.955 E2.87087
G1 X136.141 Y102.672 E2.93099
G1 X136.141 Y102.296 E2.94344
G1 X134.859 Y103.579 E3.00357
G1 X134.859 Y103.203 E3.01602
G1 X136.141 Y101.920 E3.07614
G1 X136.141 Y101.544 E3.08859
G1 X134.859 Y102.827 E3.14871
G1 X134.859 Y102.452 E3.16116
G1 X136.141 Y101.169 E3.22128
G1 X136.141 Y100.793 E3.23373
G1 X134.859 Y102.076 E3.29386
G1 X134.859 Y101.700 E3.30631
G1 X136.141 Y100.417 E3.36643
G1 X136.141 Y100.041 E3.37888
G1 X134.859 Y101.324 E3.43900
G1 X134.859 Y100.949 E3.45145
G1 X136.141 Y99.666 E3.51157
G1 X136.141 Y99.290 E3.52403
G1 X134.859 Y100.573 E3.58415
G1 X134.859 Y100.197 E3.59660
G1 X136.141 Y98.914 E3.65672
G1 X136.141 Y98.539 E3.66917
G1 X134.859 Y99.821 E3.72929
G1 X134.859 Y99.446 E3.74174
G1 X136.141 Y98.163 E3.80187
G1 X136.141 Y97.787 E3.81432
G1 X134.859 Y99.070 E3.87444
G1 X134.859 Y98.694 E3.88689
G1 X136.141 Y97.411 E3.94701
G1 X136.141 Y97.036 E3.95946
G1 X134.859 Y98.319 E4.01958
G1 X134.859 Y97.943 E4.03203
G1 X136.141 Y96.660 E4.09216
G1 X136.141 Y96.284 E4.10461
G1 X134.859 Y97.567 E4.16473
G1 X134.859 Y97.191 E4.17718
G1 X136.141 Y95.908 E4.23730
G1 X136.141 Y95.533 E4.24975
G1 X134.859 Y96.816 E4.30987
G1 X134.859 Y96.440 E4.32232
G1 X136.141 Y95.157 E4.38245
G1 X136.141 Y94.781 E4.39490
G1 X134.859 Y96.064 E4.45502
G1 X134.859 Y95.688 E4.46747
G1 X136.141 Y94.406 E4.52759
G1 X136.141 Y94.030 E4.54004
G1 X134.859 Y95.313 E4.60016
G1 X134.859 Y94.937 E4.61261
G1 X136.141 Y93.654 E4.67274
G1 X136.141 Y93.278 E4.68519
G1 X134.859 Y94.561 E4.74531
G1 X134.859 Y94.186 E4.75776
G1 X136.141 Y92.903 E4.81788
G1 X136.141 Y92.527 E4.83033
G1 X134.859 Y93.810 E4.89045
G1 X134.859 Y93.434 E4.90291
G1 X136.141 Y92.151 E4.96303
G1 X136.141 Y91.775 E4.97548
G1 X134.859 Y93.058 E5.03560
G1 X134.859 Y92.683 E5.04805
G1 X136.141 Y91.400 E5.10817
