; generated by Slic3r 1.3.1-dev (Build adea0d9) on 2020-02-19 at 20:09:11

; external perimeters extrusion width = 0.44mm (2.86mm^3/s)
; perimeters extrusion width = 0.56mm (4.14mm^3/s)
; infill extrusion width = 0.50mm (3.66mm^3/s)
; solid infill extrusion width = 0.56mm (3.10mm^3/s)
; top infill extrusion width = 0.56mm (3.10mm^3/s)

M107
G92 E0
;D3D:START:START
T0
M104 S215 T0

G21
G90
M107
T0
G28
G29
M109 T0 S215 T0
G0 F3000
M107
T0
G92 E0
G0 X0 Y149 Z0.1 F3600
G1 Y49 E6.5 F1200
G0 Z1
G92 E0
; Filament gcode

G21 ; set units to millimeters
G90 ; use absolute coordinates
M82 ; use absolute distances for extrusion
G92 E0
G1 Z0.300 F7800.000
G1 E-2.00000 F2400.00000
G92 E0
G1 X88.410 Y73.443 F7800.000
G1 E2.00000 F2400.00000
G1 F1800.000
G1 X88.652 Y73.215 E2.01101
G1 X89.121 Y72.917 E2.02941
G1 X89.648 Y72.746 E2.04778
G1 X89.957 Y72.707 E2.05809
G1 X90.244 Y72.707 E2.06761
G1 X90.531 Y72.743 E2.07720
G1 X90.810 Y72.815 E2.08674
G1 X91.099 Y72.929 E2.09702
G1 X91.568 Y73.227 E2.11543
G1 X91.947 Y73.631 E2.13379
G1 X92.113 Y73.892 E2.14405
G1 X92.237 Y74.154 E2.15363
G1 X92.333 Y74.450 E2.16395
G1 X92.402 Y75.000 E2.18232
G1 X92.333 Y75.550 E2.20069
G1 X92.237 Y75.846 E2.21100
G1 X92.104 Y76.128 E2.22131
G1 X91.791 Y76.557 E2.23892
G1 X91.549 Y76.785 E2.24993
G1 X91.080 Y77.083 E2.26833
G1 X90.553 Y77.254 E2.28670
G1 X90.244 Y77.293 E2.29701
G1 X89.957 Y77.293 E2.30653
G1 X89.670 Y77.257 E2.31612
G1 X89.391 Y77.185 E2.32566
G1 X89.102 Y77.071 E2.33594
G1 X88.633 Y76.773 E2.35435
G1 X88.254 Y76.369 E2.37271
G1 X88.088 Y76.108 E2.38297
G1 X87.964 Y75.846 E2.39255
G1 X87.868 Y75.550 E2.40287
G1 X87.799 Y75.000 E2.42124
G1 X87.868 Y74.450 E2.43961
G1 X87.964 Y74.154 E2.44992
G1 X88.097 Y73.872 E2.46023
G1 X88.374 Y73.491 E2.47585
G1 X88.610 Y73.619 F7800.000
G1 F1800.000
G1 X88.815 Y73.426 E2.48519
G1 X89.235 Y73.160 E2.50165
G1 X89.706 Y73.006 E2.51808
G1 X89.974 Y72.973 E2.52700
G1 X90.228 Y72.973 E2.53542
G1 X90.481 Y73.005 E2.54390
G1 X90.728 Y73.068 E2.55233
G1 X90.978 Y73.167 E2.56123
G1 X91.397 Y73.433 E2.57769
G1 X91.736 Y73.794 E2.59411
G1 X91.880 Y74.021 E2.60299
G1 X91.990 Y74.252 E2.61146
G1 X92.073 Y74.508 E2.62038
G1 X92.135 Y75.000 E2.63681
G1 X92.073 Y75.492 E2.65324
G1 X91.990 Y75.748 E2.66216
G1 X91.874 Y75.991 E2.67108
G1 X91.591 Y76.381 E2.68704
G1 X91.386 Y76.574 E2.69638
G1 X90.966 Y76.840 E2.71284
G1 X90.495 Y76.994 E2.72927
G1 X90.228 Y77.027 E2.73819
G1 X89.974 Y77.027 E2.74661
G1 X89.720 Y76.995 E2.75509
G1 X89.473 Y76.932 E2.76352
G1 X89.223 Y76.833 E2.77242
G1 X88.804 Y76.567 E2.78888
G1 X88.465 Y76.206 E2.80530
G1 X88.321 Y75.979 E2.81418
G1 X88.211 Y75.748 E2.82265
G1 X88.128 Y75.492 E2.83157
G1 X88.066 Y75.000 E2.84800
G1 X88.128 Y74.508 E2.86443
G1 X88.211 Y74.252 E2.87335
G1 X88.327 Y74.009 E2.88227
G1 X88.575 Y73.667 E2.89624
G1 X88.810 Y73.795 F7800.000
G1 F1800.000
G1 X88.979 Y73.636 E2.90392
G1 X89.349 Y73.402 E2.91843
G1 X89.764 Y73.267 E2.93291
G1 X89.990 Y73.238 E2.94045
G1 X90.211 Y73.238 E2.94776
G1 X90.432 Y73.266 E2.95513
G1 X90.646 Y73.321 E2.96246
G1 X90.857 Y73.405 E2.96998
G1 X91.227 Y73.639 E2.98448
G1 X91.525 Y73.958 E2.99896
G1 X91.647 Y74.149 E3.00648
G1 X91.742 Y74.350 E3.01383
G1 X91.812 Y74.566 E3.02136
G1 X91.867 Y75.000 E3.03585
G1 X91.812 Y75.434 E3.05034
G1 X91.742 Y75.650 E3.05786
G1 X91.645 Y75.855 E3.06539
G1 X91.391 Y76.205 E3.07970
G1 X91.222 Y76.364 E3.08738
G1 X90.852 Y76.598 E3.10189
G1 X90.437 Y76.733 E3.11637
G1 X90.211 Y76.762 E3.12391
G1 X89.990 Y76.762 E3.13122
G1 X89.769 Y76.734 E3.13859
G1 X89.555 Y76.679 E3.14592
G1 X89.344 Y76.595 E3.15344
G1 X88.974 Y76.361 E3.16794
G1 X88.676 Y76.042 E3.18242
G1 X88.554 Y75.851 E3.18994
G1 X88.459 Y75.650 E3.19729
G1 X88.389 Y75.434 E3.20482
G1 X88.334 Y75.000 E3.21931
G1 X88.389 Y74.566 E3.23380
G1 X88.459 Y74.350 E3.24132
G1 X88.556 Y74.145 E3.24885
G1 X88.775 Y73.844 E3.26118
G1 E1.26118 F2400.00000
G92 E0
G1 X32.398 Y75.000 F7800.000
G1 E2.00000 F2400.00000
G1 F1800.000
G1 X32.380 Y75.288 E2.00956
G1 X32.326 Y75.571 E2.01912
G1 X32.237 Y75.846 E2.02868
G1 X32.114 Y76.107 E2.03824
G1 X31.959 Y76.351 E2.04780
G1 X31.775 Y76.573 E2.05735
G1 X31.565 Y76.770 E2.06691
G1 X31.332 Y76.940 E2.07648
G1 X31.079 Y77.079 E2.08603
G1 X30.811 Y77.185 E2.09559
G1 X30.531 Y77.257 E2.10515
G1 X30.245 Y77.293 E2.11471
G1 X29.956 Y77.293 E2.12427
G1 X29.670 Y77.257 E2.13383
G1 X29.391 Y77.185 E2.14339
G1 X29.122 Y77.079 E2.15294
G1 X28.869 Y76.940 E2.16250
G1 X28.636 Y76.770 E2.17206
G1 X28.426 Y76.573 E2.18162
G1 X28.242 Y76.351 E2.19118
G1 X28.087 Y76.107 E2.20074
G1 X27.964 Y75.846 E2.21030
G1 X27.875 Y75.571 E2.21985
G1 X27.821 Y75.288 E2.22942
G1 X27.803 Y75.000 E2.23898
G1 X27.821 Y74.712 E2.24854
G1 X27.875 Y74.429 E2.25810
G1 X27.964 Y74.154 E2.26765
G1 X28.087 Y73.893 E2.27721
G1 X28.242 Y73.649 E2.28677
G1 X28.426 Y73.427 E2.29633
G1 X28.636 Y73.230 E2.30589
G1 X28.869 Y73.060 E2.31545
G1 X29.122 Y72.921 E2.32501
G1 X29.391 Y72.815 E2.33457
G1 X29.670 Y72.743 E2.34413
G1 X29.956 Y72.707 E2.35368
G1 X30.245 Y72.707 E2.36324
G1 X30.531 Y72.743 E2.37280
G1 X30.811 Y72.815 E2.38236
G1 X31.079 Y72.921 E2.39192
G1 X31.332 Y73.060 E2.40148
G1 X31.565 Y73.230 E2.41104
G1 X31.775 Y73.427 E2.42060
G1 X31.959 Y73.649 E2.43015
G1 X32.114 Y73.893 E2.43972
G1 X32.237 Y74.154 E2.44928
G1 X32.326 Y74.429 E2.45883
G1 X32.380 Y74.712 E2.46839
G1 X32.394 Y74.940 E2.47596
G1 X32.132 Y75.000 F7800.000
G1 F1800.000
G1 X32.116 Y75.255 E2.48442
G1 X32.068 Y75.505 E2.49287
G1 X31.989 Y75.748 E2.50132
G1 X31.881 Y75.979 E2.50977
G1 X31.744 Y76.194 E2.51823
G1 X31.581 Y76.391 E2.52667
G1 X31.395 Y76.565 E2.53513
G1 X31.189 Y76.715 E2.54358
G1 X30.965 Y76.838 E2.55203
G1 X30.728 Y76.932 E2.56048
G1 X30.481 Y76.995 E2.56893
G1 X30.228 Y77.027 E2.57738
G1 X29.973 Y77.027 E2.58584
G1 X29.720 Y76.995 E2.59429
G1 X29.473 Y76.932 E2.60274
G1 X29.236 Y76.838 E2.61119
G1 X29.012 Y76.715 E2.61964
G1 X28.806 Y76.565 E2.62810
G1 X28.620 Y76.391 E2.63655
G1 X28.457 Y76.194 E2.64500
G1 X28.320 Y75.979 E2.65345
G1 X28.212 Y75.748 E2.66190
G1 X28.133 Y75.505 E2.67035
G1 X28.085 Y75.255 E2.67881
G1 X28.069 Y75.000 E2.68726
G1 X28.085 Y74.745 E2.69571
G1 X28.133 Y74.495 E2.70416
G1 X28.212 Y74.252 E2.71261
G1 X28.320 Y74.021 E2.72106
G1 X28.457 Y73.806 E2.72952
G1 X28.620 Y73.609 E2.73797
G1 X28.806 Y73.435 E2.74642
G1 X29.012 Y73.285 E2.75487
G1 X29.236 Y73.162 E2.76333
G1 X29.473 Y73.068 E2.77178
G1 X29.720 Y73.005 E2.78023
G1 X29.973 Y72.973 E2.78868
G1 X30.228 Y72.973 E2.79713
G1 X30.481 Y73.005 E2.80558
G1 X30.728 Y73.068 E2.81403
G1 X30.965 Y73.162 E2.82249
G1 X31.189 Y73.285 E2.83094
G1 X31.395 Y73.435 E2.83939
G1 X31.581 Y73.609 E2.84784
G1 X31.744 Y73.806 E2.85629
G1 X31.881 Y74.021 E2.86475
G1 X31.989 Y74.252 E2.87320
G1 X32.068 Y74.495 E2.88165
G1 X32.116 Y74.745 E2.89010
G1 X32.128 Y74.940 E2.89656
G1 X31.866 Y75.000 F7800.000
G1 F1800.000
G1 X31.852 Y75.221 E2.90391
G1 X31.810 Y75.439 E2.91125
G1 X31.742 Y75.650 E2.91860
G1 X31.647 Y75.850 E2.92594
G1 X31.529 Y76.038 E2.93329
G1 X31.387 Y76.208 E2.94063
G1 X31.226 Y76.360 E2.94797
G1 X31.046 Y76.491 E2.95532
G1 X30.852 Y76.597 E2.96267
G1 X30.646 Y76.679 E2.97001
G1 X30.431 Y76.734 E2.97735
G1 X30.211 Y76.762 E2.98470
G1 X29.990 Y76.762 E2.99204
G1 X29.770 Y76.734 E2.99939
G1 X29.555 Y76.679 E3.00673
G1 X29.349 Y76.597 E3.01407
G1 X29.155 Y76.491 E3.02142
G1 X28.975 Y76.360 E3.02877
G1 X28.814 Y76.208 E3.03611
G1 X28.672 Y76.038 E3.04345
G1 X28.554 Y75.850 E3.05080
G1 X28.459 Y75.650 E3.05814
G1 X28.391 Y75.439 E3.06549
G1 X28.349 Y75.221 E3.07283
G1 X28.335 Y75.000 E3.08018
G1 X28.349 Y74.779 E3.08752
G1 X28.391 Y74.561 E3.09487
G1 X28.459 Y74.350 E3.10221
G1 X28.554 Y74.150 E3.10955
G1 X28.672 Y73.962 E3.11690
G1 X28.814 Y73.792 E3.12424
G1 X28.975 Y73.640 E3.13159
G1 X29.155 Y73.509 E3.13893
G1 X29.349 Y73.403 E3.14628
G1 X29.555 Y73.321 E3.15362
G1 X29.770 Y73.266 E3.16097
G1 X29.990 Y73.238 E3.16831
G1 X30.211 Y73.238 E3.17566
G1 X30.431 Y73.266 E3.18300
G1 X30.646 Y73.321 E3.19034
G1 X30.852 Y73.403 E3.19769
G1 X31.046 Y73.509 E3.20503
G1 X31.226 Y73.640 E3.21238
G1 X31.387 Y73.792 E3.21972
G1 X31.529 Y73.962 E3.22707
G1 X31.647 Y74.150 E3.23441
G1 X31.742 Y74.350 E3.24176
G1 X31.810 Y74.561 E3.24910
G1 X31.862 Y74.940 E3.26178
G1 E1.26178 F2400.00000
G92 E0
G1 X-10.868 Y75.000 F7800.000
G1 E2.00000 F2400.00000
G1 F1800.000
G1 X-10.482 Y74.648 E2.01730
G1 X-7.500 Y73.807 E2.11993
G1 X-2.346 Y73.022 E2.29266
G1 X4.744 Y72.361 E2.52857
G1 X13.576 Y71.853 E2.82165
G1 X23.926 Y71.518 E3.16474
G1 X35.538 Y71.364 E3.54944
G1 X48.123 Y71.385 E3.96638
G1 X61.371 Y71.562 E4.40532
G1 X74.955 Y71.869 E4.85546
G1 X88.540 Y72.276 E5.30574
G1 X101.791 Y72.750 E5.74503
G1 X114.382 Y73.262 E6.16250
G1 X126.003 Y73.784 E6.54787
G1 X136.365 Y74.288 E6.89160
G1 X148.342 Y74.928 E7.28895
G1 X148.343 Y75.079 E7.29396
G1 X136.366 Y75.712 E7.69129
G1 X126.003 Y76.216 E8.03503
G1 X114.382 Y76.738 E8.42040
G1 X101.791 Y77.250 E8.83787
G1 X88.540 Y77.724 E9.27716
G1 X74.955 Y78.131 E9.72744
G1 X61.371 Y78.438 E10.17759
G1 X48.123 Y78.615 E10.61652
G1 X35.538 Y78.636 E11.03346
G1 X23.926 Y78.482 E11.41817
G1 X13.576 Y78.147 E11.76125
G1 X4.744 Y77.639 E12.05433
G1 X-2.346 Y76.978 E12.29025
G1 X-7.500 Y76.193 E12.46297
G1 X-10.482 Y75.352 E12.56561
G1 X-10.823 Y75.040 E12.58092
G1 X-11.261 Y75.000 F7800.000
G1 F1800.000
G1 X-10.615 Y74.409 E12.60993
G1 X-7.556 Y73.547 E12.71520
G1 X-2.379 Y72.759 E12.88872
G1 X4.724 Y72.096 E13.12505
G1 X13.564 Y71.587 E13.41840
G1 X23.920 Y71.253 E13.76167
G1 X35.536 Y71.099 E14.14653
G1 X48.125 Y71.119 E14.56358
G1 X61.375 Y71.296 E15.00261
G1 X74.962 Y71.604 E15.45283
G1 X88.549 Y72.010 E15.90317
G1 X101.801 Y72.485 E16.34250
G1 X114.393 Y72.997 E16.76002
G1 X126.015 Y73.519 E17.14542
G1 X136.379 Y74.023 E17.48918
G1 X153.186 Y74.925 E18.04681
G1 X153.186 Y75.075 E18.05179
G1 X152.352 Y75.124 E18.07946
G1 X136.379 Y75.977 E18.60940
G1 X126.015 Y76.481 E18.95317
G1 X114.393 Y77.003 E19.33857
G1 X101.801 Y77.515 E19.75609
G1 X88.549 Y77.990 E20.19542
G1 X74.962 Y78.396 E20.64576
G1 X61.375 Y78.704 E21.09598
G1 X48.125 Y78.881 E21.53501
G1 X35.536 Y78.901 E21.95206
G1 X23.920 Y78.747 E22.33692
G1 X13.564 Y78.413 E22.68019
G1 X4.724 Y77.904 E22.97355
G1 X-2.379 Y77.241 E23.20987
G1 X-7.556 Y76.453 E23.38339
G1 X-10.615 Y75.591 E23.48866
G1 X-11.217 Y75.040 E23.51569
G1 X-11.655 Y75.000 F7800.000
G1 F1800.000
G1 X-10.748 Y74.171 E23.55641
G1 X-7.613 Y73.287 E23.66431
G1 X-2.411 Y72.495 E23.83864
G1 X4.704 Y71.831 E24.07538
G1 X13.552 Y71.322 E24.36899
G1 X23.914 Y70.987 E24.71247
G1 X35.535 Y70.833 E25.09747
G1 X48.127 Y70.853 E25.51464
G1 X61.380 Y71.031 E25.95376
G1 X74.969 Y71.338 E26.40406
G1 X88.557 Y71.745 E26.85445
G1 X101.811 Y72.219 E27.29383
G1 X114.405 Y72.732 E27.71139
G1 X126.027 Y73.253 E28.09683
G1 X136.392 Y73.758 E28.44062
G1 X152.368 Y74.611 E28.97063
G1 X157.735 Y74.925 E29.14874
G1 X157.735 Y75.075 E29.15372
G1 X152.367 Y75.389 E29.33184
G1 X136.393 Y76.242 E29.86183
G1 X126.027 Y76.747 E30.20563
G1 X114.405 Y77.268 E30.59108
G1 X101.811 Y77.781 E31.00863
G1 X88.557 Y78.255 E31.44801
G1 X74.969 Y78.662 E31.89840
G1 X61.380 Y78.969 E32.34870
G1 X48.127 Y79.147 E32.78782
G1 X35.535 Y79.167 E33.20499
G1 X23.914 Y79.013 E33.59000
G1 X13.552 Y78.678 E33.93347
G1 X4.704 Y78.169 E34.22708
G1 X-2.411 Y77.505 E34.46382
G1 X-7.613 Y76.713 E34.63815
G1 X-10.748 Y75.829 E34.74605
G1 X-11.611 Y75.040 E34.78479
G1 E32.78479 F2400.00000
G92 E0
G1 X157.735 Y75.000 F7800.000
G1 E2.00000 F2400.00000
G1 F1800.000
G1 X158.168 Y75.000 E2.02006
G1 F1800.000
G1 X159.036 Y75.000 E2.05086
G1 F1800.000
G1 X159.903 Y75.000 E2.07232
G1 F1800.000
G1 X160.770 Y75.000 E2.08444
G1 E0.08444 F2400.00000
G92 E0
G1 X156.426 Y75.000 F7800.000
G1 E2.00000 F2400.00000
G1 F1800.000
G1 X155.538 Y75.000 E2.00261
G1 F1800.000
G1 X154.651 Y75.000 E2.01593
G1 F1800.000
G1 X153.763 Y75.000 E2.03995
G1 F1800.000
G1 X153.319 Y75.000 E2.05732
G1 X151.840 Y75.000 F7800.000
G1 F1800.000
G1 X150.878 Y75.001 E2.06020
G1 F1800.000
G1 X149.917 Y75.002 E2.07479
G1 F1800.000
G1 X148.956 Y75.003 E2.10108
G1 F1800.000
G1 X148.475 Y75.003 E2.12008
G1 X146.936 Y75.005 F7800.000
G1 F1800.000
G1 X146.070 Y75.005 E2.12241
G1 F1800.000
G1 X145.204 Y75.006 E2.13478
G1 F1800.000
G1 X144.362 Y75.005 E2.15580
G1 F1800.000
G1 X143.519 Y75.005 E2.18508
G1 X143.150 Y75.185 F7800.000
G1 F1800.000
G1 X143.357 Y74.978 E2.19478
G1 X143.357 Y74.819 E2.20008
G1 X143.151 Y74.808 E2.20692
G1 X142.753 Y75.206 E2.22562
G1 X142.356 Y75.227 E2.23883
G1 X142.794 Y74.789 E2.25941
G1 X142.437 Y74.770 E2.27129
G1 X141.958 Y75.248 E2.29375
G1 X141.561 Y75.269 E2.30696
G1 X142.079 Y74.750 E2.33131
G1 X141.722 Y74.731 E2.34318
G1 X141.163 Y75.290 E2.36941
G1 X140.766 Y75.311 E2.38262
G1 X141.365 Y74.712 E2.41073
G1 X141.008 Y74.693 E2.42261
G1 X140.369 Y75.332 E2.45260
G1 X139.971 Y75.353 E2.46581
G1 X140.650 Y74.674 E2.49768
G1 X140.293 Y74.655 E2.50955
G1 X139.574 Y75.374 E2.54331
G1 X139.177 Y75.395 E2.55652
G1 X139.936 Y74.636 E2.59215
G1 X139.579 Y74.617 E2.60403
G1 X138.779 Y75.416 E2.64155
G1 X138.382 Y75.437 E2.65475
G1 X139.221 Y74.598 E2.69415
G1 X138.864 Y74.579 E2.70603
G1 X137.985 Y75.458 E2.74731
G1 X137.587 Y75.479 E2.76052
G1 X138.507 Y74.560 E2.80368
G1 X138.149 Y74.541 E2.81556
G1 X137.190 Y75.500 E2.86060
G1 X136.792 Y75.521 E2.87381
G1 X137.792 Y74.521 E2.92074
G1 X137.435 Y74.502 E2.93261
G1 X136.395 Y75.542 E2.98142
G1 X135.999 Y75.562 E2.99459
G1 X137.078 Y74.483 E3.04523
G1 X136.720 Y74.464 E3.05710
G1 X135.603 Y75.581 E3.10954
G1 X135.208 Y75.601 E3.12269
G1 X136.363 Y74.446 E3.17691
G1 X136.004 Y74.428 E3.18883
G1 X134.812 Y75.620 E3.24477
G1 X134.416 Y75.639 E3.25792
G1 X135.645 Y74.411 E3.31558
G1 X135.286 Y74.393 E3.32751
G1 X134.021 Y75.658 E3.38690
G1 X133.625 Y75.678 E3.40004
G1 X134.927 Y74.376 E3.46115
G1 X134.568 Y74.358 E3.47308
G1 X133.230 Y75.697 E3.53591
G1 X132.834 Y75.716 E3.54906
G1 X134.209 Y74.341 E3.61361
G1 X133.850 Y74.323 E3.62554
G1 X132.438 Y75.735 E3.69182
G1 X132.043 Y75.755 E3.70497
G1 X133.491 Y74.306 E3.77297
G1 X133.133 Y74.288 E3.78489
G1 X131.647 Y75.774 E3.85462
G1 X131.252 Y75.793 E3.86777
G1 X132.774 Y74.271 E3.93921
G1 X132.415 Y74.254 E3.95114
G1 X130.856 Y75.812 E4.02431
G1 X130.460 Y75.832 E4.03746
G1 X132.056 Y74.236 E4.11235
G1 X131.697 Y74.219 E4.12428
G1 X130.065 Y75.851 E4.20090
G1 X129.669 Y75.870 E4.21404
G1 X131.338 Y74.201 E4.29238
G1 X130.979 Y74.184 E4.30431
G1 X129.274 Y75.889 E4.38437
G1 X128.878 Y75.909 E4.39752
G1 X130.620 Y74.166 E4.47931
G1 X130.261 Y74.149 E4.49123
G1 X128.482 Y75.928 E4.57474
G1 X128.087 Y75.947 E4.58789
G1 X129.903 Y74.131 E4.67312
G1 X129.544 Y74.114 E4.68505
G1 X127.691 Y75.966 E4.77201
G1 X127.296 Y75.985 E4.78515
G1 X129.185 Y74.096 E4.87383
G1 X128.826 Y74.079 E4.88576
G1 X126.900 Y76.005 E4.97616
G1 X126.504 Y76.024 E4.98931
G1 X128.467 Y74.061 E5.08143
G1 X128.108 Y74.044 E5.09336
G1 X126.109 Y76.043 E5.18721
G1 X125.714 Y76.062 E5.20033
G1 X127.749 Y74.027 E5.29587
G1 X127.390 Y74.009 E5.30780
G1 X125.320 Y76.079 E5.40499
G1 X124.926 Y76.097 E5.41808
G1 X127.031 Y73.992 E5.51692
G1 X126.672 Y73.974 E5.52885
G1 X124.532 Y76.115 E5.62933
G1 X124.138 Y76.133 E5.64243
G1 X126.314 Y73.957 E5.74456
G1 X125.954 Y73.940 E5.75651
G1 X123.744 Y76.150 E5.86027
G1 X123.350 Y76.168 E5.87336
G1 X125.594 Y73.924 E5.97872
G1 X125.234 Y73.907 E5.99069
G1 X122.956 Y76.186 E6.09763
G1 X122.562 Y76.203 E6.11072
G1 X124.874 Y73.891 E6.21925
G1 X124.513 Y73.875 E6.23122
G1 X122.167 Y76.221 E6.34134
G1 X121.773 Y76.239 E6.35443
G1 X124.153 Y73.859 E6.46614
G1 X123.793 Y73.843 E6.47811
G1 X121.379 Y76.256 E6.59141
G1 X120.985 Y76.274 E6.60450
G1 X123.433 Y73.827 E6.71939
G1 X123.073 Y73.810 E6.73136
G1 X120.591 Y76.292 E6.84783
G1 X120.197 Y76.309 E6.86093
G1 X122.712 Y73.794 E6.97899
G1 X122.352 Y73.778 E6.99096
G1 X119.803 Y76.327 E7.11061
G1 X119.409 Y76.345 E7.12371
G1 X121.992 Y73.762 E7.24495
G1 X121.632 Y73.746 E7.25692
G1 X119.015 Y76.362 E7.37975
G1 X118.621 Y76.380 E7.39284
G1 X121.272 Y73.730 E7.51726
G1 X120.911 Y73.713 E7.52923
