; generated by Slic3r 1.3.1-dev (Build adea0d9) on 2020-02-19 at 18:04:04

; external perimeters extrusion width = 0.44mm (2.86mm^3/s)
; perimeters extrusion width = 0.56mm (4.14mm^3/s)
; infill extrusion width = 0.50mm (3.66mm^3/s)
; solid infill extrusion width = 0.56mm (3.10mm^3/s)
; top infill extrusion width = 0.56mm (3.10mm^3/s)

M107
G92 E0
;D3D:START:START
T0
M104 S215 T0

G21
G90
M107
T0
G28
G29
M109 T0 S215 T0
G0 F3000
M107
T0
G92 E0
G0 X0 Y149 Z0.1 F3600
G1 Y49 E6.5 F1200
G0 Z1
G92 E0
; Filament gcode

G21 ; set units to millimeters
G90 ; use absolute coordinates
M82 ; use absolute distances for extrusion
G92 E0
G1 Z0.300 F7800.000
G1 E-2.00000 F2400.00000
G92 E0
G1 X74.167 Y88.598 F7800.000
G1 E2.00000 F2400.00000
G1 F1800.000
G1 X71.952 Y86.988 E2.09074
G1 X71.468 Y85.500 E2.14258
G1 X71.952 Y84.012 E2.19443
G1 X73.218 Y83.092 E2.24627
G1 X74.782 Y83.092 E2.29811
G1 X76.048 Y84.012 E2.34996
G1 X76.532 Y85.500 E2.40180
G1 X76.048 Y86.988 E2.45365
G1 X74.782 Y87.908 E2.50549
G1 X74.167 Y87.908 E2.52587
G1 X74.167 Y88.538 E2.54674
G1 X73.902 Y88.077 F7800.000
G1 F1800.000
G1 X72.177 Y86.824 E2.61735
G1 X71.747 Y85.500 E2.66348
G1 X72.177 Y84.176 E2.70960
G1 X73.304 Y83.357 E2.75573
G1 X74.696 Y83.357 E2.80185
G1 X75.822 Y84.176 E2.84798
G1 X76.253 Y85.500 E2.89411
G1 X75.822 Y86.824 E2.94023
G1 X74.696 Y87.643 E2.98636
G1 X73.902 Y87.643 E3.01268
G1 X73.902 Y88.017 E3.02508
G1 X73.636 Y87.556 F7800.000
G1 F1800.000
G1 X72.403 Y86.660 E3.07556
G1 X72.027 Y85.500 E3.11596
G1 X72.403 Y84.340 E3.15637
G1 X73.390 Y83.623 E3.19678
G1 X74.610 Y83.623 E3.23719
G1 X75.597 Y84.340 E3.27759
G1 X75.973 Y85.500 E3.31800
G1 X75.597 Y86.660 E3.35841
G1 X74.610 Y87.377 E3.39882
G1 X73.636 Y87.377 E3.43107
G1 X73.636 Y87.496 E3.43501
G1 E1.43501 F2400.00000
G92 E0
G1 X78.951 Y78.115 F7800.000
G1 E2.00000 F2400.00000
G1 F1800.000
G1 X77.883 Y78.239 E2.03563
G1 X77.184 Y78.277 E2.05883
G1 X75.650 Y78.302 E2.10965
G1 X75.035 Y78.278 E2.13003
G1 X74.445 Y78.202 E2.14974
G1 X73.888 Y78.072 E2.16871
G1 X73.367 Y77.887 E2.18700
G1 X72.889 Y77.654 E2.20462
G1 X72.451 Y77.377 E2.22179
G1 X72.053 Y77.054 E2.23877
G1 X71.700 Y76.689 E2.25560
G1 X71.392 Y76.287 E2.27238
G1 X71.128 Y75.851 E2.28927
G1 X70.909 Y75.382 E2.30642
G1 X70.734 Y74.884 E2.32390
G1 X70.601 Y74.364 E2.34167
G1 X70.508 Y73.826 E2.35977
G1 X70.452 Y73.268 E2.37834
G1 X70.433 Y72.691 E2.39749
G1 X70.451 Y72.155 E2.41524
G1 X70.504 Y71.628 E2.43280
G1 X70.592 Y71.109 E2.45022
G1 X70.717 Y70.597 E2.46768
G1 X70.884 Y70.096 E2.48519
G1 X71.096 Y69.616 E2.50256
G1 X71.353 Y69.165 E2.51978
G1 X71.655 Y68.739 E2.53706
G1 X72.007 Y68.345 E2.55457
G1 X72.409 Y67.991 E2.57231
G1 X72.855 Y67.682 E2.59029
G1 X73.349 Y67.414 E2.60890
G1 X73.896 Y67.197 E2.62841
G1 X74.491 Y67.044 E2.64875
G1 X75.124 Y66.954 E2.66995
G1 X75.787 Y66.926 E2.69193
G1 X76.573 Y66.937 E2.71798
G1 X77.999 Y67.005 E2.76526
G1 X78.951 Y67.107 E2.79700
G1 X78.951 Y78.055 E3.15968
G1 X78.686 Y77.878 F7800.000
G1 F1800.000
G1 X77.861 Y77.974 E3.18720
G1 X77.174 Y78.011 E3.20996
G1 X75.653 Y78.037 E3.26037
G1 X75.058 Y78.013 E3.28011
G1 X74.493 Y77.940 E3.29899
G1 X73.962 Y77.816 E3.31703
G1 X73.470 Y77.642 E3.33433
G1 X73.019 Y77.422 E3.35096
G1 X72.606 Y77.161 E3.36713
G1 X72.233 Y76.858 E3.38306
G1 X71.901 Y76.516 E3.39885
G1 X71.612 Y76.137 E3.41464
G1 X71.363 Y75.726 E3.43058
G1 X71.155 Y75.281 E3.44682
G1 X70.989 Y74.807 E3.46348
G1 X70.861 Y74.309 E3.48052
G1 X70.771 Y73.790 E3.49796
G1 X70.717 Y73.251 E3.51591
G1 X70.699 Y72.691 E3.53447
G1 X70.716 Y72.173 E3.55165
G1 X70.767 Y71.663 E3.56860
G1 X70.853 Y71.163 E3.58541
G1 X70.973 Y70.671 E3.60221
G1 X71.132 Y70.192 E3.61894
G1 X71.334 Y69.736 E3.63544
G1 X71.577 Y69.307 E3.65177
G1 X71.863 Y68.905 E3.66812
G1 X72.194 Y68.534 E3.68461
G1 X72.573 Y68.201 E3.70131
G1 X72.994 Y67.909 E3.71830
G1 X73.461 Y67.655 E3.73591
G1 X73.978 Y67.450 E3.75433
G1 X74.543 Y67.305 E3.77364
G1 X75.149 Y67.219 E3.79392
G1 X75.791 Y67.191 E3.81521
G1 X76.565 Y67.203 E3.84085
G1 X77.979 Y67.270 E3.88774
G1 X78.686 Y67.346 E3.91130
G1 X78.686 Y77.818 E4.25825
G1 X78.420 Y77.642 F7800.000
G1 F1800.000
G1 X77.838 Y77.710 E4.27766
G1 X77.165 Y77.746 E4.29998
G1 X75.656 Y77.771 E4.34998
G1 X75.080 Y77.748 E4.36908
G1 X74.540 Y77.678 E4.38713
G1 X74.037 Y77.561 E4.40423
G1 X73.573 Y77.396 E4.42054
G1 X73.148 Y77.189 E4.43620
G1 X72.761 Y76.945 E4.45136
G1 X72.413 Y76.662 E4.46624
G1 X72.103 Y76.342 E4.48099
G1 X71.831 Y75.988 E4.49578
G1 X71.598 Y75.600 E4.51077
G1 X71.401 Y75.181 E4.52611
G1 X71.243 Y74.730 E4.54195
G1 X71.121 Y74.253 E4.55826
G1 X71.034 Y73.754 E4.57503
G1 X70.982 Y73.234 E4.59236
G1 X70.965 Y72.691 E4.61035
G1 X70.981 Y72.190 E4.62694
G1 X71.031 Y71.699 E4.64329
G1 X71.113 Y71.217 E4.65949
G1 X71.228 Y70.744 E4.67562
G1 X71.380 Y70.287 E4.69157
G1 X71.571 Y69.856 E4.70721
G1 X71.801 Y69.450 E4.72266
G1 X72.071 Y69.071 E4.73807
G1 X72.382 Y68.723 E4.75354
G1 X72.737 Y68.410 E4.76920
G1 X73.134 Y68.135 E4.78520
G1 X73.574 Y67.896 E4.80180
G1 X74.061 Y67.703 E4.81915
G1 X74.595 Y67.566 E4.83741
G1 X75.173 Y67.484 E4.85677
G1 X75.795 Y67.457 E4.87738
G1 X76.557 Y67.468 E4.90262
G1 X77.958 Y67.535 E4.94910
G1 X78.420 Y67.585 E4.96450
G1 X78.420 Y77.582 E5.29570
G1 E3.29570 F2400.00000
G92 E0
G1 X91.952 Y70.988 F7800.000
G1 E2.00000 F2400.00000
G1 F1800.000
G1 X91.468 Y69.500 E2.05184
G1 X91.952 Y68.012 E2.10369
G1 X93.218 Y67.092 E2.15553
G1 X94.782 Y67.092 E2.20738
G1 X96.048 Y68.012 E2.25922
G1 X96.532 Y69.500 E2.31107
G1 X96.048 Y70.988 E2.36291
G1 X94.782 Y71.908 E2.41475
G1 X93.218 Y71.908 E2.46660
G1 X92.000 Y71.024 E2.51645
G1 X92.177 Y70.824 F7800.000
G1 F1800.000
G1 X91.747 Y69.500 E2.56258
G1 X92.177 Y68.176 E2.60871
G1 X93.304 Y67.357 E2.65483
G1 X94.696 Y67.357 E2.70096
G1 X95.822 Y68.176 E2.74708
G1 X96.253 Y69.500 E2.79321
G1 X95.822 Y70.824 E2.83933
G1 X94.696 Y71.643 E2.88546
G1 X93.304 Y71.643 E2.93158
G1 X92.226 Y70.859 E2.97572
G1 X92.403 Y70.660 F7800.000
G1 F1800.000
G1 X92.027 Y69.500 E3.01613
G1 X92.403 Y68.340 E3.05654
G1 X93.390 Y67.623 E3.09695
G1 X94.610 Y67.623 E3.13735
G1 X95.597 Y68.340 E3.17776
G1 X95.973 Y69.500 E3.21817
G1 X95.597 Y70.660 E3.25857
G1 X94.610 Y71.377 E3.29898
G1 X93.390 Y71.377 E3.33939
G1 X92.452 Y70.695 E3.37781
G1 E1.37781 F2400.00000
G92 E0
G1 X114.167 Y88.598 F7800.000
G1 E2.00000 F2400.00000
G1 F1800.000
G1 X111.952 Y86.988 E2.09074
G1 X111.468 Y85.500 E2.14258
G1 X111.952 Y84.012 E2.19443
G1 X113.218 Y83.092 E2.24627
G1 X114.782 Y83.092 E2.29811
G1 X116.048 Y84.012 E2.34996
G1 X116.532 Y85.500 E2.40180
G1 X116.048 Y86.988 E2.45365
G1 X114.782 Y87.908 E2.50549
G1 X114.167 Y87.908 E2.52587
G1 X114.167 Y88.538 E2.54674
G1 X113.902 Y88.077 F7800.000
G1 F1800.000
G1 X112.177 Y86.824 E2.61735
G1 X111.747 Y85.500 E2.66348
G1 X112.177 Y84.176 E2.70960
G1 X113.304 Y83.357 E2.75573
G1 X114.696 Y83.357 E2.80185
G1 X115.822 Y84.176 E2.84798
G1 X116.253 Y85.500 E2.89411
G1 X115.822 Y86.824 E2.94023
G1 X114.696 Y87.643 E2.98636
G1 X113.902 Y87.643 E3.01268
G1 X113.902 Y88.017 E3.02508
G1 X113.636 Y87.556 F7800.000
G1 F1800.000
G1 X112.403 Y86.660 E3.07556
G1 X112.027 Y85.500 E3.11596
G1 X112.403 Y84.340 E3.15637
G1 X113.390 Y83.623 E3.19678
G1 X114.610 Y83.623 E3.23719
G1 X115.597 Y84.340 E3.27759
G1 X115.973 Y85.500 E3.31800
G1 X115.597 Y86.660 E3.35841
G1 X114.610 Y87.377 E3.39882
G1 X113.636 Y87.377 E3.43107
G1 X113.636 Y87.496 E3.43501
G1 E1.43501 F2400.00000
G92 E0
G1 X52.429 Y83.438 F7800.000
G1 E2.00000 F2400.00000
G1 F1800.000
G1 X52.319 Y83.746 E2.01084
G1 X52.142 Y83.992 E2.02091
G1 X51.900 Y84.178 E2.03100
G1 X51.588 Y84.298 E2.04207
G1 X51.104 Y84.298 E2.05809
G1 X50.794 Y84.182 E2.06908
G1 X50.550 Y84.000 E2.07915
G1 X50.367 Y83.755 E2.08929
G1 X50.252 Y83.442 E2.10034
G1 X50.252 Y82.956 E2.11644
G1 X50.367 Y82.647 E2.12736
G1 X50.544 Y82.405 E2.13730
G1 X50.785 Y82.220 E2.14736
G1 X51.064 Y82.112 E2.15727
G1 X51.348 Y82.081 E2.16673
G1 X51.630 Y82.113 E2.17615
G1 X51.909 Y82.224 E2.18609
G1 X52.147 Y82.413 E2.19617
G1 X52.319 Y82.656 E2.20604
G1 X52.429 Y82.960 E2.21674
G1 X52.429 Y83.378 E2.23056
G1 X52.163 Y83.392 F7800.000
G1 F1800.000
G1 X52.082 Y83.621 E2.23863
G1 X51.949 Y83.806 E2.24615
G1 X51.769 Y83.944 E2.25368
G1 X51.539 Y84.032 E2.26183
G1 X51.152 Y84.032 E2.27465
G1 X50.922 Y83.946 E2.28278
G1 X50.740 Y83.810 E2.29032
G1 X50.603 Y83.627 E2.29790
G1 X50.517 Y83.395 E2.30611
G1 X50.517 Y83.004 E2.31905
G1 X50.603 Y82.775 E2.32716
G1 X50.736 Y82.593 E2.33463
G1 X50.916 Y82.454 E2.34217
G1 X51.127 Y82.373 E2.34965
G1 X51.347 Y82.348 E2.35699
G1 X51.565 Y82.373 E2.36425
G1 X51.774 Y82.456 E2.37171
G1 X51.952 Y82.598 E2.37924
G1 X52.082 Y82.780 E2.38666
G1 X52.163 Y83.007 E2.39463
G1 X52.163 Y83.332 E2.40540
G1 X51.897 Y83.053 F7800.000
G1 F1800.000
G1 X51.897 Y83.346 E2.41512
G1 X51.844 Y83.497 E2.42041
G1 X51.756 Y83.619 E2.42539
G1 X51.638 Y83.710 E2.43034
G1 X51.490 Y83.766 E2.43558
G1 X51.200 Y83.766 E2.44519
G1 X51.050 Y83.711 E2.45048
G1 X50.930 Y83.621 E2.45548
G1 X50.839 Y83.499 E2.46050
G1 X50.783 Y83.347 E2.46586
G1 X50.783 Y83.052 E2.47565
G1 X50.839 Y82.902 E2.48094
G1 X50.928 Y82.780 E2.48595
G1 X51.048 Y82.688 E2.49098
G1 X51.190 Y82.633 E2.49602
G1 X51.347 Y82.616 E2.50123
G1 X51.500 Y82.633 E2.50634
G1 X51.640 Y82.689 E2.51133
G1 X51.757 Y82.782 E2.51631
G1 X51.844 Y82.904 E2.52127
G1 X51.877 Y82.996 E2.52451
G1 E0.52451 F2400.00000
G92 E0
G1 X53.692 Y85.782 F7800.000
G1 E2.00000 F2400.00000
G1 F1800.000
G1 X52.035 Y81.323 E2.15761
G1 X51.900 Y81.426 E2.16326
G1 X51.588 Y81.546 E2.17431
G1 X51.104 Y81.546 E2.19034
G1 X50.794 Y81.430 E2.20131
G1 X50.550 Y81.248 E2.21139
G1 X50.367 Y81.003 E2.22154
G1 X50.252 Y80.690 E2.23259
G1 X50.252 Y80.204 E2.24868
G1 X50.367 Y79.895 E2.25961
G1 X50.544 Y79.654 E2.26954
G1 X50.785 Y79.468 E2.27960
G1 X51.064 Y79.360 E2.28952
G1 X51.348 Y79.329 E2.29897
G1 X51.630 Y79.361 E2.30838
G1 X51.722 Y79.398 E2.31166
G1 X53.411 Y79.398 E2.36764
G1 X53.913 Y80.742 E2.41517
G1 X54.742 Y80.742 E2.44263
G1 X55.230 Y79.398 E2.49000
G1 X57.290 Y79.398 E2.55825
G1 X57.207 Y79.622 E2.56617
G1 X57.657 Y79.424 E2.58243
G1 X58.415 Y79.331 E2.60774
G1 X58.852 Y79.358 E2.62225
G1 X59.250 Y79.439 E2.63569
G1 X59.659 Y79.595 E2.65020
G1 X59.585 Y79.398 E2.65718
G1 X61.677 Y79.398 E2.72648
G1 X62.179 Y80.742 E2.77401
G1 X63.008 Y80.742 E2.80147
G1 X63.496 Y79.398 E2.84884
G1 X65.556 Y79.398 E2.91709
G1 X63.192 Y85.782 E3.14263
G1 X61.958 Y85.782 E3.18353
G1 X61.133 Y83.563 E3.26195
G1 X61.017 Y83.568 E3.26579
G1 X60.842 Y84.204 E3.28765
G1 X60.458 Y84.872 E3.31316
G1 X59.903 Y85.385 E3.33822
G1 X59.212 Y85.692 E3.36325
G1 X58.457 Y85.785 E3.38845
G1 X58.016 Y85.757 E3.40309
G1 X57.616 Y85.676 E3.41663
G1 X57.243 Y85.535 E3.42984
G1 X56.908 Y85.340 E3.44268
G1 X56.612 Y85.097 E3.45537
G1 X56.360 Y84.810 E3.46800
G1 X56.156 Y84.489 E3.48061
G1 X55.995 Y84.141 E3.49332
G1 X55.848 Y83.625 E3.51107
G1 X55.729 Y83.616 E3.51505
G1 X54.927 Y85.782 E3.59156
G1 X53.752 Y85.782 E3.63047
G1 X53.877 Y85.516 F7800.000
G1 F1800.000
G1 X52.127 Y80.807 E3.79692
G1 X51.949 Y81.054 E3.80701
G1 X51.769 Y81.192 E3.81453
G1 X51.539 Y81.280 E3.82268
G1 X51.152 Y81.280 E3.83549
G1 X50.922 Y81.195 E3.84363
G1 X50.740 Y81.059 E3.85116
G1 X50.603 Y80.875 E3.85875
G1 X50.517 Y80.643 E3.86695
G1 X50.517 Y80.252 E3.87989
G1 X50.603 Y80.023 E3.88801
G1 X50.736 Y79.841 E3.89547
G1 X50.916 Y79.702 E3.90302
G1 X51.127 Y79.620 E3.91050
G1 X51.347 Y79.597 E3.91783
G1 X51.565 Y79.621 E3.92509
G1 X51.671 Y79.663 E3.92888
G1 X53.227 Y79.663 E3.98042
G1 X53.729 Y81.007 E4.02796
G1 X54.928 Y81.007 E4.06769
G1 X55.416 Y79.663 E4.11506
G1 X56.909 Y79.663 E4.16450
G1 X56.734 Y80.134 E4.18114
G1 X56.839 Y80.204 E4.18530
G1 X57.111 Y79.955 E4.19753
G1 X57.728 Y79.683 E4.21988
G1 X58.423 Y79.598 E4.24308
G1 X58.817 Y79.622 E4.25616
G1 X59.175 Y79.695 E4.26827
G1 X59.506 Y79.821 E4.27999
G1 X59.802 Y79.995 E4.29136
G1 X60.037 Y80.190 E4.30148
G1 X60.137 Y80.119 E4.30554
G1 X59.967 Y79.663 E4.32165
G1 X61.493 Y79.663 E4.37218
G1 X61.995 Y81.007 E4.41971
G1 X63.194 Y81.007 E4.45945
G1 X63.682 Y79.663 E4.50682
G1 X65.174 Y79.663 E4.55626
G1 X63.008 Y85.516 E4.76303
G1 X62.142 Y85.516 E4.79169
G1 X60.983 Y82.397 E4.90195
G1 X60.850 Y82.423 E4.90645
G1 X60.855 Y82.566 E4.91121
G1 X60.793 Y83.383 E4.93835
G1 X60.595 Y84.101 E4.96302
G1 X60.248 Y84.704 E4.98607
G1 X59.755 Y85.160 E5.00833
G1 X59.141 Y85.433 E5.03059
G1 X58.449 Y85.518 E5.05367
G1 X58.051 Y85.493 E5.06689
G1 X57.690 Y85.420 E5.07910
G1 X57.357 Y85.294 E5.09088
G1 X57.060 Y85.121 E5.10228
G1 X56.797 Y84.906 E5.11353
G1 X56.574 Y84.650 E5.12478
G1 X56.389 Y84.362 E5.13612
G1 X56.244 Y84.045 E5.14767
G1 X56.136 Y83.703 E5.15954
G1 X56.061 Y83.341 E5.17178
G1 X56.017 Y82.960 E5.18450
G1 X56.000 Y82.487 E5.20018
G1 X55.871 Y82.466 E5.20452
G1 X54.742 Y85.516 E5.31228
G1 X53.937 Y85.516 E5.33895
G1 E3.33895 F2400.00000
G92 E0
G1 X56.623 Y84.234 F7800.000
G1 E2.00000 F2400.00000
G1 F1800.000
G1 X56.492 Y83.949 E2.01039
G1 X56.393 Y83.636 E2.02126
G1 X56.324 Y83.299 E2.03265
G1 X56.283 Y82.940 E2.04464
G1 X56.269 Y82.554 E2.05742
G1 X56.328 Y81.778 E2.08323
G1 X56.512 Y81.117 E2.10595
G1 X56.824 Y80.578 E2.12657
G1 X57.258 Y80.180 E2.14609
G1 X57.799 Y79.941 E2.16568
G1 X58.431 Y79.864 E2.18677
G1 X58.782 Y79.886 E2.19843
G1 X59.101 Y79.951 E2.20921
G1 X59.391 Y80.062 E2.21948
G1 X59.649 Y80.213 E2.22940
G1 X59.876 Y80.401 E2.23918
G1 X60.072 Y80.626 E2.24904
G1 X60.236 Y80.882 E2.25910
G1 X60.367 Y81.166 E2.26949
G1 X60.466 Y81.479 E2.28036
G1 X60.535 Y81.816 E2.29176
G1 X60.575 Y82.176 E2.30374
G1 X60.589 Y82.561 E2.31652
G1 X60.530 Y83.338 E2.34232
G1 X60.348 Y83.998 E2.36502
G1 X60.038 Y84.537 E2.38560
G1 X59.607 Y84.935 E2.40506
G1 X59.069 Y85.174 E2.42456
G1 X58.441 Y85.251 E2.44552
G1 X58.086 Y85.229 E2.45731
G1 X57.764 Y85.164 E2.46820
G1 X57.472 Y85.053 E2.47854
G1 X57.212 Y84.902 E2.48851
G1 X56.983 Y84.714 E2.49832
G1 X56.787 Y84.490 E2.50819
G1 X56.655 Y84.285 E2.51627
G1 E0.51627 F2400.00000
G92 E0
G1 X60.349 Y79.929 F7800.000
G1 E2.00000 F2400.00000
G1 F1800.000
G1 X61.308 Y79.929 E2.03177
G1 X61.810 Y81.273 E2.07930
G1 X63.380 Y81.273 E2.13131
G1 X63.868 Y79.929 E2.17868
G1 X64.793 Y79.929 E2.20931
G1 X62.823 Y85.251 E2.39732
G1 X62.327 Y85.251 E2.41373
G1 X60.370 Y79.985 E2.59984
G1 E0.59984 F2400.00000
G92 E0
G1 X56.527 Y79.929 F7800.000
G1 E2.00000 F2400.00000
G1 F1800.000
G1 X54.557 Y85.251 E2.18801
G1 X54.061 Y85.251 E2.20442
G1 X52.084 Y79.929 E2.39252
G1 X53.043 Y79.929 E2.42428
G1 X53.545 Y81.273 E2.47181
G1 X55.115 Y81.273 E2.52382
G1 X55.603 Y79.929 E2.57119
G1 X56.467 Y79.929 E2.59984
G1 E0.59984 F2400.00000
G92 E0
G1 X51.897 Y80.301 F7800.000
G1 E2.00000 F2400.00000
G1 F1800.000
G1 X51.897 Y80.594 E2.00972
G1 X51.844 Y80.745 E2.01501
G1 X51.756 Y80.867 E2.01999
G1 X51.638 Y80.958 E2.02494
G1 X51.490 Y81.014 E2.03018
G1 X51.200 Y81.014 E2.03979
G1 X51.050 Y80.959 E2.04507
G1 X50.930 Y80.869 E2.05007
G1 X50.839 Y80.747 E2.05510
G1 X50.783 Y80.595 E2.06046
G1 X50.783 Y80.300 E2.07024
G1 X50.839 Y80.150 E2.07554
G1 X50.928 Y80.028 E2.08054
G1 X51.048 Y79.936 E2.08557
G1 X51.190 Y79.881 E2.09062
G1 X51.347 Y79.864 E2.09583
G1 X51.500 Y79.881 E2.10093
G1 X51.640 Y79.937 E2.10592
G1 X51.757 Y80.030 E2.11091
G1 X51.844 Y80.152 E2.11586
G1 X51.877 Y80.245 E2.11911
G1 E0.11911 F2400.00000
G92 E0
G1 X49.319 Y79.764 F7800.000
G1 E2.00000 F2400.00000
G1 F1800.000
G1 X48.782 Y81.670 E2.06560
G1 X48.650 Y81.617 E2.07032
G1 X48.650 Y82.849 E2.11115
G1 X48.071 Y83.749 E2.14661
G1 X49.159 Y83.749 E2.18266
G1 X49.159 Y85.654 E2.24576
G1 X45.276 Y85.654 E2.37438
G1 X45.276 Y84.551 E2.41093
G1 X46.080 Y83.333 E2.45927
G1 X45.860 Y83.212 E2.46756
G1 X45.491 Y82.842 E2.48489
G1 X45.235 Y82.381 E2.50235
G1 X45.110 Y81.874 E2.51964
G1 X45.093 Y81.570 E2.52973
G1 X45.113 Y81.244 E2.54055
G1 X45.178 Y80.926 E2.55131
G1 X45.287 Y80.627 E2.56185
G1 X45.433 Y80.358 E2.57200
G1 X45.613 Y80.116 E2.58199
G1 X45.826 Y79.903 E2.59195
G1 X46.063 Y79.726 E2.60176
G1 X46.337 Y79.572 E2.61219
G1 X46.858 Y79.397 E2.63039
G1 X47.168 Y79.348 E2.64080
