; generated by Slic3r 1.3.1-dev (Build adea0d9) on 2020-02-19 at 16:53:19

; external perimeters extrusion width = 0.44mm (2.86mm^3/s)
; perimeters extrusion width = 0.56mm (4.14mm^3/s)
; infill extrusion width = 0.50mm (3.66mm^3/s)
; solid infill extrusion width = 0.56mm (3.10mm^3/s)
; top infill extrusion width = 0.56mm (3.10mm^3/s)

M107
G92 E0
;D3D:START:START
T0
M104 S215 T0

G21
G90
M107
T0
G28
G29
M109 T0 S215 T0
G0 F3000
M107
T0
G92 E0
G0 X0 Y149 Z0.1 F3600
G1 Y49 E6.5 F1200
G0 Z1
G92 E0
; Filament gcode

G21 ; set units to millimeters
G90 ; use absolute coordinates
M82 ; use absolute distances for extrusion
G92 E0
G1 Z0.300 F7800.000
G1 E-2.00000 F2400.00000
G92 E0
G1 X49.423 Y66.436 F7800.000
G1 E2.00000 F2400.00000
G1 F1800.000
G1 X50.034 Y66.116 E2.02283
G1 X50.712 Y65.991 E2.04567
G1 X51.397 Y66.072 E2.06852
G1 X52.028 Y66.351 E2.09137
G1 X52.550 Y66.801 E2.11423
G1 X52.919 Y67.384 E2.13709
G1 X53.101 Y68.050 E2.15994
G1 X53.079 Y68.739 E2.18278
G1 X52.854 Y69.391 E2.20562
G1 X52.446 Y69.946 E2.22845
G1 X51.891 Y70.354 E2.25128
G1 X51.239 Y70.579 E2.27411
G1 X50.550 Y70.601 E2.29695
G1 X49.884 Y70.419 E2.31981
G1 X49.301 Y70.050 E2.34266
G1 X48.851 Y69.528 E2.36552
G1 X48.572 Y68.897 E2.38837
G1 X48.491 Y68.212 E2.41122
G1 X48.616 Y67.534 E2.43406
G1 X48.936 Y66.923 E2.45689
G1 X49.381 Y66.478 E2.47773
G1 X49.582 Y66.652 F7800.000
G1 F1800.000
G1 X50.121 Y66.370 E2.49789
G1 X50.720 Y66.260 E2.51807
G1 X51.326 Y66.331 E2.53827
G1 X51.884 Y66.578 E2.55849
G1 X52.347 Y66.976 E2.57872
G1 X52.673 Y67.493 E2.59895
G1 X52.834 Y68.081 E2.61917
G1 X52.814 Y68.690 E2.63936
G1 X52.616 Y69.266 E2.65952
G1 X52.256 Y69.756 E2.67967
G1 X51.766 Y70.116 E2.69982
G1 X51.190 Y70.314 E2.71998
G1 X50.581 Y70.334 E2.74017
G1 X49.993 Y70.173 E2.76038
G1 X49.477 Y69.847 E2.78061
G1 X49.078 Y69.384 E2.80085
G1 X48.831 Y68.826 E2.82107
G1 X48.760 Y68.220 E2.84127
G1 X48.870 Y67.621 E2.86145
G1 X49.152 Y67.082 E2.88160
G1 X49.540 Y66.695 E2.89976
G1 X49.742 Y66.869 F7800.000
G1 F1800.000
G1 X50.209 Y66.624 E2.91724
G1 X50.729 Y66.528 E2.93475
G1 X51.255 Y66.591 E2.95231
G1 X51.741 Y66.805 E2.96990
G1 X52.144 Y67.152 E2.98751
G1 X52.427 Y67.601 E3.00511
G1 X52.567 Y68.113 E3.02269
G1 X52.550 Y68.642 E3.04022
G1 X52.378 Y69.141 E3.05771
G1 X52.066 Y69.566 E3.07518
G1 X51.641 Y69.878 E3.09265
G1 X51.142 Y70.050 E3.11015
G1 X50.613 Y70.067 E3.12768
G1 X50.101 Y69.927 E3.14525
G1 X49.652 Y69.644 E3.16286
G1 X49.305 Y69.241 E3.18047
G1 X49.091 Y68.755 E3.19806
G1 X49.028 Y68.229 E3.21561
G1 X49.124 Y67.709 E3.23313
G1 X49.369 Y67.242 E3.25061
G1 X49.699 Y66.911 E3.26608
G1 E1.26608 F2400.00000
G92 E0
G1 X63.593 Y55.125 F7800.000
G1 E2.00000 F2400.00000
G1 F1800.000
G1 X64.666 Y57.428 E2.08417
G1 X65.537 Y60.678 E2.19563
G1 X65.830 Y64.029 E2.30710
G1 X65.537 Y67.381 E2.41856
G1 X64.666 Y70.631 E2.53002
G1 X63.245 Y73.680 E2.64148
G1 X61.315 Y76.436 E2.75294
G1 X58.936 Y78.815 E2.86440
G1 X56.180 Y80.745 E2.97586
G1 X53.131 Y82.166 E3.08733
G1 X49.881 Y83.037 E3.19879
G1 X46.529 Y83.330 E3.31025
G1 X43.178 Y83.037 E3.42171
G1 X39.928 Y82.166 E3.53317
G1 X37.625 Y81.093 E3.61734
G1 X35.518 Y84.091 E3.73876
G1 X33.495 Y87.170 E3.86080
G1 X31.570 Y90.311 E3.98284
G1 X29.746 Y93.510 E4.10487
G1 X28.022 Y96.766 E4.22691
G1 X26.401 Y100.074 E4.34894
G1 X24.886 Y103.431 E4.47098
G1 X23.476 Y106.834 E4.59301
G1 X22.174 Y110.280 E4.71505
G1 X21.804 Y111.361 E4.75291
G1 X21.804 Y131.024 E5.40432
G1 X18.196 Y131.024 E5.52384
G1 X18.196 Y110.816 E6.19330
G1 X18.796 Y109.064 E6.25466
G1 X20.138 Y105.513 E6.38043
G1 X21.591 Y102.005 E6.50620
G1 X23.153 Y98.545 E6.63197
G1 X24.823 Y95.136 E6.75774
G1 X26.599 Y91.781 E6.88352
G1 X28.480 Y88.483 E7.00929
G1 X30.465 Y85.246 E7.13507
G1 X32.548 Y82.073 E7.26084
G1 X34.732 Y78.967 E7.38662
G1 X37.011 Y75.931 E7.51239
G1 X39.385 Y72.968 E7.63816
G1 X41.850 Y70.082 E7.76394
G1 X44.405 Y67.274 E7.88971
G1 X47.047 Y64.547 E8.01548
G1 X49.774 Y61.905 E8.14125
G1 X52.582 Y59.350 E8.26703
G1 X55.468 Y56.885 E8.39280
G1 X58.431 Y54.511 E8.51857
G1 X61.467 Y52.232 E8.64435
G1 X64.573 Y50.049 E8.77012
G1 X67.746 Y47.964 E8.89589
G1 X70.983 Y45.981 E9.02167
G1 X74.281 Y44.100 E9.14744
G1 X77.636 Y42.323 E9.27321
G1 X81.045 Y40.653 E9.39898
G1 X83.003 Y39.769 E9.47015
G1 X83.003 Y43.708 E9.60063
G1 X82.574 Y43.902 E9.61623
G1 X79.266 Y45.522 E9.73826
G1 X76.010 Y47.246 E9.86030
G1 X72.811 Y49.071 E9.98234
G1 X69.670 Y50.995 E10.10437
G1 X66.591 Y53.018 E10.22641
G1 X63.642 Y55.091 E10.34584
G1 X63.927 Y55.215 F7800.000
G1 F1800.000
G1 X64.917 Y57.337 E10.42341
G1 X65.800 Y60.631 E10.53641
G1 X66.097 Y64.029 E10.64941
G1 X65.800 Y67.427 E10.76242
G1 X64.917 Y70.722 E10.87542
G1 X63.475 Y73.813 E10.98842
G1 X61.519 Y76.607 E11.10142
G1 X59.107 Y79.019 E11.21442
G1 X56.313 Y80.975 E11.32742
G1 X53.222 Y82.417 E11.44042
G1 X49.927 Y83.300 E11.55342
G1 X46.529 Y83.597 E11.66642
G1 X43.131 Y83.300 E11.77943
G1 X39.837 Y82.417 E11.89242
G1 X37.715 Y81.427 E11.97000
G1 X35.738 Y84.240 E12.08390
G1 X33.720 Y87.312 E12.20567
G1 X31.799 Y90.446 E12.32743
G1 X29.979 Y93.638 E12.44919
G1 X28.259 Y96.886 E12.57095
G1 X26.642 Y100.187 E12.69271
G1 X25.129 Y103.537 E12.81447
G1 X23.723 Y106.932 E12.93622
G1 X22.424 Y110.370 E13.05799
G1 X22.069 Y111.405 E13.09424
G1 X22.069 Y131.289 E13.75299
G1 X17.931 Y131.289 E13.89010
G1 X17.931 Y110.772 E14.56983
G1 X18.546 Y108.974 E14.63279
G1 X19.891 Y105.415 E14.75884
G1 X21.347 Y101.900 E14.88489
G1 X22.912 Y98.432 E15.01093
G1 X24.586 Y95.015 E15.13698
G1 X26.367 Y91.653 E15.26303
G1 X28.252 Y88.348 E15.38908
G1 X30.240 Y85.104 E15.51514
G1 X32.329 Y81.924 E15.64118
G1 X34.517 Y78.811 E15.76724
G1 X36.801 Y75.768 E15.89329
G1 X39.180 Y72.799 E16.01934
G1 X41.651 Y69.906 E16.14539
G1 X44.212 Y67.092 E16.27144
G1 X46.860 Y64.360 E16.39748
G1 X49.592 Y61.712 E16.52353
G1 X52.406 Y59.151 E16.64958
G1 X55.299 Y56.680 E16.77563
G1 X58.268 Y54.301 E16.90168
G1 X61.311 Y52.017 E17.02773
G1 X64.424 Y49.829 E17.15378
G1 X67.604 Y47.740 E17.27983
G1 X70.848 Y45.752 E17.40588
G1 X74.153 Y43.867 E17.53193
G1 X77.515 Y42.087 E17.65798
G1 X80.932 Y40.413 E17.78403
G1 X83.269 Y39.358 E17.86896
G1 X83.269 Y43.879 E18.01875
G1 X82.687 Y44.142 E18.03989
G1 X79.386 Y45.759 E18.16165
G1 X76.138 Y47.479 E18.28341
G1 X72.946 Y49.299 E18.40517
G1 X69.812 Y51.220 E18.52693
G1 X66.740 Y53.238 E18.64870
G1 X63.976 Y55.180 E18.76061
G1 X64.262 Y55.304 F7800.000
G1 F1800.000
G1 X65.168 Y57.246 E18.83159
G1 X66.062 Y60.585 E18.94613
G1 X66.364 Y64.029 E19.06067
G1 X66.062 Y67.474 E19.17521
G1 X65.168 Y70.813 E19.28975
G1 X63.706 Y73.947 E19.40429
G1 X61.723 Y76.779 E19.51883
G1 X59.279 Y79.223 E19.63337
G1 X56.446 Y81.206 E19.74791
G1 X53.313 Y82.668 E19.86245
G1 X49.974 Y83.562 E19.97699
G1 X46.529 Y83.864 E20.09153
G1 X43.085 Y83.562 E20.20608
G1 X39.746 Y82.668 E20.32062
G1 X37.804 Y81.762 E20.39159
G1 X35.957 Y84.390 E20.49798
G1 X33.944 Y87.455 E20.61947
G1 X32.028 Y90.581 E20.74096
G1 X30.211 Y93.766 E20.86244
G1 X28.495 Y97.007 E20.98392
G1 X26.882 Y100.300 E21.10541
G1 X25.373 Y103.642 E21.22689
G1 X23.970 Y107.030 E21.34837
G1 X22.674 Y110.460 E21.46986
G1 X22.335 Y111.450 E21.50451
G1 X22.335 Y131.555 E22.17059
G1 X18.135 Y131.555 E22.30973
G1 X18.135 Y149.365 E22.89977
G1 X22.335 Y149.365 E23.03891
G1 X22.335 Y149.835 E23.05448
G1 X17.665 Y149.835 E23.20920
G1 X17.665 Y110.728 E24.50479
G1 X18.297 Y108.884 E24.56936
G1 X19.645 Y105.317 E24.69569
G1 X21.103 Y101.794 E24.82201
G1 X22.672 Y98.319 E24.94833
G1 X24.350 Y94.895 E25.07466
G1 X26.134 Y91.525 E25.20099
G1 X28.023 Y88.213 E25.32731
G1 X30.016 Y84.962 E25.45365
G1 X32.109 Y81.775 E25.57996
G1 X34.302 Y78.655 E25.70630
G1 X36.591 Y75.606 E25.83262
G1 X38.975 Y72.630 E25.95895
G1 X41.452 Y69.730 E26.08527
G1 X44.018 Y66.910 E26.21160
G1 X46.672 Y64.172 E26.33793
G1 X49.410 Y61.518 E26.46425
G1 X52.230 Y58.952 E26.59058
G1 X55.130 Y56.475 E26.71690
G1 X58.106 Y54.091 E26.84323
G1 X61.155 Y51.802 E26.96956
G1 X64.275 Y49.609 E27.09588
G1 X67.462 Y47.516 E27.22221
G1 X70.713 Y45.524 E27.34853
G1 X74.025 Y43.634 E27.47486
G1 X77.395 Y41.850 E27.60119
G1 X80.819 Y40.173 E27.72751
G1 X83.058 Y39.162 E27.80889
G1 X83.058 Y0.165 E29.10083
G1 X83.534 Y0.165 E29.11662
G1 X83.534 Y44.051 E30.57053
G1 X82.800 Y44.382 E30.59722
G1 X79.507 Y45.995 E30.71870
G1 X76.266 Y47.711 E30.84018
G1 X73.081 Y49.528 E30.96167
G1 X69.955 Y51.444 E31.08315
G1 X66.890 Y53.457 E31.20464
G1 X64.311 Y55.270 E31.30905
G1 E29.30905 F2400.00000
G92 E0
G1 X83.296 Y39.200 F7800.000
G1 E2.00000 F2400.00000
G1 F1800.000
G1 X83.296 Y0.298 E2.71092
G1 E0.71092 F2400.00000
G92 E0
G1 X81.952 Y43.963 F7800.000
G1 E2.00000 F2400.00000
G1 F1800.000
G1 X82.841 Y43.074 E2.04179
G1 X82.841 Y42.697 E2.05431
G1 X81.213 Y44.325 E2.13083
G1 X80.474 Y44.687 E2.15817
G1 X82.841 Y42.320 E2.26941
G1 X82.841 Y41.944 E2.28194
G1 X79.735 Y45.049 E2.42791
G1 X78.993 Y45.415 E2.45542
G1 X82.841 Y41.567 E2.63630
G1 X82.841 Y41.190 E2.64882
G1 X78.192 Y45.839 E2.86735
G1 X77.391 Y46.263 E2.89748
G1 X82.841 Y40.813 E3.15365
G1 X82.841 Y40.436 E3.16618
G1 X76.590 Y46.687 E3.46001
G1 X75.789 Y47.111 E3.49013
G1 X82.808 Y40.092 E3.82006
G1 X82.121 Y40.402 E3.84512
G1 X74.913 Y47.611 E4.18394
G1 X74.035 Y48.111 E4.21751
G1 X81.433 Y40.713 E4.56527
G1 X80.708 Y41.062 E4.59204
G1 X73.158 Y48.611 E4.94691
G1 X72.249 Y49.144 E4.98193
G1 X79.969 Y41.424 E5.34482
G1 X79.230 Y41.786 E5.37216
G1 X71.276 Y49.740 E5.74607
G1 X70.302 Y50.336 E5.78401
G1 X78.491 Y42.148 E6.16894
G1 X77.743 Y42.518 E6.19669
G1 X69.317 Y50.945 E6.59279
G1 X68.218 Y51.667 E6.63647
G1 X76.942 Y42.943 E7.04655
G1 X76.141 Y43.367 E7.07668
G1 X67.120 Y52.388 E7.50074
G1 X65.973 Y53.159 E7.54668
G1 X75.340 Y43.791 E7.98702
G1 X74.539 Y44.215 E8.01715
G1 X64.704 Y54.050 E8.47946
G1 X63.436 Y54.941 E8.53098
G1 X73.665 Y44.713 E9.01179
G1 X72.788 Y45.213 E9.04536
G1 X51.864 Y66.137 E10.02891
G1 X51.602 Y66.022 E10.03841
G1 X71.910 Y45.713 E10.99301
G1 X71.012 Y46.235 E11.02752
G1 X51.334 Y65.913 E11.95253
G1 X50.997 Y65.873 E11.96381
G1 X70.039 Y46.831 E12.85891
G1 X69.066 Y47.427 E12.89685
G1 X50.660 Y65.833 E13.76204
G1 X50.600 Y65.826 E13.76405
G1 X50.220 Y65.896 E13.77687
G1 X68.092 Y48.024 E14.61697
G1 X67.007 Y48.732 E14.66006
G1 X49.698 Y66.041 E15.47366
G1 X49.161 Y66.323 E15.49384
G1 X48.616 Y66.867 E15.51943
G1 X48.334 Y67.405 E15.53960
G1 X31.233 Y84.507 E16.34350
G1 X31.953 Y83.409 E16.38715
G1 X65.908 Y49.454 E17.98324
G1 X64.808 Y50.178 E18.02703
G1 X32.677 Y82.309 E19.53737
G1 X33.568 Y81.040 E19.58891
G1 X63.540 Y51.069 E20.99774
G1 X62.272 Y51.960 E21.04925
G1 X34.460 Y79.772 E22.35656
G1 X34.843 Y79.227 E22.37870
G1 X35.491 Y78.364 E22.41455
G1 X60.864 Y52.991 E23.60725
G1 X59.352 Y54.127 E23.67011
G1 X36.627 Y76.852 E24.73832
G1 X37.118 Y76.197 E24.76551
G1 X37.979 Y75.122 E24.81133
G1 X57.622 Y55.479 E25.73463
G1 X55.721 Y57.003 E25.81560
G1 X39.503 Y73.221 E26.57793
G1 X41.709 Y70.638 E26.69083
G1 X53.138 Y59.209 E27.22805
G1 X50.059 Y61.996 E27.36609
G1 X47.126 Y64.844 E27.50197
G1 X47.138 Y64.833 E27.50252
G1 E25.50252 F2400.00000
G92 E0
G1 X58.148 Y79.073 F7800.000
G1 E2.00000 F2400.00000
G1 F1800.000
G1 X61.573 Y75.648 E2.16101
G1 X62.453 Y74.391 E2.21202
G1 X56.891 Y79.953 E2.47349
G1 X55.943 Y80.617 E2.51194
G1 X55.769 Y80.698 E2.51832
G1 X63.198 Y73.269 E2.86751
G1 X63.527 Y72.563 E2.89340
G1 X55.063 Y81.027 E3.29127
G1 X54.357 Y81.357 E3.31717
G1 X63.857 Y71.857 E3.76370
G1 X64.186 Y71.151 E3.78960
G1 X53.651 Y81.686 E4.28481
G1 X52.945 Y82.015 E4.31071
G1 X64.515 Y70.445 E4.85460
G1 X64.656 Y69.928 E4.87241
G1 X52.428 Y82.156 E5.44720
G1 X51.913 Y82.293 E5.46491
G1 X64.793 Y69.413 E6.07038
G1 X64.931 Y68.898 E6.08810
G1 X51.398 Y82.431 E6.72426
G1 X50.883 Y82.569 E6.74197
G1 X65.069 Y68.383 E7.40881
G1 X65.207 Y67.868 E7.42653
G1 X50.368 Y82.707 E8.12405
G1 X49.853 Y82.845 E8.14176
G1 X65.345 Y67.353 E8.86997
G1 X65.378 Y67.231 E8.87417
G1 X65.406 Y66.916 E8.88468
G1 X49.416 Y82.906 E9.63627
G1 X49.003 Y82.942 E9.65005
G1 X65.442 Y66.503 E10.42275
G1 X65.478 Y66.090 E10.43653
G1 X48.590 Y82.978 E11.23035
G1 X48.177 Y83.014 E11.24413
G1 X65.514 Y65.677 E12.05905
G1 X65.550 Y65.264 E12.07283
G1 X47.764 Y83.050 E12.90887
G1 X47.351 Y83.086 E12.92265
G1 X65.586 Y64.851 E13.77980
G1 X65.622 Y64.438 E13.79358
G1 X46.938 Y83.122 E14.67184
G1 X46.525 Y83.158 E14.68562
G1 X65.658 Y64.025 E15.58499
G1 X65.667 Y63.926 E15.58830
G1 X65.644 Y63.663 E15.59709
G1 X46.163 Y83.144 E16.51282
G1 X45.816 Y83.114 E16.52439
G1 X65.614 Y63.316 E17.45499
G1 X65.583 Y62.970 E17.46655
G1 X45.470 Y83.083 E18.41202
G1 X45.123 Y83.053 E18.42359
G1 X65.553 Y62.623 E19.38392
G1 X65.523 Y62.277 E19.39548
G1 X44.776 Y83.023 E20.37068
G1 X44.430 Y82.992 E20.38225
G1 X65.492 Y61.930 E21.37231
G1 X65.462 Y61.583 E21.38388
G1 X44.083 Y82.962 E22.38881
G1 X43.737 Y82.932 E22.40037
G1 X65.432 Y61.237 E23.42017
G1 X65.402 Y60.890 E23.43173
G1 X43.390 Y82.902 E24.46639
G1 X43.055 Y82.860 E24.47763
G1 X65.360 Y60.555 E25.52613
G1 X65.281 Y60.257 E25.53635
G1 X42.757 Y82.781 E26.59508
G1 X42.460 Y82.701 E26.60531
G1 X65.201 Y59.960 E27.67426
G1 X65.121 Y59.663 E27.68449
G1 X42.163 Y82.621 E28.76367
G1 X41.866 Y82.542 E28.77390
G1 X65.042 Y59.366 E29.86330
G1 X64.962 Y59.069 E29.87353
G1 X41.568 Y82.462 E30.97317
G1 X41.271 Y82.382 E30.98340
G1 X64.882 Y58.771 E32.09326
G1 X64.803 Y58.474 E32.10349
G1 X40.974 Y82.303 E33.22358
G1 X40.677 Y82.223 E33.23381
G1 X64.723 Y58.177 E34.36413
G1 X64.643 Y57.880 E34.37436
G1 X53.033 Y69.490 E34.92013
G1 X53.231 Y68.915 E34.94035
G1 X64.564 Y57.582 E35.47305
G1 X64.519 Y57.416 E35.47878
G1 X64.467 Y57.303 E35.48292
G1 X53.251 Y68.518 E36.01010
G1 X53.264 Y68.129 E36.02305
G1 X64.347 Y57.046 E36.54400
G1 X64.227 Y56.789 E36.55343
G1 X53.185 Y67.831 E37.07247
G1 X53.104 Y67.535 E37.08267
G1 X64.107 Y56.532 E37.59989
G1 X63.987 Y56.275 E37.60931
G1 X52.992 Y67.270 E38.12615
G1 X52.846 Y67.039 E38.13523
G1 X63.867 Y56.018 E38.65329
G1 X63.747 Y55.761 E38.66271
G1 X52.700 Y66.808 E39.18200
G1 X52.650 Y66.729 E39.18509
G1 X52.517 Y66.614 E39.19095
G1 X63.628 Y55.504 E39.71321
G1 X63.508 Y55.247 E39.72263
G1 X52.315 Y66.440 E40.24877
G1 X52.112 Y66.265 E40.25765
G1 X63.388 Y54.990 E40.78767
G1 E38.78767 F2400.00000
G92 E0
G1 X40.380 Y82.143 F7800.000
G1 E2.00000 F2400.00000
G1 F1800.000
G1 X51.990 Y70.533 E2.54577
G1 X51.415 Y70.731 E2.56599
G1 X40.082 Y82.064 E3.09869
G1 X39.916 Y82.019 E3.10442
G1 X39.803 Y81.967 E3.10857
G1 X51.018 Y70.751 E3.63574
G1 X50.629 Y70.764 E3.64869
G1 X39.546 Y81.847 E4.16964
G1 X39.289 Y81.727 E4.17907
G1 X50.331 Y70.685 E4.69812
G1 X50.035 Y70.604 E4.70831
G1 X39.032 Y81.607 E5.22553
G1 X38.775 Y81.487 E5.23496
G1 X49.770 Y70.492 E5.75179
G1 X49.539 Y70.346 E5.76087
G1 X38.518 Y81.367 E6.27893
G1 X38.261 Y81.247 E6.28836
G1 X49.308 Y70.200 E6.80764
G1 X49.229 Y70.150 E6.81074
G1 X49.114 Y70.017 E6.81659
G1 X38.004 Y81.128 E7.33885
G1 X37.747 Y81.008 E7.34828
G1 X48.940 Y69.815 E7.87441
G1 X48.765 Y69.612 E7.88330
G1 X37.490 Y80.888 E8.41331
G1 X37.433 Y80.861 E8.41541
G1 X37.235 Y81.143 E8.42684
G1 X37.441 Y80.936 F7800.000
G1 F1800.000
G1 X27.212 Y91.166 E8.90770
G1 X26.714 Y92.040 E8.94114
G1 X36.550 Y82.204 E9.40349
G1 X35.659 Y83.473 E9.45502
G1 X26.290 Y92.841 E9.89541
G1 X25.866 Y93.642 E9.92553
G1 X34.888 Y84.620 E10.34964
G1 X34.167 Y85.718 E10.39332
G1 X25.442 Y94.443 E10.80345
G1 X25.017 Y95.244 E10.83358
G1 X33.445 Y86.817 E11.22973
G1 X32.836 Y87.802 E11.26824
G1 X24.647 Y95.992 E11.65320
G1 X24.285 Y96.731 E11.68055
G1 X32.239 Y88.776 E12.05447
G1 X31.643 Y89.750 E12.09243
G1 X23.923 Y97.470 E12.45531
G1 X23.561 Y98.208 E12.48266
G1 X31.111 Y90.659 E12.83754
G1 X30.611 Y91.536 E12.87110
G1 X23.212 Y98.934 E13.21888
G1 X22.902 Y99.621 E13.24393
G1 X30.110 Y92.413 E13.58277
G1 X29.611 Y93.289 E13.61629
G1 X22.592 Y100.308 E13.94624
G1 X22.282 Y100.995 E13.97129
G1 X29.187 Y94.090 E14.29588
G1 X28.763 Y94.891 E14.32601
G1 X21.972 Y101.682 E14.64524
G1 X21.671 Y102.359 E14.66986
G1 X28.339 Y95.692 E14.98326
G1 X27.914 Y96.493 E15.01339
G1 X21.405 Y103.002 E15.31937
