; generated by Slic3r 1.3.1-dev (Build adea0d9) on 2020-02-19 at 18:00:20

; external perimeters extrusion width = 0.44mm (2.86mm^3/s)
; perimeters extrusion width = 0.56mm (4.14mm^3/s)
; infill extrusion width = 0.50mm (3.66mm^3/s)
; solid infill extrusion width = 0.56mm (3.10mm^3/s)
; top infill extrusion width = 0.56mm (3.10mm^3/s)

M107
G92 E0
;D3D:START:START
T0
M104 S215 T0

G21
G90
M107
T0
G28
G29
M109 T0 S215 T0
G0 F3000
M107
T0
G92 E0
G0 X0 Y149 Z0.1 F3600
G1 Y49 E6.5 F1200
G0 Z1
G92 E0
; Filament gcode

G21 ; set units to millimeters
G90 ; use absolute coordinates
M82 ; use absolute distances for extrusion
G92 E0
G1 Z0.300 F7800.000
G1 E-2.00000 F2400.00000
G92 E0
G1 X82.948 Y104.846 F7800.000
G1 E2.00000 F2400.00000
G1 F1800.000
G1 X87.052 Y104.846 E2.13596
G1 X89.104 Y108.400 E2.27192
G1 X87.052 Y111.954 E2.40789
G1 X82.948 Y111.954 E2.54385
G1 X80.896 Y108.400 E2.67981
G1 X82.918 Y104.898 E2.81379
G1 X83.101 Y105.111 F7800.000
G1 F1800.000
G1 X86.899 Y105.111 E2.93959
G1 X88.797 Y108.400 E3.06539
G1 X86.899 Y111.689 E3.19119
G1 X83.101 Y111.689 E3.31699
G1 X81.203 Y108.400 E3.44279
G1 X83.071 Y105.163 E3.56660
G1 X83.255 Y105.377 F7800.000
G1 F1800.000
G1 X86.745 Y105.377 E3.68224
G1 X88.491 Y108.400 E3.79788
G1 X86.745 Y111.423 E3.91352
G1 X83.255 Y111.423 E4.02916
G1 X81.509 Y108.400 E4.14480
G1 X83.225 Y105.429 E4.25845
G1 E2.25845 F2400.00000
G92 E0
G1 X77.496 Y112.504 F7800.000
G1 E2.00000 F2400.00000
G1 F1800.000
G1 X77.496 Y77.496 E3.15978
G1 X83.804 Y77.496 E3.36875
G1 X83.804 Y84.030 E3.58522
G1 X83.178 Y84.192 E3.60663
G1 X82.743 Y84.352 E3.62198
G1 X82.323 Y84.546 E3.63732
G1 X81.919 Y84.772 E3.65265
G1 X81.534 Y85.029 E3.66799
G1 X81.170 Y85.316 E3.68333
G1 X80.830 Y85.630 E3.69867
G1 X80.516 Y85.970 E3.71401
G1 X80.229 Y86.334 E3.72935
G1 X79.972 Y86.719 E3.74469
G1 X79.746 Y87.123 E3.76003
G1 X79.552 Y87.543 E3.77537
G1 X79.392 Y87.978 E3.79071
G1 X79.266 Y88.423 E3.80605
G1 X79.176 Y88.877 E3.82138
G1 X79.121 Y89.337 E3.83673
G1 X79.103 Y89.800 E3.85207
G1 X79.121 Y90.263 E3.86740
G1 X79.176 Y90.723 E3.88275
G1 X79.266 Y91.177 E3.89808
G1 X79.392 Y91.622 E3.91342
G1 X79.552 Y92.057 E3.92876
G1 X79.746 Y92.477 E3.94411
G1 X79.972 Y92.881 E3.95944
G1 X80.229 Y93.266 E3.97478
G1 X80.516 Y93.630 E3.99012
G1 X80.830 Y93.970 E4.00546
G1 X81.170 Y94.284 E4.02080
G1 X81.534 Y94.571 E4.03614
G1 X81.919 Y94.828 E4.05148
G1 X82.323 Y95.054 E4.06681
G1 X82.743 Y95.248 E4.08215
G1 X83.178 Y95.408 E4.09750
G1 X83.623 Y95.534 E4.11284
G1 X84.077 Y95.624 E4.12817
G1 X84.537 Y95.679 E4.14351
G1 X85.000 Y95.697 E4.15885
G1 X85.463 Y95.679 E4.17419
G1 X85.923 Y95.624 E4.18954
G1 X86.377 Y95.534 E4.20487
G1 X86.822 Y95.408 E4.22021
G1 X87.257 Y95.248 E4.23555
G1 X87.677 Y95.054 E4.25089
G1 X88.081 Y94.828 E4.26623
G1 X88.466 Y94.571 E4.28157
G1 X88.830 Y94.284 E4.29691
G1 X89.170 Y93.970 E4.31225
G1 X89.484 Y93.630 E4.32759
G1 X89.771 Y93.266 E4.34293
G1 X90.028 Y92.881 E4.35827
G1 X90.254 Y92.477 E4.37360
G1 X90.448 Y92.057 E4.38894
G1 X90.608 Y91.622 E4.40429
G1 X90.734 Y91.177 E4.41962
G1 X90.824 Y90.723 E4.43496
G1 X90.879 Y90.263 E4.45030
G1 X90.897 Y89.800 E4.46564
G1 X90.879 Y89.337 E4.48098
G1 X90.824 Y88.877 E4.49632
G1 X90.734 Y88.423 E4.51166
G1 X90.608 Y87.978 E4.52700
G1 X90.448 Y87.543 E4.54234
G1 X90.254 Y87.123 E4.55768
G1 X90.028 Y86.719 E4.57302
G1 X89.771 Y86.334 E4.58836
G1 X89.484 Y85.970 E4.60369
G1 X89.170 Y85.630 E4.61904
G1 X88.830 Y85.316 E4.63438
G1 X88.466 Y85.029 E4.64971
G1 X88.081 Y84.772 E4.66505
G1 X87.677 Y84.546 E4.68039
G1 X87.257 Y84.352 E4.69573
G1 X86.822 Y84.192 E4.71107
G1 X86.196 Y84.030 E4.73249
G1 X86.196 Y77.496 E4.94896
G1 X92.504 Y77.496 E5.15792
G1 X92.504 Y112.504 E6.31771
G1 X77.556 Y112.504 E6.81291
G1 X77.231 Y112.769 F7800.000
G1 F1800.000
G1 X77.231 Y77.231 E7.99029
G1 X84.069 Y77.231 E8.21686
G1 X84.069 Y84.248 E8.44935
G1 X83.685 Y84.325 E8.46232
G1 X83.260 Y84.445 E8.47696
G1 X82.845 Y84.598 E8.49161
G1 X82.444 Y84.783 E8.50626
G1 X82.058 Y84.999 E8.52091
G1 X81.690 Y85.244 E8.53556
G1 X81.343 Y85.518 E8.55020
G1 X81.018 Y85.818 E8.56485
G1 X80.718 Y86.143 E8.57950
G1 X80.444 Y86.490 E8.59415
G1 X80.199 Y86.858 E8.60880
G1 X79.983 Y87.244 E8.62344
G1 X79.798 Y87.645 E8.63809
G1 X79.645 Y88.060 E8.65274
G1 X79.525 Y88.485 E8.66739
G1 X79.438 Y88.919 E8.68203
G1 X79.386 Y89.358 E8.69668
G1 X79.369 Y89.800 E8.71133
G1 X79.386 Y90.242 E8.72598
G1 X79.438 Y90.681 E8.74063
G1 X79.525 Y91.115 E8.75528
G1 X79.645 Y91.540 E8.76992
G1 X79.798 Y91.955 E8.78457
G1 X79.983 Y92.356 E8.79922
G1 X80.199 Y92.742 E8.81387
G1 X80.444 Y93.110 E8.82852
G1 X80.718 Y93.457 E8.84316
G1 X81.018 Y93.782 E8.85781
G1 X81.343 Y94.082 E8.87246
G1 X81.690 Y94.356 E8.88711
G1 X82.058 Y94.601 E8.90175
G1 X82.444 Y94.817 E8.91640
G1 X82.845 Y95.002 E8.93105
G1 X83.260 Y95.155 E8.94570
G1 X83.685 Y95.275 E8.96035
G1 X84.119 Y95.362 E8.97499
G1 X84.558 Y95.414 E8.98964
G1 X85.000 Y95.431 E9.00429
G1 X85.442 Y95.414 E9.01894
G1 X85.881 Y95.362 E9.03359
G1 X86.315 Y95.275 E9.04823
G1 X86.740 Y95.155 E9.06288
G1 X87.155 Y95.002 E9.07753
G1 X87.556 Y94.817 E9.09218
G1 X87.942 Y94.601 E9.10683
G1 X88.310 Y94.356 E9.12147
G1 X88.657 Y94.082 E9.13612
G1 X88.982 Y93.782 E9.15077
G1 X89.282 Y93.457 E9.16542
G1 X89.556 Y93.110 E9.18006
G1 X89.801 Y92.742 E9.19471
G1 X90.017 Y92.356 E9.20936
G1 X90.202 Y91.955 E9.22401
G1 X90.355 Y91.540 E9.23866
G1 X90.475 Y91.115 E9.25330
G1 X90.562 Y90.681 E9.26795
G1 X90.614 Y90.242 E9.28260
G1 X90.631 Y89.800 E9.29725
G1 X90.614 Y89.358 E9.31190
G1 X90.562 Y88.919 E9.32655
G1 X90.475 Y88.485 E9.34119
G1 X90.355 Y88.060 E9.35584
G1 X90.202 Y87.645 E9.37049
G1 X90.017 Y87.244 E9.38514
G1 X89.801 Y86.858 E9.39978
G1 X89.556 Y86.490 E9.41443
G1 X89.282 Y86.143 E9.42908
G1 X88.982 Y85.818 E9.44373
G1 X88.657 Y85.518 E9.45838
G1 X88.310 Y85.244 E9.47302
G1 X87.942 Y84.999 E9.48767
G1 X87.556 Y84.783 E9.50232
G1 X87.155 Y84.598 E9.51697
G1 X86.740 Y84.445 E9.53162
G1 X86.315 Y84.325 E9.54626
G1 X85.931 Y84.248 E9.55923
G1 X85.931 Y77.231 E9.79172
G1 X92.769 Y77.231 E10.01829
G1 X92.769 Y112.769 E11.19567
G1 X77.291 Y112.769 E11.70847
G1 X76.965 Y113.035 F7800.000
G1 F1800.000
G1 X76.965 Y76.965 E12.90345
G1 X84.335 Y76.965 E13.14762
G1 X84.335 Y84.480 E13.39660
G1 X83.748 Y84.583 E13.41635
G1 X83.342 Y84.697 E13.43031
G1 X82.947 Y84.843 E13.44427
G1 X82.564 Y85.020 E13.45823
G1 X82.197 Y85.226 E13.47218
G1 X81.846 Y85.460 E13.48614
G1 X81.516 Y85.720 E13.50009
G1 X81.206 Y86.006 E13.51405
G1 X80.920 Y86.316 E13.52801
G1 X80.660 Y86.646 E13.54196
G1 X80.426 Y86.997 E13.55592
G1 X80.220 Y87.364 E13.56987
G1 X80.043 Y87.747 E13.58383
G1 X79.897 Y88.142 E13.59779
G1 X79.783 Y88.548 E13.61174
G1 X79.701 Y88.961 E13.62570
G1 X79.651 Y89.379 E13.63966
G1 X79.635 Y89.800 E13.65361
G1 X79.651 Y90.221 E13.66757
G1 X79.701 Y90.639 E13.68153
G1 X79.783 Y91.052 E13.69548
G1 X79.897 Y91.458 E13.70944
G1 X80.043 Y91.853 E13.72340
G1 X80.220 Y92.236 E13.73735
G1 X80.426 Y92.603 E13.75131
G1 X80.660 Y92.954 E13.76527
G1 X80.920 Y93.284 E13.77922
G1 X81.206 Y93.594 E13.79318
G1 X81.516 Y93.880 E13.80713
G1 X81.846 Y94.140 E13.82109
G1 X82.197 Y94.374 E13.83505
G1 X82.564 Y94.580 E13.84900
G1 X82.947 Y94.757 E13.86296
G1 X83.342 Y94.903 E13.87692
G1 X83.748 Y95.017 E13.89087
G1 X84.161 Y95.099 E13.90483
G1 X84.579 Y95.149 E13.91879
G1 X85.000 Y95.165 E13.93274
G1 X85.421 Y95.149 E13.94670
G1 X85.839 Y95.099 E13.96066
G1 X86.252 Y95.017 E13.97461
G1 X86.658 Y94.903 E13.98857
G1 X87.053 Y94.757 E14.00253
G1 X87.436 Y94.580 E14.01648
G1 X87.803 Y94.374 E14.03044
G1 X88.154 Y94.140 E14.04439
G1 X88.484 Y93.880 E14.05835
G1 X88.794 Y93.594 E14.07231
G1 X89.080 Y93.284 E14.08626
G1 X89.340 Y92.954 E14.10022
G1 X89.574 Y92.603 E14.11417
G1 X89.780 Y92.236 E14.12813
G1 X89.957 Y91.853 E14.14209
G1 X90.103 Y91.458 E14.15604
G1 X90.217 Y91.052 E14.17000
G1 X90.299 Y90.639 E14.18396
G1 X90.349 Y90.221 E14.19791
G1 X90.365 Y89.800 E14.21187
G1 X90.349 Y89.379 E14.22583
G1 X90.299 Y88.961 E14.23978
G1 X90.217 Y88.548 E14.25374
G1 X90.103 Y88.142 E14.26770
G1 X89.957 Y87.747 E14.28165
G1 X89.780 Y87.364 E14.29561
G1 X89.574 Y86.997 E14.30957
G1 X89.340 Y86.646 E14.32352
G1 X89.080 Y86.316 E14.33748
G1 X88.794 Y86.006 E14.35143
G1 X88.484 Y85.720 E14.36539
G1 X88.154 Y85.460 E14.37935
G1 X87.803 Y85.226 E14.39330
G1 X87.436 Y85.020 E14.40726
G1 X87.053 Y84.843 E14.42122
G1 X86.658 Y84.697 E14.43517
G1 X86.252 Y84.583 E14.44913
G1 X85.665 Y84.480 E14.46889
G1 X85.665 Y76.965 E14.71787
G1 X93.035 Y76.965 E14.96203
G1 X93.035 Y113.035 E16.15701
G1 X77.025 Y113.035 E16.68742
G1 E14.68742 F2400.00000
G92 E0
G1 X82.953 Y112.229 F7800.000
G1 E2.00000 F2400.00000
G1 F1800.000
G1 X87.047 Y112.229 E2.11213
G1 E0.11213 F2400.00000
G92 E0
G1 X82.344 Y112.341 F7800.000
G1 E2.00000 F2400.00000
G1 F1800.000
G1 X82.778 Y111.908 E2.02036
G1 X82.640 Y111.669 E2.02951
G1 X81.968 Y112.341 E2.06108
G1 X81.591 Y112.341 E2.07358
G1 X82.502 Y111.431 E2.11636
G1 X82.364 Y111.192 E2.12552
G1 X81.215 Y112.341 E2.17951
G1 X80.838 Y112.341 E2.19201
G1 X82.226 Y110.953 E2.25722
G1 X82.089 Y110.714 E2.26637
G1 X80.461 Y112.341 E2.34279
G1 X80.085 Y112.341 E2.35529
G1 X81.951 Y110.476 E2.44292
G1 X81.813 Y110.237 E2.45207
G1 X79.708 Y112.341 E2.55091
G1 X79.332 Y112.341 E2.56342
G1 X81.675 Y109.998 E2.67347
G1 X81.537 Y109.760 E2.68263
G1 X78.955 Y112.341 E2.80389
G1 X78.579 Y112.341 E2.81640
G1 X81.399 Y109.521 E2.94887
G1 X81.262 Y109.282 E2.95803
G1 X78.202 Y112.341 E3.10171
G1 X77.826 Y112.341 E3.11422
G1 X81.124 Y109.043 E3.26912
G1 X80.986 Y108.805 E3.27827
G1 X77.659 Y112.132 E3.43455
G1 X77.659 Y111.755 E3.44705
G1 X80.848 Y108.566 E3.59685
G1 X80.710 Y108.327 E3.60601
G1 X77.659 Y111.379 E3.74934
G1 X77.659 Y111.002 E3.76184
G1 X81.141 Y107.519 E3.92542
G1 X81.656 Y106.629 E3.95958
G1 X77.659 Y110.626 E4.14732
G1 X77.659 Y110.249 E4.15982
G1 X82.170 Y105.738 E4.37172
G1 X82.685 Y104.847 E4.40588
G1 E2.40588 F2400.00000
G92 E0
G1 X92.135 Y112.341 F7800.000
G1 E2.00000 F2400.00000
G1 F1800.000
G1 X92.341 Y112.135 E2.00971
G1 X92.341 Y111.758 E2.02222
G1 X91.758 Y112.341 E2.04961
G1 X91.382 Y112.341 E2.06212
G1 X92.341 Y111.382 E2.10720
G1 X92.341 Y111.005 E2.11970
G1 X91.005 Y112.341 E2.18247
G1 X90.628 Y112.341 E2.19497
G1 X92.341 Y110.628 E2.27542
G1 X92.341 Y110.252 E2.28793
G1 X90.252 Y112.341 E2.38607
G1 X89.875 Y112.341 E2.39857
G1 X92.341 Y109.875 E2.51439
G1 X92.341 Y109.499 E2.52690
G1 X89.499 Y112.341 E2.66041
G1 X89.122 Y112.341 E2.67291
G1 X92.341 Y109.122 E2.82411
G1 X92.341 Y108.746 E2.83661
G1 X88.746 Y112.341 E3.00549
G1 X88.369 Y112.341 E3.01799
G1 X92.341 Y108.369 E3.20456
G1 X92.341 Y107.993 E3.21706
G1 X87.993 Y112.341 E3.42131
G1 X87.616 Y112.341 E3.43382
G1 X92.341 Y107.616 E3.65575
G1 X92.341 Y107.239 E3.66826
G1 X87.239 Y112.341 E3.90788
G1 X87.209 Y112.341 E3.90889
G1 X87.209 Y112.138 E3.91565
G1 X87.403 Y111.801 E3.92857
G1 X92.341 Y106.863 E4.16049
G1 X92.341 Y106.486 E4.17300
G1 X87.918 Y110.910 E4.38076
G1 X88.432 Y110.019 E4.41492
G1 X92.341 Y106.110 E4.59853
G1 X92.341 Y105.733 E4.61103
G1 X88.947 Y109.128 E4.77048
G1 X89.307 Y108.503 E4.79444
G1 X89.266 Y108.432 E4.79718
G1 X92.341 Y105.357 E4.94161
G1 X92.341 Y104.980 E4.95412
G1 X89.128 Y108.193 E5.10503
G1 X88.991 Y107.955 E5.11418
G1 X92.341 Y104.604 E5.27156
G1 X92.341 Y104.227 E5.28407
G1 X88.853 Y107.716 E5.44792
G1 X88.715 Y107.477 E5.45708
G1 X92.341 Y103.850 E5.62740
G1 X92.341 Y103.474 E5.63991
G1 X88.577 Y107.238 E5.81671
G1 X88.439 Y107.000 E5.82586
G1 X92.341 Y103.097 E6.00914
G1 X92.341 Y102.721 E6.02164
G1 X88.301 Y106.761 E6.21139
G1 X88.164 Y106.522 E6.22055
G1 X92.341 Y102.344 E6.41677
G1 X92.341 Y101.968 E6.42927
G1 X88.026 Y106.283 E6.63197
G1 X87.888 Y106.045 E6.64112
G1 X92.341 Y101.591 E6.85029
G1 X92.341 Y101.215 E6.86279
G1 X87.750 Y105.806 E7.07843
G1 X87.612 Y105.567 E7.08759
G1 X92.341 Y100.838 E7.30970
G1 X92.341 Y100.461 E7.32221
G1 X87.474 Y105.329 E7.55079
G1 X87.337 Y105.090 E7.55995
G1 X92.341 Y100.085 E7.79501
G1 X92.341 Y99.708 E7.80751
G1 X87.199 Y104.851 E8.04905
G1 X87.102 Y104.684 E8.05547
G1 X86.990 Y104.684 E8.05920
G1 X92.341 Y99.332 E8.31055
G1 X92.341 Y98.955 E8.32306
G1 X86.613 Y104.684 E8.59209
G1 X86.237 Y104.684 E8.60460
G1 X92.341 Y98.579 E8.89132
G1 X92.341 Y98.202 E8.90382
G1 X85.860 Y104.684 E9.20823
G1 X85.484 Y104.684 E9.22073
G1 X92.341 Y97.826 E9.54282
G1 X92.341 Y97.449 E9.55533
G1 X85.107 Y104.684 E9.89511
G1 X84.730 Y104.684 E9.90761
G1 X92.341 Y97.072 E10.26507
G1 X92.341 Y96.696 E10.27758
G1 X84.354 Y104.684 E10.65273
G1 X83.977 Y104.684 E10.66523
G1 X92.341 Y96.319 E11.05806
G1 X92.341 Y95.943 E11.07057
G1 X83.601 Y104.684 E11.48109
G1 X83.224 Y104.684 E11.49359
G1 X92.341 Y95.566 E11.92180
G1 X92.341 Y95.190 E11.93430
G1 X82.848 Y104.684 E12.38019
G1 X82.691 Y104.684 E12.38538
G1 X82.478 Y105.053 E12.39956
G1 X77.659 Y109.873 E12.62590
G1 X77.659 Y109.496 E12.63841
G1 X92.341 Y94.813 E13.32801
G1 X92.341 Y94.437 E13.34051
G1 X77.659 Y109.120 E14.03011
G1 X77.659 Y108.743 E14.04262
G1 X92.341 Y94.060 E14.73222
G1 X92.341 Y93.683 E14.74472
G1 X77.659 Y108.366 E15.43432
G1 X77.659 Y107.990 E15.44683
G1 X92.341 Y93.307 E16.13643
G1 X92.341 Y92.930 E16.14893
G1 X77.659 Y107.613 E16.83853
G1 X77.659 Y107.237 E16.85104
G1 X92.341 Y92.554 E17.54064
G1 X92.341 Y92.177 E17.55314
G1 X77.659 Y106.860 E18.24274
G1 X77.659 Y106.484 E18.25525
G1 X92.341 Y91.801 E18.94485
G1 X92.341 Y91.424 E18.95735
G1 X77.659 Y106.107 E19.64695
G1 X77.659 Y105.731 E19.65946
G1 X88.669 Y94.720 E20.17657
G1 X88.323 Y94.951 E20.19037
G1 X87.760 Y95.253 E20.21159
G1 X77.659 Y105.354 E20.68601
G1 X77.659 Y104.977 E20.69852
G1 X87.120 Y95.516 E21.14287
G1 X86.582 Y95.678 E21.16152
G1 X77.659 Y104.601 E21.58060
G1 X77.659 Y104.224 E21.59311
G1 X86.107 Y95.775 E21.98992
G1 X85.677 Y95.830 E22.00434
G1 X77.659 Y103.848 E22.38091
G1 X77.659 Y103.471 E22.39342
G1 X85.277 Y95.852 E22.75124
G1 X84.902 Y95.851 E22.76371
G1 X77.659 Y103.095 E23.10390
G1 X77.659 Y102.718 E23.11641
G1 X84.545 Y95.831 E23.43984
G1 X84.208 Y95.792 E23.45110
G1 X77.659 Y102.342 E23.75873
G1 X77.659 Y101.965 E23.77123
G1 X83.890 Y95.734 E24.06389
G1 X83.581 Y95.666 E24.07437
G1 X77.659 Y101.588 E24.35255
G1 X77.659 Y101.212 E24.36506
G1 X83.288 Y95.583 E24.62944
G1 X83.007 Y95.487 E24.63929
G1 X77.659 Y100.835 E24.89048
G1 X77.659 Y100.459 E24.90299
G1 X82.733 Y95.385 E25.14130
G1 X82.475 Y95.266 E25.15073
G1 X77.659 Y100.082 E25.37694
G1 X77.659 Y99.706 E25.38945
G1 X82.223 Y95.141 E25.60382
G1 X81.982 Y95.006 E25.61300
G1 X77.659 Y99.329 E25.81604
G1 X77.659 Y98.953 E25.82854
G1 X81.749 Y94.862 E26.02068
G1 X81.524 Y94.711 E26.02969
G1 X77.659 Y98.576 E26.21122
G1 X77.659 Y98.199 E26.22373
G1 X81.310 Y94.548 E26.39523
G1 X81.100 Y94.382 E26.40414
G1 X77.659 Y97.823 E26.56576
G1 X77.659 Y97.446 E26.57827
G1 X80.904 Y94.201 E26.73070
G1 X80.711 Y94.017 E26.73954
G1 X77.659 Y97.070 E26.88292
G1 X77.659 Y96.693 E26.89542
G1 X80.530 Y93.821 E27.03030
G1 X80.355 Y93.620 E27.03917
G1 X77.659 Y96.317 E27.16581
G1 X77.659 Y95.940 E27.17832
G1 X80.189 Y93.410 E27.29717
G1 X80.032 Y93.190 E27.30613
G1 X77.659 Y95.564 E27.41759
G1 X77.659 Y95.187 E27.43009
G1 X79.881 Y92.965 E27.53447
G1 X79.742 Y92.727 E27.54361
G1 X77.659 Y94.810 E27.64149
G1 X77.659 Y94.434 E27.65399
G1 X79.608 Y92.485 E27.74554
G1 X79.489 Y92.227 E27.75497
G1 X77.659 Y94.057 E27.84094
G1 X77.659 Y93.681 E27.85344
G1 X79.376 Y91.963 E27.93410
G1 X79.274 Y91.688 E27.94384
G1 X77.659 Y93.304 E28.01974
G1 X77.659 Y92.928 E28.03224
G1 X79.186 Y91.400 E28.10397
G1 X79.105 Y91.105 E28.11415
G1 X77.659 Y92.551 E28.18208
G1 X77.659 Y92.175 E28.19459
G1 X79.042 Y90.791 E28.25958
G1 X78.993 Y90.463 E28.27058
G1 X77.659 Y91.798 E28.33326
G1 X77.659 Y91.421 E28.34577
G1 X78.957 Y90.123 E28.40677
G1 X78.943 Y89.760 E28.41881
G1 X77.659 Y91.045 E28.47915
G1 X77.659 Y90.668 E28.49165
G1 X78.953 Y89.373 E28.55247
G1 X78.990 Y88.961 E28.56623
G1 X77.659 Y90.292 E28.62874
G1 X77.659 Y89.915 E28.64125
G1 X79.060 Y88.514 E28.70708
G1 X79.179 Y88.019 E28.72398
