; generated by Slic3r 1.3.1-dev (Build adea0d9) on 2020-02-19 at 18:28:10

; external perimeters extrusion width = 0.44mm (2.86mm^3/s)
; perimeters extrusion width = 0.56mm (4.14mm^3/s)
; infill extrusion width = 0.50mm (3.66mm^3/s)
; solid infill extrusion width = 0.56mm (3.10mm^3/s)
; top infill extrusion width = 0.56mm (3.10mm^3/s)

M107
G92 E0
;D3D:START:START
T0
M104 S215 T0

G21
G90
M107
T0
G28
G29
M109 T0 S215 T0
G0 F3000
M107
T0
G92 E0
G0 X0 Y149 Z0.1 F3600
G1 Y49 E6.5 F1200
G0 Z1
G92 E0
; Filament gcode

G21 ; set units to millimeters
G90 ; use absolute coordinates
M82 ; use absolute distances for extrusion
G92 E0
G1 Z0.300 F7800.000
G1 E-2.00000 F2400.00000
G92 E0
G1 X70.895 Y71.144 F7800.000
G1 E2.00000 F2400.00000
G1 F1800.000
G1 X71.410 Y70.659 E2.02343
G1 X71.983 Y70.244 E2.04686
G1 X72.602 Y69.903 E2.07029
G1 X73.260 Y69.643 E2.09372
G1 X73.945 Y69.467 E2.11715
G1 X74.646 Y69.378 E2.14058
G1 X75.354 Y69.378 E2.16401
G1 X76.055 Y69.467 E2.18744
G1 X76.740 Y69.643 E2.21086
G1 X77.398 Y69.903 E2.23429
G1 X78.017 Y70.244 E2.25772
G1 X78.590 Y70.659 E2.28115
G1 X79.105 Y71.144 E2.30458
G1 X79.556 Y71.688 E2.32801
G1 X79.935 Y72.286 E2.35144
G1 X80.236 Y72.925 E2.37487
G1 X80.455 Y73.598 E2.39830
G1 X80.587 Y74.293 E2.42173
G1 X80.631 Y74.999 E2.44516
G1 X80.587 Y75.704 E2.46859
G1 X80.455 Y76.399 E2.49202
G1 X80.237 Y77.068 E2.51532
G1 X79.935 Y77.712 E2.53888
G1 X79.556 Y78.309 E2.56230
G1 X79.105 Y78.854 E2.58573
G1 X78.590 Y79.338 E2.60916
G1 X78.017 Y79.753 E2.63259
G1 X77.398 Y80.094 E2.65602
G1 X76.740 Y80.354 E2.67945
G1 X76.055 Y80.530 E2.70288
G1 X75.354 Y80.619 E2.72631
G1 X74.646 Y80.619 E2.74974
G1 X73.945 Y80.530 E2.77317
G1 X73.260 Y80.354 E2.79660
G1 X72.602 Y80.094 E2.82003
G1 X71.983 Y79.753 E2.84346
G1 X71.410 Y79.338 E2.86689
G1 X70.895 Y78.854 E2.89032
G1 X70.444 Y78.309 E2.91375
G1 X70.065 Y77.712 E2.93717
G1 X69.764 Y77.072 E2.96060
G1 X69.545 Y76.399 E2.98403
G1 X69.413 Y75.704 E3.00746
G1 X69.369 Y74.999 E3.03089
G1 X69.413 Y74.293 E3.05432
G1 X69.545 Y73.598 E3.07775
G1 X69.764 Y72.925 E3.10118
G1 X70.065 Y72.286 E3.12461
G1 X70.444 Y71.688 E3.14804
G1 X70.857 Y71.190 E3.16948
G1 X71.089 Y71.326 F7800.000
G1 F1800.000
G1 X71.580 Y70.864 E3.19180
G1 X72.125 Y70.468 E3.21413
G1 X72.716 Y70.144 E3.23645
G1 X73.342 Y69.896 E3.25877
G1 X73.995 Y69.728 E3.28109
G1 X74.663 Y69.644 E3.30341
G1 X75.337 Y69.644 E3.32574
G1 X76.005 Y69.728 E3.34806
G1 X76.658 Y69.896 E3.37038
G1 X77.284 Y70.144 E3.39270
G1 X77.875 Y70.468 E3.41502
G1 X78.420 Y70.864 E3.43735
G1 X78.911 Y71.326 E3.45967
G1 X79.341 Y71.845 E3.48199
G1 X79.702 Y72.414 E3.50431
G1 X79.989 Y73.023 E3.52663
G1 X80.197 Y73.664 E3.54896
G1 X80.323 Y74.326 E3.57128
G1 X80.365 Y74.999 E3.59360
G1 X80.323 Y75.671 E3.61592
G1 X80.197 Y76.333 E3.63825
G1 X79.989 Y76.974 E3.66057
G1 X79.702 Y77.583 E3.68289
G1 X79.341 Y78.152 E3.70521
G1 X78.911 Y78.671 E3.72753
G1 X78.420 Y79.133 E3.74986
G1 X77.875 Y79.529 E3.77218
G1 X77.284 Y79.853 E3.79450
G1 X76.658 Y80.101 E3.81682
G1 X76.005 Y80.269 E3.83914
G1 X75.337 Y80.353 E3.86147
G1 X74.663 Y80.353 E3.88379
G1 X73.995 Y80.269 E3.90611
G1 X73.342 Y80.101 E3.92843
G1 X72.716 Y79.853 E3.95075
G1 X72.125 Y79.529 E3.97308
G1 X71.580 Y79.133 E3.99540
G1 X71.089 Y78.671 E4.01772
G1 X70.659 Y78.152 E4.04004
G1 X70.298 Y77.583 E4.06237
G1 X70.011 Y76.974 E4.08469
G1 X69.803 Y76.333 E4.10701
G1 X69.677 Y75.671 E4.12933
G1 X69.635 Y74.999 E4.15165
G1 X69.677 Y74.326 E4.17398
G1 X69.803 Y73.664 E4.19630
G1 X70.011 Y73.023 E4.21862
G1 X70.298 Y72.414 E4.24094
G1 X70.659 Y71.845 E4.26326
G1 X71.051 Y71.372 E4.28360
G1 X69.856 Y71.905 F7800.000
G1 F1800.000
G1 X69.856 Y65.108 E4.50877
G1 X71.928 Y65.311 E4.57774
G1 X75.920 Y65.748 E4.71078
G1 X80.144 Y66.262 E4.85174
G1 X80.144 Y71.905 E5.03868
G1 X80.029 Y71.938 E5.04264
G1 X79.771 Y71.532 E5.05857
G1 X79.299 Y70.961 E5.08311
G1 X78.759 Y70.454 E5.10764
G1 X78.160 Y70.019 E5.13218
G1 X77.511 Y69.662 E5.15672
G1 X76.822 Y69.390 E5.18125
G1 X76.105 Y69.205 E5.20579
G1 X75.370 Y69.113 E5.23033
G1 X74.630 Y69.113 E5.25486
G1 X73.895 Y69.205 E5.27940
G1 X73.178 Y69.390 E5.30394
G1 X72.489 Y69.662 E5.32847
G1 X71.840 Y70.019 E5.35301
G1 X71.241 Y70.454 E5.37755
G1 X70.701 Y70.961 E5.40208
G1 X70.229 Y71.532 E5.42662
G1 X69.971 Y71.938 E5.44255
G1 X69.914 Y71.921 E5.44452
G1 X69.397 Y73.195 F7800.000
G1 F1800.000
G1 X69.288 Y73.532 E5.45626
G1 X69.149 Y74.259 E5.48080
G1 X69.102 Y74.999 E5.50534
G1 X69.149 Y75.738 E5.52987
G1 X69.288 Y76.465 E5.55441
G1 X69.397 Y76.802 E5.56615
G1 X59.696 Y76.802 E5.88754
G1 X59.696 Y73.195 E6.00706
G1 X69.337 Y73.195 E6.32646
G1 E4.32646 F2400.00000
G92 E0
G1 X69.856 Y78.093 F7800.000
G1 E2.00000 F2400.00000
G1 F1800.000
G1 X69.971 Y78.059 E2.00396
G1 X70.229 Y78.465 E2.01989
G1 X70.701 Y79.036 E2.04443
G1 X71.241 Y79.543 E2.06896
G1 X71.840 Y79.978 E2.09350
G1 X72.489 Y80.335 E2.11804
G1 X73.178 Y80.608 E2.14257
G1 X73.895 Y80.792 E2.16711
G1 X74.630 Y80.885 E2.19165
G1 X75.370 Y80.885 E2.21618
G1 X76.105 Y80.792 E2.24072
G1 X76.822 Y80.608 E2.26526
G1 X77.511 Y80.335 E2.28979
G1 X78.160 Y79.978 E2.31433
G1 X78.759 Y79.543 E2.33887
G1 X79.299 Y79.036 E2.36340
G1 X79.771 Y78.465 E2.38794
G1 X80.029 Y78.059 E2.40387
G1 X80.144 Y78.093 E2.40783
G1 X80.144 Y83.741 E2.59496
G1 X77.443 Y84.072 E2.68511
G1 X73.489 Y84.523 E2.81696
G1 X69.856 Y84.882 E2.93788
G1 X69.856 Y78.153 E3.16084
G1 E1.16084 F2400.00000
G92 E0
G1 X80.603 Y76.802 F7800.000
G1 E2.00000 F2400.00000
G1 F1800.000
G1 X80.712 Y76.465 E2.01174
G1 X80.851 Y75.738 E2.03628
G1 X80.898 Y74.999 E2.06082
G1 X80.851 Y74.259 E2.08535
G1 X80.712 Y73.532 E2.10989
G1 X80.603 Y73.195 E2.12163
G1 X90.304 Y73.195 E2.44302
G1 X90.304 Y76.802 E2.56253
G1 X80.663 Y76.802 E2.88194
G1 X80.409 Y77.068 F7800.000
G1 F1800.000
G1 X80.409 Y83.976 E3.11079
G1 X77.474 Y84.336 E3.20876
G1 X73.517 Y84.787 E3.34072
G1 X69.591 Y85.176 E3.47142
G1 X69.591 Y77.068 E3.74003
G1 X59.431 Y77.068 E4.07662
G1 X59.431 Y72.929 E4.21374
G1 X69.591 Y72.929 E4.55033
G1 X69.591 Y64.819 E4.81902
G1 X71.956 Y65.047 E4.89774
G1 X75.951 Y65.484 E5.03088
G1 X80.409 Y66.027 E5.17969
G1 X80.409 Y72.929 E5.40837
G1 X90.569 Y72.929 E5.74496
G1 X90.569 Y77.068 E5.88208
G1 X80.469 Y77.068 E6.21669
G1 X80.675 Y77.334 F7800.000
G1 F1800.000
G1 X80.675 Y84.211 E6.44453
G1 X77.505 Y84.600 E6.55033
G1 X73.545 Y85.052 E6.68239
G1 X69.325 Y85.469 E6.82287
G1 X69.325 Y77.334 E7.09238
G1 X59.165 Y77.334 E7.42898
G1 X59.165 Y72.664 E7.58369
G1 X69.325 Y72.664 E7.92029
G1 X69.325 Y64.529 E8.18978
G1 X71.983 Y64.783 E8.27824
G1 X75.981 Y65.220 E8.41149
G1 X80.675 Y65.791 E8.56814
G1 X80.675 Y72.664 E8.79582
G1 X90.835 Y72.664 E9.13241
G1 X90.835 Y77.334 E9.28713
G1 X80.735 Y77.334 E9.62174
G1 X80.268 Y77.368 F7800.000
G1 F1800.000
G1 X80.157 Y77.833 E9.63220
G1 X79.975 Y77.905 E9.63647
G1 E7.63647 F2400.00000
G92 E0
G1 X81.072 Y73.357 F7800.000
G1 E2.00000 F2400.00000
G1 F1800.000
G1 X80.865 Y73.564 E2.00979
G1 X80.926 Y73.882 E2.02063
G1 X81.451 Y73.357 E2.04548
G1 X81.831 Y73.357 E2.05819
G1 X80.987 Y74.201 E2.09813
G1 X81.025 Y74.542 E2.10963
G1 X82.211 Y73.357 E2.16574
G1 X82.590 Y73.357 E2.17845
G1 X81.048 Y74.899 E2.25147
G1 X81.049 Y75.277 E2.26412
G1 X82.970 Y73.357 E2.35502
G1 X83.349 Y73.357 E2.36773
G1 X81.024 Y75.682 E2.47780
G1 X81.012 Y75.874 E2.48425
G1 X80.965 Y76.121 E2.49265
G1 X83.729 Y73.357 E2.62350
G1 X84.108 Y73.357 E2.63620
G1 X80.875 Y76.590 E2.78926
G1 X80.865 Y76.640 E2.79096
G1 X81.205 Y76.640 E2.80234
G1 X84.488 Y73.357 E2.95775
G1 X84.867 Y73.357 E2.97046
G1 X81.584 Y76.640 E3.12587
G1 X81.964 Y76.640 E3.13858
G1 X85.247 Y73.357 E3.29400
G1 X85.627 Y73.357 E3.30670
G1 X82.344 Y76.640 E3.46212
G1 X82.723 Y76.640 E3.47482
G1 X86.006 Y73.357 E3.63024
G1 X86.386 Y73.357 E3.64294
G1 X83.103 Y76.640 E3.79836
G1 X83.482 Y76.640 E3.81106
G1 X86.765 Y73.357 E3.96648
G1 X87.145 Y73.357 E3.97918
G1 X83.862 Y76.640 E4.13460
G1 X84.241 Y76.640 E4.14730
G1 X87.524 Y73.357 E4.30272
G1 X87.904 Y73.357 E4.31543
G1 X84.621 Y76.640 E4.47084
G1 X85.000 Y76.640 E4.48355
G1 X88.283 Y73.357 E4.63896
G1 X88.663 Y73.357 E4.65167
G1 X85.380 Y76.640 E4.80708
G1 X85.760 Y76.640 E4.81979
G1 X89.043 Y73.357 E4.97520
G1 X89.422 Y73.357 E4.98791
G1 X86.139 Y76.640 E5.14332
G1 X86.519 Y76.640 E5.15603
G1 X89.802 Y73.357 E5.31144
G1 X90.141 Y73.357 E5.32282
G1 X90.141 Y73.397 E5.32415
G1 X86.898 Y76.640 E5.47768
G1 X87.278 Y76.640 E5.49039
G1 X90.141 Y73.776 E5.62596
G1 X90.141 Y74.156 E5.63866
G1 X87.657 Y76.640 E5.75626
G1 X88.037 Y76.640 E5.76896
G1 X90.141 Y74.535 E5.86859
G1 X90.141 Y74.915 E5.88130
G1 X88.416 Y76.640 E5.96296
G1 X88.796 Y76.640 E5.97566
G1 X90.141 Y75.295 E6.03936
G1 X90.141 Y75.674 E6.05206
G1 X89.176 Y76.640 E6.09779
G1 X89.555 Y76.640 E6.11049
G1 X90.141 Y76.054 E6.13825
G1 X90.141 Y76.433 E6.15095
G1 X89.935 Y76.640 E6.16074
G1 E4.16074 F2400.00000
G92 E0
G1 X80.268 Y72.629 F7800.000
G1 E2.00000 F2400.00000
G1 F1800.000
G1 X80.157 Y72.164 E2.01046
G1 X79.975 Y72.092 E2.01473
G1 X79.775 Y71.348 F7800.000
G1 F1800.000
G1 X79.981 Y71.141 E2.02454
G1 X79.981 Y70.761 E2.03731
G1 X79.603 Y71.140 E2.05529
G1 X79.430 Y70.931 E2.06436
G1 X79.981 Y70.380 E2.09052
G1 X79.981 Y70.000 E2.10328
G1 X79.240 Y70.741 E2.13849
G1 X79.043 Y70.557 E2.14752
G1 X79.981 Y69.619 E2.19203
G1 X79.981 Y69.239 E2.20480
G1 X78.847 Y70.373 E2.25863
G1 X78.630 Y70.210 E2.26775
G1 X79.981 Y68.858 E2.33190
G1 X79.981 Y68.478 E2.34467
G1 X78.409 Y70.050 E2.41929
G1 X78.188 Y69.891 E2.42844
G1 X79.981 Y68.097 E2.51357
G1 X79.981 Y67.717 E2.52633
G1 X77.942 Y69.756 E2.62311
G1 X77.697 Y69.621 E2.63252
G1 X79.981 Y67.336 E2.74095
G1 X79.981 Y66.956 E2.75371
G1 X77.443 Y69.494 E2.87416
G1 X77.171 Y69.386 E2.88400
G1 X79.981 Y66.575 E3.01738
G1 X79.981 Y66.394 E3.02348
G1 X79.804 Y66.372 E3.02947
G1 X76.898 Y69.278 E3.16738
G1 X76.606 Y69.190 E3.17762
G1 X79.465 Y66.331 E3.31328
G1 X79.126 Y66.290 E3.32475
G1 X76.303 Y69.112 E3.45868
G1 X75.995 Y69.040 E3.46932
G1 X78.787 Y66.248 E3.60180
G1 X78.447 Y66.207 E3.61327
G1 X75.657 Y68.997 E3.74569
G1 X75.319 Y68.955 E3.75712
G1 X78.108 Y66.166 E3.88947
G1 X77.769 Y66.125 E3.90094
G1 X74.943 Y68.950 E4.03504
G1 X74.563 Y68.950 E4.04780
G1 X77.430 Y66.083 E4.18386
G1 X77.091 Y66.042 E4.19533
G1 X74.135 Y68.998 E4.33559
G1 X73.692 Y69.060 E4.35060
G1 X76.751 Y66.001 E4.49579
G1 X76.412 Y65.959 E4.50725
G1 X73.180 Y69.192 E4.66064
G1 X72.992 Y69.240 E4.66715
G1 X72.593 Y69.398 E4.68153
G1 X76.073 Y65.918 E4.84665
G1 X75.731 Y65.880 E4.85820
G1 X71.858 Y69.752 E5.04199
G1 X71.594 Y69.898 E5.05210
G1 X70.968 Y70.353 E5.07807
G1 X70.404 Y70.882 E5.10405
G1 X70.019 Y71.348 E5.12431
G1 X70.019 Y71.212 E5.12889
G1 X75.388 Y65.842 E5.38369
G1 X75.045 Y65.805 E5.39527
G1 X70.019 Y70.831 E5.63380
G1 X70.019 Y70.451 E5.64657
G1 X74.702 Y65.767 E5.86882
G1 X74.359 Y65.730 E5.88040
G1 X70.019 Y70.070 E6.08638
G1 X70.019 Y69.690 E6.09915
G1 X74.016 Y65.692 E6.28885
G1 X73.673 Y65.655 E6.30043
G1 X70.019 Y69.309 E6.47386
G1 X70.019 Y68.929 E6.48663
G1 X73.330 Y65.617 E6.64378
G1 X72.987 Y65.580 E6.65536
G1 X70.019 Y68.548 E6.79624
G1 X70.019 Y68.168 E6.80901
G1 X72.644 Y65.542 E6.93361
G1 X72.301 Y65.504 E6.94519
G1 X70.019 Y67.787 E7.05351
G1 X70.019 Y67.407 E7.06628
G1 X71.958 Y65.467 E7.15831
G1 X71.611 Y65.433 E7.17000
G1 X70.019 Y67.026 E7.24558
G1 X70.019 Y66.646 E7.25835
G1 X71.265 Y65.399 E7.31749
G1 X70.918 Y65.366 E7.32918
G1 X70.019 Y66.265 E7.37188
G1 X70.019 Y65.885 E7.38464
G1 X70.572 Y65.332 E7.41090
G1 X70.225 Y65.298 E7.42258
G1 X70.019 Y65.504 E7.43239
G1 E5.43239 F2400.00000
G92 E0
G1 X70.025 Y72.092 F7800.000
G1 E2.00000 F2400.00000
G1 F1800.000
G1 X69.843 Y72.164 E2.00428
G1 X69.732 Y72.629 E2.01474
G1 E0.01474 F2400.00000
G92 E0
G1 X68.928 Y76.640 F7800.000
G1 E2.00000 F2400.00000
G1 F1800.000
G1 X69.135 Y76.433 E2.00979
G1 X69.074 Y76.115 E2.02063
G1 X68.549 Y76.640 E2.04548
G1 X68.169 Y76.640 E2.05819
G1 X69.013 Y75.796 E2.09812
G1 X68.975 Y75.455 E2.10963
G1 X67.790 Y76.640 E2.16574
G1 X67.410 Y76.640 E2.17844
G1 X68.952 Y75.098 E2.25146
G1 X68.951 Y74.720 E2.26411
G1 X67.030 Y76.640 E2.35501
G1 X66.651 Y76.640 E2.36772
G1 X68.976 Y74.315 E2.47779
G1 X68.988 Y74.123 E2.48424
G1 X69.035 Y73.876 E2.49264
G1 X66.271 Y76.640 E2.62348
G1 X65.892 Y76.640 E2.63619
G1 X69.125 Y73.407 E2.78924
G1 X69.135 Y73.357 E2.79095
G1 X68.795 Y73.357 E2.80232
G1 X65.512 Y76.640 E2.95774
G1 X65.133 Y76.640 E2.97044
G1 X68.416 Y73.357 E3.12586
G1 X68.036 Y73.357 E3.13856
G1 X64.753 Y76.640 E3.29398
G1 X64.374 Y76.640 E3.30668
G1 X67.656 Y73.357 E3.46210
G1 X67.277 Y73.357 E3.47481
G1 X63.994 Y76.640 E3.63022
G1 X63.614 Y76.640 E3.64293
G1 X66.897 Y73.357 E3.79834
G1 X66.518 Y73.357 E3.81105
G1 X63.235 Y76.640 E3.96646
G1 X62.855 Y76.640 E3.97917
G1 X66.138 Y73.357 E4.13458
G1 X65.759 Y73.357 E4.14729
G1 X62.476 Y76.640 E4.30270
G1 X62.096 Y76.640 E4.31541
G1 X65.379 Y73.357 E4.47082
G1 X65.000 Y73.357 E4.48353
G1 X61.717 Y76.640 E4.63895
G1 X61.337 Y76.640 E4.65165
G1 X64.620 Y73.357 E4.80707
G1 X64.240 Y73.357 E4.81977
G1 X60.957 Y76.640 E4.97519
G1 X60.578 Y76.640 E4.98789
G1 X63.861 Y73.357 E5.14331
G1 X63.481 Y73.357 E5.15601
G1 X60.198 Y76.640 E5.31143
G1 X59.859 Y76.640 E5.32280
G1 X59.859 Y76.600 E5.32413
G1 X63.102 Y73.357 E5.47767
G1 X62.722 Y73.357 E5.49037
G1 X59.859 Y76.221 E5.62594
G1 X59.859 Y75.841 E5.63865
G1 X62.343 Y73.357 E5.75625
G1 X61.963 Y73.357 E5.76895
G1 X59.859 Y75.462 E5.86858
G1 X59.859 Y75.082 E5.88129
G1 X61.584 Y73.357 E5.96295
G1 X61.204 Y73.357 E5.97566
G1 X59.859 Y74.703 E6.03935
G1 X59.859 Y74.323 E6.05205
G1 X60.824 Y73.357 E6.09778
G1 X60.445 Y73.357 E6.11049
G1 X59.859 Y73.943 E6.13824
G1 X59.859 Y73.564 E6.15095
G1 X60.065 Y73.357 E6.16074
G1 E4.16074 F2400.00000
G92 E0
G1 X69.732 Y77.368 F7800.000
G1 E2.00000 F2400.00000
G1 F1800.000
G1 X69.843 Y77.833 E2.01046
G1 X70.025 Y77.905 E2.01474
G1 X70.225 Y78.649 F7800.000
G1 F1800.000
G1 X70.019 Y78.856 E2.02458
G1 X70.019 Y79.238 E2.03744
G1 X70.398 Y78.858 E2.05551
G1 X70.571 Y79.067 E2.06464
G1 X70.019 Y79.620 E2.09095
G1 X70.019 Y80.002 E2.10381
G1 X70.762 Y79.258 E2.13924
G1 X70.959 Y79.443 E2.14833
G1 X70.019 Y80.383 E2.19314
G1 X70.019 Y80.765 E2.20599
G1 X71.156 Y79.627 E2.26017
G1 X71.375 Y79.790 E2.26936
G1 X70.019 Y81.147 E2.33397
G1 X70.019 Y81.529 E2.34683
G1 X71.596 Y79.951 E2.42197
G1 X71.819 Y80.110 E2.43119
G1 X70.019 Y81.911 E2.51695
G1 X70.019 Y82.292 E2.52981
G1 X72.066 Y80.245 E2.62730
G1 X72.312 Y80.381 E2.63677
G1 X70.019 Y82.674 E2.74600
G1 X70.019 Y83.056 E2.75885
G1 X72.567 Y80.507 E2.88023
G1 X72.841 Y80.616 E2.89014
G1 X70.019 Y83.438 E3.02455
G1 X70.019 Y83.820 E3.03740
G1 X73.114 Y80.724 E3.18484
G1 X73.409 Y80.811 E3.19518
G1 X70.019 Y84.202 E3.35663
G1 X70.019 Y84.583 E3.36949
G1 X73.713 Y80.889 E3.54542
G1 X74.024 Y80.959 E3.55618
G1 X70.321 Y84.663 E3.73254
G1 X70.745 Y84.621 E3.74687
G1 X74.363 Y81.002 E3.91920
G1 X74.702 Y81.045 E3.93071
G1 X71.169 Y84.579 E4.09900
G1 X71.592 Y84.537 E4.11334
G1 X75.082 Y81.047 E4.27955
G1 X75.464 Y81.047 E4.29241
G1 X72.016 Y84.495 E4.45662
G1 X72.440 Y84.453 E4.47096
G1 X75.897 Y80.995 E4.63564
G1 X76.348 Y80.927 E4.65098
G1 X72.863 Y84.411 E4.81692
G1 X73.287 Y84.369 E4.83126
G1 X76.862 Y80.795 E5.00149
G1 X77.008 Y80.757 E5.00658
G1 X77.460 Y80.578 E5.02295
G1 X73.717 Y84.321 E5.20121
G1 X74.148 Y84.272 E5.21582
G1 X78.217 Y80.204 E5.40959
G1 X78.406 Y80.099 E5.41686
G1 X79.032 Y79.644 E5.44293
G1 X79.596 Y79.115 E5.46900
G1 X79.981 Y78.649 E5.48934
G1 X79.981 Y78.821 E5.49510
G1 X74.579 Y84.223 E5.75240
G1 X75.010 Y84.174 E5.76700
G1 X79.981 Y79.202 E6.00377
G1 X79.981 Y79.584 E6.01663
G1 X75.441 Y84.125 E6.23288
G1 X75.872 Y84.076 E6.24749
G1 X79.981 Y79.966 E6.44321
G1 X79.981 Y80.348 E6.45607
G1 X76.303 Y84.027 E6.63127
G1 X76.734 Y83.978 E6.64587
G1 X79.981 Y80.730 E6.80055
G1 X79.981 Y81.111 E6.81341
G1 X77.164 Y83.928 E6.94756
G1 X77.598 Y83.876 E6.96228
G1 X79.981 Y81.493 E7.07577
G1 X79.981 Y81.875 E7.08863
G1 X78.034 Y83.823 E7.18139
G1 X78.469 Y83.770 E7.19616
G1 X79.981 Y82.257 E7.26819
G1 X79.981 Y82.639 E7.28105
