; generated by Slic3r 1.3.1-dev (Build adea0d9) on 2020-02-19 at 18:03:32

; external perimeters extrusion width = 0.44mm (2.86mm^3/s)
; perimeters extrusion width = 0.56mm (4.14mm^3/s)
; infill extrusion width = 0.50mm (3.66mm^3/s)
; solid infill extrusion width = 0.56mm (3.10mm^3/s)
; top infill extrusion width = 0.56mm (3.10mm^3/s)

M107
G92 E0
;D3D:START:START
T0
M104 S215 T0

G21
G90
M107
T0
G28
G29
M109 T0 S215 T0
G0 F3000
M107
T0
G92 E0
G0 X0 Y149 Z0.1 F3600
G1 Y49 E6.5 F1200
G0 Z1
G92 E0
; Filament gcode

G21 ; set units to millimeters
G90 ; use absolute coordinates
M82 ; use absolute distances for extrusion
G92 E0
G1 Z0.300 F7800.000
G1 E-2.00000 F2400.00000
G92 E0
G1 X16.320 Y23.196 F7800.000
G1 E2.00000 F2400.00000
G1 F1800.000
G1 X16.228 Y21.240 E2.06486
G1 X16.179 Y18.196 E2.16573
G1 X19.136 Y18.196 E2.26369
G1 X19.182 Y21.148 E2.36148
G1 X19.354 Y24.792 E2.48234
G1 X19.640 Y28.429 E2.60320
G1 X20.040 Y32.055 E2.72406
G1 X20.555 Y35.666 E2.84492
G1 X20.781 Y36.961 E2.88846
G1 X21.182 Y39.260 E2.96578
G1 X21.922 Y42.832 E3.08664
G1 X22.773 Y46.380 E3.20749
G1 X23.736 Y49.899 E3.32836
G1 X24.809 Y53.385 E3.44922
G1 X25.991 Y56.837 E3.57008
G1 X27.280 Y60.249 E3.69094
G1 X28.676 Y63.620 E3.81180
G1 X30.177 Y66.945 E3.93265
G1 X31.782 Y70.221 E4.05352
G1 X33.489 Y73.445 E4.17437
G1 X35.297 Y76.614 E4.29524
G1 X37.203 Y79.724 E4.41610
G1 X39.206 Y82.773 E4.53696
G1 X41.303 Y85.758 E4.65782
G1 X43.494 Y88.675 E4.77868
G1 X45.775 Y91.522 E4.89954
G1 X48.144 Y94.296 E5.02039
G1 X50.599 Y96.995 E5.14125
G1 X53.138 Y99.614 E5.26211
G1 X55.758 Y102.153 E5.38298
G1 X58.456 Y104.608 E5.50383
G1 X61.230 Y106.978 E5.62469
G1 X64.077 Y109.259 E5.74555
G1 X66.995 Y111.449 E5.86641
G1 X69.979 Y113.547 E5.98727
G1 X73.028 Y115.550 E6.10813
G1 X76.139 Y117.456 E6.22899
G1 X79.308 Y119.263 E6.34985
G1 X82.532 Y120.970 E6.47071
G1 X85.808 Y122.575 E6.59157
G1 X89.133 Y124.076 E6.71243
G1 X92.503 Y125.472 E6.83329
G1 X95.916 Y126.762 E6.95415
G1 X99.367 Y127.944 E7.07501
G1 X100.188 Y128.196 E7.10347
G1 X118.816 Y128.196 E7.72061
G1 X118.816 Y131.804 E7.84012
G1 X99.085 Y131.804 E8.49382
G1 X98.201 Y131.532 E8.52444
G1 X94.638 Y130.312 E8.64923
G1 X91.114 Y128.980 E8.77402
G1 X87.634 Y127.539 E8.89881
G1 X84.201 Y125.989 E9.02359
G1 X80.819 Y124.332 E9.14837
G1 X80.307 Y124.061 E9.16756
G1 X80.715 Y123.354 E9.19461
G1 X77.883 Y121.854 E9.30079
G1 X74.634 Y120.001 E9.42472
G1 X70.839 Y117.675 E9.57217
G1 X70.441 Y118.363 E9.59851
G1 X67.858 Y116.667 E9.70089
G1 X64.777 Y114.501 E9.82567
G1 X61.765 Y112.240 E9.95046
G1 X58.825 Y109.885 E10.07525
G1 X55.961 Y107.439 E10.20003
G1 X53.175 Y104.904 E10.32482
G1 X50.470 Y102.282 E10.44961
G1 X47.849 Y99.577 E10.57439
G1 X45.314 Y96.791 E10.69918
G1 X42.868 Y93.927 E10.82397
G1 X40.513 Y90.988 E10.94875
G1 X38.251 Y87.976 E11.07354
G1 X36.085 Y84.894 E11.19832
G1 X34.389 Y82.311 E11.30070
G1 X35.078 Y81.914 E11.32704
G1 X32.752 Y78.119 E11.47449
G1 X30.899 Y74.869 E11.59842
G1 X29.399 Y72.037 E11.70460
G1 X28.692 Y72.445 E11.73165
G1 X28.420 Y71.934 E11.75084
G1 X26.763 Y68.551 E11.87562
G1 X25.214 Y65.118 E12.00040
G1 X23.772 Y61.638 E12.12519
G1 X22.440 Y58.115 E12.24998
G1 X21.221 Y54.551 E12.37476
G1 X20.113 Y50.951 E12.49955
G1 X19.119 Y47.318 E12.62434
G1 X18.240 Y43.655 E12.74913
G1 X17.476 Y39.967 E12.87391
G1 X16.828 Y36.256 E12.99870
G1 X16.297 Y32.527 E13.12349
G1 X15.884 Y28.784 E13.24827
G1 X15.589 Y25.029 E13.37306
G1 X15.503 Y23.196 E13.43383
G1 X16.260 Y23.196 E13.45891
G1 X16.041 Y22.931 F7800.000
G1 F1800.000
G1 X15.962 Y21.249 E13.51469
G1 X15.909 Y17.931 E13.62463
G1 X19.397 Y17.931 E13.74019
G1 X19.448 Y21.139 E13.84651
G1 X19.619 Y24.775 E13.96709
G1 X19.905 Y28.404 E14.08768
G1 X20.304 Y32.021 E14.20826
G1 X20.818 Y35.625 E14.32884
G1 X21.443 Y39.210 E14.44943
G1 X22.181 Y42.774 E14.57001
G1 X23.031 Y46.314 E14.69059
G1 X23.991 Y49.824 E14.81117
G1 X25.062 Y53.303 E14.93176
G1 X26.241 Y56.747 E15.05235
G1 X27.527 Y60.152 E15.17293
G1 X28.920 Y63.514 E15.29351
G1 X30.417 Y66.831 E15.41409
G1 X32.019 Y70.100 E15.53468
G1 X33.722 Y73.317 E15.65526
G1 X35.525 Y76.478 E15.77584
G1 X37.427 Y79.582 E15.89643
G1 X39.426 Y82.624 E16.01701
G1 X41.518 Y85.602 E16.13759
G1 X43.704 Y88.512 E16.25818
G1 X45.980 Y91.353 E16.37876
G1 X48.343 Y94.121 E16.49934
G1 X50.793 Y96.813 E16.61992
G1 X53.326 Y99.427 E16.74051
G1 X55.940 Y101.960 E16.86109
G1 X58.632 Y104.409 E16.98168
G1 X61.399 Y106.773 E17.10226
G1 X64.240 Y109.049 E17.22284
G1 X67.151 Y111.234 E17.34343
G1 X70.129 Y113.327 E17.46401
G1 X73.171 Y115.325 E17.58459
G1 X76.274 Y117.227 E17.70517
G1 X79.436 Y119.030 E17.82576
G1 X82.652 Y120.734 E17.94634
G1 X85.921 Y122.335 E18.06693
G1 X89.238 Y123.832 E18.18751
G1 X92.601 Y125.225 E18.30809
G1 X96.006 Y126.512 E18.42867
G1 X99.449 Y127.691 E18.54925
G1 X100.228 Y127.931 E18.57625
G1 X119.082 Y127.931 E19.20087
G1 X119.082 Y132.069 E19.33799
G1 X99.045 Y132.069 E20.00180
G1 X98.119 Y131.784 E20.03389
G1 X94.548 Y130.562 E20.15895
G1 X91.016 Y129.227 E20.28402
G1 X87.529 Y127.783 E20.40908
G1 X84.088 Y126.229 E20.53414
G1 X80.698 Y124.569 E20.65920
G1 X79.939 Y124.167 E20.68766
G1 X80.348 Y123.460 E20.71471
G1 X77.755 Y122.086 E20.81190
G1 X74.499 Y120.230 E20.93610
G1 X70.933 Y118.044 E21.07466
G1 X70.531 Y118.740 E21.10129
G1 X67.709 Y116.887 E21.21312
G1 X64.621 Y114.716 E21.33818
G1 X61.602 Y112.450 E21.46325
G1 X58.656 Y110.089 E21.58831
G1 X55.785 Y107.638 E21.71337
G1 X52.993 Y105.097 E21.83844
G1 X50.282 Y102.470 E21.96350
G1 X47.655 Y99.759 E22.08856
G1 X45.115 Y96.967 E22.21363
G1 X42.663 Y94.097 E22.33869
G1 X40.303 Y91.151 E22.46375
G1 X38.036 Y88.132 E22.58881
G1 X35.866 Y85.043 E22.71388
G1 X34.013 Y82.222 E22.82571
G1 X34.709 Y81.820 E22.85233
G1 X32.523 Y78.254 E22.99090
G1 X30.666 Y74.997 E23.11510
G1 X29.293 Y72.405 E23.21229
G1 X28.586 Y72.813 E23.23934
G1 X28.184 Y72.054 E23.26780
G1 X26.523 Y68.664 E23.39286
G1 X24.970 Y65.224 E23.51791
G1 X23.525 Y61.736 E23.64298
G1 X22.191 Y58.205 E23.76805
G1 X20.968 Y54.633 E23.89310
G1 X19.858 Y51.025 E24.01817
G1 X18.862 Y47.384 E24.14323
G1 X17.980 Y43.713 E24.26829
G1 X17.215 Y40.017 E24.39336
G1 X16.566 Y36.298 E24.51842
G1 X16.034 Y32.561 E24.64349
G1 X15.619 Y28.809 E24.76855
G1 X15.324 Y25.045 E24.89361
G1 X15.224 Y22.931 E24.96375
G1 X15.981 Y22.931 E24.98883
G1 X15.763 Y22.665 F7800.000
G1 F1800.000
G1 X15.697 Y21.257 E25.03552
G1 X15.639 Y17.665 E25.15454
G1 X19.659 Y17.665 E25.28770
G1 X19.713 Y21.131 E25.40254
G1 X19.885 Y24.758 E25.52285
G1 X20.169 Y28.379 E25.64316
G1 X20.568 Y31.988 E25.76346
G1 X21.080 Y35.583 E25.88377
G1 X21.704 Y39.161 E26.00408
G1 X22.441 Y42.716 E26.12438
G1 X23.288 Y46.248 E26.24469
G1 X24.246 Y49.750 E26.36499
G1 X25.314 Y53.221 E26.48531
G1 X26.491 Y56.657 E26.60561
G1 X27.381 Y59.013 E26.68907
G1 X27.774 Y60.054 E26.72592
G1 X29.164 Y63.409 E26.84623
G1 X30.658 Y66.718 E26.96653
G1 X32.256 Y69.980 E27.08684
G1 X33.955 Y73.189 E27.20714
G1 X35.754 Y76.343 E27.32745
G1 X37.652 Y79.439 E27.44776
G1 X39.645 Y82.475 E27.56807
G1 X41.733 Y85.446 E27.68837
G1 X43.914 Y88.350 E27.80868
G1 X46.184 Y91.184 E27.92899
G1 X48.543 Y93.945 E28.04929
G1 X50.987 Y96.631 E28.16960
G1 X53.514 Y99.239 E28.28991
G1 X56.122 Y101.766 E28.41021
G1 X58.807 Y104.210 E28.53052
G1 X61.569 Y106.568 E28.65083
G1 X64.403 Y108.839 E28.77113
G1 X67.307 Y111.019 E28.89144
G1 X70.278 Y113.107 E29.01175
G1 X73.313 Y115.101 E29.13205
G1 X76.409 Y116.998 E29.25236
G1 X79.564 Y118.798 E29.37267
G1 X82.773 Y120.497 E29.49298
G1 X86.034 Y122.095 E29.61328
G1 X89.344 Y123.589 E29.73358
G1 X92.699 Y124.978 E29.85389
G1 X96.096 Y126.262 E29.97420
G1 X99.531 Y127.438 E30.09451
G1 X100.268 Y127.665 E30.12004
G1 X119.348 Y127.665 E30.75214
G1 X119.348 Y131.865 E30.89128
G1 X134.617 Y131.865 E31.39717
G1 X134.617 Y127.665 E31.53631
G1 X135.088 Y127.665 E31.55188
G1 X135.088 Y132.335 E31.70660
G1 X99.005 Y132.335 E32.90200
G1 X98.037 Y132.037 E32.93554
G1 X94.458 Y130.812 E33.06088
G1 X90.919 Y129.474 E33.18623
G1 X87.423 Y128.026 E33.31157
G1 X83.975 Y126.470 E33.43690
G1 X80.578 Y124.805 E33.56224
G1 X79.571 Y124.272 E33.59997
G1 X79.980 Y123.565 E33.62702
G1 X77.627 Y122.319 E33.71521
G1 X74.363 Y120.458 E33.83969
G1 X71.026 Y118.413 E33.96936
G1 X70.620 Y119.116 E33.99627
G1 X67.560 Y117.107 E34.11756
G1 X64.465 Y114.931 E34.24290
G1 X61.439 Y112.660 E34.36824
G1 X58.487 Y110.294 E34.49358
G1 X55.610 Y107.837 E34.61892
G1 X52.811 Y105.291 E34.74426
G1 X50.094 Y102.658 E34.86960
G1 X47.462 Y99.941 E34.99494
G1 X44.915 Y97.143 E35.12028
G1 X42.458 Y94.266 E35.24562
G1 X40.093 Y91.313 E35.37096
G1 X37.821 Y88.288 E35.49630
G1 X35.646 Y85.193 E35.62164
G1 X33.636 Y82.132 E35.74293
G1 X34.340 Y81.726 E35.76984
G1 X32.294 Y78.389 E35.89951
G1 X30.433 Y75.125 E36.02399
G1 X29.187 Y72.773 E36.11218
G1 X28.480 Y73.181 E36.13923
G1 X27.947 Y72.175 E36.17696
G1 X26.283 Y68.777 E36.30230
G1 X24.726 Y65.329 E36.42763
G1 X23.278 Y61.834 E36.55297
G1 X21.941 Y58.295 E36.67832
G1 X20.715 Y54.715 E36.80365
G1 X19.603 Y51.099 E36.92899
G1 X18.605 Y47.450 E37.05433
G1 X17.721 Y43.771 E37.17967
G1 X16.954 Y40.067 E37.30501
G1 X16.303 Y36.340 E37.43035
G1 X15.770 Y32.594 E37.55569
G1 X15.355 Y28.834 E37.68103
G1 X15.058 Y25.062 E37.80637
G1 X14.946 Y22.665 E37.88587
G1 X15.703 Y22.665 E37.91095
G1 X15.861 Y23.565 F7800.000
G1 F1800.000
G1 X15.678 Y23.565 E37.91702
G1 X15.686 Y23.740 E37.92283
G1 X16.067 Y23.359 E37.94073
G1 X16.444 Y23.359 E37.95321
G1 X15.703 Y24.099 E37.98797
G1 E35.98797 F2400.00000
G92 E0
G1 X16.553 Y18.359 F7800.000
G1 E2.00000 F2400.00000
G1 F1800.000
G1 X16.346 Y18.566 E2.00973
G1 X16.352 Y18.936 E2.02202
G1 X16.929 Y18.359 E2.04912
G1 X17.305 Y18.359 E2.06160
G1 X16.358 Y19.306 E2.10608
G1 X16.363 Y19.677 E2.11837
G1 X17.682 Y18.359 E2.18022
G1 X18.058 Y18.359 E2.19270
G1 X16.369 Y20.047 E2.27192
G1 X16.375 Y20.417 E2.28421
G1 X18.434 Y18.359 E2.38081
G1 X18.810 Y18.359 E2.39329
G1 X16.381 Y20.788 E2.50727
G1 X16.387 Y21.158 E2.51955
G1 X18.981 Y18.564 E2.64127
G1 X18.987 Y18.934 E2.65355
G1 X16.399 Y21.523 E2.77500
G1 X16.415 Y21.882 E2.78693
G1 X18.993 Y19.305 E2.90785
G1 X18.999 Y19.675 E2.92014
G1 X16.432 Y22.241 E3.04055
G1 X16.449 Y22.600 E3.05248
G1 X19.004 Y20.045 E3.17236
G1 X19.010 Y20.416 E3.18465
G1 X16.466 Y22.960 E3.30402
G1 X16.483 Y23.319 E3.31595
G1 X19.016 Y20.786 E3.43480
G1 X19.025 Y21.153 E3.44699
G1 X15.720 Y24.459 E3.60208
G1 X15.737 Y24.818 E3.61401
G1 X19.042 Y21.512 E3.76910
G1 X19.059 Y21.872 E3.78103
G1 X15.755 Y25.175 E3.93604
G1 X15.783 Y25.524 E3.94764
G1 X19.076 Y22.231 E4.10216
G1 X19.093 Y22.590 E4.11409
G1 X15.810 Y25.873 E4.26811
G1 X15.837 Y26.222 E4.27972
G1 X19.110 Y22.949 E4.43325
G1 X19.127 Y23.309 E4.44518
G1 X15.865 Y26.570 E4.59822
G1 X15.892 Y26.919 E4.60983
G1 X19.144 Y23.668 E4.76238
G1 X19.161 Y24.027 E4.77431
G1 X15.920 Y27.268 E4.92637
G1 X15.947 Y27.617 E4.93797
G1 X19.177 Y24.386 E5.08954
G1 X19.196 Y24.744 E5.10143
G1 X15.975 Y27.965 E5.25256
G1 X16.002 Y28.314 E5.26417
G1 X19.223 Y25.093 E5.41530
G1 X19.250 Y25.442 E5.42690
G1 X16.029 Y28.663 E5.57803
G1 X16.061 Y29.007 E5.58951
G1 X19.278 Y25.791 E5.74043
G1 X19.305 Y26.140 E5.75204
G1 X16.099 Y29.346 E5.90250
G1 X16.136 Y29.685 E5.91381
G1 X19.333 Y26.488 E6.06379
G1 X19.360 Y26.837 E6.07540
G1 X16.173 Y30.024 E6.22492
G1 X16.211 Y30.363 E6.23623
G1 X19.388 Y27.186 E6.38528
G1 X19.415 Y27.535 E6.39688
G1 X16.248 Y30.701 E6.54546
G1 X16.286 Y31.040 E6.55677
G1 X19.442 Y27.883 E6.70488
G1 X19.470 Y28.232 E6.71649
G1 X16.323 Y31.379 E6.86413
G1 X16.360 Y31.718 E6.87544
G1 X19.504 Y28.574 E7.02292
G1 X19.541 Y28.913 E7.03423
G1 X16.398 Y32.056 E7.18171
G1 X16.435 Y32.395 E7.19302
G1 X19.579 Y29.252 E7.34050
G1 X19.616 Y29.591 E7.35181
G1 X16.477 Y32.730 E7.49911
G1 X16.523 Y33.059 E7.51014
G1 X19.653 Y29.929 E7.65700
G1 X19.691 Y30.268 E7.66831
G1 X16.570 Y33.389 E7.81472
G1 X16.617 Y33.718 E7.82575
G1 X19.728 Y30.607 E7.97172
G1 X19.766 Y30.946 E7.98303
G1 X16.664 Y34.047 E8.12855
G1 X16.711 Y34.377 E8.13958
G1 X19.803 Y31.285 E8.28466
G1 X19.840 Y31.623 E8.29597
G1 X16.758 Y34.706 E8.44060
G1 X16.805 Y35.035 E8.45163
G1 X19.878 Y31.962 E8.59582
G1 X19.924 Y32.292 E8.60687
G1 X16.852 Y35.365 E8.75103
G1 X16.898 Y35.694 E8.76206
G1 X19.971 Y32.621 E8.90623
G1 X20.018 Y32.951 E8.91726
G1 X16.945 Y36.023 E9.06142
G1 X16.993 Y36.352 E9.07243
G1 X20.065 Y33.280 E9.21656
G1 X20.112 Y33.609 E9.22759
G1 X17.049 Y36.672 E9.37129
G1 X17.105 Y36.992 E9.38208
G1 X20.159 Y33.938 E9.52536
G1 X20.206 Y34.268 E9.53639
G1 X17.161 Y37.312 E9.67925
G1 X17.217 Y37.633 E9.69004
G1 X20.253 Y34.597 E9.83247
G1 X20.300 Y34.926 E9.84350
G1 X17.273 Y37.953 E9.98552
G1 X17.329 Y38.273 E9.99630
G1 X20.346 Y35.255 E10.13790
G1 X20.393 Y35.585 E10.14893
G1 X17.385 Y38.593 E10.29010
G1 X17.441 Y38.914 E10.30088
G1 X20.449 Y35.905 E10.44202
G1 X20.505 Y36.226 E10.45281
G1 X17.497 Y39.234 E10.59395
G1 X17.552 Y39.554 E10.60474
G1 X20.560 Y36.546 E10.74587
G1 X20.616 Y36.866 E10.75666
G1 X17.608 Y39.874 E10.89779
G1 X17.669 Y40.190 E10.90845
G1 X20.672 Y37.187 E11.04936
G1 X20.728 Y37.507 E11.06015
G1 X17.733 Y40.502 E11.20065
G1 X17.798 Y40.813 E11.21121
G1 X20.784 Y37.827 E11.35131
G1 X20.840 Y38.148 E11.36210
G1 X17.863 Y41.125 E11.50179
G1 X17.927 Y41.437 E11.51235
G1 X20.896 Y38.468 E11.65163
G1 X20.951 Y38.788 E11.66242
G1 X17.992 Y41.748 E11.80130
G1 X18.056 Y42.060 E11.81186
G1 X21.007 Y39.109 E11.95034
G1 X21.069 Y39.423 E11.96096
G1 X18.121 Y42.372 E12.09932
G1 X18.185 Y42.683 E12.10988
G1 X21.134 Y39.735 E12.24823
G1 X21.198 Y40.046 E12.25879
G1 X18.250 Y42.995 E12.39715
G1 X18.314 Y43.307 E12.40771
G1 X21.263 Y40.358 E12.54607
G1 X21.327 Y40.669 E12.55663
G1 X18.379 Y43.618 E12.69499
G1 X18.396 Y43.701 E12.69778
G1 X18.449 Y43.924 E12.70539
G1 X21.392 Y40.981 E12.84347
G1 X21.457 Y41.293 E12.85403
G1 X18.522 Y44.227 E12.99171
G1 X18.595 Y44.530 E13.00206
G1 X21.521 Y41.604 E13.13936
G1 X21.586 Y41.916 E13.14992
G1 X18.668 Y44.834 E13.28683
G1 X18.741 Y45.137 E13.29718
G1 X21.650 Y42.228 E13.43370
G1 X21.715 Y42.539 E13.44426
G1 X18.813 Y45.440 E13.58039
G1 X18.886 Y45.744 E13.59074
G1 X21.781 Y42.849 E13.72656
G1 X21.854 Y43.152 E13.73691
G1 X18.959 Y46.047 E13.87272
G1 X19.032 Y46.350 E13.88307
G1 X21.927 Y43.456 E14.01889
G1 X21.999 Y43.759 E14.02924
G1 X19.105 Y46.654 E14.16505
G1 X19.178 Y46.957 E14.17540
G1 X22.072 Y44.063 E14.31121
G1 X22.145 Y44.366 E14.32156
G1 X19.251 Y47.260 E14.45736
G1 X19.329 Y47.558 E14.46758
G1 X22.218 Y44.669 E14.60313
G1 X22.291 Y44.973 E14.61348
G1 X19.410 Y47.854 E14.74865
G1 X19.491 Y48.149 E14.75881
G1 X22.363 Y45.276 E14.89360
G1 X22.436 Y45.580 E14.90395
G1 X19.571 Y48.444 E15.03837
G1 X19.652 Y48.740 E15.04853
G1 X22.509 Y45.883 E15.18256
G1 X22.582 Y46.186 E15.19292
G1 X19.733 Y49.035 E15.32658
G1 X19.814 Y49.331 E15.33674
G1 X22.658 Y46.486 E15.47021
G1 X22.739 Y46.781 E15.48037
G1 X19.895 Y49.626 E15.61384
G1 X19.975 Y49.921 E15.62400
G1 X22.820 Y47.077 E15.75747
G1 X22.901 Y47.372 E15.76763
G1 X20.056 Y50.217 E15.90109
G1 X20.137 Y50.512 E15.91125
G1 X22.982 Y47.667 E16.04472
G1 X23.062 Y47.963 E16.05488
G1 X20.218 Y50.807 E16.18835
G1 X20.302 Y51.100 E16.19843
G1 X23.143 Y48.258 E16.33175
G1 X23.224 Y48.554 E16.34191
G1 X20.390 Y51.387 E16.47487
G1 X20.479 Y51.675 E16.48485
G1 X23.305 Y48.849 E16.61745
G1 X23.386 Y49.144 E16.62761
G1 X20.567 Y51.963 E16.75984
G1 X20.656 Y52.250 E16.76983
G1 X23.467 Y49.440 E16.90170
G1 X23.547 Y49.735 E16.91186
G1 X20.744 Y52.538 E17.04338
G1 X20.833 Y52.826 E17.05336
G1 X23.632 Y50.026 E17.18471
G1 X23.721 Y50.314 E17.19470
G1 X20.921 Y53.113 E17.32605
G1 X21.010 Y53.401 E17.33604
G1 X23.809 Y50.602 E17.46739
G1 X23.898 Y50.889 E17.47738
G1 X21.098 Y53.689 E17.60873
G1 X21.187 Y53.976 E17.61872
G1 X23.986 Y51.177 E17.75008
G1 X24.075 Y51.465 E17.76006
G1 X21.275 Y54.264 E17.89142
G1 X21.364 Y54.552 E17.90141
G1 X24.163 Y51.752 E18.03277
G1 X24.252 Y52.040 E18.04275
G1 X21.459 Y54.833 E18.17379
G1 X21.555 Y55.113 E18.18362
G1 X24.341 Y52.328 E18.31431
G1 X24.429 Y52.615 E18.32429
G1 X21.651 Y55.393 E18.45464
