; generated by Slic3r 1.3.1-dev (Build adea0d9) on 2020-02-19 at 18:03:17

; external perimeters extrusion width = 0.44mm (2.86mm^3/s)
; perimeters extrusion width = 0.56mm (4.14mm^3/s)
; infill extrusion width = 0.50mm (3.66mm^3/s)
; solid infill extrusion width = 0.56mm (3.10mm^3/s)
; top infill extrusion width = 0.56mm (3.10mm^3/s)

M107
G92 E0
;D3D:START:START
T0
M104 S215 T0

G21
G90
M107
T0
G28
G29
M109 T0 S215 T0
G0 F3000
M107
T0
G92 E0
G0 X0 Y149 Z0.1 F3600
G1 Y49 E6.5 F1200
G0 Z1
G92 E0
; Filament gcode

G21 ; set units to millimeters
G90 ; use absolute coordinates
M82 ; use absolute distances for extrusion
G92 E0
G1 Z0.300 F7800.000
G1 E-2.00000 F2400.00000
G92 E0
G1 X73.185 Y82.806 F7800.000
G1 E2.00000 F2400.00000
G1 F1800.000
G1 X73.474 Y82.596 E2.01185
G1 X73.788 Y82.423 E2.02369
G1 X74.120 Y82.292 E2.03554
G1 X74.466 Y82.203 E2.04739
G1 X74.821 Y82.158 E2.05924
G1 X75.179 Y82.158 E2.07108
G1 X75.534 Y82.203 E2.08293
G1 X75.880 Y82.292 E2.09478
G1 X76.212 Y82.423 E2.10663
G1 X76.526 Y82.596 E2.11847
G1 X76.815 Y82.806 E2.13032
G1 X77.076 Y83.051 E2.14217
G1 X77.304 Y83.326 E2.15402
G1 X77.495 Y83.628 E2.16586
G1 X77.648 Y83.952 E2.17771
G1 X77.758 Y84.292 E2.18956
G1 X77.825 Y84.643 E2.20140
G1 X77.848 Y85.000 E2.21325
G1 X77.825 Y85.357 E2.22510
G1 X77.758 Y85.708 E2.23695
G1 X77.648 Y86.048 E2.24879
G1 X77.495 Y86.372 E2.26064
G1 X77.304 Y86.674 E2.27249
G1 X77.076 Y86.949 E2.28434
G1 X76.815 Y87.194 E2.29618
G1 X76.526 Y87.404 E2.30803
G1 X76.212 Y87.577 E2.31988
G1 X75.880 Y87.708 E2.33173
G1 X75.534 Y87.797 E2.34357
G1 X75.179 Y87.842 E2.35542
G1 X74.821 Y87.842 E2.36727
G1 X74.466 Y87.797 E2.37912
G1 X74.120 Y87.708 E2.39096
G1 X73.788 Y87.577 E2.40281
G1 X73.474 Y87.404 E2.41466
G1 X73.185 Y87.194 E2.42650
G1 X72.924 Y86.949 E2.43835
G1 X72.696 Y86.674 E2.45020
G1 X72.505 Y86.372 E2.46204
G1 X72.352 Y86.048 E2.47389
G1 X72.242 Y85.708 E2.48574
G1 X72.175 Y85.357 E2.49759
G1 X72.152 Y85.000 E2.50944
G1 X72.175 Y84.643 E2.52128
G1 X72.242 Y84.292 E2.53313
G1 X72.352 Y83.952 E2.54498
G1 X72.505 Y83.628 E2.55683
G1 X72.696 Y83.326 E2.56867
G1 X72.924 Y83.051 E2.58052
G1 X73.141 Y82.847 E2.59038
G1 X73.355 Y83.011 F7800.000
G1 F1800.000
G1 X73.617 Y82.820 E2.60112
G1 X73.901 Y82.664 E2.61186
G1 X74.202 Y82.545 E2.62260
G1 X74.516 Y82.464 E2.63334
G1 X74.838 Y82.424 E2.64408
G1 X75.162 Y82.424 E2.65482
G1 X75.484 Y82.464 E2.66556
G1 X75.798 Y82.545 E2.67630
G1 X76.099 Y82.664 E2.68704
G1 X76.383 Y82.820 E2.69778
G1 X76.645 Y83.011 E2.70852
G1 X76.882 Y83.233 E2.71926
G1 X77.088 Y83.483 E2.73000
G1 X77.262 Y83.756 E2.74074
G1 X77.400 Y84.050 E2.75148
G1 X77.500 Y84.358 E2.76222
G1 X77.561 Y84.676 E2.77296
G1 X77.581 Y85.000 E2.78370
G1 X77.561 Y85.324 E2.79444
G1 X77.500 Y85.642 E2.80518
G1 X77.400 Y85.950 E2.81592
G1 X77.262 Y86.244 E2.82666
G1 X77.088 Y86.517 E2.83740
G1 X76.882 Y86.767 E2.84814
G1 X76.645 Y86.989 E2.85888
G1 X76.383 Y87.180 E2.86962
G1 X76.099 Y87.336 E2.88036
G1 X75.798 Y87.455 E2.89110
G1 X75.484 Y87.536 E2.90184
G1 X75.162 Y87.576 E2.91258
G1 X74.838 Y87.576 E2.92332
G1 X74.516 Y87.536 E2.93406
G1 X74.202 Y87.455 E2.94480
G1 X73.901 Y87.336 E2.95554
G1 X73.617 Y87.180 E2.96628
G1 X73.355 Y86.989 E2.97702
G1 X73.118 Y86.767 E2.98776
G1 X72.912 Y86.517 E2.99850
G1 X72.738 Y86.244 E3.00924
G1 X72.600 Y85.950 E3.01998
G1 X72.500 Y85.642 E3.03072
G1 X72.439 Y85.324 E3.04146
G1 X72.419 Y85.000 E3.05220
G1 X72.439 Y84.676 E3.06294
G1 X72.500 Y84.358 E3.07368
G1 X72.600 Y84.050 E3.08442
G1 X72.738 Y83.756 E3.09516
G1 X72.912 Y83.483 E3.10590
G1 X73.118 Y83.233 E3.11664
G1 X73.311 Y83.052 E3.12540
G1 X73.524 Y83.216 F7800.000
G1 F1800.000
G1 X73.759 Y83.045 E3.13503
G1 X74.014 Y82.905 E3.14466
G1 X74.285 Y82.798 E3.15429
G1 X74.566 Y82.726 E3.16393
G1 X74.855 Y82.689 E3.17356
G1 X75.145 Y82.689 E3.18319
G1 X75.434 Y82.726 E3.19282
G1 X75.715 Y82.798 E3.20246
G1 X75.986 Y82.905 E3.21209
G1 X76.241 Y83.045 E3.22172
G1 X76.476 Y83.216 E3.23136
G1 X76.688 Y83.415 E3.24099
G1 X76.873 Y83.639 E3.25062
G1 X77.029 Y83.885 E3.26025
G1 X77.153 Y84.148 E3.26989
G1 X77.243 Y84.424 E3.27952
G1 X77.297 Y84.710 E3.28915
G1 X77.315 Y85.000 E3.29879
G1 X77.297 Y85.290 E3.30842
G1 X77.243 Y85.576 E3.31805
G1 X77.153 Y85.852 E3.32768
G1 X77.029 Y86.115 E3.33732
G1 X76.873 Y86.361 E3.34695
G1 X76.688 Y86.585 E3.35658
G1 X76.476 Y86.784 E3.36621
G1 X76.241 Y86.955 E3.37585
G1 X75.986 Y87.095 E3.38548
G1 X75.715 Y87.202 E3.39511
G1 X75.434 Y87.274 E3.40475
G1 X75.145 Y87.311 E3.41438
G1 X74.855 Y87.311 E3.42401
G1 X74.566 Y87.274 E3.43364
G1 X74.285 Y87.202 E3.44328
G1 X74.014 Y87.095 E3.45291
G1 X73.759 Y86.955 E3.46254
G1 X73.524 Y86.784 E3.47218
G1 X73.312 Y86.585 E3.48181
G1 X73.127 Y86.361 E3.49144
G1 X72.971 Y86.115 E3.50107
G1 X72.847 Y85.852 E3.51071
G1 X72.757 Y85.576 E3.52034
G1 X72.703 Y85.290 E3.52997
G1 X72.685 Y85.000 E3.53961
G1 X72.703 Y84.710 E3.54924
G1 X72.757 Y84.424 E3.55887
G1 X72.847 Y84.148 E3.56850
G1 X72.971 Y83.885 E3.57814
G1 X73.127 Y83.639 E3.58777
G1 X73.312 Y83.415 E3.59740
G1 X73.480 Y83.257 E3.60505
G1 X73.476 Y82.929 F7800.000
G1 X72.895 Y82.455 F7800.000
G1 F1800.000
G1 X73.230 Y82.212 E3.61879
G1 X73.594 Y82.012 E3.63253
G1 X73.980 Y81.859 E3.64627
G1 X74.381 Y81.756 E3.66000
G1 X74.793 Y81.704 E3.67374
G1 X75.207 Y81.704 E3.68748
G1 X75.619 Y81.756 E3.70122
G1 X76.020 Y81.859 E3.71496
G1 X76.406 Y82.012 E3.72870
G1 X76.770 Y82.212 E3.74244
G1 X77.105 Y82.455 E3.75618
G1 X77.407 Y82.739 E3.76992
G1 X77.672 Y83.059 E3.78366
G1 X77.894 Y83.409 E3.79740
G1 X78.070 Y83.784 E3.81114
G1 X78.199 Y84.179 E3.82488
G1 X78.276 Y84.586 E3.83862
G1 X78.302 Y85.000 E3.85236
G1 X78.276 Y85.414 E3.86609
G1 X78.199 Y85.821 E3.87984
G1 X78.070 Y86.216 E3.89357
G1 X77.894 Y86.591 E3.90731
G1 X77.672 Y86.941 E3.92105
G1 X77.407 Y87.261 E3.93479
G1 X77.105 Y87.545 E3.94853
G1 X76.770 Y87.788 E3.96227
G1 X76.406 Y87.988 E3.97601
G1 X76.021 Y88.141 E3.98975
G1 X75.619 Y88.244 E4.00349
G1 X75.207 Y88.296 E4.01723
G1 X74.793 Y88.296 E4.03097
G1 X74.381 Y88.244 E4.04471
G1 X73.979 Y88.141 E4.05845
G1 X73.594 Y87.988 E4.07219
G1 X73.230 Y87.788 E4.08593
G1 X72.895 Y87.545 E4.09966
G1 X72.593 Y87.261 E4.11340
G1 X72.328 Y86.941 E4.12714
G1 X72.106 Y86.591 E4.14088
G1 X71.930 Y86.216 E4.15462
G1 X71.801 Y85.821 E4.16836
G1 X71.724 Y85.414 E4.18210
G1 X71.698 Y85.000 E4.19584
G1 X71.724 Y84.586 E4.20958
G1 X71.801 Y84.179 E4.22332
G1 X71.930 Y83.784 E4.23706
G1 X72.106 Y83.409 E4.25080
G1 X72.328 Y83.059 E4.26454
G1 X72.593 Y82.739 E4.27828
G1 X72.851 Y82.497 E4.29003
G1 X72.725 Y82.250 F7800.000
G1 F1800.000
G1 X73.088 Y81.987 E4.30487
G1 X73.481 Y81.771 E4.31972
G1 X73.897 Y81.606 E4.33457
G1 X74.331 Y81.495 E4.34941
G1 X74.776 Y81.439 E4.36426
G1 X75.224 Y81.439 E4.37911
G1 X75.669 Y81.495 E4.39395
G1 X76.103 Y81.606 E4.40880
G1 X76.519 Y81.771 E4.42365
G1 X76.912 Y81.987 E4.43849
G1 X77.275 Y82.250 E4.45334
G1 X77.601 Y82.557 E4.46819
G1 X77.887 Y82.902 E4.48303
G1 X78.127 Y83.281 E4.49788
G1 X78.318 Y83.686 E4.51273
G1 X78.456 Y84.113 E4.52757
G1 X78.540 Y84.553 E4.54242
G1 X78.569 Y85.000 E4.55727
G1 X78.540 Y85.447 E4.57211
G1 X78.456 Y85.887 E4.58696
G1 X78.318 Y86.314 E4.60181
G1 X78.127 Y86.719 E4.61665
G1 X77.887 Y87.097 E4.63150
G1 X77.601 Y87.443 E4.64635
G1 X77.275 Y87.750 E4.66120
G1 X76.912 Y88.013 E4.67604
G1 X76.519 Y88.229 E4.69089
G1 X76.103 Y88.394 E4.70573
G1 X75.669 Y88.505 E4.72058
G1 X75.224 Y88.561 E4.73543
G1 X74.776 Y88.561 E4.75027
G1 X74.331 Y88.505 E4.76512
G1 X73.897 Y88.394 E4.77997
G1 X73.481 Y88.229 E4.79481
G1 X73.088 Y88.013 E4.80966
G1 X72.725 Y87.750 E4.82451
G1 X72.399 Y87.443 E4.83935
G1 X72.113 Y87.097 E4.85420
G1 X71.873 Y86.719 E4.86905
G1 X71.682 Y86.314 E4.88389
G1 X71.544 Y85.887 E4.89874
G1 X71.460 Y85.447 E4.91359
G1 X71.431 Y85.000 E4.92843
G1 X71.460 Y84.553 E4.94328
G1 X71.544 Y84.113 E4.95813
G1 X71.682 Y83.686 E4.97297
G1 X71.873 Y83.281 E4.98782
G1 X72.113 Y82.902 E5.00267
G1 X72.399 Y82.557 E5.01751
G1 X72.682 Y82.291 E5.03037
G1 X72.556 Y82.045 F7800.000
G1 F1800.000
G1 X72.945 Y81.762 E5.04633
G1 X73.367 Y81.530 E5.06228
G1 X73.815 Y81.353 E5.07823
G1 X74.281 Y81.233 E5.09419
G1 X74.759 Y81.173 E5.11014
G1 X75.241 Y81.173 E5.12610
G1 X75.719 Y81.233 E5.14205
G1 X76.185 Y81.353 E5.15800
G1 X76.633 Y81.530 E5.17396
G1 X77.055 Y81.762 E5.18991
G1 X77.444 Y82.045 E5.20587
G1 X77.795 Y82.375 E5.22182
G1 X78.102 Y82.746 E5.23777
G1 X78.360 Y83.153 E5.25373
G1 X78.565 Y83.588 E5.26968
G1 X78.714 Y84.046 E5.28564
G1 X78.804 Y84.519 E5.30159
G1 X78.835 Y85.000 E5.31754
G1 X78.804 Y85.481 E5.33350
G1 X78.714 Y85.954 E5.34945
G1 X78.565 Y86.412 E5.36541
G1 X78.360 Y86.847 E5.38136
G1 X78.102 Y87.254 E5.39731
G1 X77.795 Y87.625 E5.41327
G1 X77.444 Y87.955 E5.42922
G1 X77.055 Y88.238 E5.44517
G1 X76.633 Y88.470 E5.46113
G1 X76.185 Y88.647 E5.47708
G1 X75.719 Y88.767 E5.49304
G1 X75.241 Y88.827 E5.50899
G1 X74.759 Y88.827 E5.52494
G1 X74.281 Y88.767 E5.54090
G1 X73.815 Y88.647 E5.55685
G1 X73.367 Y88.470 E5.57281
G1 X72.945 Y88.238 E5.58876
G1 X72.556 Y87.955 E5.60471
G1 X72.205 Y87.625 E5.62067
G1 X71.898 Y87.254 E5.63662
G1 X71.640 Y86.847 E5.65258
G1 X71.435 Y86.412 E5.66853
G1 X71.286 Y85.954 E5.68448
G1 X71.196 Y85.481 E5.70044
G1 X71.165 Y85.000 E5.71639
G1 X71.196 Y84.519 E5.73234
G1 X71.286 Y84.046 E5.74830
G1 X71.435 Y83.588 E5.76425
G1 X71.640 Y83.153 E5.78021
G1 X71.898 Y82.746 E5.79616
G1 X72.205 Y82.375 E5.81211
G1 X72.512 Y82.086 E5.82608
G1 X72.931 Y82.185 F7800.000
G1 X73.040 Y82.631 F7800.000
G1 F1800.000
G1 X73.352 Y82.404 E5.83206
G1 X73.686 Y82.221 E5.83794
G1 X74.050 Y82.076 E5.84401
G1 X74.424 Y81.980 E5.84998
G1 X74.801 Y81.932 E5.85586
G1 X75.199 Y81.932 E5.86202
G1 X75.576 Y81.980 E5.86790
G1 X75.944 Y82.074 E5.87379
G1 X76.314 Y82.221 E5.87994
G1 X76.648 Y82.404 E5.88583
G1 X76.960 Y82.631 E5.89180
G1 X77.242 Y82.895 E5.89778
G1 X77.484 Y83.188 E5.90366
G1 X77.697 Y83.524 E5.90982
G1 X77.859 Y83.868 E5.91570
G1 X77.978 Y84.235 E5.92168
G1 X78.051 Y84.621 E5.92774
G1 X78.075 Y85.000 E5.93363
G1 X78.051 Y85.385 E5.93960
G1 X77.977 Y85.770 E5.94567
G1 X77.859 Y86.132 E5.95155
G1 X77.695 Y86.481 E5.95753
G1 X77.488 Y86.807 E5.96350
G1 X77.245 Y87.100 E5.96939
G1 X76.960 Y87.369 E5.97545
G1 X76.648 Y87.596 E5.98143
G1 X76.314 Y87.779 E5.98731
G1 X75.950 Y87.924 E5.99338
G1 X75.576 Y88.020 E5.99935
G1 X75.199 Y88.068 E6.00523
G1 X74.807 Y88.069 E6.01130
G1 X74.424 Y88.020 E6.01728
G1 X74.056 Y87.926 E6.02316
G1 X73.691 Y87.782 E6.02923
G1 X73.352 Y87.596 E6.03520
G1 X73.045 Y87.373 E6.04108
G1 X72.755 Y87.100 E6.04724
G1 X72.512 Y86.807 E6.05312
G1 X72.309 Y86.486 E6.05901
G1 X72.141 Y86.132 E6.06507
G1 X72.022 Y85.765 E6.07105
G1 X71.950 Y85.391 E6.07693
G1 X71.925 Y84.994 E6.08309
G1 X71.949 Y84.615 E6.08897
G1 X72.020 Y84.241 E6.09486
G1 X72.143 Y83.863 E6.10101
G1 X72.305 Y83.519 E6.10690
G1 X72.512 Y83.193 E6.11287
G1 X72.758 Y82.895 E6.11885
G1 X72.996 Y82.672 E6.12389
G1 E4.12389 F2400.00000
G92 E0
G1 X74.120 Y77.708 F7800.000
G1 E2.00000 F2400.00000
G1 F1800.000
G1 X73.788 Y77.577 E2.01185
G1 X73.474 Y77.404 E2.02369
G1 X73.185 Y77.194 E2.03554
G1 X72.924 Y76.949 E2.04739
G1 X72.696 Y76.674 E2.05924
G1 X72.505 Y76.372 E2.07108
G1 X72.352 Y76.048 E2.08293
G1 X72.242 Y75.708 E2.09478
G1 X72.175 Y75.357 E2.10663
G1 X72.152 Y75.000 E2.11847
G1 X72.175 Y74.643 E2.13032
G1 X72.242 Y74.292 E2.14217
G1 X72.352 Y73.952 E2.15402
G1 X72.505 Y73.628 E2.16586
G1 X72.696 Y73.326 E2.17771
G1 X72.924 Y73.051 E2.18956
G1 X73.185 Y72.806 E2.20140
G1 X73.474 Y72.596 E2.21325
G1 X73.788 Y72.423 E2.22510
G1 X74.120 Y72.292 E2.23695
G1 X74.466 Y72.203 E2.24879
G1 X74.821 Y72.158 E2.26064
G1 X75.179 Y72.158 E2.27249
G1 X75.534 Y72.203 E2.28434
G1 X75.880 Y72.292 E2.29618
G1 X76.212 Y72.423 E2.30803
G1 X76.526 Y72.596 E2.31988
G1 X76.815 Y72.806 E2.33173
G1 X77.076 Y73.051 E2.34357
G1 X77.304 Y73.326 E2.35542
G1 X77.495 Y73.628 E2.36727
G1 X77.648 Y73.952 E2.37911
G1 X77.758 Y74.292 E2.39096
G1 X77.825 Y74.643 E2.40281
G1 X77.848 Y75.000 E2.41466
G1 X77.825 Y75.357 E2.42650
G1 X77.758 Y75.708 E2.43835
G1 X77.648 Y76.048 E2.45020
G1 X77.495 Y76.372 E2.46205
G1 X77.304 Y76.674 E2.47389
G1 X77.076 Y76.949 E2.48574
G1 X76.815 Y77.194 E2.49759
G1 X76.526 Y77.404 E2.50943
G1 X76.212 Y77.577 E2.52128
G1 X75.880 Y77.708 E2.53313
G1 X75.534 Y77.797 E2.54498
G1 X75.179 Y77.842 E2.55682
G1 X74.821 Y77.842 E2.56867
G1 X74.466 Y77.797 E2.58052
G1 X74.178 Y77.723 E2.59038
G1 X74.202 Y77.455 F7800.000
G1 F1800.000
G1 X73.901 Y77.336 E2.60112
G1 X73.617 Y77.180 E2.61186
G1 X73.355 Y76.989 E2.62260
G1 X73.118 Y76.767 E2.63334
G1 X72.912 Y76.517 E2.64408
G1 X72.738 Y76.244 E2.65482
G1 X72.600 Y75.950 E2.66556
G1 X72.500 Y75.642 E2.67630
G1 X72.439 Y75.324 E2.68704
G1 X72.419 Y75.000 E2.69778
G1 X72.439 Y74.676 E2.70852
G1 X72.500 Y74.358 E2.71926
G1 X72.600 Y74.050 E2.73000
G1 X72.738 Y73.756 E2.74074
G1 X72.912 Y73.483 E2.75148
G1 X73.118 Y73.233 E2.76222
G1 X73.355 Y73.011 E2.77296
G1 X73.617 Y72.820 E2.78370
G1 X73.901 Y72.664 E2.79444
G1 X74.202 Y72.545 E2.80518
G1 X74.516 Y72.464 E2.81592
G1 X74.838 Y72.424 E2.82666
G1 X75.162 Y72.424 E2.83740
G1 X75.484 Y72.464 E2.84814
G1 X75.798 Y72.545 E2.85888
G1 X76.099 Y72.664 E2.86962
G1 X76.383 Y72.820 E2.88036
G1 X76.645 Y73.011 E2.89110
G1 X76.882 Y73.233 E2.90184
G1 X77.088 Y73.483 E2.91258
G1 X77.262 Y73.756 E2.92332
G1 X77.400 Y74.050 E2.93406
G1 X77.500 Y74.358 E2.94480
G1 X77.561 Y74.676 E2.95554
G1 X77.581 Y75.000 E2.96628
G1 X77.561 Y75.324 E2.97702
G1 X77.500 Y75.642 E2.98776
G1 X77.400 Y75.950 E2.99850
G1 X77.262 Y76.244 E3.00924
G1 X77.088 Y76.517 E3.01998
G1 X76.882 Y76.767 E3.03072
G1 X76.645 Y76.989 E3.04146
G1 X76.383 Y77.180 E3.05220
G1 X76.099 Y77.336 E3.06294
G1 X75.798 Y77.455 E3.07368
G1 X75.484 Y77.536 E3.08442
G1 X75.162 Y77.576 E3.09516
G1 X74.838 Y77.576 E3.10590
G1 X74.516 Y77.536 E3.11664
G1 X74.260 Y77.470 E3.12539
G1 X74.285 Y77.202 F7800.000
G1 F1800.000
G1 X74.014 Y77.095 E3.13503
G1 X73.759 Y76.955 E3.14466
G1 X73.524 Y76.784 E3.15429
G1 X73.312 Y76.585 E3.16392
G1 X73.127 Y76.361 E3.17356
G1 X72.971 Y76.115 E3.18319
G1 X72.847 Y75.852 E3.19282
G1 X72.757 Y75.576 E3.20246
G1 X72.703 Y75.290 E3.21209
G1 X72.685 Y75.000 E3.22172
G1 X72.703 Y74.710 E3.23135
G1 X72.757 Y74.424 E3.24099
G1 X72.847 Y74.148 E3.25062
G1 X72.971 Y73.885 E3.26025
G1 X73.127 Y73.639 E3.26989
G1 X73.312 Y73.415 E3.27952
G1 X73.524 Y73.216 E3.28915
G1 X73.759 Y73.045 E3.29878
G1 X74.014 Y72.905 E3.30842
G1 X74.285 Y72.798 E3.31805
G1 X74.566 Y72.726 E3.32768
G1 X74.855 Y72.689 E3.33731
G1 X75.145 Y72.689 E3.34695
G1 X75.434 Y72.726 E3.35658
G1 X75.715 Y72.798 E3.36621
G1 X75.986 Y72.905 E3.37585
G1 X76.241 Y73.045 E3.38548
G1 X76.476 Y73.216 E3.39511
G1 X76.688 Y73.415 E3.40474
G1 X76.873 Y73.639 E3.41438
G1 X77.029 Y73.885 E3.42401
G1 X77.153 Y74.148 E3.43364
G1 X77.243 Y74.424 E3.44328
G1 X77.297 Y74.710 E3.45291
G1 X77.315 Y75.000 E3.46254
G1 X77.297 Y75.290 E3.47217
G1 X77.243 Y75.576 E3.48181
G1 X77.153 Y75.852 E3.49144
G1 X77.029 Y76.115 E3.50107
G1 X76.873 Y76.361 E3.51070
G1 X76.688 Y76.585 E3.52034
G1 X76.476 Y76.784 E3.52997
G1 X76.241 Y76.955 E3.53960
G1 X75.986 Y77.095 E3.54924
G1 X75.715 Y77.202 E3.55887
G1 X75.434 Y77.274 E3.56850
G1 X75.145 Y77.311 E3.57813
G1 X74.855 Y77.311 E3.58777
G1 X74.566 Y77.274 E3.59740
G1 X74.343 Y77.217 E3.60504
G1 X74.068 Y77.397 F7800.000
G1 X73.980 Y78.141 F7800.000
G1 F1800.000
G1 X73.594 Y77.988 E3.61878
G1 X73.230 Y77.788 E3.63252
G1 X72.895 Y77.545 E3.64626
G1 X72.593 Y77.261 E3.66000
G1 X72.328 Y76.941 E3.67374
G1 X72.106 Y76.591 E3.68748
G1 X71.930 Y76.216 E3.70122
G1 X71.801 Y75.821 E3.71496
G1 X71.724 Y75.414 E3.72870
G1 X71.698 Y75.000 E3.74244
G1 X71.724 Y74.586 E3.75618
G1 X71.801 Y74.179 E3.76992
G1 X71.930 Y73.784 E3.78366
G1 X72.106 Y73.409 E3.79740
G1 X72.328 Y73.059 E3.81114
G1 X72.593 Y72.739 E3.82488
G1 X72.895 Y72.455 E3.83861
G1 X73.230 Y72.212 E3.85235
G1 X73.594 Y72.012 E3.86609
G1 X73.980 Y71.859 E3.87983
G1 X74.381 Y71.756 E3.89357
G1 X74.793 Y71.704 E3.90731
G1 X75.207 Y71.704 E3.92105
G1 X75.619 Y71.756 E3.93479
