; generated by Slic3r 1.3.1-dev (Build adea0d9) on 2020-02-19 at 16:52:29

; external perimeters extrusion width = 0.44mm (2.86mm^3/s)
; perimeters extrusion width = 0.56mm (4.14mm^3/s)
; infill extrusion width = 0.50mm (3.66mm^3/s)
; solid infill extrusion width = 0.56mm (3.10mm^3/s)
; top infill extrusion width = 0.56mm (3.10mm^3/s)

M107
G92 E0
;D3D:START:START
T0
M104 S215 T0

G21
G90
M107
T0
G28
G29
M109 T0 S215 T0
G0 F3000
M107
T0
G92 E0
G0 X0 Y149 Z0.1 F3600
G1 Y49 E6.5 F1200
G0 Z1
G92 E0
; Filament gcode

G21 ; set units to millimeters
G90 ; use absolute coordinates
M82 ; use absolute distances for extrusion
G92 E0
G1 Z0.300 F7800.000
G1 E-2.00000 F2400.00000
G92 E0
G1 X74.167 Y88.598 F7800.000
G1 E2.00000 F2400.00000
G1 F1800.000
G1 X71.952 Y86.988 E2.09074
G1 X71.468 Y85.500 E2.14258
G1 X71.952 Y84.012 E2.19443
G1 X73.218 Y83.092 E2.24627
G1 X74.782 Y83.092 E2.29811
G1 X76.048 Y84.012 E2.34996
G1 X76.532 Y85.500 E2.40180
G1 X76.048 Y86.988 E2.45365
G1 X74.782 Y87.908 E2.50549
G1 X74.167 Y87.908 E2.52587
G1 X74.167 Y88.538 E2.54674
G1 X73.902 Y88.077 F7800.000
G1 F1800.000
G1 X72.177 Y86.824 E2.61735
G1 X71.747 Y85.500 E2.66348
G1 X72.177 Y84.176 E2.70960
G1 X73.304 Y83.357 E2.75573
G1 X74.696 Y83.357 E2.80185
G1 X75.822 Y84.176 E2.84798
G1 X76.253 Y85.500 E2.89411
G1 X75.822 Y86.824 E2.94023
G1 X74.696 Y87.643 E2.98636
G1 X73.902 Y87.643 E3.01268
G1 X73.902 Y88.017 E3.02508
G1 X73.636 Y87.556 F7800.000
G1 F1800.000
G1 X72.403 Y86.660 E3.07556
G1 X72.027 Y85.500 E3.11596
G1 X72.403 Y84.340 E3.15637
G1 X73.390 Y83.623 E3.19678
G1 X74.610 Y83.623 E3.23719
G1 X75.597 Y84.340 E3.27759
G1 X75.973 Y85.500 E3.31800
G1 X75.597 Y86.660 E3.35841
G1 X74.610 Y87.377 E3.39882
G1 X73.636 Y87.377 E3.43107
G1 X73.636 Y87.496 E3.43501
G1 E1.43501 F2400.00000
G92 E0
G1 X63.600 Y85.749 F7800.000
G1 E2.00000 F2400.00000
G1 F1800.000
G1 X61.913 Y85.749 E2.05588
G1 X61.292 Y84.008 E2.11713
G1 X61.176 Y84.012 E2.12099
G1 X61.116 Y84.223 E2.12826
G1 X60.718 Y84.897 E2.15421
G1 X60.145 Y85.415 E2.17979
G1 X59.435 Y85.722 E2.20541
G1 X58.658 Y85.816 E2.23135
G1 X58.213 Y85.789 E2.24610
G1 X57.808 Y85.708 E2.25978
G1 X57.430 Y85.568 E2.27315
G1 X57.086 Y85.373 E2.28624
G1 X56.782 Y85.128 E2.29917
G1 X56.522 Y84.839 E2.31204
G1 X56.309 Y84.516 E2.32487
G1 X56.142 Y84.163 E2.33781
G1 X56.090 Y84.006 E2.34330
G1 X55.976 Y84.004 E2.34708
G1 X55.353 Y85.749 E2.40846
G1 X53.667 Y85.749 E2.46434
G1 X52.665 Y82.940 E2.56315
G1 X52.527 Y82.972 E2.56784
G1 X52.542 Y83.105 E2.57229
G1 X52.506 Y83.426 E2.58298
G1 X52.385 Y83.738 E2.59408
G1 X52.175 Y84.007 E2.60539
G1 X51.901 Y84.202 E2.61652
G1 X51.596 Y84.313 E2.62727
G1 X51.285 Y84.345 E2.63763
G1 X50.968 Y84.314 E2.64819
G1 X50.657 Y84.205 E2.65909
G1 X50.380 Y84.009 E2.67033
G1 X50.169 Y83.740 E2.68167
G1 X50.046 Y83.427 E2.69280
G1 X50.011 Y83.105 E2.70352
G1 X50.046 Y82.784 E2.71424
G1 X50.166 Y82.472 E2.72531
G1 X50.375 Y82.201 E2.73664
G1 X50.652 Y82.001 E2.74796
G1 X50.908 Y81.909 E2.75698
G1 X50.908 Y81.797 E2.76071
G1 X50.657 Y81.709 E2.76952
G1 X50.380 Y81.513 E2.78076
G1 X50.169 Y81.244 E2.79210
G1 X50.046 Y80.931 E2.80323
G1 X50.011 Y80.609 E2.81395
G1 X50.046 Y80.288 E2.82466
G1 X50.166 Y79.976 E2.83574
G1 X50.375 Y79.705 E2.84707
G1 X50.652 Y79.505 E2.85839
G1 X50.965 Y79.393 E2.86939
G1 X51.285 Y79.361 E2.88004
G1 X51.599 Y79.394 E2.89050
G1 X51.692 Y79.429 E2.89381
G1 X53.894 Y79.429 E2.96675
G1 X54.285 Y80.517 E3.00506
G1 X54.797 Y80.517 E3.02200
G1 X55.166 Y79.429 E3.06006
G1 X57.608 Y79.429 E3.14098
G1 X57.581 Y79.505 E3.14367
G1 X57.843 Y79.392 E3.15311
G1 X58.616 Y79.298 E3.17893
G1 X59.064 Y79.325 E3.19380
G1 X59.533 Y79.429 E3.20971
G1 X62.140 Y79.429 E3.29609
G1 X62.531 Y80.517 E3.33439
G1 X63.043 Y80.517 E3.35133
G1 X63.412 Y79.429 E3.38939
G1 X65.854 Y79.429 E3.47031
G1 X63.620 Y85.693 E3.69064
G1 X63.412 Y85.484 F7800.000
G1 F1800.000
G1 X62.100 Y85.484 E3.73412
G1 X61.229 Y83.041 E3.82002
G1 X61.102 Y83.058 E3.82429
G1 X61.075 Y83.391 E3.83534
G1 X60.870 Y84.117 E3.86035
G1 X60.510 Y84.728 E3.88382
G1 X59.999 Y85.188 E3.90661
G1 X59.365 Y85.463 E3.92950
G1 X58.650 Y85.549 E3.95336
G1 X58.248 Y85.525 E3.96671
G1 X57.881 Y85.451 E3.97910
G1 X57.542 Y85.326 E3.99107
G1 X57.236 Y85.152 E4.00273
G1 X56.965 Y84.935 E4.01424
G1 X56.733 Y84.677 E4.02574
G1 X56.541 Y84.385 E4.03730
G1 X56.389 Y84.064 E4.04907
G1 X56.275 Y83.718 E4.06116
G1 X56.196 Y83.350 E4.07361
G1 X56.161 Y83.060 E4.08328
G1 X56.036 Y83.046 E4.08746
G1 X55.166 Y85.484 E4.17319
G1 X53.854 Y85.484 E4.21666
G1 X52.226 Y80.918 E4.37726
G1 X52.151 Y81.109 E4.38408
G1 X51.989 Y81.317 E4.39282
G1 X51.777 Y81.469 E4.40147
G1 X51.536 Y81.556 E4.40993
G1 X51.284 Y81.582 E4.41833
G1 X51.025 Y81.556 E4.42694
G1 X50.780 Y81.471 E4.43555
G1 X50.565 Y81.318 E4.44427
G1 X50.402 Y81.111 E4.45304
G1 X50.306 Y80.867 E4.46170
G1 X50.278 Y80.609 E4.47029
G1 X50.306 Y80.351 E4.47889
G1 X50.400 Y80.108 E4.48754
G1 X50.562 Y79.898 E4.49632
G1 X50.777 Y79.742 E4.50511
G1 X51.024 Y79.654 E4.51378
G1 X51.284 Y79.628 E4.52246
G1 X51.538 Y79.655 E4.53092
G1 X51.812 Y79.756 E4.54057
G1 X51.790 Y79.694 E4.54273
G1 X53.707 Y79.694 E4.60625
G1 X54.098 Y80.782 E4.64455
G1 X54.987 Y80.782 E4.67399
G1 X55.356 Y79.694 E4.71205
G1 X57.231 Y79.694 E4.77419
G1 X57.125 Y79.992 E4.78466
G1 X57.913 Y79.651 E4.81311
G1 X58.624 Y79.565 E4.83684
G1 X59.030 Y79.589 E4.85032
G1 X59.399 Y79.663 E4.86278
G1 X59.740 Y79.788 E4.87481
G1 X60.153 Y80.022 E4.89053
G1 X60.036 Y79.694 E4.90205
G1 X61.954 Y79.694 E4.96558
G1 X62.345 Y80.782 E5.00388
G1 X63.233 Y80.782 E5.03332
G1 X63.602 Y79.694 E5.07138
G1 X65.478 Y79.694 E5.13351
G1 X63.432 Y85.427 E5.33516
G1 E3.33516 F2400.00000
G92 E0
G1 X60.623 Y84.012 F7800.000
G1 E2.00000 F2400.00000
G1 F1800.000
G1 X60.301 Y84.558 E2.02099
G1 X59.853 Y84.962 E2.04099
G1 X59.295 Y85.204 E2.06116
G1 X58.642 Y85.283 E2.08294
G1 X58.282 Y85.261 E2.09489
G1 X57.954 Y85.195 E2.10598
G1 X57.654 Y85.084 E2.11656
G1 X57.385 Y84.932 E2.12680
G1 X57.148 Y84.741 E2.13688
G1 X56.944 Y84.514 E2.14700
G1 X56.773 Y84.255 E2.15729
G1 X56.636 Y83.965 E2.16789
G1 X56.532 Y83.648 E2.17896
G1 X56.458 Y83.306 E2.19054
G1 X56.414 Y82.943 E2.20267
G1 X56.400 Y82.554 E2.21558
G1 X56.462 Y81.770 E2.24162
G1 X56.653 Y81.101 E2.26465
G1 X56.977 Y80.555 E2.28570
G1 X57.426 Y80.151 E2.30570
G1 X57.983 Y79.910 E2.32581
G1 X58.632 Y79.831 E2.34747
G1 X58.996 Y79.853 E2.35956
G1 X59.327 Y79.919 E2.37073
G1 X59.628 Y80.030 E2.38135
G1 X59.897 Y80.182 E2.39159
G1 X60.133 Y80.372 E2.40164
G1 X60.336 Y80.600 E2.41173
G1 X60.504 Y80.860 E2.42199
G1 X60.640 Y81.149 E2.43257
G1 X60.744 Y81.466 E2.44363
G1 X60.817 Y81.808 E2.45521
G1 X60.860 Y82.171 E2.46733
G1 X60.874 Y82.560 E2.48024
G1 X60.813 Y83.344 E2.50627
G1 X60.640 Y83.954 E2.52728
G1 E0.52728 F2400.00000
G92 E0
G1 X56.855 Y79.960 F7800.000
G1 E2.00000 F2400.00000
G1 F1800.000
G1 X54.979 Y85.218 E2.18495
G1 X54.041 Y85.218 E2.21601
G1 X52.167 Y79.960 E2.40095
G1 X53.521 Y79.960 E2.44581
G1 X53.912 Y81.048 E2.48411
G1 X55.177 Y81.048 E2.52604
G1 X55.546 Y79.960 E2.56410
G1 X56.795 Y79.960 E2.60546
G1 E0.60546 F2400.00000
G92 E0
G1 X51.986 Y80.415 F7800.000
G1 E2.00000 F2400.00000
G1 F1800.000
G1 X52.007 Y80.609 E2.00647
G1 X51.986 Y80.803 E2.01292
G1 X51.918 Y80.977 E2.01911
G1 X51.803 Y81.123 E2.02528
G1 X51.652 Y81.232 E2.03145
G1 X51.477 Y81.295 E2.03762
G1 X51.283 Y81.315 E2.04406
G1 X51.083 Y81.295 E2.05073
G1 X50.903 Y81.232 E2.05704
G1 X50.750 Y81.124 E2.06325
G1 X50.635 Y80.977 E2.06944
G1 X50.567 Y80.803 E2.07564
G1 X50.545 Y80.609 E2.08210
G1 X50.567 Y80.415 E2.08858
G1 X50.634 Y80.239 E2.09480
G1 X50.749 Y80.090 E2.10103
G1 X50.902 Y79.980 E2.10729
G1 X51.082 Y79.915 E2.11363
G1 X51.284 Y79.895 E2.12033
G1 X51.477 Y79.916 E2.12679
G1 X51.653 Y79.980 E2.13299
G1 X51.805 Y80.091 E2.13920
G1 X51.919 Y80.240 E2.14542
G1 X51.964 Y80.359 E2.14964
G1 E0.14964 F2400.00000
G92 E0
G1 X60.413 Y79.960 F7800.000
G1 E2.00000 F2400.00000
G1 F1800.000
G1 X61.767 Y79.960 E2.04486
G1 X62.158 Y81.048 E2.08316
G1 X63.423 Y81.048 E2.12509
G1 X63.792 Y79.960 E2.16315
G1 X65.101 Y79.960 E2.20650
G1 X63.225 Y85.218 E2.39145
G1 X62.287 Y85.218 E2.42251
G1 X60.433 Y80.017 E2.60546
G1 E0.60546 F2400.00000
G92 E0
G1 X52.246 Y82.848 F7800.000
G1 E2.00000 F2400.00000
G1 F1800.000
G1 X52.274 Y83.105 E2.00858
G1 X52.246 Y83.362 E2.01715
G1 X52.151 Y83.605 E2.02579
G1 X51.989 Y83.813 E2.03453
G1 X51.777 Y83.965 E2.04318
G1 X51.536 Y84.052 E2.05164
G1 X51.284 Y84.078 E2.06004
G1 X51.025 Y84.052 E2.06865
G1 X50.780 Y83.967 E2.07726
G1 X50.565 Y83.814 E2.08599
G1 X50.402 Y83.607 E2.09475
G1 X50.306 Y83.363 E2.10341
G1 X50.278 Y83.105 E2.11200
G1 X50.306 Y82.847 E2.12060
G1 X50.400 Y82.604 E2.12925
G1 X50.562 Y82.394 E2.13803
G1 X50.777 Y82.238 E2.14682
G1 X51.024 Y82.150 E2.15550
G1 X51.284 Y82.124 E2.16417
G1 X51.538 Y82.151 E2.17263
G1 X51.780 Y82.240 E2.18116
G1 X51.992 Y82.395 E2.18987
G1 X52.153 Y82.605 E2.19863
G1 X52.225 Y82.792 E2.20527
G1 X51.986 Y82.911 F7800.000
G1 F1800.000
G1 X52.007 Y83.105 E2.21174
G1 X51.986 Y83.299 E2.21819
G1 X51.918 Y83.473 E2.22438
G1 X51.803 Y83.619 E2.23055
G1 X51.652 Y83.728 E2.23671
G1 X51.477 Y83.791 E2.24289
G1 X51.283 Y83.811 E2.24932
G1 X51.083 Y83.791 E2.25599
G1 X50.903 Y83.728 E2.26231
G1 X50.750 Y83.620 E2.26852
G1 X50.635 Y83.473 E2.27470
G1 X50.567 Y83.299 E2.28090
G1 X50.545 Y83.105 E2.28736
G1 X50.567 Y82.911 E2.29384
G1 X50.634 Y82.735 E2.30007
G1 X50.749 Y82.586 E2.30630
G1 X50.902 Y82.476 E2.31255
G1 X51.082 Y82.411 E2.31890
G1 X51.284 Y82.391 E2.32560
G1 X51.477 Y82.412 E2.33205
G1 X51.653 Y82.476 E2.33826
G1 X51.805 Y82.587 E2.34447
G1 X51.919 Y82.736 E2.35068
G1 X51.964 Y82.855 E2.35491
G1 E0.35491 F2400.00000
G92 E0
G1 X49.074 Y83.525 F7800.000
G1 E2.00000 F2400.00000
G1 F1800.000
G1 X49.074 Y85.685 E2.07158
G1 X45.017 Y85.685 E2.20600
G1 X45.017 Y84.260 E2.25320
G1 X45.686 Y83.370 E2.29010
G1 X45.541 Y83.285 E2.29567
G1 X45.190 Y82.915 E2.31258
G1 X44.956 Y82.471 E2.32921
G1 X44.869 Y82.187 E2.33905
G1 X44.822 Y81.908 E2.34843
G1 X44.807 Y81.618 E2.35805
G1 X44.827 Y81.271 E2.36956
G1 X44.890 Y80.936 E2.38087
G1 X45.001 Y80.621 E2.39193
G1 X45.153 Y80.338 E2.40257
G1 X45.341 Y80.085 E2.41300
G1 X45.565 Y79.865 E2.42338
G1 X45.814 Y79.683 E2.43363
G1 X46.085 Y79.538 E2.44380
G1 X46.387 Y79.424 E2.45452
G1 X46.957 Y79.312 E2.47373
G1 X47.513 Y79.307 E2.49215
G1 X48.030 Y79.367 E2.50940
G1 X48.510 Y79.487 E2.52579
G1 X49.292 Y79.824 E2.55400
G1 X48.593 Y81.982 E2.62914
G1 X48.593 Y83.065 E2.66501
G1 X48.252 Y83.525 E2.68398
G1 X49.014 Y83.525 E2.70922
G1 X48.809 Y83.790 F7800.000
G1 F1800.000
G1 X48.809 Y85.420 E2.76320
G1 X45.282 Y85.420 E2.88002
G1 X45.282 Y84.349 E2.91548
G1 X46.078 Y83.292 E2.95931
G1 X45.708 Y83.075 E2.97350
G1 X45.408 Y82.759 E2.98796
G1 X45.202 Y82.369 E3.00255
G1 X45.128 Y82.126 E3.01098
G1 X45.086 Y81.879 E3.01928
G1 X45.073 Y81.619 E3.02791
G1 X45.091 Y81.304 E3.03837
G1 X45.148 Y81.005 E3.04844
G1 X45.245 Y80.728 E3.05815
G1 X45.378 Y80.481 E3.06747
G1 X45.542 Y80.260 E3.07657
G1 X45.737 Y80.068 E3.08564
G1 X45.956 Y79.908 E3.09462
G1 X46.195 Y79.780 E3.10360
G1 X46.460 Y79.680 E3.11299
G1 X46.984 Y79.578 E3.13067
G1 X47.499 Y79.572 E3.14773
G1 X47.982 Y79.629 E3.16384
G1 X48.424 Y79.740 E3.17895
G1 X48.964 Y79.973 E3.19844
G1 X48.457 Y81.541 E3.25306
G1 X47.798 Y81.272 E3.27664
G1 X47.570 Y81.216 E3.28442
G1 X47.303 Y81.197 E3.29329
G1 X47.126 Y81.214 E3.29917
G1 X47.018 Y81.253 E3.30297
G1 X46.946 Y81.307 E3.30596
G1 X46.857 Y81.466 E3.31197
G1 X46.844 Y81.575 E3.31561
G1 X46.859 Y81.716 E3.32031
G1 X46.925 Y81.834 E3.32481
G1 X47.000 Y81.877 E3.32764
G1 X47.154 Y81.917 E3.33293
G1 X47.409 Y81.934 E3.34139
G1 X48.328 Y81.934 E3.37182
G1 X48.328 Y82.977 E3.40637
G1 X47.725 Y83.790 E3.43991
G1 X48.749 Y83.790 E3.47384
G1 X48.543 Y84.056 F7800.000
G1 F1800.000
G1 X48.543 Y85.154 E3.51021
G1 X45.548 Y85.154 E3.60944
G1 X45.548 Y84.438 E3.63316
G1 X46.520 Y83.146 E3.68672
G1 X46.181 Y83.044 E3.69845
G1 X45.875 Y82.865 E3.71019
G1 X45.626 Y82.602 E3.72219
G1 X45.449 Y82.267 E3.73474
G1 X45.387 Y82.065 E3.74176
G1 X45.351 Y81.850 E3.74898
G1 X45.339 Y81.620 E3.75662
G1 X45.355 Y81.336 E3.76603
G1 X45.405 Y81.074 E3.77486
G1 X45.489 Y80.836 E3.78322
G1 X45.603 Y80.624 E3.79121
G1 X45.743 Y80.435 E3.79899
G1 X45.910 Y80.271 E3.80674
G1 X46.098 Y80.133 E3.81447
G1 X46.305 Y80.022 E3.82224
G1 X46.533 Y79.937 E3.83032
G1 X47.011 Y79.843 E3.84646
G1 X47.485 Y79.838 E3.86215
G1 X47.934 Y79.890 E3.87713
G1 X48.339 Y79.992 E3.89096
G1 X48.637 Y80.121 E3.90173
G1 X48.292 Y81.187 E3.93886
G1 X47.880 Y81.019 E3.95361
G1 X47.611 Y80.953 E3.96278
G1 X47.299 Y80.931 E3.97314
G1 X47.068 Y80.953 E3.98084
G1 X46.891 Y81.016 E3.98707
G1 X46.756 Y81.118 E3.99265
G1 X46.657 Y81.250 E3.99812
G1 X46.598 Y81.400 E4.00347
G1 X46.577 Y81.573 E4.00924
G1 X46.599 Y81.780 E4.01613
G1 X46.660 Y81.933 E4.02159
G1 X46.754 Y82.043 E4.02639
G1 X46.899 Y82.125 E4.03190
G1 X47.112 Y82.180 E4.03918
G1 X47.400 Y82.200 E4.04875
G1 X48.062 Y82.200 E4.07069
G1 X48.062 Y82.890 E4.09353
G1 X47.197 Y84.056 E4.14165
G1 X48.483 Y84.056 E4.18426
G1 E2.18426 F2400.00000
G92 E0
G1 X36.532 Y85.500 F7800.000
G1 E2.00000 F2400.00000
G1 F1800.000
G1 X36.048 Y86.988 E2.05184
G1 X34.782 Y87.908 E2.10369
G1 X33.218 Y87.908 E2.15553
G1 X31.952 Y86.988 E2.20738
G1 X31.468 Y85.500 E2.25922
G1 X31.952 Y84.012 E2.31107
G1 X33.218 Y83.092 E2.36291
G1 X34.782 Y83.092 E2.41476
G1 X36.048 Y84.012 E2.46660
G1 X36.514 Y85.443 E2.51646
G1 X36.253 Y85.500 F7800.000
G1 F1800.000
G1 X35.823 Y86.824 E2.56258
G1 X34.696 Y87.643 E2.60871
G1 X33.304 Y87.643 E2.65483
G1 X32.177 Y86.824 E2.70096
G1 X31.747 Y85.500 E2.74708
G1 X32.177 Y84.176 E2.79321
G1 X33.304 Y83.357 E2.83934
G1 X34.696 Y83.357 E2.88546
G1 X35.823 Y84.176 E2.93159
G1 X36.234 Y85.443 E2.97573
G1 X35.973 Y85.500 F7800.000
G1 F1800.000
G1 X35.597 Y86.660 E3.01613
G1 X34.610 Y87.377 E3.05654
G1 X33.390 Y87.377 E3.09695
G1 X32.403 Y86.660 E3.13736
G1 X32.027 Y85.500 E3.17776
G1 X32.403 Y84.340 E3.21817
G1 X33.390 Y83.623 E3.25858
G1 X34.610 Y83.623 E3.29899
G1 X35.597 Y84.340 E3.33939
G1 X35.955 Y85.443 E3.37781
G1 E1.37781 F2400.00000
G92 E0
G1 X51.952 Y68.988 F7800.000
G1 E2.00000 F2400.00000
G1 F1800.000
G1 X51.468 Y67.500 E2.05184
G1 X51.952 Y66.012 E2.10369
G1 X53.218 Y65.092 E2.15553
G1 X54.782 Y65.092 E2.20738
G1 X56.048 Y66.012 E2.25922
G1 X56.532 Y67.500 E2.31107
G1 X56.048 Y68.988 E2.36291
G1 X54.782 Y69.908 E2.41475
G1 X53.218 Y69.908 E2.46660
G1 X52.000 Y69.024 E2.51645
G1 X52.177 Y68.824 F7800.000
G1 F1800.000
G1 X51.747 Y67.500 E2.56258
G1 X52.177 Y66.176 E2.60871
G1 X53.304 Y65.357 E2.65483
G1 X54.696 Y65.357 E2.70096
G1 X55.822 Y66.176 E2.74708
G1 X56.253 Y67.500 E2.79321
G1 X55.822 Y68.824 E2.83933
G1 X54.696 Y69.643 E2.88546
G1 X53.304 Y69.643 E2.93159
G1 X52.226 Y68.859 E2.97572
G1 X52.403 Y68.660 F7800.000
G1 F1800.000
G1 X52.027 Y67.500 E3.01613
G1 X52.403 Y66.340 E3.05654
G1 X53.390 Y65.623 E3.09695
G1 X54.610 Y65.623 E3.13735
G1 X55.597 Y66.340 E3.17776
G1 X55.973 Y67.500 E3.21817
G1 X55.597 Y68.660 E3.25857
G1 X54.610 Y69.377 E3.29898
G1 X53.390 Y69.377 E3.33939
G1 X52.452 Y68.695 E3.37781
G1 E1.37781 F2400.00000
G92 E0
G1 X79.251 Y67.123 F7800.000
G1 E2.00000 F2400.00000
G1 F1800.000
G1 X79.251 Y78.096 E2.36355
G1 X77.948 Y78.230 E2.40694
G1 X76.968 Y78.280 E2.43944
G1 X75.715 Y78.302 E2.48096
G1 X75.046 Y78.278 E2.50315
G1 X74.410 Y78.204 E2.52435
G1 X73.814 Y78.077 E2.54455
G1 X73.261 Y77.896 E2.56383
G1 X72.754 Y77.666 E2.58228
G1 X72.291 Y77.389 E2.60014
G1 X71.872 Y77.065 E2.61767
G1 X71.505 Y76.696 E2.63493
G1 X71.188 Y76.291 E2.65197
G1 X70.920 Y75.852 E2.66900
G1 X70.699 Y75.381 E2.68623
G1 X70.526 Y74.883 E2.70370
G1 X70.396 Y74.366 E2.72137
G1 X70.305 Y73.832 E2.73933
G1 X70.251 Y73.277 E2.75778
G1 X70.233 Y72.704 E2.77680
G1 X70.250 Y72.172 E2.79443
G1 X70.302 Y71.647 E2.81189
G1 X70.387 Y71.131 E2.82923
G1 X70.509 Y70.618 E2.84670
G1 X70.676 Y70.111 E2.86437
G1 X70.893 Y69.626 E2.88199
G1 X71.161 Y69.169 E2.89953
G1 X71.478 Y68.740 E2.91720
G1 X71.849 Y68.344 E2.93518
G1 X72.273 Y67.990 E2.95348
