; generated by Slic3r 1.3.1-dev (Build adea0d9) on 2020-02-19 at 16:54:23

; external perimeters extrusion width = 0.44mm (2.86mm^3/s)
; perimeters extrusion width = 0.56mm (4.14mm^3/s)
; infill extrusion width = 0.50mm (3.66mm^3/s)
; solid infill extrusion width = 0.56mm (3.10mm^3/s)
; top infill extrusion width = 0.56mm (3.10mm^3/s)

M107
G92 E0
;D3D:START:START
T0
M104 S215 T0

G21
G90
M107
T0
G28
G29
M109 T0 S215 T0
G0 F3000
M107
T0
G92 E0
G0 X0 Y149 Z0.1 F3600
G1 Y49 E6.5 F1200
G0 Z1
G92 E0
; Filament gcode

G21 ; set units to millimeters
G90 ; use absolute coordinates
M82 ; use absolute distances for extrusion
G92 E0
G1 Z0.300 F7800.000
G1 E-2.00000 F2400.00000
G92 E0
G1 X49.884 Y79.581 F7800.000
G1 E2.00000 F2400.00000
G1 F1800.000
G1 X50.550 Y79.399 E2.02285
G1 X51.239 Y79.421 E2.04570
G1 X51.891 Y79.646 E2.06853
G1 X52.446 Y80.054 E2.09136
G1 X52.854 Y80.609 E2.11419
G1 X53.079 Y81.261 E2.13702
G1 X53.101 Y81.950 E2.15986
G1 X52.919 Y82.616 E2.18272
G1 X52.550 Y83.199 E2.20557
G1 X52.028 Y83.649 E2.22843
G1 X51.397 Y83.928 E2.25129
G1 X50.712 Y84.009 E2.27414
G1 X50.034 Y83.884 E2.29697
G1 X49.423 Y83.564 E2.31981
G1 X48.936 Y83.077 E2.34263
G1 X48.616 Y82.466 E2.36547
G1 X48.491 Y81.788 E2.38830
G1 X48.572 Y81.103 E2.41115
G1 X48.851 Y80.472 E2.43401
G1 X49.301 Y79.950 E2.45687
G1 X49.834 Y79.613 E2.47773
G1 X49.993 Y79.827 F7800.000
G1 F1800.000
G1 X50.581 Y79.666 E2.49795
G1 X51.190 Y79.686 E2.51814
G1 X51.766 Y79.884 E2.53830
G1 X52.256 Y80.244 E2.55845
G1 X52.616 Y80.734 E2.57860
G1 X52.814 Y81.310 E2.59876
G1 X52.834 Y81.919 E2.61895
G1 X52.673 Y82.507 E2.63916
G1 X52.347 Y83.024 E2.65939
G1 X51.884 Y83.422 E2.67963
G1 X51.326 Y83.669 E2.69985
G1 X50.720 Y83.740 E2.72005
G1 X50.121 Y83.630 E2.74023
G1 X49.582 Y83.348 E2.76038
G1 X49.152 Y82.918 E2.78053
G1 X48.870 Y82.379 E2.80069
G1 X48.760 Y81.780 E2.82086
G1 X48.831 Y81.174 E2.84106
G1 X49.078 Y80.616 E2.86129
G1 X49.476 Y80.153 E2.88152
G1 X49.942 Y79.859 E2.89976
G1 X50.101 Y80.073 F7800.000
G1 F1800.000
G1 X50.613 Y79.933 E2.91734
G1 X51.142 Y79.950 E2.93487
G1 X51.641 Y80.122 E2.95236
G1 X52.066 Y80.434 E2.96983
G1 X52.378 Y80.859 E2.98730
G1 X52.550 Y81.358 E3.00479
G1 X52.567 Y81.887 E3.02233
G1 X52.427 Y82.399 E3.03990
G1 X52.144 Y82.848 E3.05751
G1 X51.741 Y83.195 E3.07511
G1 X51.255 Y83.409 E3.09271
G1 X50.729 Y83.472 E3.11026
G1 X50.209 Y83.376 E3.12777
G1 X49.742 Y83.131 E3.14525
G1 X49.369 Y82.758 E3.16272
G1 X49.124 Y82.291 E3.18020
G1 X49.028 Y81.771 E3.19771
G1 X49.091 Y81.245 E3.21527
G1 X49.305 Y80.759 E3.23286
G1 X49.652 Y80.356 E3.25047
G1 X50.050 Y80.105 E3.26608
G1 E1.26608 F2400.00000
G92 E0
G1 X37.625 Y68.907 F7800.000
G1 E2.00000 F2400.00000
G1 F1800.000
G1 X39.928 Y67.834 E2.08417
G1 X43.178 Y66.963 E2.19563
G1 X46.529 Y66.670 E2.30710
G1 X49.881 Y66.963 E2.41856
G1 X53.131 Y67.834 E2.53002
G1 X56.180 Y69.255 E2.64148
G1 X58.936 Y71.185 E2.75294
G1 X61.315 Y73.564 E2.86440
G1 X63.245 Y76.320 E2.97586
G1 X64.666 Y79.369 E3.08733
G1 X65.537 Y82.619 E3.19879
G1 X65.830 Y85.971 E3.31025
G1 X65.537 Y89.322 E3.42171
G1 X64.666 Y92.572 E3.53317
G1 X63.593 Y94.875 E3.61734
G1 X66.591 Y96.982 E3.73876
G1 X69.670 Y99.004 E3.86080
G1 X72.811 Y100.930 E3.98284
G1 X76.010 Y102.754 E4.10487
G1 X79.249 Y104.469 E4.22627
G1 X82.574 Y106.098 E4.34894
G1 X83.003 Y106.292 E4.36455
G1 X83.003 Y110.231 E4.49502
G1 X81.045 Y109.347 E4.56618
G1 X77.636 Y107.677 E4.69195
G1 X74.281 Y105.901 E4.81772
G1 X70.983 Y104.020 E4.94349
G1 X67.746 Y102.035 E5.06928
G1 X64.573 Y99.952 E5.19504
G1 X61.467 Y97.768 E5.32082
G1 X58.431 Y95.489 E5.44659
G1 X55.468 Y93.115 E5.57237
G1 X52.582 Y90.650 E5.69814
G1 X49.774 Y88.095 E5.82391
G1 X47.047 Y85.453 E5.94968
G1 X44.405 Y82.726 E6.07546
G1 X41.850 Y79.918 E6.20123
G1 X39.385 Y77.032 E6.32700
G1 X37.011 Y74.069 E6.45278
G1 X34.732 Y71.033 E6.57855
G1 X32.548 Y67.927 E6.70433
G1 X30.465 Y64.754 E6.83009
G1 X28.480 Y61.517 E6.95588
G1 X26.599 Y58.219 E7.08165
G1 X24.823 Y54.864 E7.20742
G1 X23.153 Y51.455 E7.33319
G1 X21.591 Y47.995 E7.45896
G1 X20.138 Y44.487 E7.58473
G1 X18.796 Y40.936 E7.71051
G1 X18.196 Y39.184 E7.77187
G1 X18.196 Y18.976 E8.44133
G1 X21.804 Y18.976 E8.56084
G1 X21.804 Y38.639 E9.21226
G1 X22.174 Y39.720 E9.25011
G1 X23.476 Y43.166 E9.37215
G1 X24.886 Y46.569 E9.49418
G1 X26.401 Y49.926 E9.61622
G1 X28.022 Y53.234 E9.73826
G1 X29.746 Y56.490 E9.86029
G1 X31.570 Y59.689 E9.98232
G1 X33.495 Y62.830 E10.10437
G1 X35.518 Y65.909 E10.22641
G1 X37.591 Y68.858 E10.34583
G1 X37.715 Y68.573 F7800.000
G1 F1800.000
G1 X39.837 Y67.583 E10.42341
G1 X43.131 Y66.700 E10.53641
G1 X46.529 Y66.403 E10.64941
G1 X49.927 Y66.700 E10.76241
G1 X53.222 Y67.583 E10.87541
G1 X56.313 Y69.025 E10.98841
G1 X59.107 Y70.981 E11.10141
G1 X61.519 Y73.393 E11.21441
G1 X63.475 Y76.187 E11.32741
G1 X64.917 Y79.278 E11.44042
G1 X65.800 Y82.573 E11.55342
G1 X66.097 Y85.971 E11.66642
G1 X65.800 Y89.369 E11.77942
G1 X64.917 Y92.663 E11.89242
G1 X63.927 Y94.785 E11.96999
G1 X66.740 Y96.762 E12.08390
G1 X69.812 Y98.780 E12.20566
G1 X72.946 Y100.701 E12.32743
G1 X76.138 Y102.521 E12.44918
G1 X79.369 Y104.232 E12.57030
G1 X82.687 Y105.858 E12.69270
G1 X83.269 Y106.121 E12.71385
G1 X83.269 Y110.642 E12.86362
G1 X80.932 Y109.588 E12.94855
G1 X77.515 Y107.914 E13.07459
G1 X74.153 Y106.133 E13.20064
G1 X70.848 Y104.248 E13.32669
G1 X67.604 Y102.260 E13.45275
G1 X64.424 Y100.171 E13.57879
G1 X61.311 Y97.983 E13.70485
G1 X58.268 Y95.699 E13.83090
G1 X55.299 Y93.320 E13.95695
G1 X52.406 Y90.849 E14.08300
G1 X49.592 Y88.288 E14.20905
G1 X46.860 Y85.640 E14.33510
G1 X44.212 Y82.908 E14.46115
G1 X41.651 Y80.094 E14.58720
G1 X39.180 Y77.201 E14.71324
G1 X36.801 Y74.232 E14.83929
G1 X34.517 Y71.189 E14.96534
G1 X32.329 Y68.076 E15.09140
G1 X30.240 Y64.896 E15.21744
G1 X28.252 Y61.652 E15.34350
G1 X26.367 Y58.347 E15.46955
G1 X24.586 Y54.985 E15.59560
G1 X22.912 Y51.568 E15.72165
G1 X21.347 Y48.100 E15.84769
G1 X19.892 Y44.585 E15.97374
G1 X18.546 Y41.026 E16.09979
G1 X17.931 Y39.228 E16.16276
G1 X17.931 Y18.711 E16.84248
G1 X22.069 Y18.711 E16.97960
G1 X22.069 Y38.595 E17.63834
G1 X22.424 Y39.630 E17.67460
G1 X23.723 Y43.068 E17.79636
G1 X25.129 Y46.463 E17.91811
G1 X26.642 Y49.813 E18.03987
G1 X28.259 Y53.114 E18.16163
G1 X29.979 Y56.362 E18.28340
G1 X31.799 Y59.554 E18.40515
G1 X33.720 Y62.688 E18.52692
G1 X35.738 Y65.760 E18.64868
G1 X37.680 Y68.524 E18.76060
G1 X37.804 Y68.238 F7800.000
G1 F1800.000
G1 X39.746 Y67.332 E18.83157
G1 X43.085 Y66.438 E18.94611
G1 X46.529 Y66.136 E19.06065
G1 X49.974 Y66.438 E19.17519
G1 X53.313 Y67.332 E19.28973
G1 X56.447 Y68.794 E19.40427
G1 X59.279 Y70.777 E19.51881
G1 X61.723 Y73.221 E19.63335
G1 X63.706 Y76.053 E19.74789
G1 X65.168 Y79.187 E19.86244
G1 X66.062 Y82.526 E19.97697
G1 X66.364 Y85.971 E20.09152
G1 X66.062 Y89.415 E20.20606
G1 X65.168 Y92.754 E20.32060
G1 X64.262 Y94.696 E20.39157
G1 X66.890 Y96.543 E20.49797
G1 X69.955 Y98.556 E20.61945
G1 X73.081 Y100.472 E20.74094
G1 X76.266 Y102.289 E20.86242
G1 X79.490 Y103.996 E20.98327
G1 X82.800 Y105.618 E21.10539
G1 X83.534 Y105.949 E21.13208
G1 X83.534 Y149.835 E22.58598
G1 X83.058 Y149.835 E22.60177
G1 X83.058 Y110.838 E23.89372
G1 X80.819 Y109.828 E23.97509
G1 X77.395 Y108.150 E24.10141
G1 X74.025 Y106.366 E24.22774
G1 X70.713 Y104.477 E24.35406
G1 X67.462 Y102.484 E24.48040
G1 X64.275 Y100.391 E24.60672
G1 X61.155 Y98.198 E24.73305
G1 X58.106 Y95.909 E24.85937
G1 X55.130 Y93.525 E24.98570
G1 X52.230 Y91.048 E25.11203
G1 X49.410 Y88.482 E25.23835
G1 X46.672 Y85.828 E25.36468
G1 X44.018 Y83.090 E25.49100
G1 X41.452 Y80.270 E25.61733
G1 X38.975 Y77.370 E25.74366
G1 X36.591 Y74.394 E25.86998
G1 X34.302 Y71.345 E25.99631
G1 X32.109 Y68.225 E26.12264
G1 X30.016 Y65.038 E26.24896
G1 X28.023 Y61.787 E26.37530
G1 X26.134 Y58.475 E26.50162
G1 X24.350 Y55.105 E26.62795
G1 X22.672 Y51.681 E26.75427
G1 X21.103 Y48.206 E26.88059
G1 X19.645 Y44.683 E27.00691
G1 X18.297 Y41.116 E27.13324
G1 X17.665 Y39.272 E27.19781
G1 X17.665 Y0.165 E28.49341
G1 X22.335 Y0.165 E28.64812
G1 X22.335 Y0.635 E28.66369
G1 X18.135 Y0.635 E28.80284
G1 X18.135 Y18.445 E29.39287
G1 X22.335 Y18.445 E29.53202
G1 X22.335 Y38.550 E30.19810
G1 X22.674 Y39.540 E30.23275
G1 X23.970 Y42.970 E30.35424
G1 X25.373 Y46.358 E30.47572
G1 X26.882 Y49.700 E30.59720
G1 X28.495 Y52.993 E30.71868
G1 X30.211 Y56.234 E30.84017
G1 X32.028 Y59.419 E30.96164
G1 X33.944 Y62.545 E31.08314
G1 X35.957 Y65.610 E31.20462
G1 X37.770 Y68.189 E31.30903
G1 E29.30903 F2400.00000
G92 E0
G1 X45.428 Y83.609 F7800.000
G1 E2.00000 F2400.00000
G1 F1800.000
G1 X45.613 Y83.800 E2.00881
G1 X48.408 Y81.005 E2.13984
G1 X48.357 Y81.432 E2.15407
G1 X45.798 Y83.991 E2.27406
G1 X45.983 Y84.182 E2.28287
G1 X48.349 Y81.816 E2.39379
G1 X48.407 Y82.133 E2.40449
G1 X46.168 Y84.373 E2.50948
G1 X46.353 Y84.564 E2.51829
G1 X48.465 Y82.451 E2.61734
G1 X48.595 Y82.697 E2.62657
G1 X46.537 Y84.755 E2.72301
G1 X46.722 Y84.946 E2.73182
G1 X48.724 Y82.944 E2.82565
G1 X48.823 Y83.133 E2.83270
G1 X48.867 Y83.177 E2.83478
G1 X46.907 Y85.136 E2.92664
G1 X47.092 Y85.327 E2.93545
G1 X49.055 Y83.365 E3.02746
G1 X49.243 Y83.553 E3.03627
G1 X47.282 Y85.514 E3.12819
G1 X47.473 Y85.699 E3.13700
G1 X49.451 Y83.721 E3.22972
G1 X49.697 Y83.850 E3.23895
G1 X47.664 Y85.884 E3.33427
G1 X47.855 Y86.069 E3.34308
G1 X49.944 Y83.979 E3.44102
G1 X50.049 Y84.035 E3.44497
G1 X50.231 Y84.068 E3.45109
G1 X48.046 Y86.253 E3.55354
G1 X48.236 Y86.438 E3.56235
G1 X50.549 Y84.126 E3.67074
G1 X50.806 Y84.174 E3.67943
G1 X50.886 Y84.164 E3.68210
G1 X48.427 Y86.623 E3.79739
G1 X48.618 Y86.808 E3.80620
G1 X51.313 Y84.114 E3.93251
G1 X51.571 Y84.083 E3.94112
G1 X51.836 Y83.966 E3.95074
G1 X48.809 Y86.993 E4.09265
G1 E2.09265 F2400.00000
G92 E0
G1 X82.634 Y109.923 F7800.000
G1 E2.00000 F2400.00000
G1 F1800.000
G1 X82.841 Y109.716 E2.00969
G1 X82.841 Y109.340 E2.02215
G1 X82.375 Y109.806 E2.04398
G1 X82.116 Y109.689 E2.05340
G1 X82.841 Y108.964 E2.08737
G1 X82.841 Y108.588 E2.09983
G1 X81.857 Y109.572 E2.14594
G1 X81.598 Y109.455 E2.15536
G1 X82.841 Y108.213 E2.21362
G1 X82.841 Y107.837 E2.22607
G1 X81.339 Y109.338 E2.29647
G1 X81.080 Y109.221 E2.30589
G1 X82.841 Y107.461 E2.38843
G1 X82.841 Y107.085 E2.40088
G1 X80.827 Y109.099 E2.49528
G1 X80.575 Y108.975 E2.50459
G1 X82.841 Y106.709 E2.61081
G1 X82.841 Y106.361 E2.62236
G1 X82.822 Y106.352 E2.62305
G1 X80.323 Y108.851 E2.74021
G1 X80.070 Y108.728 E2.74952
G1 X82.563 Y106.235 E2.86638
G1 X82.311 Y106.111 E2.87569
G1 X79.818 Y108.604 E2.99254
G1 X79.566 Y108.481 E3.00186
G1 X82.059 Y105.988 E3.11871
G1 X81.806 Y105.864 E3.12802
G1 X79.314 Y108.357 E3.24488
G1 X79.061 Y108.233 E3.25419
G1 X81.554 Y105.741 E3.37105
G1 X81.302 Y105.617 E3.38036
G1 X78.809 Y108.110 E3.49723
G1 X78.557 Y107.986 E3.50654
G1 X81.050 Y105.493 E3.62340
G1 X80.797 Y105.370 E3.63271
G1 X78.304 Y107.863 E3.74957
G1 X78.052 Y107.739 E3.75888
G1 X80.545 Y105.246 E3.87575
G1 X80.293 Y105.123 E3.88506
G1 X77.800 Y107.616 E4.00192
G1 X77.550 Y107.489 E4.01120
G1 X80.041 Y104.999 E4.12793
G1 X79.788 Y104.875 E4.13724
G1 X77.305 Y107.359 E4.25368
G1 X77.059 Y107.229 E4.26289
G1 X79.536 Y104.752 E4.37902
G1 X79.284 Y104.628 E4.38833
G1 X76.813 Y107.099 E4.50416
G1 X76.567 Y106.969 E4.51337
G1 X79.037 Y104.499 E4.62913
G1 X78.791 Y104.369 E4.63835
G1 X76.322 Y106.839 E4.75411
G1 X76.076 Y106.708 E4.76333
G1 X78.545 Y104.239 E4.87908
G1 X78.300 Y104.109 E4.88830
G1 X75.830 Y106.578 E5.00406
G1 X75.584 Y106.448 E5.01328
G1 X78.054 Y103.979 E5.12904
G1 X77.808 Y103.849 E5.13826
G1 X75.339 Y106.318 E5.25402
G1 X75.093 Y106.188 E5.26324
G1 X77.562 Y103.719 E5.37900
G1 X77.317 Y103.589 E5.38822
G1 X74.847 Y106.058 E5.50398
G1 X74.601 Y105.928 E5.51319
G1 X77.071 Y103.458 E5.62896
G1 X76.825 Y103.328 E5.63817
G1 X74.356 Y105.798 E5.75394
G1 X74.115 Y105.662 E5.76309
G1 X76.579 Y103.198 E5.87861
G1 X76.334 Y103.068 E5.88783
G1 X73.876 Y105.526 E6.00306
G1 X73.636 Y105.389 E6.01219
G1 X76.088 Y102.938 E6.12712
G1 X75.846 Y102.804 E6.13628
G1 X73.397 Y105.253 E6.25108
G1 X73.158 Y105.116 E6.26022
G1 X75.607 Y102.668 E6.37502
G1 X75.367 Y102.531 E6.38415
G1 X72.918 Y104.980 E6.49895
G1 X72.679 Y104.843 E6.50809
G1 X75.128 Y102.395 E6.62288
G1 X74.889 Y102.258 E6.63202
G1 X72.440 Y104.707 E6.74682
G1 X72.200 Y104.570 E6.75595
G1 X74.649 Y102.122 E6.87075
G1 X74.410 Y101.985 E6.87988
G1 X71.961 Y104.434 E6.99468
G1 X71.722 Y104.297 E7.00381
G1 X74.170 Y101.849 E7.11860
G1 X73.931 Y101.712 E7.12774
G1 X71.482 Y104.161 E7.24253
G1 X71.243 Y104.024 E7.25167
G1 X73.692 Y101.576 E7.36646
G1 X73.452 Y101.439 E7.37559
G1 X71.004 Y103.887 E7.49037
G1 X70.771 Y103.745 E7.49943
G1 X73.213 Y101.303 E7.61391
G1 X72.974 Y101.166 E7.62305
G1 X70.538 Y103.602 E7.73723
G1 X70.305 Y103.459 E7.74629
G1 X72.735 Y101.028 E7.86023
G1 X72.502 Y100.886 E7.86929
G1 X70.072 Y103.316 E7.98323
G1 X69.839 Y103.173 E7.99229
G1 X72.269 Y100.743 E8.10623
G1 X72.036 Y100.600 E8.11529
G1 X69.606 Y103.030 E8.22923
G1 X69.373 Y102.888 E8.23829
G1 X71.803 Y100.457 E8.35223
G1 X71.570 Y100.314 E8.36129
G1 X69.140 Y102.745 E8.47523
G1 X68.907 Y102.602 E8.48429
G1 X71.337 Y100.171 E8.59823
G1 X71.104 Y100.029 E8.60729
G1 X68.674 Y102.459 E8.72123
G1 X68.441 Y102.316 E8.73029
G1 X70.871 Y99.886 E8.84422
G1 X70.638 Y99.743 E8.85328
G1 X68.208 Y102.173 E8.96722
G1 X67.975 Y102.031 E8.97628
G1 X70.405 Y99.600 E9.09022
G1 X70.172 Y99.457 E9.09928
G1 X67.743 Y101.887 E9.21316
G1 X67.516 Y101.738 E9.22215
G1 X69.939 Y99.314 E9.33575
G1 X69.706 Y99.172 E9.34481
G1 X67.289 Y101.589 E9.45811
G1 X67.062 Y101.440 E9.46711
G1 X69.477 Y99.025 E9.58032
G1 X69.250 Y98.876 E9.58932
G1 X66.835 Y101.291 E9.70253
G1 X66.609 Y101.142 E9.71153
G1 X69.024 Y98.727 E9.82474
G1 X68.797 Y98.578 E9.83374
G1 X66.382 Y100.993 E9.94695
G1 X66.155 Y100.844 E9.95595
G1 X68.570 Y98.429 E10.06916
G1 X68.343 Y98.280 E10.07816
G1 X65.928 Y100.695 E10.19138
G1 X65.701 Y100.546 E10.20037
G1 X68.116 Y98.131 E10.31359
G1 X67.889 Y97.982 E10.32259
G1 X65.474 Y100.397 E10.43581
G1 X65.247 Y100.248 E10.44480
G1 X67.663 Y97.833 E10.55802
G1 X67.436 Y97.684 E10.56702
G1 X65.020 Y100.099 E10.68024
G1 X64.794 Y99.950 E10.68924
G1 X67.209 Y97.535 E10.80246
G1 X66.982 Y97.386 E10.81145
G1 X64.568 Y99.799 E10.92461
G1 X64.347 Y99.644 E10.93355
G1 X66.755 Y97.237 E11.04642
G1 X66.529 Y97.087 E11.05541
G1 X64.127 Y99.489 E11.16802
G1 X63.906 Y99.334 E11.17696
G1 X66.308 Y96.932 E11.28956
G1 X66.087 Y96.777 E11.29850
G1 X63.685 Y99.179 E11.41111
G1 X63.465 Y99.024 E11.42005
G1 X65.867 Y96.622 E11.53265
G1 X65.646 Y96.467 E11.54159
G1 X63.244 Y98.868 E11.65419
G1 X63.023 Y98.713 E11.66314
G1 X65.425 Y96.311 E11.77574
G1 X65.204 Y96.156 E11.78468
G1 X62.802 Y98.558 E11.89728
G1 X62.582 Y98.403 E11.90622
G1 X64.984 Y96.001 E12.01882
G1 X64.763 Y95.846 E12.02776
G1 X62.361 Y98.248 E12.14036
G1 X62.140 Y98.093 E12.14930
G1 X64.542 Y95.691 E12.26190
G1 X64.321 Y95.536 E12.27085
G1 X61.920 Y97.938 E12.38344
G1 X61.699 Y97.782 E12.39239
G1 X64.101 Y95.381 E12.50498
G1 X63.880 Y95.225 E12.51393
G1 X61.479 Y97.626 E12.62647
G1 X61.265 Y97.465 E12.63537
G1 X63.659 Y95.070 E12.74763
G1 X63.439 Y94.915 E12.75657
G1 X61.050 Y97.304 E12.86855
G1 X60.835 Y97.143 E12.87745
G1 X63.574 Y94.403 E13.00586
G1 X63.903 Y93.699 E13.03162
G1 X60.621 Y96.981 E13.18548
G1 X60.406 Y96.820 E13.19438
G1 X64.231 Y92.995 E13.37371
G1 X64.536 Y92.314 E13.39844
G1 X60.191 Y96.659 E13.60212
G1 X59.977 Y96.498 E13.61102
G1 X64.674 Y91.801 E13.83122
G1 X64.811 Y91.287 E13.84884
G1 X59.762 Y96.337 E14.08555
G1 X59.547 Y96.176 E14.09445
G1 X64.949 Y90.774 E14.34767
G1 X65.087 Y90.260 E14.36529
G1 X59.333 Y96.014 E14.63503
G1 X59.118 Y95.853 E14.64393
G1 X65.224 Y89.747 E14.93018
G1 X65.362 Y89.234 E14.94780
G1 X58.903 Y95.692 E15.25056
G1 X58.689 Y95.531 E15.25946
G1 X65.410 Y88.810 E15.57454
G1 X65.446 Y88.398 E15.58824
G1 X58.474 Y95.369 E15.91505
G1 X58.266 Y95.202 E15.92392
G1 X65.482 Y87.986 E16.26220
G1 X65.518 Y87.574 E16.27590
G1 X58.057 Y95.035 E16.62565
G1 X57.848 Y94.868 E16.63452
G1 X65.554 Y87.162 E16.99574
G1 X65.590 Y86.750 E17.00945
G1 X57.640 Y94.700 E17.38214
