; generated by Slic3r 1.3.1-dev (Build adea0d9) on 2020-02-19 at 16:54:37

; external perimeters extrusion width = 0.44mm (2.86mm^3/s)
; perimeters extrusion width = 0.56mm (4.14mm^3/s)
; infill extrusion width = 0.50mm (3.66mm^3/s)
; solid infill extrusion width = 0.56mm (3.10mm^3/s)
; top infill extrusion width = 0.56mm (3.10mm^3/s)

M107
G92 E0
;D3D:START:START
T0
M104 S215 T0

G21
G90
M107
T0
G28
G29
M109 T0 S215 T0
G0 F3000
M107
T0
G92 E0
G0 X0 Y149 Z0.1 F3600
G1 Y49 E6.5 F1200
G0 Z1
G92 E0
; Filament gcode

G21 ; set units to millimeters
G90 ; use absolute coordinates
M82 ; use absolute distances for extrusion
G92 E0
G1 Z0.300 F7800.000
G1 E-2.00000 F2400.00000
G92 E0
G1 X83.245 Y89.278 F7800.000
G1 E2.00000 F2400.00000
G1 F1800.000
G1 X83.751 Y88.962 E2.01974
G1 X84.311 Y88.759 E2.03948
G1 X84.888 Y88.677 E2.05881
G1 X85.310 Y88.692 E2.07278
G1 X85.881 Y88.813 E2.09212
G1 X86.425 Y89.056 E2.11186
G1 X86.897 Y89.399 E2.13119
G1 X87.190 Y89.702 E2.14517
G1 X87.516 Y90.186 E2.16450
G1 X87.740 Y90.738 E2.18424
G1 X87.841 Y91.313 E2.20357
G1 X87.841 Y91.735 E2.21755
G1 X87.740 Y92.310 E2.23688
G1 X87.516 Y92.862 E2.25662
G1 X87.183 Y93.356 E2.27636
G1 X86.755 Y93.770 E2.29610
G1 X86.249 Y94.086 E2.31584
G1 X85.689 Y94.289 E2.33558
G1 X85.112 Y94.371 E2.35491
G1 X84.690 Y94.356 E2.36888
G1 X84.119 Y94.235 E2.38821
G1 X83.575 Y93.992 E2.40795
G1 X83.103 Y93.649 E2.42729
G1 X82.810 Y93.346 E2.44126
G1 X82.484 Y92.862 E2.46059
G1 X82.260 Y92.310 E2.48033
G1 X82.159 Y91.735 E2.49966
G1 X82.159 Y91.313 E2.51364
G1 X82.260 Y90.738 E2.53297
G1 X82.484 Y90.186 E2.55271
G1 X82.817 Y89.692 E2.57245
G1 X83.202 Y89.320 E2.59020
G1 X83.410 Y89.489 F7800.000
G1 F1800.000
G1 X83.868 Y89.202 E2.60809
G1 X84.375 Y89.018 E2.62598
G1 X84.902 Y88.944 E2.64362
G1 X85.277 Y88.957 E2.65605
G1 X85.798 Y89.067 E2.67369
G1 X86.291 Y89.287 E2.69158
G1 X86.722 Y89.600 E2.70922
G1 X86.983 Y89.870 E2.72166
G1 X87.281 Y90.311 E2.73929
G1 X87.483 Y90.812 E2.75718
G1 X87.575 Y91.336 E2.77482
G1 X87.575 Y91.712 E2.78726
G1 X87.483 Y92.236 E2.80489
G1 X87.281 Y92.737 E2.82279
G1 X86.979 Y93.184 E2.84067
G1 X86.590 Y93.559 E2.85856
G1 X86.132 Y93.846 E2.87645
G1 X85.625 Y94.030 E2.89434
G1 X85.098 Y94.104 E2.91198
G1 X84.723 Y94.091 E2.92441
G1 X84.202 Y93.981 E2.94205
G1 X83.708 Y93.761 E2.95994
G1 X83.278 Y93.448 E2.97758
G1 X83.017 Y93.178 E2.99001
G1 X82.719 Y92.737 E3.00765
G1 X82.517 Y92.236 E3.02554
G1 X82.425 Y91.712 E3.04318
G1 X82.425 Y91.336 E3.05562
G1 X82.517 Y90.812 E3.07325
G1 X82.719 Y90.311 E3.09114
G1 X83.021 Y89.864 E3.10903
G1 X83.367 Y89.530 E3.12493
G1 X83.574 Y89.699 F7800.000
G1 F1800.000
G1 X83.985 Y89.443 E3.14097
G1 X84.440 Y89.277 E3.15701
G1 X84.916 Y89.210 E3.17296
G1 X85.245 Y89.221 E3.18385
G1 X85.716 Y89.321 E3.19979
G1 X86.158 Y89.518 E3.21583
G1 X86.547 Y89.801 E3.23178
G1 X86.776 Y90.038 E3.24267
G1 X87.045 Y90.437 E3.25861
G1 X87.226 Y90.886 E3.27466
G1 X87.310 Y91.360 E3.29060
G1 X87.310 Y91.688 E3.30149
G1 X87.226 Y92.162 E3.31744
G1 X87.045 Y92.611 E3.33348
G1 X86.774 Y93.013 E3.34952
G1 X86.426 Y93.349 E3.36556
G1 X86.015 Y93.606 E3.38160
G1 X85.560 Y93.771 E3.39764
G1 X85.084 Y93.838 E3.41358
G1 X84.755 Y93.827 E3.42447
G1 X84.284 Y93.727 E3.44042
G1 X83.842 Y93.530 E3.45646
G1 X83.453 Y93.247 E3.47240
G1 X83.224 Y93.010 E3.48329
G1 X82.955 Y92.611 E3.49924
G1 X82.774 Y92.162 E3.51528
G1 X82.690 Y91.688 E3.53122
G1 X82.690 Y91.360 E3.54212
G1 X82.774 Y90.886 E3.55806
G1 X82.955 Y90.437 E3.57410
G1 X83.226 Y90.035 E3.59014
G1 X83.531 Y89.741 E3.60419
G1 E1.60419 F2400.00000
G92 E0
G1 X93.504 Y70.828 F7800.000
G1 E2.00000 F2400.00000
G1 F1800.000
G1 X90.538 Y70.828 E2.09826
G1 X90.246 Y70.682 E2.10907
G1 X90.125 Y70.580 E2.11433
G1 X90.022 Y70.448 E2.11987
G1 X89.948 Y70.298 E2.12540
G1 X89.905 Y70.123 E2.13135
G1 X89.918 Y69.858 E2.14017
G1 X89.969 Y69.699 E2.14571
G1 X90.053 Y69.554 E2.15125
G1 X90.165 Y69.430 E2.15679
G1 X90.303 Y69.329 E2.16244
G1 X90.897 Y69.058 E2.18408
G1 X90.883 Y61.124 E2.44692
G1 X90.839 Y60.703 E2.46093
G1 X90.768 Y60.298 E2.47457
G1 X90.668 Y59.899 E2.48821
G1 X90.541 Y59.507 E2.50184
G1 X90.387 Y59.126 E2.51548
G1 X90.206 Y58.756 E2.52911
G1 X90.001 Y58.399 E2.54275
G1 X89.771 Y58.058 E2.55638
G1 X89.517 Y57.734 E2.57002
G1 X89.242 Y57.428 E2.58365
G1 X88.946 Y57.142 E2.59729
G1 X88.630 Y56.877 E2.61093
G1 X88.297 Y56.635 E2.62456
G1 X87.948 Y56.417 E2.63820
G1 X87.585 Y56.224 E2.65183
G1 X87.209 Y56.057 E2.66547
G1 X86.822 Y55.916 E2.67910
G1 X86.427 Y55.803 E2.69274
G1 X86.024 Y55.717 E2.70637
G1 X85.616 Y55.660 E2.72001
G1 X85.206 Y55.631 E2.73364
G1 X84.794 Y55.631 E2.74728
G1 X84.384 Y55.660 E2.76091
G1 X83.976 Y55.717 E2.77455
G1 X83.573 Y55.803 E2.78819
G1 X83.178 Y55.916 E2.80182
G1 X82.791 Y56.057 E2.81546
G1 X82.415 Y56.224 E2.82909
G1 X82.052 Y56.417 E2.84273
G1 X81.703 Y56.635 E2.85636
G1 X81.370 Y56.877 E2.87000
G1 X81.054 Y57.142 E2.88363
G1 X80.758 Y57.428 E2.89727
G1 X80.483 Y57.734 E2.91091
G1 X80.229 Y58.058 E2.92454
G1 X79.999 Y58.399 E2.93818
G1 X79.794 Y58.756 E2.95181
G1 X79.613 Y59.126 E2.96545
G1 X79.459 Y59.507 E2.97908
G1 X79.332 Y59.899 E2.99272
G1 X79.232 Y60.298 E3.00636
G1 X79.161 Y60.703 E3.01999
G1 X79.116 Y61.125 E3.03402
G1 X79.104 Y76.048 E3.52843
G1 X89.170 Y88.010 E4.04637
G1 X89.412 Y88.319 E4.05937
G1 X89.625 Y88.634 E4.07198
G1 X89.815 Y88.964 E4.08459
G1 X89.982 Y89.306 E4.09720
G1 X90.124 Y89.659 E4.10981
G1 X90.242 Y90.021 E4.12242
G1 X90.334 Y90.390 E4.13503
G1 X90.400 Y90.765 E4.14764
G1 X90.440 Y91.144 E4.16025
G1 X90.453 Y91.524 E4.17286
G1 X90.440 Y91.904 E4.18547
G1 X90.400 Y92.283 E4.19808
G1 X90.334 Y92.658 E4.21070
G1 X90.242 Y93.027 E4.22330
G1 X90.124 Y93.389 E4.23591
G1 X89.982 Y93.742 E4.24852
G1 X89.815 Y94.084 E4.26113
G1 X89.625 Y94.414 E4.27375
G1 X89.412 Y94.729 E4.28635
G1 X89.178 Y95.029 E4.29896
G1 X88.923 Y95.312 E4.31157
G1 X88.649 Y95.577 E4.32418
G1 X88.357 Y95.821 E4.33680
G1 X88.049 Y96.045 E4.34941
G1 X87.727 Y96.247 E4.36202
G1 X87.391 Y96.425 E4.37462
G1 X87.043 Y96.580 E4.38724
G1 X86.685 Y96.710 E4.39984
G1 X86.319 Y96.815 E4.41246
G1 X85.947 Y96.895 E4.42507
G1 X85.570 Y96.948 E4.43768
G1 X85.190 Y96.974 E4.45029
G1 X84.810 Y96.974 E4.46290
G1 X84.430 Y96.948 E4.47551
G1 X84.053 Y96.895 E4.48812
G1 X83.681 Y96.815 E4.50073
G1 X83.315 Y96.710 E4.51334
G1 X82.957 Y96.580 E4.52595
G1 X82.609 Y96.425 E4.53856
G1 X82.273 Y96.247 E4.55117
G1 X81.951 Y96.045 E4.56378
G1 X81.643 Y95.821 E4.57639
G1 X81.351 Y95.577 E4.58900
G1 X81.077 Y95.312 E4.60161
G1 X80.822 Y95.029 E4.61423
G1 X80.588 Y94.729 E4.62683
G1 X80.375 Y94.414 E4.63944
G1 X80.185 Y94.084 E4.65205
G1 X80.018 Y93.742 E4.66467
G1 X79.876 Y93.389 E4.67728
G1 X79.758 Y93.027 E4.68988
G1 X79.664 Y92.651 E4.70273
G1 X76.501 Y76.615 E5.24423
G1 X76.496 Y61.536 E5.74379
G1 X76.517 Y60.931 E5.76385
G1 X76.579 Y60.341 E5.78351
G1 X76.682 Y59.756 E5.80318
G1 X76.826 Y59.180 E5.82284
G1 X77.009 Y58.616 E5.84250
G1 X77.232 Y58.065 E5.86217
G1 X77.492 Y57.532 E5.88183
G1 X77.789 Y57.018 E5.90149
G1 X78.121 Y56.526 E5.92115
G1 X78.486 Y56.058 E5.94082
G1 X78.883 Y55.617 E5.96048
G1 X79.310 Y55.205 E5.98015
G1 X79.765 Y54.823 E5.99981
G1 X80.245 Y54.474 E6.01947
G1 X80.748 Y54.160 E6.03913
G1 X81.272 Y53.881 E6.05880
G1 X81.815 Y53.640 E6.07846
G1 X82.372 Y53.437 E6.09812
G1 X82.943 Y53.273 E6.11779
G1 X83.523 Y53.150 E6.13745
G1 X84.111 Y53.067 E6.15711
G1 X84.703 Y53.026 E6.17678
G1 X85.297 Y53.026 E6.19644
G1 X85.889 Y53.067 E6.21610
G1 X86.477 Y53.150 E6.23577
G1 X87.057 Y53.273 E6.25543
G1 X87.628 Y53.437 E6.27509
G1 X88.185 Y53.640 E6.29476
G1 X88.728 Y53.881 E6.31442
G1 X89.252 Y54.160 E6.33408
G1 X89.755 Y54.474 E6.35375
G1 X90.235 Y54.823 E6.37341
G1 X90.690 Y55.205 E6.39307
G1 X91.117 Y55.617 E6.41273
G1 X91.514 Y56.058 E6.43240
G1 X91.879 Y56.526 E6.45206
G1 X92.211 Y57.018 E6.47172
G1 X92.508 Y57.532 E6.49139
G1 X92.768 Y58.065 E6.51105
G1 X92.991 Y58.616 E6.53071
G1 X93.174 Y59.180 E6.55038
G1 X93.318 Y59.756 E6.57004
G1 X93.421 Y60.341 E6.58970
G1 X93.483 Y60.931 E6.60937
G1 X93.504 Y61.536 E6.62943
G1 X93.504 Y70.768 E6.93527
G1 X93.769 Y71.093 F7800.000
G1 F1800.000
G1 X90.475 Y71.093 E7.04442
G1 X90.099 Y70.905 E7.05833
G1 X89.932 Y70.765 E7.06555
G1 X89.795 Y70.589 E7.07294
G1 X89.697 Y70.389 E7.08033
G1 X89.642 Y70.165 E7.08797
G1 X89.632 Y70.032 E7.09241
G1 X89.656 Y69.802 E7.10005
G1 X89.725 Y69.590 E7.10744
G1 X89.837 Y69.397 E7.11483
G1 X89.986 Y69.231 E7.12222
G1 X90.168 Y69.099 E7.12968
G1 X90.631 Y68.887 E7.14654
G1 X90.618 Y61.138 E7.40325
G1 X90.576 Y60.740 E7.41651
G1 X90.508 Y60.353 E7.42953
G1 X90.413 Y59.972 E7.44255
G1 X90.291 Y59.598 E7.45558
G1 X90.144 Y59.234 E7.46860
G1 X89.972 Y58.881 E7.48162
G1 X89.775 Y58.540 E7.49464
G1 X89.555 Y58.214 E7.50766
G1 X89.313 Y57.905 E7.52068
G1 X89.051 Y57.613 E7.53370
G1 X88.768 Y57.339 E7.54672
G1 X88.467 Y57.087 E7.55974
G1 X88.149 Y56.856 E7.57276
G1 X87.815 Y56.648 E7.58578
G1 X87.468 Y56.463 E7.59881
G1 X87.109 Y56.303 E7.61182
G1 X86.740 Y56.169 E7.62485
G1 X86.362 Y56.060 E7.63787
G1 X85.978 Y55.979 E7.65089
G1 X85.589 Y55.924 E7.66391
G1 X85.197 Y55.897 E7.67693
G1 X84.803 Y55.897 E7.68995
G1 X84.411 Y55.924 E7.70297
G1 X84.022 Y55.979 E7.71599
G1 X83.638 Y56.060 E7.72901
G1 X83.260 Y56.169 E7.74203
G1 X82.891 Y56.303 E7.75506
G1 X82.532 Y56.463 E7.76808
G1 X82.185 Y56.648 E7.78110
G1 X81.851 Y56.856 E7.79412
G1 X81.533 Y57.087 E7.80714
G1 X81.232 Y57.339 E7.82016
G1 X80.949 Y57.613 E7.83318
G1 X80.687 Y57.905 E7.84620
G1 X80.445 Y58.214 E7.85922
G1 X80.225 Y58.540 E7.87224
G1 X80.028 Y58.881 E7.88526
G1 X79.856 Y59.234 E7.89828
G1 X79.709 Y59.598 E7.91130
G1 X79.587 Y59.972 E7.92433
G1 X79.492 Y60.353 E7.93735
G1 X79.424 Y60.740 E7.95037
G1 X79.382 Y61.139 E7.96363
G1 X79.369 Y75.951 E8.45437
G1 X89.377 Y87.842 E8.96926
G1 X89.627 Y88.162 E8.98272
G1 X89.850 Y88.493 E8.99595
G1 X90.050 Y88.839 E9.00917
G1 X90.225 Y89.198 E9.02240
G1 X90.374 Y89.568 E9.03562
G1 X90.498 Y89.948 E9.04885
G1 X90.594 Y90.335 E9.06207
G1 X90.663 Y90.728 E9.07530
G1 X90.705 Y91.125 E9.08852
G1 X90.719 Y91.524 E9.10175
G1 X90.705 Y91.923 E9.11497
G1 X90.663 Y92.320 E9.12820
G1 X90.594 Y92.713 E9.14142
G1 X90.498 Y93.100 E9.15465
G1 X90.374 Y93.480 E9.16787
G1 X90.225 Y93.850 E9.18110
G1 X90.050 Y94.209 E9.19432
G1 X89.850 Y94.555 E9.20755
G1 X89.627 Y94.886 E9.22077
G1 X89.381 Y95.200 E9.23399
G1 X89.114 Y95.497 E9.24722
G1 X88.827 Y95.774 E9.26045
G1 X88.521 Y96.031 E9.27367
G1 X88.198 Y96.265 E9.28690
G1 X87.860 Y96.477 E9.30012
G1 X87.507 Y96.664 E9.31335
G1 X87.142 Y96.827 E9.32657
G1 X86.767 Y96.963 E9.33979
G1 X86.384 Y97.073 E9.35302
G1 X85.993 Y97.156 E9.36625
G1 X85.598 Y97.212 E9.37947
G1 X85.200 Y97.240 E9.39270
G1 X84.800 Y97.240 E9.40592
G1 X84.402 Y97.212 E9.41914
G1 X84.007 Y97.156 E9.43237
G1 X83.616 Y97.073 E9.44559
G1 X83.233 Y96.963 E9.45882
G1 X82.858 Y96.827 E9.47204
G1 X82.493 Y96.664 E9.48527
G1 X82.140 Y96.477 E9.49849
G1 X81.802 Y96.265 E9.51172
G1 X81.479 Y96.031 E9.52494
G1 X81.173 Y95.774 E9.53817
G1 X80.886 Y95.497 E9.55139
G1 X80.619 Y95.200 E9.56462
G1 X80.373 Y94.886 E9.57785
G1 X80.150 Y94.555 E9.59107
G1 X79.950 Y94.209 E9.60430
G1 X79.775 Y93.850 E9.61752
G1 X79.626 Y93.480 E9.63075
G1 X79.502 Y93.100 E9.64397
G1 X79.405 Y92.709 E9.65734
G1 X76.268 Y76.866 E10.19239
G1 X76.236 Y76.633 E10.20017
G1 X76.231 Y61.531 E10.70049
G1 X76.252 Y60.912 E10.72102
G1 X76.316 Y60.304 E10.74130
G1 X76.422 Y59.701 E10.76157
G1 X76.571 Y59.107 E10.78185
G1 X76.760 Y58.525 E10.80213
G1 X76.989 Y57.957 E10.82241
G1 X77.257 Y57.407 E10.84269
G1 X77.563 Y56.877 E10.86297
G1 X77.906 Y56.370 E10.88324
G1 X78.282 Y55.887 E10.90352
G1 X78.692 Y55.433 E10.92380
G1 X79.132 Y55.007 E10.94408
G1 X79.601 Y54.614 E10.96435
G1 X80.096 Y54.254 E10.98463
G1 X80.615 Y53.930 E11.00491
G1 X81.156 Y53.642 E11.02519
G1 X81.715 Y53.393 E11.04546
G1 X82.290 Y53.184 E11.06574
G1 X82.879 Y53.015 E11.08602
G1 X83.477 Y52.888 E11.10630
G1 X84.083 Y52.803 E11.12657
G1 X84.694 Y52.760 E11.14685
G1 X85.306 Y52.760 E11.16713
G1 X85.917 Y52.803 E11.18741
G1 X86.523 Y52.888 E11.20769
G1 X87.121 Y53.015 E11.22796
G1 X87.710 Y53.184 E11.24824
G1 X88.285 Y53.393 E11.26852
G1 X88.844 Y53.642 E11.28880
G1 X89.385 Y53.930 E11.30908
G1 X89.904 Y54.254 E11.32935
G1 X90.399 Y54.614 E11.34963
G1 X90.868 Y55.007 E11.36991
G1 X91.308 Y55.433 E11.39019
G1 X91.718 Y55.887 E11.41046
G1 X92.094 Y56.370 E11.43074
G1 X92.437 Y56.877 E11.45102
G1 X92.743 Y57.407 E11.47130
G1 X93.011 Y57.957 E11.49158
G1 X93.240 Y58.525 E11.51185
G1 X93.429 Y59.107 E11.53213
G1 X93.578 Y59.701 E11.55241
G1 X93.684 Y60.304 E11.57269
G1 X93.748 Y60.912 E11.59296
G1 X93.769 Y61.532 E11.61349
G1 X93.769 Y71.033 E11.92828
G1 X94.035 Y71.359 F7800.000
G1 F1800.000
G1 X90.412 Y71.359 E12.04831
G1 X89.952 Y71.129 E12.06534
G1 X89.740 Y70.951 E12.07451
G1 X89.569 Y70.731 E12.08375
G1 X89.446 Y70.480 E12.09299
G1 X89.378 Y70.207 E12.10233
G1 X89.366 Y70.027 E12.10831
G1 X89.395 Y69.747 E12.11764
G1 X89.481 Y69.481 E12.12688
G1 X89.621 Y69.240 E12.13612
G1 X89.807 Y69.033 E12.14536
G1 X90.034 Y68.868 E12.15463
G1 X90.365 Y68.717 E12.16671
G1 X90.352 Y61.153 E12.41730
G1 X90.313 Y60.777 E12.42980
G1 X90.248 Y60.409 E12.44221
G1 X90.157 Y60.045 E12.45461
G1 X90.042 Y59.689 E12.46702
G1 X89.901 Y59.342 E12.47943
G1 X89.737 Y59.005 E12.49183
G1 X89.550 Y58.681 E12.50424
G1 X89.340 Y58.371 E12.51664
G1 X89.110 Y58.075 E12.52905
G1 X88.859 Y57.797 E12.54146
G1 X88.590 Y57.537 E12.55386
G1 X88.303 Y57.296 E12.56627
G1 X88.000 Y57.076 E12.57868
G1 X87.683 Y56.878 E12.59108
G1 X87.352 Y56.702 E12.60349
G1 X87.010 Y56.550 E12.61589
G1 X86.658 Y56.422 E12.62830
G1 X86.298 Y56.318 E12.64071
G1 X85.932 Y56.240 E12.65311
G1 X85.561 Y56.188 E12.66552
G1 X85.187 Y56.162 E12.67792
G1 X84.813 Y56.162 E12.69033
G1 X84.439 Y56.188 E12.70274
G1 X84.068 Y56.240 E12.71515
G1 X83.702 Y56.318 E12.72755
G1 X83.342 Y56.422 E12.73996
G1 X82.990 Y56.550 E12.75237
G1 X82.648 Y56.702 E12.76477
G1 X82.317 Y56.878 E12.77718
G1 X82.000 Y57.076 E12.78958
G1 X81.697 Y57.296 E12.80199
G1 X81.410 Y57.537 E12.81440
G1 X81.141 Y57.797 E12.82680
G1 X80.890 Y58.075 E12.83921
G1 X80.660 Y58.371 E12.85161
G1 X80.450 Y58.681 E12.86402
G1 X80.263 Y59.005 E12.87643
G1 X80.099 Y59.342 E12.88883
G1 X79.958 Y59.689 E12.90124
G1 X79.843 Y60.045 E12.91365
G1 X79.752 Y60.409 E12.92605
G1 X79.687 Y60.777 E12.93846
G1 X79.648 Y61.153 E12.95096
G1 X79.635 Y75.855 E13.43803
G1 X89.583 Y87.675 E13.94986
G1 X89.842 Y88.006 E13.96379
G1 X90.075 Y88.353 E13.97763
G1 X90.284 Y88.714 E13.99147
G1 X90.467 Y89.090 E14.00531
G1 X90.624 Y89.477 E14.01915
G1 X90.753 Y89.874 E14.03299
G1 X90.854 Y90.280 E14.04682
G1 X90.927 Y90.691 E14.06066
G1 X90.970 Y91.107 E14.07450
G1 X90.985 Y91.524 E14.08834
G1 X90.970 Y91.942 E14.10218
G1 X90.927 Y92.357 E14.11602
G1 X90.854 Y92.768 E14.12986
G1 X90.753 Y93.174 E14.14370
G1 X90.624 Y93.571 E14.15754
G1 X90.467 Y93.958 E14.17138
G1 X90.284 Y94.334 E14.18522
G1 X90.075 Y94.696 E14.19906
G1 X89.842 Y95.042 E14.21290
G1 X89.585 Y95.371 E14.22674
G1 X89.305 Y95.681 E14.24058
G1 X89.005 Y95.972 E14.25442
G1 X88.685 Y96.240 E14.26826
G1 X88.347 Y96.486 E14.28210
G1 X87.992 Y96.707 E14.29594
G1 X87.624 Y96.903 E14.30978
G1 X87.242 Y97.073 E14.32362
G1 X86.849 Y97.216 E14.33745
G1 X86.448 Y97.331 E14.35130
G1 X86.039 Y97.418 E14.36514
G1 X85.626 Y97.476 E14.37898
G1 X85.209 Y97.505 E14.39281
G1 X84.791 Y97.505 E14.40665
G1 X84.374 Y97.476 E14.42049
G1 X83.961 Y97.418 E14.43433
G1 X83.552 Y97.331 E14.44817
G1 X83.151 Y97.216 E14.46201
G1 X82.758 Y97.073 E14.47585
G1 X82.376 Y96.903 E14.48969
G1 X82.008 Y96.707 E14.50353
G1 X81.653 Y96.486 E14.51737
G1 X81.315 Y96.240 E14.53121
G1 X80.995 Y95.972 E14.54505
G1 X80.695 Y95.681 E14.55889
G1 X80.415 Y95.371 E14.57273
G1 X80.158 Y95.042 E14.58657
G1 X79.925 Y94.696 E14.60041
G1 X79.716 Y94.334 E14.61425
G1 X79.533 Y93.958 E14.62809
G1 X79.376 Y93.571 E14.64193
G1 X79.247 Y93.174 E14.65576
G1 X79.145 Y92.767 E14.66966
G1 X76.006 Y76.910 E15.20517
G1 X75.970 Y76.652 E15.21381
G1 X75.965 Y61.527 E15.71490
G1 X75.987 Y60.894 E15.73589
