; Gcode updated with 'stl_info' on 2019-12-09 21:18:57.737727

; stl_min_x = -20.0
; stl_max_x = 20.0
; stl_min_y = -8.199999809265137
; stl_max_y = 26.799999237060547
; stl_min_z = -8.199999809265137

; generated by Slic3r 1.3.1-dev (Build adea0d9) on 2019-12-09 at 21:18:57

; external perimeters extrusion width = 0.44mm (2.86mm^3/s)
; perimeters extrusion width = 0.56mm (4.14mm^3/s)
; infill extrusion width = 0.50mm (3.66mm^3/s)
; solid infill extrusion width = 0.56mm (3.10mm^3/s)
; top infill extrusion width = 0.56mm (3.10mm^3/s)

M107
G92 E0
;D3D:START:START
T0
M104 S215 T0

G21
G90
M107
T0
G28
G29
M109 T0 S215 T0
G0 F3000
M107
T0
G92 E0
G0 X0 Y149 Z0.1 F3600
G1 Y49 E6.5 F1200
G0 Z1
G92 E0
; Filament gcode

G21 ; set units to millimeters
G90 ; use absolute coordinates
M82 ; use absolute distances for extrusion
G92 E0
G1 Z0.300 F7800.000
G1 E-2.00000 F2400.00000
G92 E0
G1 X70.829 Y72.929 F7800.000
G1 E2.00000 F2400.00000
G1 F1800.000
G1 X71.533 Y72.328 E2.03066
G1 X72.322 Y71.844 E2.06133
G1 X73.177 Y71.490 E2.09199
G1 X74.077 Y71.274 E2.12265
G1 X75.000 Y71.202 E2.15332
G1 X75.923 Y71.274 E2.18398
G1 X76.823 Y71.490 E2.21464
G1 X77.678 Y71.844 E2.24531
G1 X78.467 Y72.328 E2.27597
G1 X79.171 Y72.929 E2.30664
G1 X79.772 Y73.633 E2.33730
G1 X80.255 Y74.422 E2.36796
G1 X80.610 Y75.277 E2.39863
G1 X80.826 Y76.177 E2.42929
G1 X80.898 Y77.100 E2.45995
G1 X80.826 Y78.023 E2.49062
G1 X80.610 Y78.923 E2.52128
G1 X80.255 Y79.778 E2.55194
G1 X79.772 Y80.567 E2.58261
G1 X79.171 Y81.271 E2.61327
G1 X78.467 Y81.872 E2.64394
G1 X77.678 Y82.355 E2.67460
G1 X76.823 Y82.710 E2.70526
G1 X75.923 Y82.926 E2.73592
G1 X75.000 Y82.998 E2.76659
G1 X74.077 Y82.926 E2.79725
G1 X73.177 Y82.710 E2.82792
G1 X72.322 Y82.355 E2.85858
G1 X71.533 Y81.872 E2.88924
G1 X70.829 Y81.271 E2.91990
G1 X70.228 Y80.567 E2.95057
G1 X69.744 Y79.778 E2.98123
G1 X69.390 Y78.923 E3.01190
G1 X69.174 Y78.023 E3.04256
G1 X69.102 Y77.100 E3.07322
G1 X69.174 Y76.177 E3.10389
G1 X69.390 Y75.277 E3.13455
G1 X69.744 Y74.422 E3.16521
G1 X70.228 Y73.633 E3.19588
G1 X70.790 Y72.975 E3.22455
G1 X71.018 Y73.118 F7800.000
G1 F1800.000
G1 X71.690 Y72.544 E3.25383
G1 X72.443 Y72.082 E3.28311
G1 X73.260 Y71.744 E3.31239
G1 X74.119 Y71.537 E3.34167
G1 X75.000 Y71.468 E3.37095
G1 X75.881 Y71.537 E3.40022
G1 X76.740 Y71.744 E3.42950
G1 X77.557 Y72.082 E3.45878
G1 X78.310 Y72.544 E3.48806
G1 X78.982 Y73.118 E3.51734
G1 X79.556 Y73.790 E3.54662
G1 X80.018 Y74.543 E3.57589
G1 X80.356 Y75.360 E3.60517
G1 X80.563 Y76.219 E3.63445
G1 X80.632 Y77.100 E3.66373
G1 X80.563 Y77.981 E3.69301
G1 X80.356 Y78.840 E3.72229
G1 X80.018 Y79.657 E3.75156
G1 X79.556 Y80.410 E3.78084
G1 X78.982 Y81.082 E3.81012
G1 X78.310 Y81.656 E3.83940
G1 X77.557 Y82.118 E3.86868
G1 X76.740 Y82.456 E3.89796
G1 X75.881 Y82.663 E3.92724
G1 X75.000 Y82.732 E3.95651
G1 X74.119 Y82.663 E3.98579
G1 X73.260 Y82.456 E4.01507
G1 X72.443 Y82.118 E4.04435
G1 X71.690 Y81.656 E4.07363
G1 X71.018 Y81.082 E4.10290
G1 X70.444 Y80.410 E4.13218
G1 X69.982 Y79.657 E4.16146
G1 X69.644 Y78.840 E4.19074
G1 X69.437 Y77.981 E4.22002
G1 X69.368 Y77.100 E4.24930
G1 X69.437 Y76.219 E4.27858
G1 X69.644 Y75.360 E4.30785
G1 X69.982 Y74.543 E4.33713
G1 X70.444 Y73.790 E4.36641
G1 X70.979 Y73.163 E4.39370
G1 X71.206 Y73.306 F7800.000
G1 F1800.000
G1 X71.846 Y72.759 E4.42160
G1 X72.564 Y72.319 E4.44949
G1 X73.342 Y71.997 E4.47738
G1 X74.161 Y71.801 E4.50528
G1 X75.000 Y71.734 E4.53317
G1 X75.839 Y71.801 E4.56106
G1 X76.658 Y71.997 E4.58895
G1 X77.436 Y72.319 E4.61685
G1 X78.154 Y72.759 E4.64474
G1 X78.794 Y73.306 E4.67263
G1 X79.341 Y73.946 E4.70053
G1 X79.781 Y74.664 E4.72842
G1 X80.103 Y75.442 E4.75631
G1 X80.299 Y76.261 E4.78421
G1 X80.366 Y77.100 E4.81210
G1 X80.299 Y77.939 E4.84000
G1 X80.103 Y78.758 E4.86789
G1 X79.781 Y79.536 E4.89578
G1 X79.341 Y80.254 E4.92367
G1 X78.794 Y80.894 E4.95157
G1 X78.154 Y81.441 E4.97946
G1 X77.436 Y81.881 E5.00735
G1 X76.658 Y82.203 E5.03525
G1 X75.839 Y82.399 E5.06314
G1 X75.000 Y82.466 E5.09103
G1 X74.161 Y82.399 E5.11893
G1 X73.342 Y82.203 E5.14682
G1 X72.564 Y81.881 E5.17471
G1 X71.846 Y81.441 E5.20261
G1 X71.206 Y80.894 E5.23050
G1 X70.659 Y80.254 E5.25839
G1 X70.219 Y79.536 E5.28629
G1 X69.897 Y78.758 E5.31418
G1 X69.701 Y77.939 E5.34207
G1 X69.634 Y77.100 E5.36997
G1 X69.701 Y76.261 E5.39786
G1 X69.897 Y75.442 E5.42575
G1 X70.219 Y74.664 E5.45365
G1 X70.659 Y73.946 E5.48154
G1 X71.167 Y73.352 E5.50745
G1 E3.50745 F2400.00000
G92 E0
G1 X67.496 Y84.196 F7800.000
G1 E2.00000 F2400.00000
G1 F1800.000
G1 X67.496 Y64.909 E2.63897
G1 X82.504 Y64.909 E3.13616
G1 X82.504 Y84.196 E3.77513
G1 X94.304 Y84.196 E4.16606
G1 X94.304 Y91.804 E4.41809
G1 X55.696 Y91.804 E5.69714
G1 X55.696 Y84.196 E5.94918
G1 X67.436 Y84.196 E6.33812
G1 X67.231 Y83.931 F7800.000
G1 F1800.000
G1 X67.231 Y64.644 E6.97709
G1 X82.769 Y64.644 E7.49188
G1 X82.769 Y83.931 E8.13085
G1 X94.569 Y83.931 E8.52178
G1 X94.569 Y92.069 E8.79141
G1 X55.431 Y92.069 E10.08806
G1 X55.431 Y83.931 E10.35769
G1 X67.171 Y83.931 E10.74663
G1 X66.965 Y83.665 F7800.000
G1 F1800.000
G1 X66.965 Y64.378 E11.38560
G1 X83.035 Y64.378 E11.91799
G1 X83.035 Y83.665 E12.55696
G1 X94.835 Y83.665 E12.94789
G1 X94.835 Y92.335 E13.23513
G1 X55.165 Y92.335 E14.54937
G1 X55.165 Y83.665 E14.83661
G1 X66.905 Y83.665 E15.22555
G1 E13.22555 F2400.00000
G92 E0
G1 X60.471 Y91.641 F7800.000
G1 E2.00000 F2400.00000
G1 F1800.000
G1 X67.754 Y84.359 E2.34154
G1 X67.378 Y84.359 E2.35401
G1 X60.095 Y91.641 E2.69555
G1 X59.719 Y91.641 E2.70802
G1 X67.002 Y84.359 E3.04956
G1 X66.626 Y84.359 E3.06203
G1 X59.343 Y91.641 E3.40357
G1 X58.967 Y91.641 E3.41604
G1 X66.250 Y84.359 E3.75758
G1 X65.874 Y84.359 E3.77005
G1 X58.591 Y91.641 E4.11159
G1 X58.215 Y91.641 E4.12406
G1 X65.498 Y84.359 E4.46560
G1 X65.122 Y84.359 E4.47807
G1 X57.839 Y91.641 E4.81962
G1 X57.463 Y91.641 E4.83208
G1 X64.746 Y84.359 E5.17363
G1 X64.370 Y84.359 E5.18609
G1 X57.087 Y91.641 E5.52764
G1 X56.711 Y91.641 E5.54010
G1 X63.994 Y84.359 E5.88165
G1 X63.618 Y84.359 E5.89411
G1 X56.335 Y91.641 E6.23566
G1 X55.959 Y91.641 E6.24813
G1 X63.242 Y84.359 E6.58967
G1 X62.866 Y84.359 E6.60214
G1 X55.859 Y91.366 E6.93076
G1 X55.859 Y90.990 E6.94323
G1 X62.490 Y84.359 E7.25423
G1 X62.114 Y84.359 E7.26670
G1 X55.859 Y90.614 E7.56006
G1 X55.859 Y90.238 E7.57253
G1 X61.738 Y84.359 E7.84826
G1 X61.362 Y84.359 E7.86073
G1 X55.859 Y89.862 E8.11882
G1 X55.859 Y89.486 E8.13129
G1 X60.986 Y84.359 E8.37176
G1 X60.610 Y84.359 E8.38422
G1 X55.859 Y89.110 E8.60706
G1 X55.859 Y88.734 E8.61953
G1 X60.234 Y84.359 E8.82472
G1 X59.858 Y84.359 E8.83719
G1 X55.859 Y88.358 E9.02476
G1 X55.859 Y87.982 E9.03723
G1 X59.482 Y84.359 E9.20716
G1 X59.106 Y84.359 E9.21963
G1 X55.859 Y87.606 E9.37193
G1 X55.859 Y87.230 E9.38440
G1 X58.730 Y84.359 E9.51907
G1 X58.354 Y84.359 E9.53153
G1 X55.859 Y86.854 E9.64857
G1 X55.859 Y86.478 E9.66104
G1 X57.978 Y84.359 E9.76044
G1 X57.602 Y84.359 E9.77291
G1 X55.859 Y86.102 E9.85468
G1 X55.859 Y85.726 E9.86715
G1 X57.226 Y84.359 E9.93128
G1 X56.850 Y84.359 E9.94375
G1 X55.859 Y85.350 E9.99026
G1 X55.859 Y84.974 E10.00272
G1 X56.474 Y84.359 E10.03159
G1 X56.098 Y84.359 E10.04406
G1 X55.859 Y84.598 E10.05530
G1 X55.859 Y84.565 E10.05640
G1 X55.892 Y84.565 E10.05749
G1 E8.05749 F2400.00000
G92 E0
G1 X70.258 Y73.207 F7800.000
G1 E2.00000 F2400.00000
G1 F1800.000
G1 X67.659 Y75.806 E2.12191
G1 X67.659 Y76.182 E2.13437
G1 X69.588 Y74.253 E2.22484
G1 X69.322 Y74.895 E2.24788
G1 X67.659 Y76.558 E2.32587
G1 X67.659 Y76.934 E2.33834
G1 X69.158 Y75.435 E2.40865
G1 X69.039 Y75.930 E2.42552
G1 X67.659 Y77.310 E2.49026
G1 X67.659 Y77.686 E2.50273
G1 X68.989 Y76.356 E2.56512
G1 X68.957 Y76.764 E2.57870
G1 X67.659 Y78.062 E2.63958
G1 X67.659 Y78.438 E2.65205
G1 X68.950 Y77.146 E2.71263
G1 X68.978 Y77.495 E2.72422
G1 X67.659 Y78.814 E2.78609
G1 X67.659 Y79.190 E2.79855
G1 X69.005 Y77.844 E2.86170
G1 X69.063 Y78.162 E2.87244
G1 X67.659 Y79.566 E2.93828
G1 X67.659 Y79.942 E2.95075
G1 X69.135 Y78.465 E3.02001
G1 X69.208 Y78.768 E3.03035
G1 X67.659 Y80.318 E3.10302
G1 X67.659 Y80.694 E3.11549
G1 X69.302 Y79.051 E3.19256
G1 X69.412 Y79.317 E3.20210
G1 X67.659 Y81.070 E3.28434
G1 X67.659 Y81.446 E3.29681
G1 X69.522 Y79.582 E3.38420
G1 X69.639 Y79.842 E3.39363
G1 X67.659 Y81.822 E3.48650
G1 X67.659 Y82.198 E3.49897
G1 X69.782 Y80.075 E3.59854
G1 X69.925 Y80.308 E3.60761
G1 X67.659 Y82.574 E3.71387
G1 X67.659 Y82.950 E3.72634
G1 X70.067 Y80.541 E3.83931
G1 X70.230 Y80.754 E3.84820
G1 X67.659 Y83.326 E3.96881
G1 X67.659 Y83.702 E3.98128
G1 X70.403 Y80.957 E4.11001
G1 X70.577 Y81.160 E4.11885
G1 X67.659 Y84.078 E4.25570
G1 X67.659 Y84.454 E4.26817
G1 X70.751 Y81.362 E4.41319
G1 X70.954 Y81.535 E4.42203
G1 X60.847 Y91.641 E4.89599
G1 X61.223 Y91.641 E4.90846
G1 X71.156 Y81.708 E5.37430
G1 X71.359 Y81.881 E5.38314
G1 X61.599 Y91.641 E5.84086
G1 X61.975 Y91.641 E5.85333
G1 X71.574 Y82.042 E6.30350
G1 X71.808 Y82.185 E6.31256
G1 X62.351 Y91.641 E6.75604
G1 X62.727 Y91.641 E6.76850
G1 X72.041 Y82.328 E7.20528
G1 X72.274 Y82.471 E7.21434
G1 X63.103 Y91.641 E7.64442
G1 X63.479 Y91.641 E7.65688
G1 X72.535 Y82.585 E8.08159
G1 X72.801 Y82.695 E8.09113
G1 X63.855 Y91.641 E8.51067
G1 X64.231 Y91.641 E8.52314
G1 X73.067 Y82.805 E8.93752
G1 X73.352 Y82.897 E8.94743
G1 X64.607 Y91.641 E9.35753
G1 X64.983 Y91.641 E9.37000
G1 X73.655 Y82.969 E9.77669
G1 X73.958 Y83.042 E9.78703
G1 X65.359 Y91.641 E10.19030
G1 X65.735 Y91.641 E10.20277
G1 X74.280 Y83.097 E10.60348
G1 X74.628 Y83.124 E10.61508
G1 X66.111 Y91.641 E11.01451
G1 X66.487 Y91.641 E11.02698
G1 X74.977 Y83.152 E11.42512
G1 X75.103 Y83.162 E11.42932
G1 X75.363 Y83.141 E11.43798
G1 X66.863 Y91.641 E11.83662
G1 X67.239 Y91.641 E11.84908
G1 X75.772 Y83.109 E12.24923
G1 X76.068 Y83.086 E12.25908
G1 X76.203 Y83.053 E12.26371
G1 X67.615 Y91.641 E12.66647
G1 X67.991 Y91.641 E12.67894
G1 X76.698 Y82.934 E13.08728
G1 X77.008 Y82.860 E13.09785
G1 X77.248 Y82.761 E13.10645
G1 X68.367 Y91.641 E13.52294
G1 X68.743 Y91.641 E13.53541
G1 X77.890 Y82.495 E13.96436
G1 X78.727 Y81.984 E13.99687
G1 X79.066 Y81.695 E14.01165
G1 X69.119 Y91.641 E14.47811
G1 X69.495 Y91.641 E14.49058
G1 X82.341 Y78.795 E15.09303
G1 X82.341 Y79.171 E15.10549
G1 X69.871 Y91.641 E15.69031
G1 X70.247 Y91.641 E15.70278
G1 X82.341 Y79.547 E16.26997
G1 X82.341 Y79.923 E16.28243
G1 X70.623 Y91.641 E16.83199
G1 X70.999 Y91.641 E16.84445
G1 X82.341 Y80.299 E17.37637
G1 X82.341 Y80.675 E17.38884
G1 X71.375 Y91.641 E17.90313
G1 X71.751 Y91.641 E17.91560
G1 X82.341 Y81.051 E18.41225
G1 X82.341 Y81.427 E18.42472
G1 X72.127 Y91.641 E18.90374
G1 X72.503 Y91.641 E18.91621
G1 X82.341 Y81.803 E19.37760
G1 X82.341 Y82.179 E19.39006
G1 X72.879 Y91.641 E19.83382
G1 X73.255 Y91.641 E19.84629
G1 X82.341 Y82.555 E20.27241
G1 X82.341 Y82.931 E20.28488
G1 X73.631 Y91.641 E20.69337
G1 X74.007 Y91.641 E20.70584
G1 X82.341 Y83.307 E21.09669
G1 X82.341 Y83.683 E21.10916
G1 X74.383 Y91.641 E21.48239
G1 X74.759 Y91.641 E21.49485
G1 X82.341 Y84.059 E21.85045
G1 X82.341 Y84.359 E21.86038
G1 X82.418 Y84.359 E21.86291
G1 X75.135 Y91.641 E22.20446
G1 X75.511 Y91.641 E22.21693
G1 X82.794 Y84.359 E22.55847
G1 X83.170 Y84.359 E22.57094
G1 X75.887 Y91.641 E22.91248
G1 X76.263 Y91.641 E22.92495
G1 X83.546 Y84.359 E23.26649
G1 X83.922 Y84.359 E23.27896
G1 X76.639 Y91.641 E23.62050
G1 X77.015 Y91.641 E23.63297
G1 X84.298 Y84.359 E23.97451
G1 X84.674 Y84.359 E23.98698
G1 X77.391 Y91.641 E24.32852
G1 X77.767 Y91.641 E24.34099
G1 X85.050 Y84.359 E24.68253
G1 X85.426 Y84.359 E24.69500
G1 X78.143 Y91.641 E25.03654
G1 X78.519 Y91.641 E25.04901
G1 X85.802 Y84.359 E25.39055
G1 X86.178 Y84.359 E25.40302
G1 X78.895 Y91.641 E25.74456
G1 X79.271 Y91.641 E25.75703
G1 X86.554 Y84.359 E26.09857
G1 X86.930 Y84.359 E26.11104
G1 X79.647 Y91.641 E26.45258
G1 X80.023 Y91.641 E26.46505
G1 X87.306 Y84.359 E26.80659
G1 X87.682 Y84.359 E26.81906
G1 X80.399 Y91.641 E27.16060
G1 X80.775 Y91.641 E27.17307
G1 X88.058 Y84.359 E27.51461
G1 X88.434 Y84.359 E27.52708
G1 X81.151 Y91.641 E27.86862
G1 X81.527 Y91.641 E27.88109
G1 X88.810 Y84.359 E28.22263
G1 X89.186 Y84.359 E28.23510
G1 X81.903 Y91.641 E28.57664
G1 X82.279 Y91.641 E28.58911
G1 X89.562 Y84.359 E28.93065
G1 X89.938 Y84.359 E28.94312
G1 X82.655 Y91.641 E29.28466
G1 X83.031 Y91.641 E29.29713
G1 X90.314 Y84.359 E29.63867
G1 X90.690 Y84.359 E29.65114
G1 X83.407 Y91.641 E29.99269
G1 X83.783 Y91.641 E30.00515
G1 X91.066 Y84.359 E30.34670
G1 X91.442 Y84.359 E30.35916
G1 X84.159 Y91.641 E30.70071
G1 X84.535 Y91.641 E30.71317
G1 X91.818 Y84.359 E31.05472
G1 X92.194 Y84.359 E31.06718
G1 X84.911 Y91.641 E31.40873
G1 X85.287 Y91.641 E31.42119
G1 X92.570 Y84.359 E31.76274
G1 X92.946 Y84.359 E31.77521
G1 X85.663 Y91.641 E32.11675
G1 X86.039 Y91.641 E32.12922
G1 X93.322 Y84.359 E32.47076
G1 X93.698 Y84.359 E32.48323
G1 X86.415 Y91.641 E32.82477
G1 X86.791 Y91.641 E32.83724
G1 X94.074 Y84.359 E33.17878
G1 X94.141 Y84.359 E33.18102
G1 X94.141 Y84.667 E33.19125
G1 X87.167 Y91.641 E33.51833
G1 X87.543 Y91.641 E33.53080
G1 X94.141 Y85.043 E33.84025
G1 X94.141 Y85.419 E33.85272
G1 X87.919 Y91.641 E34.14454
G1 X88.295 Y91.641 E34.15701
G1 X94.141 Y85.795 E34.43120
G1 X94.141 Y86.171 E34.44367
G1 X88.671 Y91.641 E34.70022
G1 X89.047 Y91.641 E34.71269
G1 X94.141 Y86.547 E34.95161
G1 X94.141 Y86.923 E34.96408
G1 X89.423 Y91.641 E35.18537
G1 X89.799 Y91.641 E35.19783
G1 X94.141 Y87.299 E35.40149
G1 X94.141 Y87.675 E35.41396
G1 X90.175 Y91.641 E35.59998
G1 X90.551 Y91.641 E35.61245
G1 X94.141 Y88.051 E35.78084
G1 X94.141 Y88.427 E35.79331
G1 X90.927 Y91.641 E35.94407
G1 X91.303 Y91.641 E35.95654
G1 X94.141 Y88.803 E36.08966
G1 X94.141 Y89.179 E36.10213
G1 X91.679 Y91.641 E36.21762
G1 X92.055 Y91.641 E36.23009
G1 X94.141 Y89.555 E36.32795
G1 X94.141 Y89.931 E36.34042
G1 X92.431 Y91.641 E36.42064
G1 X92.807 Y91.641 E36.43311
G1 X94.141 Y90.307 E36.49571
G1 X94.141 Y90.683 E36.50817
G1 X93.183 Y91.641 E36.55313
G1 X93.559 Y91.641 E36.56560
G1 X94.141 Y91.059 E36.59293
G1 X94.141 Y91.435 E36.60540
G1 X93.935 Y91.641 E36.61510
G1 E34.61510 F2400.00000
G92 E0
G1 X79.595 Y81.166 F7800.000
G1 E2.00000 F2400.00000
G1 F1800.000
G1 X82.341 Y78.419 E2.12881
G1 X82.341 Y78.043 E2.14128
G1 X80.395 Y79.990 E2.23258
G1 X80.661 Y79.348 E2.25562
G1 X82.341 Y77.667 E2.33445
G1 X82.341 Y77.291 E2.34692
G1 X80.834 Y78.798 E2.41760
G1 X80.953 Y78.303 E2.43447
G1 X82.341 Y76.915 E2.49959
G1 X82.341 Y76.539 E2.51206
G1 X81.009 Y77.872 E2.57455
G1 X81.041 Y77.463 E2.58812
G1 X82.341 Y76.163 E2.64911
G1 X82.341 Y75.787 E2.66158
G1 X81.052 Y77.077 E2.72207
G1 X81.024 Y76.728 E2.73366
G1 X82.341 Y75.411 E2.79544
G1 X82.341 Y75.035 E2.80791
G1 X80.997 Y76.380 E2.87097
G1 X80.986 Y76.239 E2.87566
G1 X80.942 Y76.058 E2.88182
G1 X82.341 Y74.659 E2.94744
G1 X82.341 Y74.283 E2.95991
G1 X80.869 Y75.755 E3.02894
G1 X80.797 Y75.452 E3.03928
G1 X82.341 Y73.907 E3.11172
G1 X82.341 Y73.531 E3.12419
G1 X80.705 Y75.167 E3.20092
G1 X80.595 Y74.901 E3.21046
G1 X82.341 Y73.155 E3.29235
G1 X82.341 Y72.779 E3.30481
G1 X80.485 Y74.635 E3.39187
G1 X80.371 Y74.374 E3.40133
G1 X82.341 Y72.403 E3.49375
G1 X82.341 Y72.027 E3.50622
G1 X80.228 Y74.141 E3.60534
G1 X80.085 Y73.908 E3.61441
G1 X82.341 Y71.651 E3.72023
G1 X82.341 Y71.275 E3.73269
G1 X79.942 Y73.674 E3.84521
G1 X79.781 Y73.459 E3.85412
G1 X82.341 Y70.899 E3.97418
G1 X82.341 Y70.523 E3.98665
G1 X79.608 Y73.256 E4.11484
G1 X79.435 Y73.054 E4.12368
G1 X82.341 Y70.147 E4.25999
G1 X82.341 Y69.771 E4.27246
G1 X79.262 Y72.851 E4.41689
G1 X79.060 Y72.677 E4.42573
G1 X82.341 Y69.395 E4.57962
G1 X82.341 Y69.019 E4.59209
G1 X78.857 Y72.504 E4.75549
G1 X78.654 Y72.330 E4.76434
G1 X82.341 Y68.643 E4.93725
G1 X82.341 Y68.267 E4.94972
G1 X78.441 Y72.167 E5.13263
G1 X78.208 Y72.025 E5.14170
G1 X82.341 Y67.891 E5.33554
G1 X82.341 Y67.515 E5.34801
G1 X77.975 Y71.882 E5.55278
G1 X77.742 Y71.739 E5.56185
G1 X82.341 Y67.139 E5.77755
G1 X82.341 Y66.763 E5.79002
G1 X77.482 Y71.622 E6.01789
G1 X77.217 Y71.512 E6.02743
G1 X82.341 Y66.387 E6.26777
G1 X82.341 Y66.011 E6.28024
G1 X76.951 Y71.402 E6.53305
G1 X76.668 Y71.308 E6.54291
G1 X82.341 Y65.635 E6.80895
G1 X82.341 Y65.259 E6.82142
