; generated by Slic3r 1.3.1-dev (Build adea0d9) on 2020-02-19 at 13:24:21

; external perimeters extrusion width = 0.44mm (2.86mm^3/s)
; perimeters extrusion width = 0.56mm (4.14mm^3/s)
; infill extrusion width = 0.50mm (3.66mm^3/s)
; solid infill extrusion width = 0.56mm (3.10mm^3/s)
; top infill extrusion width = 0.56mm (3.10mm^3/s)

M107
G92 E0
;D3D:START:START
T0
M104 S215 T0

G21
G90
M107
T0
G28
G29
M109 T0 S215 T0
G0 F3000
M107
T0
G92 E0
G0 X0 Y149 Z0.1 F3600
G1 Y49 E6.5 F1200
G0 Z1
G92 E0
; Filament gcode

G21 ; set units to millimeters
G90 ; use absolute coordinates
M82 ; use absolute distances for extrusion
G92 E0
G1 Z0.300 F7800.000
G1 E-2.00000 F2400.00000
G92 E0
G1 X131.004 Y33.586 F7800.000
G1 E2.00000 F2400.00000
G1 F1800.000
G1 X131.004 Y45.479 E2.39399
G1 X131.804 Y45.479 E2.42050
G1 X131.804 Y53.093 E2.67276
G1 X131.069 Y55.240 E2.74793
G1 X129.729 Y58.787 E2.87355
G1 X128.277 Y62.290 E2.99918
G1 X126.717 Y65.746 E3.12480
G1 X125.049 Y69.151 E3.25043
G1 X123.274 Y72.502 E3.37605
G1 X121.395 Y75.796 E3.50168
G1 X121.086 Y76.302 E3.52133
G1 X119.414 Y79.029 E3.62730
G1 X117.332 Y82.199 E3.75292
G1 X115.152 Y85.301 E3.87853
G1 X112.876 Y88.334 E4.00417
G1 X110.505 Y91.293 E4.12980
G1 X109.888 Y92.015 E4.16126
G1 X108.042 Y94.176 E4.25541
G1 X105.490 Y96.980 E4.38103
G1 X102.851 Y99.704 E4.50667
G1 X100.128 Y102.342 E4.63228
G1 X97.324 Y104.894 E4.75790
G1 X94.440 Y107.358 E4.88354
G1 X91.481 Y109.728 E5.00916
G1 X88.449 Y112.005 E5.13478
G1 X85.346 Y114.185 E5.26040
G1 X82.177 Y116.267 E5.38602
G1 X78.944 Y118.248 E5.51164
G1 X75.650 Y120.127 E5.63727
G1 X72.299 Y121.901 E5.76289
G1 X68.894 Y123.569 E5.88852
G1 X65.438 Y125.130 E6.01415
G1 X62.483 Y126.354 E6.12011
G1 X61.935 Y126.581 E6.13977
G1 X58.387 Y127.921 E6.26539
G1 X54.800 Y129.150 E6.39102
G1 X51.176 Y130.264 E6.51664
G1 X47.518 Y131.265 E6.64227
G1 X43.831 Y132.150 E6.76789
G1 X40.699 Y132.799 E6.87386
G1 X40.118 Y132.920 E6.89351
G1 X36.382 Y133.572 E7.01914
G1 X32.628 Y134.106 E7.14476
G1 X28.859 Y134.522 E7.27038
G1 X25.079 Y134.819 E7.39601
G1 X23.446 Y134.896 E7.45016
G1 X23.446 Y134.082 E7.47713
G1 X21.266 Y134.185 E7.54944
G1 X18.196 Y134.234 E7.65115
G1 X18.196 Y131.299 E7.74838
G1 X21.174 Y131.253 E7.84703
G1 X24.844 Y131.079 E7.96878
G1 X28.681 Y130.772 E8.09628
G1 X32.159 Y130.388 E8.21221
G1 X35.796 Y129.870 E8.33393
G1 X39.416 Y129.238 E8.45566
G1 X43.013 Y128.494 E8.57737
G1 X46.586 Y127.636 E8.69910
G1 X50.130 Y126.666 E8.82082
G1 X53.642 Y125.586 E8.94255
G1 X57.118 Y124.395 E9.06428
G1 X60.555 Y123.097 E9.18600
G1 X63.949 Y121.691 E9.30772
G1 X67.298 Y120.179 E9.42944
G1 X70.598 Y118.563 E9.55117
G1 X73.845 Y116.843 E9.67290
G1 X76.884 Y115.110 E9.78881
G1 X80.169 Y113.104 E9.91631
G1 X83.240 Y111.086 E10.03806
G1 X86.246 Y108.973 E10.15979
G1 X89.184 Y106.767 E10.28151
G1 X92.052 Y104.470 E10.40323
G1 X94.845 Y102.084 E10.52495
G1 X97.563 Y99.611 E10.64668
G1 X100.201 Y97.054 E10.76840
G1 X102.758 Y94.415 E10.89014
G1 X105.231 Y91.698 E11.01186
G1 X107.617 Y88.904 E11.13356
G1 X109.915 Y86.037 E11.25529
G1 X112.121 Y83.098 E11.37702
G1 X114.233 Y80.092 E11.49875
G1 X116.251 Y77.022 E11.62047
G1 X118.170 Y73.889 E11.74219
G1 X119.990 Y70.697 E11.86391
G1 X121.710 Y67.450 E11.98564
G1 X123.327 Y64.151 E12.10737
G1 X124.838 Y60.802 E12.22909
G1 X126.244 Y57.407 E12.35081
G1 X127.543 Y53.970 E12.47253
G1 X128.196 Y52.063 E12.53933
G1 X128.196 Y33.329 E13.15999
G1 X131.804 Y33.329 E13.27950
G1 X131.804 Y33.586 E13.28804
G1 X131.064 Y33.586 E13.31255
G1 X131.269 Y33.852 F7800.000
G1 F1800.000
G1 X131.269 Y45.213 E13.68894
G1 X132.069 Y45.213 E13.71545
G1 X132.069 Y53.138 E13.97798
G1 X131.319 Y55.330 E14.05475
G1 X129.976 Y58.885 E14.18064
G1 X128.521 Y62.396 E14.30655
G1 X126.957 Y65.859 E14.43245
G1 X125.285 Y69.272 E14.55835
G1 X123.507 Y72.630 E14.68425
G1 X121.624 Y75.932 E14.81016
G1 X121.312 Y76.441 E14.82995
G1 X119.638 Y79.172 E14.93605
G1 X117.552 Y82.348 E15.06195
G1 X115.367 Y85.457 E15.18784
G1 X113.085 Y88.496 E15.31376
G1 X110.709 Y91.462 E15.43966
G1 X110.090 Y92.188 E15.47126
G1 X108.241 Y94.352 E15.56555
G1 X105.684 Y97.162 E15.69144
G1 X103.039 Y99.892 E15.81736
G1 X100.310 Y102.536 E15.94324
G1 X97.499 Y105.094 E16.06915
G1 X94.609 Y107.562 E16.19506
G1 X91.644 Y109.938 E16.32096
G1 X88.605 Y112.220 E16.44685
G1 X85.496 Y114.405 E16.57275
G1 X82.319 Y116.491 E16.69865
G1 X79.079 Y118.477 E16.82455
G1 X75.778 Y120.359 E16.95045
G1 X72.420 Y122.138 E17.07635
G1 X69.007 Y123.810 E17.20225
G1 X65.543 Y125.374 E17.32815
G1 X62.584 Y126.600 E17.43426
G1 X62.032 Y126.828 E17.45405
G1 X58.477 Y128.171 E17.57995
G1 X54.882 Y129.403 E17.70586
G1 X51.250 Y130.520 E17.83175
G1 X47.584 Y131.523 E17.95766
G1 X43.889 Y132.409 E18.08355
G1 X40.753 Y133.059 E18.18966
G1 X40.168 Y133.180 E18.20945
G1 X36.424 Y133.834 E18.33535
G1 X32.662 Y134.369 E18.46125
G1 X28.884 Y134.786 E18.58716
G1 X25.096 Y135.084 E18.71306
G1 X23.181 Y135.175 E18.77658
G1 X23.181 Y134.361 E18.80354
G1 X21.274 Y134.451 E18.86677
G1 X17.931 Y134.504 E18.97755
G1 X17.931 Y131.038 E19.09239
G1 X21.165 Y130.987 E19.19957
G1 X24.827 Y130.814 E19.32102
G1 X28.656 Y130.508 E19.44825
G1 X32.125 Y130.124 E19.56391
G1 X35.755 Y129.608 E19.68535
G1 X39.366 Y128.977 E19.80680
G1 X42.956 Y128.234 E19.92824
G1 X46.520 Y127.378 E20.04970
G1 X50.056 Y126.411 E20.17114
G1 X53.560 Y125.333 E20.29259
G1 X57.028 Y124.145 E20.41404
G1 X60.457 Y122.850 E20.53549
G1 X63.844 Y121.447 E20.65693
G1 X67.185 Y119.939 E20.77838
G1 X70.477 Y118.326 E20.89983
G1 X73.717 Y116.610 E21.02128
G1 X76.749 Y114.881 E21.13692
G1 X80.026 Y112.879 E21.26415
G1 X83.091 Y110.866 E21.38562
G1 X86.090 Y108.758 E21.50707
G1 X89.021 Y106.557 E21.62851
G1 X91.882 Y104.265 E21.74995
G1 X94.670 Y101.885 E21.87139
G1 X97.381 Y99.417 E21.99285
G1 X100.014 Y96.866 E22.11429
G1 X102.565 Y94.233 E22.23576
G1 X105.032 Y91.522 E22.35720
G1 X107.413 Y88.735 E22.47863
G1 X109.705 Y85.874 E22.60008
G1 X111.906 Y82.942 E22.72154
G1 X114.014 Y79.943 E22.84298
G1 X116.026 Y76.879 E22.96443
G1 X117.941 Y73.754 E23.08587
G1 X119.758 Y70.569 E23.20732
G1 X121.473 Y67.330 E23.32877
G1 X123.086 Y64.037 E23.45022
G1 X124.594 Y60.696 E23.57166
G1 X125.997 Y57.310 E23.69311
G1 X127.293 Y53.880 E23.81456
G1 X127.931 Y52.019 E23.87975
G1 X127.931 Y33.063 E24.50774
G1 X132.069 Y33.063 E24.64486
G1 X132.069 Y33.852 E24.67099
G1 X131.329 Y33.852 E24.69551
G1 X131.535 Y34.118 F7800.000
G1 F1800.000
G1 X131.535 Y44.948 E25.05430
G1 X132.335 Y44.948 E25.08080
G1 X132.335 Y53.182 E25.35360
G1 X131.569 Y55.420 E25.43197
G1 X130.223 Y58.983 E25.55815
G1 X128.765 Y62.501 E25.68433
G1 X127.197 Y65.972 E25.81051
G1 X125.522 Y69.393 E25.93668
G1 X123.740 Y72.758 E26.06286
G1 X121.853 Y76.067 E26.18904
G1 X121.539 Y76.580 E26.20897
G1 X119.863 Y79.314 E26.31521
G1 X117.772 Y82.497 E26.44139
G1 X115.582 Y85.613 E26.56755
G1 X113.295 Y88.659 E26.69374
G1 X110.914 Y91.632 E26.81992
G1 X110.292 Y92.360 E26.85166
G1 X108.441 Y94.527 E26.94609
G1 X105.877 Y97.344 E27.07226
G1 X103.227 Y100.080 E27.19845
G1 X100.492 Y102.730 E27.32462
G1 X97.675 Y105.293 E27.45079
G1 X94.779 Y107.767 E27.57698
G1 X91.807 Y110.148 E27.70316
G1 X88.761 Y112.435 E27.82933
G1 X85.645 Y114.624 E27.95550
G1 X82.462 Y116.715 E28.08168
G1 X79.214 Y118.705 E28.20785
G1 X75.906 Y120.592 E28.33403
G1 X72.540 Y122.374 E28.46021
G1 X69.120 Y124.050 E28.58638
G1 X65.649 Y125.618 E28.71256
G1 X62.686 Y126.845 E28.81881
G1 X62.130 Y127.075 E28.83874
G1 X58.567 Y128.421 E28.96492
G1 X54.964 Y129.655 E29.09110
G1 X51.324 Y130.775 E29.21727
G1 X47.650 Y131.780 E29.34345
G1 X43.947 Y132.669 E29.46962
G1 X40.807 Y133.320 E29.57587
G1 X40.217 Y133.441 E29.59580
G1 X36.466 Y134.096 E29.72198
G1 X32.695 Y134.633 E29.84815
G1 X28.909 Y135.051 E29.97433
G1 X25.112 Y135.350 E30.10051
G1 X22.915 Y135.453 E30.17339
G1 X22.915 Y134.639 E30.20035
G1 X21.283 Y134.716 E30.25450
G1 X17.665 Y134.774 E30.37436
G1 X17.665 Y130.776 E30.50680
G1 X21.157 Y130.722 E30.62250
G1 X24.811 Y130.549 E30.74368
G1 X28.630 Y130.243 E30.87063
G1 X32.092 Y129.860 E30.98601
G1 X35.713 Y129.346 E31.10718
G1 X39.316 Y128.716 E31.22836
G1 X42.898 Y127.975 E31.34952
G1 X46.454 Y127.121 E31.47070
G1 X49.982 Y126.156 E31.59187
G1 X53.478 Y125.081 E31.71304
G1 X56.938 Y123.895 E31.83421
G1 X60.359 Y122.603 E31.95538
G1 X63.738 Y121.203 E32.07655
G1 X67.072 Y119.698 E32.19772
G1 X70.356 Y118.089 E32.31889
G1 X73.589 Y116.377 E32.44007
G1 X76.614 Y114.652 E32.55544
G1 X79.884 Y112.655 E32.68239
G1 X82.941 Y110.646 E32.80357
G1 X85.934 Y108.543 E32.92475
G1 X88.858 Y106.347 E33.04592
G1 X91.713 Y104.061 E33.16708
G1 X94.494 Y101.686 E33.28825
G1 X97.199 Y99.224 E33.40943
G1 X99.826 Y96.679 E33.53059
G1 X102.371 Y94.051 E33.65178
G1 X104.833 Y91.346 E33.77295
G1 X107.208 Y88.566 E33.89410
G1 X109.495 Y85.711 E34.01527
G1 X111.691 Y82.786 E34.13645
G1 X113.794 Y79.794 E34.25762
G1 X115.802 Y76.737 E34.37879
G1 X117.713 Y73.618 E34.49996
G1 X119.525 Y70.441 E34.62113
G1 X121.237 Y67.209 E34.74231
G1 X122.846 Y63.924 E34.86348
G1 X124.351 Y60.591 E34.98465
G1 X125.750 Y57.212 E35.10582
G1 X127.043 Y53.790 E35.22699
G1 X127.665 Y51.975 E35.29058
G1 X127.665 Y32.797 E35.92591
G1 X131.865 Y32.797 E36.06505
G1 X131.865 Y14.988 E36.65509
G1 X127.665 Y14.988 E36.79423
G1 X127.665 Y14.518 E36.80980
G1 X132.335 Y14.518 E36.96452
G1 X132.335 Y34.118 E37.61386
G1 X131.595 Y34.118 E37.63837
G1 X132.100 Y32.930 F7800.000
G1 F1800.000
G1 X132.100 Y14.855 E37.95400
G1 X132.082 Y14.770 E37.95551
G1 X131.998 Y14.752 E37.95702
G1 X127.798 Y14.752 E38.03036
G1 E36.03036 F2400.00000
G92 E0
G1 X128.626 Y33.491 F7800.000
G1 E2.00000 F2400.00000
G1 F1800.000
G1 X128.359 Y33.758 E2.01261
G1 X128.359 Y34.136 E2.02520
G1 X129.004 Y33.491 E2.05563
G1 X129.382 Y33.491 E2.06822
G1 X128.359 Y34.514 E2.11646
G1 X128.359 Y34.892 E2.12906
G1 X129.760 Y33.491 E2.19512
G1 X130.138 Y33.491 E2.20771
G1 X128.359 Y35.270 E2.29159
G1 X128.359 Y35.648 E2.30418
G1 X130.516 Y33.491 E2.40587
G1 X130.841 Y33.491 E2.41673
G1 X130.841 Y33.543 E2.41847
G1 X128.359 Y36.026 E2.53552
G1 X128.359 Y36.404 E2.54811
G1 X130.841 Y33.921 E2.66516
G1 X130.841 Y34.299 E2.67776
G1 X128.359 Y36.782 E2.79480
G1 X128.359 Y37.160 E2.80740
G1 X130.841 Y34.677 E2.92444
G1 X130.841 Y35.055 E2.93704
G1 X128.359 Y37.538 E3.05409
G1 X128.359 Y37.916 E3.06669
G1 X130.841 Y35.433 E3.18373
G1 X130.841 Y35.811 E3.19633
G1 X128.359 Y38.294 E3.31337
G1 X128.359 Y38.672 E3.32597
G1 X130.841 Y36.189 E3.44302
G1 X130.841 Y36.567 E3.45561
G1 X128.359 Y39.050 E3.57266
G1 X128.359 Y39.428 E3.58526
G1 X130.841 Y36.945 E3.70230
G1 X130.841 Y37.323 E3.71490
G1 X128.359 Y39.806 E3.83195
G1 X128.359 Y40.184 E3.84454
G1 X130.841 Y37.701 E3.96159
G1 X130.841 Y38.079 E3.97419
G1 X128.359 Y40.562 E4.09123
G1 X128.359 Y40.939 E4.10383
G1 X130.841 Y38.457 E4.22087
G1 X130.841 Y38.834 E4.23347
G1 X128.359 Y41.317 E4.35052
G1 X128.359 Y41.695 E4.36312
G1 X130.841 Y39.212 E4.48016
G1 X130.841 Y39.590 E4.49276
G1 X128.359 Y42.073 E4.60980
G1 X128.359 Y42.451 E4.62240
G1 X130.841 Y39.968 E4.73945
G1 X130.841 Y40.346 E4.75204
G1 X128.359 Y42.829 E4.86909
G1 X128.359 Y43.207 E4.88169
G1 X130.841 Y40.724 E4.99873
G1 X130.841 Y41.102 E5.01133
G1 X128.359 Y43.585 E5.12838
G1 X128.359 Y43.963 E5.14097
G1 X130.841 Y41.480 E5.25802
G1 X130.841 Y41.858 E5.27062
G1 X128.359 Y44.341 E5.38766
G1 X128.359 Y44.719 E5.40026
G1 X130.841 Y42.236 E5.51730
G1 X130.841 Y42.614 E5.52990
G1 X128.359 Y45.097 E5.64695
G1 X128.359 Y45.475 E5.65955
G1 X130.841 Y42.992 E5.77659
G1 X130.841 Y43.370 E5.78919
G1 X128.359 Y45.853 E5.90623
G1 X128.359 Y46.231 E5.91883
G1 X130.841 Y43.748 E6.03588
G1 X130.841 Y44.126 E6.04847
G1 X128.359 Y46.609 E6.16552
G1 X128.359 Y46.987 E6.17812
G1 X130.841 Y44.504 E6.29516
G1 X130.841 Y44.882 E6.30776
G1 X128.359 Y47.365 E6.42481
G1 X128.359 Y47.743 E6.43740
G1 X130.841 Y45.260 E6.55445
G1 X130.841 Y45.638 E6.56705
G1 X128.359 Y48.120 E6.68409
G1 X128.359 Y48.498 E6.69669
G1 X131.216 Y45.641 E6.83139
G1 X131.594 Y45.641 E6.84398
G1 X128.359 Y48.876 E6.99650
G1 X128.359 Y49.254 E7.00910
G1 X131.641 Y45.971 E7.16385
G1 X131.641 Y46.349 E7.17645
G1 X128.359 Y49.632 E7.33121
G1 X128.359 Y50.010 E7.34381
G1 X131.641 Y46.727 E7.49856
G1 X131.641 Y47.105 E7.51116
G1 X128.359 Y50.388 E7.66592
G1 X128.359 Y50.766 E7.67852
G1 X131.641 Y47.483 E7.83327
G1 X131.641 Y47.861 E7.84587
G1 X128.359 Y51.144 E8.00063
G1 X128.359 Y51.522 E8.01323
G1 X131.641 Y48.239 E8.16798
G1 X131.641 Y48.617 E8.18058
G1 X128.359 Y51.900 E8.33534
G1 X128.359 Y52.211 E8.34569
G1 X128.323 Y52.313 E8.34930
G1 X131.641 Y48.995 E8.50571
G1 X131.641 Y49.373 E8.51831
G1 X128.126 Y52.888 E8.68401
G1 X127.929 Y53.463 E8.70426
G1 X131.641 Y49.751 E8.87925
G1 X131.641 Y50.129 E8.89185
G1 X127.732 Y54.038 E9.07612
G1 X127.510 Y54.638 E9.09745
G1 X131.641 Y50.507 E9.29220
G1 X131.641 Y50.885 E9.30480
G1 X127.281 Y55.246 E9.51037
G1 X127.051 Y55.853 E9.53201
G1 X131.641 Y51.263 E9.74839
G1 X131.641 Y51.641 E9.76099
G1 X126.822 Y56.460 E9.98819
G1 X126.592 Y57.068 E10.00983
G1 X131.641 Y52.019 E10.24785
G1 X131.641 Y52.397 E10.26045
G1 X126.359 Y57.679 E10.50947
G1 X126.091 Y58.324 E10.53275
G1 X131.641 Y52.774 E10.79438
G1 X131.641 Y52.946 E10.80009
G1 X131.534 Y53.260 E10.81116
G1 X125.824 Y58.970 E11.08032
G1 X125.557 Y59.615 E11.10360
G1 X131.337 Y53.835 E11.37608
G1 X131.140 Y54.409 E11.39633
G1 X125.290 Y60.260 E11.67213
G1 X125.022 Y60.905 E11.69541
G1 X130.944 Y54.984 E11.97453
G1 X130.922 Y55.047 E11.97673
G1 X130.718 Y55.588 E11.99603
G1 X124.718 Y61.587 E12.27883
G1 X124.407 Y62.276 E12.30402
G1 X130.488 Y56.196 E12.59067
G1 X130.259 Y56.803 E12.61231
G1 X124.096 Y62.965 E12.90280
G1 X123.785 Y63.654 E12.92799
G1 X130.029 Y57.410 E13.22232
G1 X129.800 Y58.018 E13.24397
G1 X123.474 Y64.343 E13.54214
G1 X123.113 Y65.082 E13.56956
G1 X129.568 Y58.628 E13.87382
G1 X129.300 Y59.273 E13.89711
G1 X122.750 Y65.823 E14.20588
G1 X122.387 Y66.564 E14.23338
G1 X129.033 Y59.918 E14.54666
G1 X128.766 Y60.564 E14.56994
G1 X122.024 Y67.305 E14.88774
G1 X121.630 Y68.077 E14.91664
G1 X128.498 Y61.209 E15.24042
G1 X128.231 Y61.854 E15.26370
G1 X121.204 Y68.881 E15.59494
G1 X120.779 Y69.684 E15.62524
G1 X127.935 Y62.528 E15.96259
G1 X127.624 Y63.217 E15.98780
G1 X120.353 Y70.488 E16.33054
G1 X119.893 Y71.326 E16.36240
G1 X127.313 Y63.906 E16.71215
G1 X127.002 Y64.595 E16.73736
G1 X119.392 Y72.205 E17.09609
G1 X118.890 Y73.085 E17.12985
G1 X126.690 Y65.285 E17.49757
G1 X126.346 Y66.007 E17.52425
G1 X118.388 Y73.965 E17.89938
G1 X117.808 Y74.923 E17.93671
G1 X125.983 Y66.748 E18.32208
G1 X125.620 Y67.489 E18.34958
G1 X117.210 Y75.899 E18.74603
G1 X116.612 Y76.875 E18.78417
G1 X125.257 Y68.230 E19.19169
G1 X124.890 Y68.974 E19.21935
G1 X115.939 Y77.926 E19.64132
G1 X115.215 Y79.027 E19.68526
G1 X124.465 Y69.777 E20.12129
G1 X124.040 Y70.581 E20.15159
G1 X114.492 Y80.129 E20.60168
G1 X113.631 Y81.367 E20.65194
G1 X123.614 Y71.384 E21.12254
G1 X123.189 Y72.187 E21.15284
G1 X112.738 Y82.639 E21.64552
G1 X112.232 Y83.358 E21.67481
G1 X111.738 Y84.017 E21.70228
G1 X122.695 Y73.059 E22.21883
G1 X122.193 Y73.939 E22.25259
G1 X110.599 Y85.533 E22.79914
G1 X110.021 Y86.303 E22.83123
G1 X109.272 Y87.239 E22.87119
G1 X121.692 Y74.819 E23.45667
G1 X121.270 Y75.558 E23.48504
G1 X121.175 Y75.714 E23.49113
G1 X107.749 Y89.139 E24.12401
G1 X105.548 Y91.719 E24.23704
G1 X120.577 Y76.689 E24.94551
G1 X119.978 Y77.666 E24.98369
G1 X80.814 Y116.831 E26.82991
G1 X81.790 Y116.232 E26.86807
G1 X119.380 Y78.642 E28.64007
G1 X118.675 Y79.725 E28.68315
G1 X82.873 Y115.527 E30.37084
G1 X83.974 Y114.804 E30.41476
G1 X117.951 Y80.827 E32.01644
G1 X117.228 Y81.928 E32.06036
G1 X85.075 Y114.081 E33.57604
G1 X86.344 Y113.190 E33.62770
G1 X116.337 Y83.197 E35.04158
G1 X115.443 Y84.469 E35.09339
G1 X87.615 Y112.297 E36.40520
G1 X88.189 Y111.893 E36.42858
G1 X89.021 Y111.269 E36.46325
G1 X114.415 Y85.875 E37.66034
G1 X113.277 Y87.391 E37.72352
G1 X90.537 Y110.131 E38.79548
G1 X91.215 Y109.622 E38.82372
G1 X92.266 Y108.779 E38.86863
G1 X111.926 Y89.119 E39.79540
