; generated by Slic3r 1.3.1-dev (Build 2ef957d) on 2019-11-25 at 09:21:00

; external perimeters extrusion width = 0.55mm (4.37mm^3/s)
; perimeters extrusion width = 0.70mm (11.44mm^3/s)
; infill extrusion width = 0.62mm (13.45mm^3/s)
; solid infill extrusion width = 0.70mm (3.81mm^3/s)
; top infill extrusion width = 0.70mm (2.86mm^3/s)

M107
G92 E0
M104 S200 ; set temperature
G28 ; home all axes
G1 Z5 F5000 ; lift nozzle

; Filament gcode

M109 S200 ; set temperature and wait for it to be reached
G21 ; set units to millimeters
G90 ; use absolute coordinates
M82 ; use absolute distances for extrusion
G92 E0
G1 Z0.350 F7800.000
G1 E-2.00000 F2400.00000
G92 E0
G1 X46.668 Y76.774 F7800.000
G1 E2.00000 F2400.00000
G1 F1800.000
G1 X48.820 Y75.981 E2.07096
G1 X50.000 Y75.875 E2.10761
G1 X150.000 Y75.875 E5.20174
G1 X152.259 Y76.272 E5.27271
G1 X154.247 Y77.415 E5.34367
G1 X155.726 Y79.168 E5.41463
G1 X156.519 Y81.320 E5.48559
G1 X156.625 Y82.500 E5.52225
G1 X156.625 Y117.500 E6.60519
G1 X156.228 Y119.759 E6.67615
G1 X155.085 Y121.747 E6.74712
G1 X153.332 Y123.226 E6.81808
G1 X151.180 Y124.019 E6.88904
G1 X150.000 Y124.125 E6.92569
G1 X50.000 Y124.125 E10.01982
G1 X47.741 Y123.728 E10.09079
G1 X45.753 Y122.585 E10.16175
G1 X44.274 Y120.832 E10.23271
G1 X43.481 Y118.680 E10.30367
G1 X43.375 Y117.500 E10.34032
G1 X43.375 Y82.500 E11.42327
G1 X43.772 Y80.241 E11.49423
G1 X44.915 Y78.253 E11.56519
G1 X46.611 Y76.822 E11.63384
G1 E9.63384 F2400.00000
G92 E0
G1 X80.076 Y110.812 F7800.000
G1 E2.00000 F2400.00000
G1 F1800.000
G1 X77.924 Y110.812 E2.06659
G1 X76.183 Y109.547 E2.13317
G1 X75.518 Y107.500 E2.19976
G1 X76.183 Y105.453 E2.26635
G1 X77.924 Y104.188 E2.33294
G1 X80.076 Y104.188 E2.39952
G1 X81.817 Y105.453 E2.46611
G1 X82.482 Y107.500 E2.53270
G1 X81.817 Y109.547 E2.59929
G1 X80.137 Y110.768 E2.66355
G1 X79.873 Y110.187 F7800.000
G1 F1800.000
G1 X78.127 Y110.187 E2.71757
G1 X76.715 Y109.161 E2.77160
G1 X76.175 Y107.500 E2.82562
G1 X76.715 Y105.839 E2.87964
G1 X78.127 Y104.813 E2.93366
G1 X79.873 Y104.813 E2.98769
G1 X81.285 Y105.839 E3.04171
G1 X81.825 Y107.500 E3.09573
G1 X81.285 Y109.161 E3.14976
G1 X79.934 Y110.143 E3.20146
G1 X79.670 Y109.562 F7800.000
G1 F1800.000
G1 X78.330 Y109.562 E3.24291
G1 X77.246 Y108.774 E3.28437
G1 X76.832 Y107.500 E3.32583
G1 X77.246 Y106.226 E3.36729
G1 X78.330 Y105.438 E3.40875
G1 X79.670 Y105.438 E3.45020
G1 X80.754 Y106.226 E3.49166
G1 X81.168 Y107.500 E3.53312
G1 X80.754 Y108.774 E3.57458
G1 X79.731 Y109.518 E3.61372
G1 X79.670 Y109.562 F7800.000
G1 E1.61372 F2400.00000
G92 E0
G1 X77.874 Y96.569 F7800.000
G1 E2.00000 F2400.00000
G1 F1800.000
G1 X77.387 Y95.222 E2.04430
G1 X76.900 Y96.569 E2.08859
G1 X73.629 Y96.569 E2.18978
G1 X72.528 Y96.708 E2.22413
G1 X71.424 Y96.569 E2.25857
G1 X68.135 Y96.569 E2.36032
G1 X67.648 Y95.222 E2.40461
G1 X67.161 Y96.569 E2.44891
G1 X62.986 Y96.569 E2.57810
G1 X66.155 Y88.313 E2.85171
G1 X69.135 Y88.313 E2.94390
G1 X69.574 Y89.458 E2.98186
G1 X70.443 Y88.726 E3.01703
G1 X71.446 Y88.303 E3.05070
G1 X72.528 Y88.173 E3.08441
G1 X73.607 Y88.304 E3.11806
G1 X74.609 Y88.727 E3.15170
G1 X75.459 Y89.446 E3.18614
G1 X75.894 Y88.313 E3.22368
G1 X78.873 Y88.313 E3.31587
G1 X79.437 Y89.785 E3.36464
G1 X82.652 Y89.785 E3.46412
G1 X82.652 Y96.569 E3.67401
G1 X77.949 Y96.569 E3.81955
G1 X78.312 Y95.944 F7800.000
G1 F1800.000
G1 X77.849 Y94.664 E3.86167
G1 X76.924 Y94.664 E3.89029
G1 X76.461 Y95.944 E3.93241
G1 X73.503 Y95.944 E4.02395
G1 X73.445 Y95.968 E4.02588
G1 X72.528 Y96.079 E4.05447
G1 X71.608 Y95.968 E4.08312
G1 X71.549 Y95.944 E4.08510
G1 X68.574 Y95.944 E4.17717
G1 X68.111 Y94.664 E4.21929
G1 X67.186 Y94.664 E4.24791
G1 X66.723 Y95.944 E4.29003
G1 X63.895 Y95.944 E4.37752
G1 X66.585 Y88.938 E4.60971
G1 X68.705 Y88.938 E4.67531
G1 X69.429 Y90.826 E4.73788
G1 X70.078 Y89.851 E4.77412
G1 X70.773 Y89.265 E4.80227
G1 X71.608 Y88.913 E4.83028
G1 X72.528 Y88.803 E4.85895
G1 X73.445 Y88.914 E4.88755
G1 X74.278 Y89.265 E4.91553
G1 X74.972 Y89.852 E4.94363
G1 X75.606 Y90.806 E4.97909
G1 X76.323 Y88.938 E5.04101
G1 X78.443 Y88.938 E5.10662
G1 X79.053 Y90.528 E5.15931
G1 X79.360 Y90.471 E5.16897
G1 X79.360 Y90.410 E5.17087
G1 X82.027 Y90.410 E5.25341
G1 X82.027 Y95.944 E5.42463
G1 X78.387 Y95.944 E5.53728
G1 X78.751 Y95.319 F7800.000
G1 F1800.000
G1 X78.288 Y94.039 E5.57939
G1 X76.486 Y94.039 E5.63514
G1 X76.023 Y95.319 E5.67726
G1 X74.543 Y95.319 E5.72305
G1 X74.757 Y94.762 E5.74150
G1 X74.519 Y94.594 E5.75050
G1 X73.947 Y95.077 E5.77369
G1 X73.283 Y95.358 E5.79600
G1 X72.527 Y95.449 E5.81955
G1 X71.770 Y95.358 E5.84316
G1 X71.104 Y95.079 E5.86551
G1 X70.495 Y94.567 E5.89013
G1 X70.258 Y94.735 E5.89911
G1 X70.482 Y95.319 E5.91844
G1 X69.012 Y95.319 E5.96391
G1 X68.549 Y94.039 E6.00603
G1 X66.747 Y94.039 E6.06178
G1 X66.284 Y95.319 E6.10390
G1 X64.805 Y95.319 E6.14969
G1 X67.014 Y89.563 E6.34046
G1 X68.275 Y89.563 E6.37949
G1 X69.530 Y92.837 E6.48797
G1 X69.849 Y92.762 E6.49810
G1 X69.819 Y92.443 E6.50802
G1 X69.897 Y91.616 E6.53373
G1 X70.138 Y90.888 E6.55745
G1 X70.549 Y90.271 E6.58037
G1 X71.103 Y89.804 E6.60282
G1 X71.769 Y89.523 E6.62518
G1 X72.527 Y89.432 E6.64880
G1 X73.283 Y89.523 E6.67235
G1 X73.947 Y89.804 E6.69466
G1 X74.500 Y90.272 E6.71707
G1 X74.910 Y90.888 E6.73997
G1 X75.151 Y91.616 E6.76369
G1 X75.229 Y92.443 E6.78939
G1 X75.206 Y92.688 E6.79701
G1 X75.524 Y92.763 E6.80713
G1 X76.753 Y89.563 E6.91319
G1 X78.014 Y89.563 E6.95221
G1 X79.678 Y93.904 E7.09608
G1 X79.985 Y93.848 E7.10573
G1 X79.985 Y93.723 E7.10959
G1 X81.403 Y93.723 E7.15346
G1 X81.403 Y95.319 E7.20285
G1 X78.826 Y95.319 E7.28259
G1 X78.292 Y95.519 F7800.000
G1 E5.28259 F2400.00000
G92 E0
G1 X79.985 Y92.631 F7800.000
G1 E2.00000 F2400.00000
G1 F1800.000
G1 X79.985 Y91.035 E2.04938
G1 X81.403 Y91.035 E2.09326
G1 X81.403 Y92.631 E2.14264
G1 X80.060 Y92.631 E2.18419
G1 X79.504 Y92.770 F7800.000
G1 E0.18419 F2400.00000
G92 E0
G1 X62.482 Y89.500 F7800.000
G1 E2.00000 F2400.00000
G1 F1800.000
G1 X61.817 Y91.547 E2.06659
G1 X60.076 Y92.812 E2.13317
G1 X57.924 Y92.812 E2.19976
G1 X56.183 Y91.547 E2.26635
G1 X55.518 Y89.500 E2.33294
G1 X56.183 Y87.453 E2.39952
G1 X57.924 Y86.188 E2.46611
G1 X60.076 Y86.188 E2.53270
G1 X61.817 Y87.453 E2.59929
G1 X62.459 Y89.429 E2.66355
G1 X61.825 Y89.500 F7800.000
G1 F1800.000
G1 X61.285 Y91.161 E2.71758
G1 X59.873 Y92.187 E2.77160
G1 X58.127 Y92.187 E2.82562
G1 X56.714 Y91.161 E2.87964
G1 X56.175 Y89.500 E2.93367
G1 X56.714 Y87.839 E2.98769
G1 X58.127 Y86.813 E3.04171
G1 X59.873 Y86.813 E3.09574
G1 X61.285 Y87.839 E3.14976
G1 X61.802 Y89.429 E3.20146
G1 X61.168 Y89.500 F7800.000
G1 F1800.000
G1 X60.754 Y90.774 E3.24292
G1 X59.670 Y91.562 E3.28438
G1 X58.330 Y91.562 E3.32584
G1 X57.246 Y90.774 E3.36729
G1 X56.832 Y89.500 E3.40875
G1 X57.246 Y88.226 E3.45021
G1 X58.330 Y87.438 E3.49167
G1 X59.670 Y87.438 E3.53313
G1 X60.754 Y88.226 E3.57458
G1 X61.145 Y89.429 E3.61372
G1 X61.168 Y89.500 F7800.000
G1 E1.61372 F2400.00000
G92 E0
G1 X83.123 Y88.871 F7800.000
G1 E2.00000 F2400.00000
G1 F1800.000
G1 X85.774 Y88.313 E2.08380
G1 X88.228 Y88.313 E2.15974
G1 X88.228 Y92.473 E2.28845
G1 X89.365 Y92.473 E2.32364
G1 X89.365 Y91.775 E2.34524
G1 X89.580 Y91.867 E2.35247
G1 X89.580 Y88.313 E2.46243
G1 X95.481 Y88.313 E2.64501
G1 X95.481 Y88.591 E2.65362
G1 X95.797 Y88.641 E2.66353
G1 X96.183 Y87.453 E2.70219
G1 X97.924 Y86.188 E2.76877
G1 X100.076 Y86.188 E2.83536
G1 X101.817 Y87.453 E2.90195
G1 X102.482 Y89.500 E2.96853
G1 X101.817 Y91.547 E3.03512
G1 X100.076 Y92.812 E3.10171
G1 X97.924 Y92.812 E3.16830
G1 X96.183 Y91.547 E3.23488
G1 X95.797 Y90.358 E3.27354
G1 X95.481 Y90.409 E3.28345
G1 X95.481 Y91.710 E3.32371
G1 X95.768 Y92.450 E3.34829
G1 X95.865 Y93.337 E3.37588
G1 X95.766 Y94.240 E3.40398
G1 X95.427 Y95.101 E3.43261
G1 X94.920 Y95.726 E3.45751
G1 X99.233 Y95.726 E3.59098
G1 X99.233 Y99.886 E3.71969
G1 X101.011 Y99.886 E3.77469
G1 X101.011 Y95.726 E3.90341
G1 X105.580 Y95.726 E4.04479
G1 X105.580 Y109.037 E4.45667
G1 X101.011 Y109.037 E4.59806
G1 X101.011 Y104.237 E4.74658
G1 X99.233 Y104.237 E4.80157
G1 X99.233 Y109.037 E4.95009
G1 X94.664 Y109.037 E5.09148
G1 X94.664 Y95.945 E5.49657
G1 X94.057 Y96.347 E5.51910
G1 X93.197 Y96.623 E5.54705
G1 X92.317 Y96.702 E5.57439
G1 X91.427 Y96.636 E5.60199
G1 X91.104 Y96.569 E5.61220
G1 X83.222 Y96.569 E5.85607
G1 X83.222 Y92.693 E5.97597
G1 X83.123 Y92.714 E5.97910
G1 X83.123 Y88.946 E6.09571
G1 E4.09571 F2400.00000
G92 E0
G1 X95.289 Y96.351 F7800.000
G1 E2.00000 F2400.00000
G1 F1800.000
G1 X98.608 Y96.351 E2.10272
G1 X98.608 Y100.511 E2.23143
G1 X101.636 Y100.511 E2.32510
G1 X101.636 Y96.351 E2.45382
G1 X104.955 Y96.351 E2.55653
G1 X104.955 Y108.412 E2.92974
G1 X101.636 Y108.412 E3.03246
G1 X101.636 Y103.612 E3.18098
G1 X98.608 Y103.612 E3.27464
G1 X98.608 Y108.412 E3.42316
G1 X95.289 Y108.412 E3.52588
G1 X95.289 Y96.426 E3.89677
G1 X95.913 Y96.976 F7800.000
G1 F1800.000
G1 X97.983 Y96.976 E3.96082
G1 X97.983 Y101.136 E4.08953
G1 X102.260 Y101.136 E4.22187
G1 X102.260 Y96.976 E4.35058
G1 X104.330 Y96.976 E4.41463
G1 X104.330 Y107.787 E4.74917
G1 X102.260 Y107.787 E4.81322
G1 X102.260 Y102.987 E4.96174
G1 X97.983 Y102.987 E5.09407
G1 X97.983 Y107.787 E5.24259
G1 X95.913 Y107.787 E5.30664
G1 X95.913 Y97.051 E5.63886
G1 X95.882 Y96.476 F7800.000
G1 E3.63886 F2400.00000
G92 E0
G1 X98.127 Y92.187 F7800.000
G1 E2.00000 F2400.00000
G1 F1800.000
G1 X96.715 Y91.161 E2.05402
G1 X96.175 Y89.500 E2.10805
G1 X96.715 Y87.839 E2.16207
G1 X98.127 Y86.813 E2.21609
G1 X99.873 Y86.813 E2.27011
G1 X101.285 Y87.839 E2.32414
G1 X101.825 Y89.500 E2.37816
G1 X101.285 Y91.161 E2.43218
G1 X99.873 Y92.187 E2.48621
G1 X98.202 Y92.187 E2.53791
G1 X98.330 Y91.562 F7800.000
G1 F1800.000
G1 X97.246 Y90.774 E2.57936
G1 X96.832 Y89.500 E2.62082
G1 X97.246 Y88.226 E2.66228
G1 X98.330 Y87.438 E2.70374
G1 X99.670 Y87.438 E2.74520
G1 X100.754 Y88.226 E2.78665
G1 X101.168 Y89.500 E2.82811
G1 X100.754 Y90.774 E2.86957
G1 X99.670 Y91.562 E2.91103
G1 X98.405 Y91.562 E2.95017
G1 X98.330 Y91.562 F7800.000
G1 E0.95017 F2400.00000
G92 E0
G1 X94.856 Y91.464 F7800.000
G1 E2.00000 F2400.00000
G1 F1800.000
G1 X94.535 Y91.464 E2.00991
G1 X94.891 Y91.918 E2.02776
G1 X95.155 Y92.600 E2.05039
G1 X95.237 Y93.337 E2.07332
G1 X95.154 Y94.088 E2.09672
G1 X94.881 Y94.782 E2.11979
G1 X94.408 Y95.365 E2.14300
G1 X93.784 Y95.779 E2.16618
G1 X93.072 Y96.007 E2.18931
G1 X92.312 Y96.075 E2.21292
G1 X91.514 Y96.016 E2.23766
G1 X90.711 Y95.848 E2.26304
G1 X90.711 Y95.944 E2.26602
G1 X83.847 Y95.944 E2.47840
G1 X83.847 Y93.418 E2.55656
G1 X84.971 Y93.418 E2.59134
G1 X84.971 Y91.689 E2.64483
G1 X83.748 Y91.945 E2.68349
G1 X83.748 Y89.378 E2.76293
G1 X85.839 Y88.938 E2.82902
G1 X87.603 Y88.938 E2.88361
G1 X87.603 Y93.418 E3.02223
G1 X88.043 Y93.418 E3.03583
G1 X88.043 Y93.098 E3.04574
G1 X89.990 Y93.098 E3.10599
G1 X89.990 Y92.722 E3.11761
G1 X90.205 Y92.814 E3.12484
G1 X90.205 Y88.938 E3.24478
G1 X94.856 Y88.938 E3.38869
G1 X94.856 Y91.389 E3.46452
G1 X94.231 Y90.839 F7800.000
G1 F1800.000
G1 X92.160 Y90.839 E3.52860
G1 X92.160 Y91.247 E3.54123
G1 X92.412 Y91.225 E3.54906
G1 X93.014 Y91.285 E3.56780
G1 X93.550 Y91.474 E3.58537
G1 X94.002 Y91.796 E3.60254
G1 X94.342 Y92.230 E3.61960
G1 X94.543 Y92.750 E3.63684
G1 X94.608 Y93.337 E3.65511
G1 X94.542 Y93.937 E3.67379
G1 X94.334 Y94.463 E3.69130
G1 X93.983 Y94.897 E3.70857
G1 X93.510 Y95.210 E3.72610
G1 X92.947 Y95.391 E3.74441
G1 X92.307 Y95.448 E3.76431
G1 X91.602 Y95.396 E3.78617
G1 X90.615 Y95.189 E3.81738
G1 X90.615 Y93.670 E3.86437
G1 X91.494 Y94.047 E3.89396
G1 X91.875 Y94.139 E3.90611
G1 X92.286 Y94.169 E3.91885
G1 X92.581 Y94.141 E3.92803
G1 X92.808 Y94.063 E3.93544
G1 X92.983 Y93.943 E3.94202
G1 X93.109 Y93.786 E3.94825
G1 X93.187 Y93.590 E3.95477
G1 X93.215 Y93.337 E3.96265
G1 X93.187 Y93.084 E3.97053
G1 X93.109 Y92.888 E3.97705
G1 X92.983 Y92.731 E3.98329
G1 X92.808 Y92.610 E3.98986
G1 X92.582 Y92.533 E3.99726
G1 X92.281 Y92.503 E4.00663
G1 X91.982 Y92.526 E4.01588
G1 X91.658 Y92.600 E4.02618
G1 X90.830 Y92.918 E4.05362
G1 X90.830 Y89.563 E4.15742
G1 X94.231 Y89.563 E4.26265
G1 X94.231 Y90.764 E4.29981
G1 X94.427 Y91.299 F7800.000
G1 E2.29981 F2400.00000
G92 E0
G1 X90.086 Y93.723 F7800.000
G1 E2.00000 F2400.00000
G1 F1800.000
G1 X90.086 Y95.319 E2.04939
G1 X88.668 Y95.319 E2.09329
G1 X88.668 Y93.723 E2.14268
G1 X90.011 Y93.723 E2.18426
G1 X90.567 Y93.584 F7800.000
G1 X88.102 Y94.043 F7800.000
G1 F1800.000
G1 X88.102 Y95.319 E2.22375
G1 X84.472 Y95.319 E2.33606
G1 X84.472 Y94.043 E2.37555
G1 X85.596 Y94.043 E2.41032
G1 X85.596 Y90.920 E2.50696
G1 X84.373 Y91.176 E2.54562
G1 X84.373 Y89.885 E2.58556
G1 X85.904 Y89.563 E2.63395
G1 X86.978 Y89.563 E2.66720
G1 X86.978 Y94.043 E2.80581
G1 X88.027 Y94.043 E2.83827
G1 X88.554 Y94.256 F7800.000
G1 E0.83827 F2400.00000
G92 E0
G1 X116.183 Y103.453 F7800.000
G1 E2.00000 F2400.00000
G1 F1800.000
G1 X117.924 Y102.188 E2.06659
G1 X120.076 Y102.188 E2.13317
G1 X121.817 Y103.453 E2.19976
G1 X122.482 Y105.500 E2.26635
G1 X121.817 Y107.547 E2.33294
G1 X120.076 Y108.812 E2.39952
G1 X117.924 Y108.812 E2.46611
G1 X116.183 Y107.547 E2.53270
G1 X115.518 Y105.500 E2.59928
G1 X116.160 Y103.525 E2.66355
G1 X116.715 Y103.839 F7800.000
G1 F1800.000
G1 X118.127 Y102.813 E2.71757
G1 X119.873 Y102.813 E2.77160
G1 X121.285 Y103.839 E2.82562
G1 X121.825 Y105.500 E2.87964
G1 X121.285 Y107.161 E2.93366
G1 X119.873 Y108.187 E2.98769
G1 X118.127 Y108.187 E3.04171
G1 X116.715 Y107.161 E3.09573
G1 X116.175 Y105.500 E3.14975
G1 X116.691 Y103.911 E3.20146
G1 X117.246 Y104.226 F7800.000
G1 F1800.000
G1 X118.330 Y103.438 E3.24292
G1 X119.670 Y103.438 E3.28437
G1 X120.754 Y104.226 E3.32583
G1 X121.168 Y105.500 E3.36729
G1 X120.754 Y106.774 E3.40875
G1 X119.670 Y107.562 E3.45021
G1 X118.330 Y107.562 E3.49166
G1 X117.246 Y106.774 E3.53312
G1 X116.832 Y105.500 E3.57458
G1 X117.223 Y104.297 E3.61372
G1 X117.246 Y104.226 F7800.000
G1 E1.61372 F2400.00000
G92 E0
G1 X136.183 Y91.547 F7800.000
G1 E2.00000 F2400.00000
G1 F1800.000
G1 X135.518 Y89.500 E2.06659
G1 X136.183 Y87.453 E2.13318
G1 X137.924 Y86.188 E2.19976
G1 X140.076 Y86.188 E2.26635
G1 X141.817 Y87.453 E2.33294
G1 X142.482 Y89.500 E2.39952
G1 X141.817 Y91.547 E2.46611
G1 X140.076 Y92.812 E2.53270
G1 X137.924 Y92.812 E2.59929
G1 X136.244 Y91.591 E2.66355
G1 X136.715 Y91.161 F7800.000
G1 F1800.000
G1 X136.175 Y89.500 E2.71757
G1 X136.715 Y87.839 E2.77160
G1 X138.127 Y86.813 E2.82562
G1 X139.873 Y86.813 E2.87964
G1 X141.285 Y87.839 E2.93366
G1 X141.825 Y89.500 E2.98769
G1 X141.285 Y91.161 E3.04171
G1 X139.873 Y92.187 E3.09573
G1 X138.127 Y92.187 E3.14976
G1 X136.775 Y91.205 E3.20146
G1 X137.246 Y90.774 F7800.000
G1 F1800.000
G1 X136.832 Y89.500 E3.24292
G1 X137.246 Y88.226 E3.28437
G1 X138.330 Y87.438 E3.32583
G1 X139.670 Y87.438 E3.36729
G1 X140.754 Y88.226 E3.40875
G1 X141.168 Y89.500 E3.45021
G1 X140.754 Y90.774 E3.49166
G1 X139.670 Y91.562 E3.53312
G1 X138.330 Y91.562 E3.57458
G1 X137.307 Y90.818 E3.61372
G1 X137.246 Y90.774 F7800.000
G1 E1.61372 F2400.00000
G92 E0
G1 X148.400 Y84.100 F7800.000
G1 E2.00000 F2400.00000
G1 F1800.000
G1 X148.400 Y115.900 E2.98395
G1 X51.600 Y115.900 E5.97908
G1 X51.600 Y84.100 E6.96303
G1 X148.325 Y84.100 E9.95584
G1 X149.025 Y83.475 F7800.000
G1 F1800.000
G1 X149.025 Y116.525 E10.97846
G1 X50.975 Y116.525 E14.01226
G1 X50.975 Y83.475 E15.03488
G1 X148.950 Y83.475 E18.06636
G1 E16.06636 F2400.00000
G92 E0
G1 X92.567 Y93.159 F7800.000
G1 E2.00000 F2400.00000
G1 F1800.000
G1 X92.587 Y93.337 E2.00553
G1 X92.567 Y93.514 E2.01107
G1 X92.279 Y93.542 E2.02001
G1 X91.898 Y93.514 E2.03182
G1 X91.874 Y93.192 E2.04181
G1 X92.181 Y93.133 E2.05148
G1 X92.492 Y93.152 E2.06112
G1 E0.06112 F2400.00000
G92 E0
G1 X50.350 Y82.850 F7800.000
G1 E2.00000 F2400.00000
G1 F1800.000
G1 X149.650 Y82.850 E5.07247
G1 X149.650 Y117.150 E6.13376
G1 X50.350 Y117.150 E9.20623
G1 X50.350 Y82.925 E10.26520
G1 X50.847 Y82.905 F7800.000
G1 E8.26520 F2400.00000
G92 E0
G1 X75.428 Y92.740 F7800.000
G1 E2.00000 F2400.00000
G1 F1800.000
G1 X74.984 Y93.983 E2.05119
G1 X74.851 Y94.016 E2.05651
G1 F1800.000
G1 X74.585 Y94.083 E2.06614
G1 F1800.000
