; generated by Slic3r 1.3.1-dev (Build 2ef957d) on 2019-11-25 at 09:22:22

; external perimeters extrusion width = 0.55mm (4.37mm^3/s)
; perimeters extrusion width = 0.70mm (11.44mm^3/s)
; infill extrusion width = 0.62mm (13.45mm^3/s)
; solid infill extrusion width = 0.70mm (3.81mm^3/s)
; top infill extrusion width = 0.70mm (2.86mm^3/s)

M107
G92 E0
M104 S200 ; set temperature
G28 ; home all axes
G1 Z5 F5000 ; lift nozzle

; Filament gcode

M109 S200 ; set temperature and wait for it to be reached
G21 ; set units to millimeters
G90 ; use absolute coordinates
M82 ; use absolute distances for extrusion
G92 E0
G1 Z0.350 F7800.000
G1 E-2.00000 F2400.00000
G92 E0
G1 X103.180 Y29.491 F7800.000
G1 E2.00000 F2400.00000
G1 F1800.000
G1 X104.324 Y27.503 E2.07096
G1 X106.077 Y26.024 E2.14192
G1 X108.229 Y25.231 E2.21289
G1 X109.408 Y25.125 E2.24954
G1 X110.200 Y25.125 E2.27402
G1 X112.458 Y25.522 E2.34498
G1 X113.975 Y26.306 E2.39781
G1 X164.578 Y61.401 E4.30322
G1 X167.931 Y63.761 E4.43011
G1 X171.176 Y66.202 E4.55572
G1 X174.342 Y68.742 E4.68134
G1 X177.271 Y71.244 E4.80051
G1 X180.276 Y73.974 E4.92612
G1 X183.194 Y76.797 E5.05174
G1 X186.021 Y79.710 E5.17735
G1 X188.756 Y82.710 E5.30297
G1 X191.395 Y85.795 E5.42858
G1 X193.936 Y88.961 E5.55419
G1 X196.376 Y92.206 E5.67980
G1 X198.826 Y95.693 E5.81167
G1 X201.054 Y99.089 E5.93735
G1 X203.069 Y102.377 E6.05665
G1 X204.856 Y105.503 E6.16808
G1 X205.179 Y106.077 E6.18845
G1 X206.986 Y109.488 E6.30789
G1 X208.863 Y113.321 E6.43994
G1 X210.448 Y116.831 E6.55911
G1 X212.005 Y120.581 E6.68472
G1 X213.085 Y123.429 E6.77898
G1 X213.512 Y125.771 E6.85264
G1 X213.512 Y168.250 E8.16700
G1 X213.115 Y170.509 E8.23796
G1 X211.972 Y172.497 E8.30892
G1 X210.219 Y173.976 E8.37988
G1 X208.067 Y174.769 E8.45085
G1 X206.887 Y174.875 E8.48750
G1 X201.887 Y174.875 E8.64220
G1 X199.628 Y174.478 E8.71317
G1 X197.640 Y173.335 E8.78413
G1 X196.708 Y172.381 E8.82539
G1 X104.229 Y56.434 E13.41433
G1 X103.131 Y54.420 E13.48529
G1 X102.783 Y52.303 E13.55168
G1 X102.783 Y31.750 E14.18761
G1 X103.167 Y29.565 E14.25625
G1 E12.25625 F2400.00000
G92 E0
G1 X128.668 Y60.584 F7800.000
G1 E2.00000 F2400.00000
G1 F1800.000
G1 X128.823 Y59.588 E2.03119
G1 X129.274 Y58.685 E2.06243
G1 X129.983 Y57.962 E2.09376
G1 X130.884 Y57.494 E2.12516
G1 X131.887 Y57.332 E2.15662
G1 X132.891 Y57.494 E2.18807
G1 X133.792 Y57.962 E2.21948
G1 X134.500 Y58.685 E2.25081
G1 X134.952 Y59.588 E2.28204
G1 X135.106 Y60.584 E2.31324
G1 X134.952 Y61.580 E2.34443
G1 X134.500 Y62.483 E2.37567
G1 X133.792 Y63.206 E2.40699
G1 X132.891 Y63.675 E2.43840
G1 X131.887 Y63.837 E2.46986
G1 X130.884 Y63.675 E2.50131
G1 X129.983 Y63.206 E2.53272
G1 X129.274 Y62.483 E2.56404
G1 X128.823 Y61.580 E2.59528
G1 X128.680 Y60.658 E2.62415
G1 X129.301 Y60.584 F7800.000
G1 F1800.000
G1 X129.426 Y59.780 E2.64933
G1 X129.789 Y59.052 E2.67451
G1 X130.359 Y58.470 E2.69971
G1 X131.083 Y58.095 E2.72493
G1 X131.887 Y57.965 E2.75015
G1 X132.692 Y58.095 E2.77537
G1 X133.415 Y58.470 E2.80058
G1 X133.985 Y59.052 E2.82579
G1 X134.349 Y59.780 E2.85097
G1 X134.474 Y60.584 E2.87614
G1 X134.349 Y61.388 E2.90132
G1 X133.985 Y62.116 E2.92650
G1 X133.415 Y62.698 E2.95170
G1 X132.692 Y63.074 E2.97692
G1 X131.887 Y63.204 E3.00214
G1 X131.083 Y63.074 E3.02736
G1 X130.359 Y62.698 E3.05258
G1 X129.789 Y62.116 E3.07778
G1 X129.426 Y61.388 E3.10296
G1 X129.312 Y60.658 E3.12581
G1 X129.933 Y60.584 F7800.000
G1 F1800.000
G1 X130.028 Y59.972 E3.14497
G1 X130.304 Y59.419 E3.16410
G1 X130.736 Y58.979 E3.18318
G1 X131.281 Y58.696 E3.20220
G1 X131.887 Y58.598 E3.22118
G1 X132.493 Y58.696 E3.24017
G1 X133.039 Y58.979 E3.25919
G1 X133.470 Y59.419 E3.27827
G1 X133.746 Y59.972 E3.29740
G1 X133.842 Y60.584 E3.31656
G1 X133.746 Y61.196 E3.33572
G1 X133.470 Y61.749 E3.35484
G1 X133.039 Y62.189 E3.37392
G1 X132.493 Y62.473 E3.39294
G1 X131.887 Y62.571 E3.41193
G1 X131.281 Y62.473 E3.43091
G1 X130.736 Y62.189 E3.44994
G1 X130.304 Y61.749 E3.46901
G1 X130.028 Y61.196 E3.48814
G1 X129.945 Y60.658 E3.50498
G1 X129.933 Y60.584 F7800.000
G1 E1.50498 F2400.00000
G92 E0
G1 X118.812 Y52.447 F7800.000
G1 E2.00000 F2400.00000
G1 F1800.000
G1 X114.162 Y51.482 E2.14693
G1 X111.008 Y50.931 E2.24600
G1 X111.008 Y48.767 E2.31298
G1 X114.562 Y49.387 E2.42459
G1 X118.284 Y50.158 E2.54221
G1 X121.980 Y51.045 E2.65983
G1 X125.647 Y52.048 E2.77745
G1 X129.280 Y53.166 E2.89507
G1 X132.877 Y54.397 E3.01269
G1 X136.433 Y55.741 E3.13031
G1 X139.945 Y57.196 E3.24793
G1 X143.409 Y58.760 E3.36555
G1 X146.823 Y60.432 E3.48317
G1 X150.183 Y62.211 E3.60079
G1 X153.485 Y64.095 E3.71841
G1 X156.726 Y66.081 E3.83603
G1 X159.903 Y68.168 E3.95365
G1 X163.013 Y70.354 E4.07127
G1 X166.053 Y72.636 E4.18889
G1 X169.020 Y75.013 E4.30651
G1 X171.910 Y77.482 E4.42413
G1 X174.722 Y80.040 E4.54175
G1 X177.452 Y82.685 E4.65937
G1 X180.097 Y85.415 E4.77698
G1 X182.656 Y88.227 E4.89460
G1 X185.124 Y91.118 E5.01222
G1 X187.501 Y94.084 E5.12984
G1 X189.784 Y97.124 E5.24746
G1 X191.970 Y100.235 E5.36509
G1 X192.459 Y100.978 E5.39264
G1 X194.056 Y103.411 E5.48270
G1 X196.043 Y106.653 E5.60032
G1 X197.926 Y109.955 E5.71794
G1 X199.705 Y113.314 E5.83556
G1 X201.378 Y116.728 E5.95319
G1 X202.942 Y120.192 E6.07080
G1 X204.396 Y123.704 E6.18842
G1 X205.288 Y126.063 E6.26643
G1 X205.288 Y148.370 E6.95665
G1 X203.487 Y148.370 E7.01235
G1 X203.487 Y127.331 E7.66333
G1 X202.414 Y124.490 E7.75731
G1 X200.984 Y121.039 E7.87286
G1 X199.447 Y117.636 E7.98842
G1 X197.804 Y114.282 E8.10396
G1 X196.057 Y110.982 E8.21950
G1 X194.207 Y107.738 E8.33504
G1 X192.256 Y104.554 E8.45060
G1 X190.205 Y101.433 E8.56614
G1 X188.058 Y98.378 E8.68169
G1 X185.816 Y95.391 E8.79724
G1 X183.481 Y92.477 E8.91278
G1 X181.056 Y89.637 E9.02833
G1 X178.543 Y86.875 E9.14388
G1 X175.944 Y84.194 E9.25942
G1 X173.262 Y81.595 E9.37497
G1 X170.500 Y79.081 E9.49052
G1 X167.660 Y76.656 E9.60606
G1 X164.746 Y74.321 E9.72161
G1 X161.760 Y72.079 E9.83715
G1 X158.704 Y69.932 E9.95270
G1 X155.583 Y67.882 E10.06825
G1 X152.399 Y65.930 E10.18379
G1 X148.337 Y63.613 E10.32850
G1 X146.723 Y64.738 E10.38934
G1 X146.388 Y64.946 E10.40156
G1 X146.295 Y64.946 E10.40443
G1 X143.136 Y66.472 E10.51300
G1 X140.059 Y67.325 E10.61179
G1 X136.887 Y67.612 E10.71032
G1 X133.716 Y67.325 E10.80885
G1 X130.639 Y66.472 E10.90765
G1 X127.479 Y64.946 E11.01622
G1 X127.386 Y64.946 E11.01909
G1 X127.054 Y64.740 E11.03120
G1 X126.094 Y64.064 E11.06753
G1 X125.180 Y63.330 E11.10379
G1 X124.312 Y62.538 E11.14014
G1 X123.493 Y61.691 E11.17661
G1 X122.727 Y60.791 E11.21316
G1 X122.017 Y59.843 E11.24982
G1 X121.365 Y58.850 E11.28656
G1 X120.775 Y57.816 E11.32340
G1 X120.248 Y56.746 E11.36032
G1 X119.787 Y55.642 E11.39732
G1 X119.393 Y54.510 E11.43441
G1 X118.832 Y52.520 E11.49840
G1 X118.313 Y52.982 F7800.000
G1 F1800.000
G1 X114.045 Y52.096 E11.63328
G1 X110.383 Y51.457 E11.74829
G1 X110.383 Y48.040 E11.85400
G1 X110.915 Y48.116 E11.87061
G1 X114.679 Y48.773 E11.98883
G1 X118.420 Y49.548 E12.10706
G1 X122.136 Y50.440 E12.22529
G1 X125.821 Y51.448 E12.34351
G1 X129.474 Y52.572 E12.46174
G1 X133.088 Y53.809 E12.57997
G1 X136.663 Y55.160 E12.69820
G1 X140.193 Y56.622 E12.81642
G1 X143.675 Y58.195 E12.93465
G1 X147.107 Y59.876 E13.05288
G1 X150.484 Y61.664 E13.17110
G1 X153.803 Y63.557 E13.28933
G1 X157.061 Y65.553 E13.40756
G1 X160.254 Y67.651 E13.52578
G1 X163.381 Y69.848 E13.64401
G1 X166.436 Y72.142 E13.76224
G1 X169.418 Y74.531 E13.88047
G1 X172.324 Y77.013 E13.99869
G1 X175.150 Y79.584 E14.11692
G1 X177.894 Y82.244 E14.23515
G1 X180.553 Y84.988 E14.35337
G1 X183.124 Y87.814 E14.47160
G1 X185.606 Y90.719 E14.58983
G1 X187.995 Y93.701 E14.70805
G1 X190.289 Y96.757 E14.82628
G1 X192.486 Y99.883 E14.94452
G1 X194.584 Y103.077 E15.06273
G1 X196.581 Y106.334 E15.18096
G1 X198.474 Y109.654 E15.29919
G1 X200.262 Y113.030 E15.41742
G1 X201.943 Y116.462 E15.53565
G1 X203.515 Y119.944 E15.65387
G1 X204.977 Y123.474 E15.77210
G1 X205.912 Y125.949 E15.85395
G1 X205.912 Y148.995 E16.56703
G1 X202.862 Y148.995 E16.66140
G1 X202.862 Y127.445 E17.32818
G1 X201.832 Y124.720 E17.41833
G1 X200.411 Y121.288 E17.53328
G1 X198.882 Y117.902 E17.64822
G1 X197.248 Y114.566 E17.76316
G1 X195.509 Y111.283 E17.87809
G1 X193.669 Y108.056 E17.99302
G1 X191.728 Y104.889 E18.10797
G1 X189.689 Y101.784 E18.22291
G1 X187.553 Y98.745 E18.33785
G1 X185.322 Y95.774 E18.45279
G1 X183.000 Y92.875 E18.56773
G1 X180.587 Y90.051 E18.68267
G1 X178.087 Y87.303 E18.79761
G1 X175.502 Y84.635 E18.91254
G1 X172.834 Y82.050 E19.02748
G1 X170.087 Y79.550 E19.14242
G1 X167.262 Y77.138 E19.25736
G1 X164.363 Y74.815 E19.37230
G1 X161.392 Y72.585 E19.48724
G1 X158.353 Y70.449 E19.60218
G1 X155.248 Y68.409 E19.71712
G1 X152.081 Y66.468 E19.83206
G1 X148.370 Y64.352 E19.96424
G1 X147.067 Y65.260 E20.01337
G1 X146.567 Y65.571 E20.03162
G1 X146.438 Y65.571 E20.03559
G1 X143.357 Y67.059 E20.14146
G1 X140.171 Y67.942 E20.24375
G1 X136.887 Y68.240 E20.34577
G1 X133.603 Y67.942 E20.44780
G1 X130.418 Y67.059 E20.55008
G1 X127.336 Y65.571 E20.65596
G1 X127.208 Y65.571 E20.65993
G1 X126.709 Y65.261 E20.67811
G1 X125.718 Y64.564 E20.71561
G1 X124.773 Y63.805 E20.75309
G1 X123.876 Y62.986 E20.79067
G1 X123.030 Y62.111 E20.82835
G1 X122.239 Y61.181 E20.86611
G1 X121.505 Y60.202 E20.90397
G1 X120.832 Y59.177 E20.94192
G1 X120.223 Y58.109 E20.97995
G1 X119.679 Y57.004 E21.01806
G1 X119.203 Y55.866 E21.05624
G1 X118.797 Y54.698 E21.09451
G1 X118.334 Y53.054 E21.14734
G1 X117.815 Y53.517 F7800.000
G1 F1800.000
G1 X113.928 Y52.710 E21.27017
G1 X110.288 Y52.074 E21.38450
G1 X109.758 Y51.999 E21.40104
G1 X109.758 Y47.320 E21.54581
G1 X111.012 Y47.499 E21.58500
G1 X114.796 Y48.159 E21.70384
G1 X118.557 Y48.938 E21.82267
G1 X122.291 Y49.834 E21.94151
G1 X125.996 Y50.848 E22.06034
G1 X129.667 Y51.977 E22.17917
G1 X133.300 Y53.221 E22.29801
G1 X136.893 Y54.579 E22.41684
G1 X140.441 Y56.049 E22.53568
G1 X143.942 Y57.629 E22.65451
G1 X147.391 Y59.319 E22.77335
G1 X150.785 Y61.116 E22.89218
G1 X154.121 Y63.019 E23.01102
G1 X157.396 Y65.025 E23.12985
G1 X160.606 Y67.134 E23.24868
G1 X163.748 Y69.342 E23.36752
G1 X166.819 Y71.648 E23.48635
G1 X169.816 Y74.050 E23.60519
G1 X172.737 Y76.544 E23.72402
G1 X175.578 Y79.129 E23.84286
G1 X178.336 Y81.802 E23.96169
G1 X181.008 Y84.560 E24.08053
G1 X183.593 Y87.400 E24.19936
G1 X186.087 Y90.321 E24.31820
G1 X188.489 Y93.318 E24.43703
G1 X190.795 Y96.389 E24.55586
G1 X193.003 Y99.532 E24.67470
G1 X195.112 Y102.742 E24.79353
G1 X197.119 Y106.016 E24.91237
G1 X199.021 Y109.352 E25.03120
G1 X200.819 Y112.747 E25.15004
G1 X202.509 Y116.196 E25.26888
G1 X204.089 Y119.696 E25.38771
G1 X205.558 Y123.244 E25.50654
G1 X206.537 Y125.835 E25.59222
G1 X206.537 Y149.620 E26.32817
G1 X202.237 Y149.620 E26.46122
G1 X202.237 Y127.559 E27.14380
G1 X201.251 Y124.950 E27.23011
G1 X199.837 Y121.536 E27.34445
G1 X198.316 Y118.168 E27.45879
G1 X196.691 Y114.850 E27.57312
G1 X194.962 Y111.584 E27.68745
G1 X193.132 Y108.375 E27.80177
G1 X191.200 Y105.224 E27.91611
G1 X189.172 Y102.136 E28.03044
G1 X187.047 Y99.112 E28.14477
G1 X184.828 Y96.157 E28.25910
G1 X182.518 Y93.274 E28.37343
G1 X180.118 Y90.464 E28.48776
G1 X177.631 Y87.731 E28.60210
G1 X175.060 Y85.077 E28.71643
G1 X172.406 Y82.506 E28.83076
G1 X169.673 Y80.019 E28.94509
G1 X166.864 Y77.619 E29.05942
G1 X163.980 Y75.309 E29.17375
G1 X161.025 Y73.090 E29.28809
G1 X158.002 Y70.966 E29.40242
G1 X154.913 Y68.937 E29.51675
G1 X151.763 Y67.006 E29.63108
G1 X148.403 Y65.090 E29.75074
G1 X147.411 Y65.782 E29.78817
G1 X146.745 Y66.196 E29.81244
G1 X146.581 Y66.196 E29.81751
G1 X143.578 Y67.646 E29.92070
G1 X140.284 Y68.560 E30.02646
G1 X136.887 Y68.867 E30.13199
G1 X133.491 Y68.560 E30.23752
G1 X130.197 Y67.646 E30.34328
G1 X127.193 Y66.196 E30.44647
G1 X127.030 Y66.196 E30.45154
G1 X126.364 Y65.782 E30.47579
G1 X125.342 Y65.063 E30.51445
G1 X124.367 Y64.280 E30.55316
G1 X123.440 Y63.435 E30.59196
G1 X122.567 Y62.531 E30.63085
G1 X121.751 Y61.572 E30.66982
G1 X120.994 Y60.561 E30.70888
G1 X120.299 Y59.504 E30.74803
G1 X119.670 Y58.403 E30.78726
G1 X119.110 Y57.263 E30.82656
G1 X118.619 Y56.089 E30.86593
G1 X118.200 Y54.885 E30.90537
G1 X117.835 Y53.589 E30.94704
G1 X117.832 Y53.017 F7800.000
G1 E28.94704 F2400.00000
G92 E0
G1 X109.804 Y47.327 F7800.000
G1 E2.00000 F2400.00000
G1 F1800.000
G1 X109.804 Y31.750 E2.55224
G1 E0.55224 F2400.00000
G92 E0
G1 X206.487 Y149.620 F7800.000
G1 E2.00000 F2400.00000
G1 F1800.000
G1 X206.487 Y167.450 E2.63997
G1 X206.464 Y167.560 E2.64402
G1 F1800.000
G1 X206.419 Y167.781 E2.65314
G1 X206.087 Y167.850 E2.66682
G1 F1800.000
G1 X201.887 Y167.850 E2.81757
G1 E0.81757 F2400.00000
G92 E0
G1 X204.419 Y147.988 F7800.000
G1 E2.00000 F2400.00000
G1 F1800.000
G1 X204.906 Y147.502 E2.02132
G1 X204.906 Y146.617 E2.04877
G1 X203.869 Y147.653 E2.09423
G1 X203.869 Y146.768 E2.12168
G1 X204.906 Y145.731 E2.16713
G1 X204.906 Y144.846 E2.19459
G1 X203.869 Y145.882 E2.24004
G1 X203.869 Y144.997 E2.26750
G1 X204.906 Y143.960 E2.31295
G1 X204.906 Y143.075 E2.34040
G1 X203.869 Y144.112 E2.38586
G1 X203.869 Y143.226 E2.41331
G1 X204.906 Y142.189 E2.45877
G1 X204.906 Y141.304 E2.48622
G1 X203.869 Y142.341 E2.53168
G1 X203.869 Y141.455 E2.55913
G1 X204.906 Y140.418 E2.60459
G1 X204.906 Y139.533 E2.63204
G1 X203.869 Y140.570 E2.67750
G1 X203.869 Y139.684 E2.70495
G1 X204.906 Y138.647 E2.75040
G1 X204.906 Y137.762 E2.77786
G1 X203.869 Y138.799 E2.82331
G1 X203.869 Y137.913 E2.85077
G1 X204.906 Y136.876 E2.89622
G1 X204.906 Y135.991 E2.92368
G1 X203.869 Y137.028 E2.96913
G1 X203.869 Y136.142 E2.99658
G1 X204.906 Y135.105 E3.04204
G1 X204.906 Y134.220 E3.06949
G1 X203.869 Y135.257 E3.11495
G1 X203.869 Y134.371 E3.14240
G1 X204.906 Y133.334 E3.18786
G1 X204.906 Y132.449 E3.21531
G1 X203.869 Y133.486 E3.26077
G1 X203.869 Y132.600 E3.28822
G1 X204.906 Y131.563 E3.33368
G1 X204.906 Y130.678 E3.36113
G1 X203.869 Y131.715 E3.40658
G1 X203.869 Y130.829 E3.43404
G1 X204.906 Y129.793 E3.47949
G1 X204.906 Y128.907 E3.50695
G1 X203.869 Y129.944 E3.55240
G1 X203.869 Y129.058 E3.57986
G1 X204.906 Y128.022 E3.62531
G1 X204.906 Y127.136 E3.65276
G1 X203.869 Y128.173 E3.69822
G1 X203.869 Y127.460 E3.72031
G1 X203.822 Y127.335 E3.72447
G1 X204.906 Y126.251 E3.77201
G1 X204.906 Y125.934 E3.78182
G1 X204.750 Y125.521 E3.79550
G1 X203.579 Y126.692 E3.84684
G1 X203.336 Y126.049 E3.86814
G1 X204.507 Y124.878 E3.91948
G1 X204.264 Y124.236 E3.94078
G1 X203.093 Y125.407 E3.99211
G1 X202.850 Y124.764 E4.01341
G1 X204.019 Y123.596 E4.06464
G1 X203.759 Y122.970 E4.08565
G1 X202.598 Y124.131 E4.13658
G1 X202.338 Y123.505 E4.15759
G1 X203.500 Y122.343 E4.20852
G1 X203.241 Y121.717 E4.22953
G1 X202.079 Y122.879 E4.28046
G1 X201.820 Y122.253 E4.30147
G1 X202.981 Y121.091 E4.35240
G1 X202.722 Y120.465 E4.37342
G1 X201.560 Y121.627 E4.42435
G1 X201.300 Y121.001 E4.44534
G1 X202.453 Y119.848 E4.49591
G1 X202.178 Y119.238 E4.51666
G1 X201.025 Y120.391 E4.56723
G1 X200.749 Y119.781 E4.58798
G1 X201.903 Y118.628 E4.63855
G1 X201.627 Y118.018 E4.65931
G1 X200.474 Y119.171 E4.70988
G1 X200.198 Y118.561 E4.73063
G1 X201.352 Y117.408 E4.78121
G1 X201.076 Y116.798 E4.80196
G1 X199.923 Y117.951 E4.85255
G1 X199.640 Y117.348 E4.87319
G1 X200.786 Y116.202 E4.92345
G1 X200.495 Y115.608 E4.94396
G1 X199.349 Y116.754 E4.99422
G1 X199.058 Y116.160 E5.01473
G1 X200.204 Y115.014 E5.06499
G1 X199.913 Y114.419 E5.08550
G1 X198.767 Y115.565 E5.13575
G1 X198.475 Y114.971 E5.15627
G1 X199.622 Y113.825 E5.20652
G1 X199.327 Y113.234 E5.22699
G1 X198.184 Y114.377 E5.27710
G1 X197.881 Y113.794 E5.29745
G1 X199.021 Y112.655 E5.34741
G1 X198.714 Y112.076 E5.36771
G1 X197.575 Y113.215 E5.41766
G1 X197.268 Y112.636 E5.43797
G1 X198.407 Y111.497 E5.48792
G1 X198.101 Y110.918 E5.50823
G1 X196.962 Y112.057 E5.55817
G1 X196.655 Y111.478 E5.57848
G1 X197.794 Y110.339 E5.62842
G1 X197.481 Y109.767 E5.64865
G1 X196.348 Y110.900 E5.69833
G1 X196.026 Y110.336 E5.71846
G1 X197.160 Y109.203 E5.76814
G1 X196.838 Y108.639 E5.78827
G1 X195.705 Y109.772 E5.83795
G1 X195.383 Y109.208 E5.85807
G1 X196.516 Y108.075 E5.90775
G1 X196.195 Y107.511 E5.92788
G1 X195.062 Y108.644 E5.97756
