; generated by Slic3r 1.3.1-dev (Build adea0d9) on 2020-02-19 at 13:24:07

; external perimeters extrusion width = 0.44mm (2.86mm^3/s)
; perimeters extrusion width = 0.56mm (4.14mm^3/s)
; infill extrusion width = 0.50mm (3.66mm^3/s)
; solid infill extrusion width = 0.56mm (3.10mm^3/s)
; top infill extrusion width = 0.56mm (3.10mm^3/s)

M107
G92 E0
;D3D:START:START
T0
M104 S215 T0

G21
G90
M107
T0
G28
G29
M109 T0 S215 T0
G0 F3000
M107
T0
G92 E0
G0 X0 Y149 Z0.1 F3600
G1 Y49 E6.5 F1200
G0 Z1
G92 E0
; Filament gcode

G21 ; set units to millimeters
G90 ; use absolute coordinates
M82 ; use absolute distances for extrusion
G92 E0
G1 Z0.300 F7800.000
G1 E-2.00000 F2400.00000
G92 E0
G1 X49.916 Y79.550 F7800.000
G1 E2.00000 F2400.00000
G1 F1800.000
G1 X50.581 Y79.368 E2.02285
G1 X51.271 Y79.390 E2.04570
G1 X51.922 Y79.615 E2.06853
G1 X52.477 Y80.023 E2.09136
G1 X52.885 Y80.578 E2.11419
G1 X53.110 Y81.229 E2.13702
G1 X53.132 Y81.919 E2.15987
G1 X52.950 Y82.584 E2.18272
G1 X52.582 Y83.167 E2.20557
G1 X52.059 Y83.618 E2.22844
G1 X51.428 Y83.896 E2.25129
G1 X50.743 Y83.977 E2.27414
G1 X50.065 Y83.853 E2.29698
G1 X49.455 Y83.532 E2.31981
G1 X48.968 Y83.045 E2.34263
G1 X48.647 Y82.435 E2.36547
G1 X48.523 Y81.757 E2.38831
G1 X48.604 Y81.072 E2.41115
G1 X48.882 Y80.441 E2.43401
G1 X49.333 Y79.918 E2.45687
G1 X49.865 Y79.582 E2.47774
G1 X50.024 Y79.795 F7800.000
G1 F1800.000
G1 X50.613 Y79.635 E2.49795
G1 X51.222 Y79.654 E2.51814
G1 X51.797 Y79.852 E2.53830
G1 X52.287 Y80.213 E2.55845
G1 X52.648 Y80.703 E2.57860
G1 X52.846 Y81.278 E2.59876
G1 X52.865 Y81.887 E2.61896
G1 X52.705 Y82.476 E2.63917
G1 X52.379 Y82.992 E2.65940
G1 X51.916 Y83.391 E2.67963
G1 X51.357 Y83.637 E2.69986
G1 X50.752 Y83.709 E2.72006
G1 X50.153 Y83.599 E2.74023
G1 X49.614 Y83.316 E2.76039
G1 X49.184 Y82.886 E2.78053
G1 X48.901 Y82.347 E2.80069
G1 X48.791 Y81.748 E2.82087
G1 X48.863 Y81.143 E2.84107
G1 X49.109 Y80.584 E2.86129
G1 X49.508 Y80.121 E2.88153
G1 X49.974 Y79.827 E2.89977
G1 X50.133 Y80.041 F7800.000
G1 F1800.000
G1 X50.644 Y79.901 E2.91734
G1 X51.173 Y79.918 E2.93488
G1 X51.672 Y80.090 E2.95237
G1 X52.097 Y80.403 E2.96984
G1 X52.410 Y80.828 E2.98731
G1 X52.582 Y81.327 E3.00480
G1 X52.599 Y81.856 E3.02234
G1 X52.459 Y82.367 E3.03991
G1 X52.175 Y82.817 E3.05751
G1 X51.772 Y83.164 E3.07513
G1 X51.287 Y83.378 E3.09272
G1 X50.760 Y83.440 E3.11027
G1 X50.240 Y83.345 E3.12778
G1 X49.773 Y83.099 E3.14526
G1 X49.401 Y82.727 E3.16273
G1 X49.155 Y82.259 E3.18021
G1 X49.060 Y81.740 E3.19772
G1 X49.122 Y81.213 E3.21527
G1 X49.336 Y80.728 E3.23286
G1 X49.683 Y80.325 E3.25048
G1 X50.082 Y80.073 E3.26609
G1 E1.26609 F2400.00000
G92 E0
G1 X37.596 Y68.921 F7800.000
G1 E2.00000 F2400.00000
G1 F1800.000
G1 X39.928 Y67.834 E2.08523
G1 X43.178 Y66.963 E2.19668
G1 X46.529 Y66.670 E2.30815
G1 X49.881 Y66.963 E2.41961
G1 X53.131 Y67.834 E2.53107
G1 X56.180 Y69.256 E2.64253
G1 X58.936 Y71.185 E2.75399
G1 X61.315 Y73.564 E2.86545
G1 X63.244 Y76.320 E2.97691
G1 X64.666 Y79.369 E3.08838
G1 X65.537 Y82.619 E3.19984
G1 X65.830 Y85.971 E3.31130
G1 X65.537 Y89.322 E3.42276
G1 X64.666 Y92.572 E3.53422
G1 X63.579 Y94.904 E3.61944
G1 X66.573 Y97.008 E3.74069
G1 X69.653 Y99.031 E3.86276
G1 X72.795 Y100.956 E3.98483
G1 X75.995 Y102.782 E4.10691
G1 X79.252 Y104.506 E4.22897
G1 X82.560 Y106.127 E4.35104
G1 X82.983 Y106.318 E4.36641
G1 X82.983 Y110.257 E4.49693
G1 X81.032 Y109.376 E4.56787
G1 X77.622 Y107.705 E4.69368
G1 X74.266 Y105.928 E4.81949
G1 X70.967 Y104.047 E4.94529
G1 X67.729 Y102.063 E5.07110
G1 X64.555 Y99.978 E5.19691
G1 X61.448 Y97.794 E5.32271
G1 X58.412 Y95.514 E5.44852
G1 X55.448 Y93.140 E5.57433
G1 X52.560 Y90.674 E5.70013
G1 X49.752 Y88.118 E5.82594
G1 X47.025 Y85.475 E5.95174
G1 X44.382 Y82.748 E6.07755
G1 X41.826 Y79.940 E6.20335
G1 X39.360 Y77.052 E6.32916
G1 X36.986 Y74.088 E6.45497
G1 X34.706 Y71.052 E6.58077
G1 X32.522 Y67.945 E6.70658
G1 X30.437 Y64.771 E6.83239
G1 X28.453 Y61.533 E6.95820
G1 X27.995 Y60.730 E6.98883
G1 X26.572 Y58.234 E7.08400
G1 X24.795 Y54.878 E7.20981
G1 X23.124 Y51.468 E7.33561
G1 X21.561 Y48.007 E7.46143
G1 X20.108 Y44.499 E7.58723
G1 X18.766 Y40.947 E7.71303
G1 X18.196 Y39.282 E7.77132
G1 X18.196 Y18.976 E8.44405
G1 X21.804 Y18.976 E8.56356
G1 X21.804 Y38.736 E9.21819
G1 X22.145 Y39.731 E9.25303
G1 X23.447 Y43.177 E9.37509
G1 X24.856 Y46.581 E9.49715
G1 X26.374 Y49.941 E9.61927
G1 X28.195 Y53.628 E9.75553
G1 X29.718 Y56.505 E9.86336
G1 X31.544 Y59.705 E9.98543
G1 X33.469 Y62.847 E10.10750
G1 X35.492 Y65.927 E10.22957
G1 X37.562 Y68.872 E10.34883
G1 X37.686 Y68.586 F7800.000
G1 F1800.000
G1 X39.837 Y67.583 E10.42745
G1 X43.131 Y66.700 E10.54045
G1 X46.529 Y66.403 E10.65346
G1 X49.927 Y66.700 E10.76646
G1 X53.222 Y67.583 E10.87946
G1 X56.313 Y69.025 E10.99246
G1 X59.107 Y70.981 E11.10546
G1 X61.519 Y73.393 E11.21846
G1 X63.475 Y76.187 E11.33146
G1 X64.917 Y79.278 E11.44446
G1 X65.800 Y82.573 E11.55746
G1 X66.097 Y85.971 E11.67046
G1 X65.800 Y89.369 E11.78347
G1 X64.917 Y92.663 E11.89647
G1 X63.914 Y94.814 E11.97509
G1 X66.723 Y96.788 E12.08883
G1 X69.795 Y98.807 E12.21062
G1 X72.930 Y100.728 E12.33241
G1 X76.123 Y102.549 E12.45421
G1 X79.372 Y104.269 E12.57600
G1 X82.674 Y105.886 E12.69779
G1 X83.249 Y106.146 E12.71871
G1 X83.249 Y110.669 E12.86854
G1 X80.919 Y109.616 E12.95325
G1 X77.501 Y107.942 E13.07933
G1 X74.138 Y106.161 E13.20542
G1 X70.832 Y104.275 E13.33150
G1 X67.587 Y102.287 E13.45758
G1 X64.406 Y100.197 E13.58367
G1 X61.292 Y98.009 E13.70975
G1 X58.249 Y95.724 E13.83583
G1 X55.279 Y93.344 E13.96192
G1 X52.385 Y90.873 E14.08800
G1 X49.570 Y88.311 E14.21408
G1 X46.837 Y85.663 E14.34016
G1 X44.188 Y82.930 E14.46624
G1 X41.627 Y80.115 E14.59233
G1 X39.156 Y77.221 E14.71841
G1 X36.776 Y74.251 E14.84449
G1 X34.491 Y71.208 E14.97058
G1 X32.303 Y68.094 E15.09666
G1 X30.213 Y64.913 E15.22275
G1 X28.225 Y61.668 E15.34883
G1 X27.764 Y60.861 E15.37960
G1 X26.339 Y58.362 E15.47491
G1 X24.558 Y54.999 E15.60099
G1 X22.884 Y51.581 E15.72707
G1 X21.317 Y48.113 E15.85316
G1 X19.861 Y44.597 E15.97924
G1 X18.516 Y41.037 E16.10532
G1 X17.931 Y39.326 E16.16521
G1 X17.931 Y18.711 E16.84820
G1 X22.069 Y18.711 E16.98532
G1 X22.069 Y38.692 E17.64728
G1 X22.395 Y39.641 E17.68051
G1 X23.694 Y43.079 E17.80230
G1 X25.100 Y46.476 E17.92409
G1 X26.614 Y49.827 E18.04592
G1 X28.431 Y53.507 E18.18189
G1 X29.951 Y56.377 E18.28946
G1 X31.772 Y59.570 E18.41126
G1 X33.693 Y62.705 E18.53305
G1 X35.712 Y65.777 E18.65485
G1 X37.651 Y68.537 E18.76660
G1 X37.775 Y68.251 F7800.000
G1 F1800.000
G1 X39.745 Y67.333 E18.83862
G1 X43.085 Y66.438 E18.95316
G1 X46.529 Y66.136 E19.06770
G1 X49.973 Y66.438 E19.18224
G1 X53.313 Y67.333 E19.29678
G1 X56.446 Y68.794 E19.41132
G1 X59.278 Y70.777 E19.52587
G1 X61.723 Y73.222 E19.64041
G1 X63.706 Y76.054 E19.75495
G1 X65.167 Y79.187 E19.86949
G1 X66.062 Y82.527 E19.98403
G1 X66.364 Y85.971 E20.09857
G1 X66.062 Y89.415 E20.21311
G1 X65.167 Y92.755 E20.32765
G1 X64.249 Y94.725 E20.39967
G1 X66.872 Y96.569 E20.50590
G1 X69.938 Y98.582 E20.62742
G1 X73.065 Y100.499 E20.74894
G1 X76.251 Y102.316 E20.87046
G1 X79.493 Y104.032 E20.99197
G1 X82.787 Y105.646 E21.11348
G1 X83.515 Y105.975 E21.13995
G1 X83.515 Y149.835 E22.59302
G1 X83.038 Y149.835 E22.60880
G1 X83.038 Y110.865 E23.89986
G1 X80.805 Y109.856 E23.98103
G1 X77.380 Y108.178 E24.10739
G1 X74.010 Y106.394 E24.23375
G1 X70.697 Y104.504 E24.36011
G1 X67.444 Y102.511 E24.48646
G1 X64.257 Y100.417 E24.61283
G1 X61.136 Y98.224 E24.73918
G1 X58.086 Y95.934 E24.86554
G1 X55.109 Y93.549 E24.99190
G1 X52.209 Y91.072 E25.11826
G1 X49.388 Y88.505 E25.24462
G1 X46.649 Y85.851 E25.37098
G1 X43.995 Y83.112 E25.49734
G1 X41.428 Y80.291 E25.62370
G1 X38.951 Y77.391 E25.75006
G1 X36.566 Y74.414 E25.87642
G1 X34.276 Y71.364 E26.00278
G1 X32.083 Y68.243 E26.12913
G1 X29.989 Y65.056 E26.25550
G1 X27.996 Y61.803 E26.38186
G1 X26.106 Y58.490 E26.50821
G1 X24.322 Y55.120 E26.63457
G1 X22.644 Y51.695 E26.76093
G1 X21.074 Y48.218 E26.88730
G1 X19.614 Y44.695 E27.01365
G1 X18.266 Y41.127 E27.14001
G1 X17.665 Y39.371 E27.20150
G1 X17.665 Y0.165 E28.50037
G1 X22.335 Y0.165 E28.65508
G1 X22.335 Y0.635 E28.67065
G1 X18.135 Y0.635 E28.80980
G1 X18.135 Y18.445 E29.39983
G1 X22.335 Y18.445 E29.53898
G1 X22.335 Y38.647 E30.20828
G1 X22.645 Y39.551 E30.23990
G1 X23.941 Y42.982 E30.36141
G1 X25.344 Y46.370 E30.48293
G1 X26.854 Y49.714 E30.60446
G1 X28.668 Y53.386 E30.74017
G1 X30.184 Y56.249 E30.84747
G1 X32.001 Y59.435 E30.96899
G1 X33.918 Y62.562 E31.09051
G1 X35.931 Y65.628 E31.21203
G1 X37.741 Y68.202 E31.31627
G1 E29.31627 F2400.00000
G92 E0
G1 X45.407 Y83.634 F7800.000
G1 E2.00000 F2400.00000
G1 F1800.000
G1 X45.592 Y83.825 E2.00881
G1 X48.439 Y80.978 E2.14226
G1 X48.388 Y81.405 E2.15649
G1 X45.777 Y84.016 E2.27891
G1 X45.962 Y84.207 E2.28772
G1 X48.381 Y81.788 E2.40112
G1 X48.439 Y82.105 E2.41183
G1 X46.147 Y84.398 E2.51929
G1 X46.332 Y84.588 E2.52810
G1 X48.498 Y82.422 E2.62967
G1 X48.628 Y82.669 E2.63889
G1 X46.517 Y84.779 E2.73785
G1 X46.702 Y84.970 E2.74666
G1 X48.757 Y82.915 E2.84301
G1 X48.855 Y83.101 E2.84997
G1 X48.901 Y83.147 E2.85213
G1 X46.887 Y85.161 E2.94654
G1 X47.072 Y85.352 E2.95536
G1 X49.089 Y83.335 E3.04991
G1 X49.277 Y83.523 E3.05872
G1 X47.262 Y85.538 E3.15318
G1 X47.452 Y85.723 E3.16200
G1 X49.485 Y83.691 E3.25729
G1 X49.732 Y83.820 E3.26651
G1 X47.643 Y85.908 E3.36441
G1 X47.834 Y86.093 E3.37322
G1 X49.978 Y83.949 E3.47373
G1 X50.081 Y84.003 E3.47758
G1 X50.266 Y84.037 E3.48382
G1 X48.025 Y86.278 E3.58888
G1 X48.216 Y86.463 E3.59769
G1 X50.584 Y84.096 E3.70868
G1 X50.838 Y84.142 E3.71726
G1 X50.923 Y84.132 E3.72009
G1 X48.407 Y86.648 E3.83803
G1 X48.598 Y86.833 E3.84685
G1 X51.349 Y84.082 E3.97583
G1 X51.602 Y84.052 E3.98428
G1 X51.875 Y83.931 E3.99417
G1 X48.789 Y87.018 E4.13888
G1 E2.13888 F2400.00000
G92 E0
G1 X82.614 Y109.949 F7800.000
G1 E2.00000 F2400.00000
G1 F1800.000
G1 X82.821 Y109.742 E2.00969
G1 X82.821 Y109.366 E2.02215
G1 X82.356 Y109.832 E2.04398
G1 X82.097 Y109.715 E2.05340
G1 X82.821 Y108.991 E2.08737
G1 X82.821 Y108.615 E2.09983
G1 X81.838 Y109.598 E2.14593
G1 X81.579 Y109.481 E2.15535
G1 X82.821 Y108.239 E2.21360
G1 X82.821 Y107.863 E2.22606
G1 X81.320 Y109.364 E2.29644
G1 X81.061 Y109.247 E2.30586
G1 X82.821 Y107.487 E2.38838
G1 X82.821 Y107.111 E2.40084
G1 X80.808 Y109.124 E2.49521
G1 X80.556 Y109.001 E2.50453
G1 X82.821 Y106.735 E2.61073
G1 X82.821 Y106.386 E2.62231
G1 X82.803 Y106.378 E2.62297
G1 X80.304 Y108.877 E2.74015
G1 X80.051 Y108.753 E2.74946
G1 X82.544 Y106.261 E2.86633
G1 X82.292 Y106.137 E2.87565
G1 X79.799 Y108.630 E2.99252
G1 X79.547 Y108.506 E3.00183
G1 X82.040 Y106.013 E3.11870
G1 X81.787 Y105.890 E3.12801
G1 X79.294 Y108.383 E3.24488
G1 X79.042 Y108.259 E3.25420
G1 X81.535 Y105.766 E3.37107
G1 X81.283 Y105.643 E3.38038
G1 X78.790 Y108.136 E3.49725
G1 X78.538 Y108.012 E3.50656
G1 X81.030 Y105.519 E3.62343
G1 X80.778 Y105.395 E3.63274
G1 X78.285 Y107.888 E3.74961
G1 X78.033 Y107.765 E3.75893
G1 X80.526 Y105.272 E3.87580
G1 X80.274 Y105.148 E3.88511
G1 X77.781 Y107.641 E4.00198
G1 X77.531 Y107.515 E4.01125
G1 X80.021 Y105.025 E4.12799
G1 X79.769 Y104.901 E4.13730
G1 X77.286 Y107.385 E4.25373
G1 X77.040 Y107.254 E4.26295
G1 X79.517 Y104.777 E4.37907
G1 X79.265 Y104.654 E4.38838
G1 X76.794 Y107.124 E4.50420
G1 X76.548 Y106.994 E4.51342
G1 X79.018 Y104.525 E4.62920
G1 X78.772 Y104.394 E4.63842
G1 X76.303 Y106.864 E4.75420
G1 X76.057 Y106.734 E4.76341
G1 X78.526 Y104.264 E4.87919
G1 X78.281 Y104.134 E4.88841
G1 X75.811 Y106.604 E5.00418
G1 X75.565 Y106.474 E5.01340
G1 X78.035 Y104.004 E5.12918
G1 X77.789 Y103.874 E5.13840
G1 X75.320 Y106.344 E5.25417
G1 X75.074 Y106.213 E5.26339
G1 X77.543 Y103.744 E5.37916
G1 X77.297 Y103.614 E5.38838
G1 X74.828 Y106.083 E5.50415
G1 X74.582 Y105.953 E5.51336
G1 X77.052 Y103.484 E5.62913
G1 X76.806 Y103.354 E5.63835
G1 X74.337 Y105.823 E5.75412
G1 X74.096 Y105.688 E5.76327
G1 X76.560 Y103.224 E5.87879
G1 X76.314 Y103.094 E5.88801
G1 X73.857 Y105.551 E6.00323
G1 X73.617 Y105.415 E6.01237
G1 X76.069 Y102.963 E6.12729
G1 X75.827 Y102.829 E6.13645
G1 X73.378 Y105.278 E6.25125
G1 X73.139 Y105.142 E6.26039
G1 X75.587 Y102.693 E6.37519
G1 X75.348 Y102.556 E6.38432
G1 X72.899 Y105.005 E6.49912
G1 X72.660 Y104.869 E6.50826
G1 X75.109 Y102.420 E6.62306
G1 X74.869 Y102.283 E6.63219
G1 X72.421 Y104.732 E6.74700
G1 X72.181 Y104.596 E6.75613
G1 X74.630 Y102.147 E6.87094
G1 X74.391 Y102.010 E6.88007
G1 X71.942 Y104.459 E6.99487
G1 X71.702 Y104.323 E7.00401
G1 X74.151 Y101.874 E7.11881
G1 X73.912 Y101.737 E7.12795
G1 X71.463 Y104.186 E7.24275
G1 X71.224 Y104.050 E7.25189
G1 X73.673 Y101.601 E7.36669
G1 X73.433 Y101.464 E7.37583
G1 X70.985 Y103.913 E7.49061
G1 X70.752 Y103.770 E7.49968
G1 X73.194 Y101.328 E7.61417
G1 X72.955 Y101.191 E7.62330
G1 X70.519 Y103.627 E7.73750
G1 X70.286 Y103.484 E7.74657
G1 X72.717 Y101.053 E7.86053
G1 X72.483 Y100.910 E7.86959
G1 X70.053 Y103.341 E7.98356
G1 X69.819 Y103.199 E7.99262
G1 X72.250 Y100.768 E8.10659
G1 X72.017 Y100.625 E8.11565
G1 X69.586 Y103.056 E8.22961
G1 X69.353 Y102.913 E8.23868
G1 X71.784 Y100.482 E8.35264
G1 X71.551 Y100.339 E8.36170
G1 X69.120 Y102.770 E8.47567
G1 X68.887 Y102.627 E8.48474
G1 X71.318 Y100.196 E8.59871
G1 X71.085 Y100.054 E8.60777
G1 X68.654 Y102.485 E8.72174
G1 X68.421 Y102.342 E8.73080
G1 X70.852 Y99.911 E8.84477
G1 X70.619 Y99.768 E8.85383
G1 X68.188 Y102.199 E8.96780
G1 X67.955 Y102.056 E8.97686
G1 X70.386 Y99.625 E9.09084
G1 X70.153 Y99.482 E9.09990
G1 X67.723 Y101.912 E9.21381
G1 X67.496 Y101.763 E9.22281
G1 X69.920 Y99.339 E9.33644
G1 X69.687 Y99.197 E9.34550
G1 X67.269 Y101.614 E9.45883
G1 X67.043 Y101.465 E9.46783
G1 X69.458 Y99.050 E9.58107
G1 X69.231 Y98.901 E9.59007
G1 X66.816 Y101.316 E9.70331
G1 X66.589 Y101.167 E9.71230
G1 X69.004 Y98.752 E9.82554
G1 X68.777 Y98.603 E9.83454
G1 X66.362 Y101.018 E9.94778
G1 X66.135 Y100.869 E9.95678
G1 X68.551 Y98.454 E10.07001
G1 X68.324 Y98.305 E10.07901
G1 X65.908 Y100.720 E10.19225
G1 X65.682 Y100.571 E10.20124
G1 X68.097 Y98.155 E10.31448
G1 X67.870 Y98.006 E10.32347
G1 X65.455 Y100.422 E10.43671
G1 X65.228 Y100.273 E10.44571
G1 X67.643 Y97.857 E10.55894
G1 X67.416 Y97.708 E10.56794
G1 X65.001 Y100.124 E10.68117
G1 X64.774 Y99.975 E10.69016
G1 X67.189 Y97.559 E10.80340
G1 X66.963 Y97.410 E10.81239
G1 X64.549 Y99.824 E10.92555
G1 X64.328 Y99.669 E10.93450
G1 X66.736 Y97.261 E11.04737
G1 X66.509 Y97.112 E11.05637
G1 X64.107 Y99.514 E11.16898
G1 X63.887 Y99.359 E11.17792
G1 X66.289 Y96.957 E11.29053
G1 X66.068 Y96.802 E11.29948
G1 X63.666 Y99.204 E11.41209
G1 X63.445 Y99.049 E11.42103
G1 X65.847 Y96.646 E11.53365
G1 X65.626 Y96.491 E11.54259
G1 X63.224 Y98.893 E11.65521
G1 X63.004 Y98.738 E11.66415
G1 X65.406 Y96.336 E11.77677
G1 X65.185 Y96.181 E11.78571
G1 X62.783 Y98.583 E11.89833
G1 X62.562 Y98.428 E11.90727
G1 X64.964 Y96.026 E12.01989
G1 X64.744 Y95.871 E12.02883
G1 X62.341 Y98.273 E12.14145
G1 X62.121 Y98.118 E12.15039
G1 X64.523 Y95.716 E12.26301
G1 X64.302 Y95.561 E12.27195
G1 X61.900 Y97.963 E12.38457
G1 X61.679 Y97.808 E12.39352
G1 X64.081 Y95.405 E12.50613
G1 X63.861 Y95.250 E12.51508
G1 X61.459 Y97.651 E12.62764
G1 X61.245 Y97.490 E12.63654
G1 X63.640 Y95.095 E12.74882
G1 X63.419 Y94.940 E12.75777
G1 X61.030 Y97.329 E12.86977
G1 X60.815 Y97.168 E12.87866
G1 X63.570 Y94.413 E13.00779
G1 X63.898 Y93.709 E13.03355
G1 X60.601 Y97.007 E13.18814
G1 X60.386 Y96.845 E13.19704
G1 X64.227 Y93.005 E13.37709
G1 X64.534 Y92.321 E13.40193
G1 X60.171 Y96.684 E13.60646
G1 X59.957 Y96.523 E13.61536
G1 X64.672 Y91.808 E13.83640
G1 X64.809 Y91.295 E13.85402
G1 X59.742 Y96.362 E14.09158
G1 X59.527 Y96.201 E14.10048
G1 X64.947 Y90.781 E14.35455
G1 X65.084 Y90.268 E14.37217
G1 X59.313 Y96.039 E14.64276
G1 X59.098 Y95.878 E14.65166
G1 X65.222 Y89.754 E14.93876
G1 X65.360 Y89.241 E14.95638
G1 X58.883 Y95.717 E15.25999
G1 X58.669 Y95.556 E15.26889
G1 X65.409 Y88.815 E15.58489
G1 X65.445 Y88.403 E15.59860
G1 X58.454 Y95.394 E15.92633
G1 X58.246 Y95.227 E15.93519
G1 X65.481 Y87.992 E16.27439
G1 X65.517 Y87.580 E16.28810
G1 X58.037 Y95.060 E16.63877
G1 X57.828 Y94.893 E16.64764
G1 X65.553 Y87.168 E17.00978
