; generated by Slic3r 1.3.1-dev (Build adea0d9) on 2020-02-19 at 17:02:35

; external perimeters extrusion width = 0.44mm (2.86mm^3/s)
; perimeters extrusion width = 0.56mm (4.14mm^3/s)
; infill extrusion width = 0.50mm (3.66mm^3/s)
; solid infill extrusion width = 0.56mm (3.10mm^3/s)
; top infill extrusion width = 0.56mm (3.10mm^3/s)

M107
G92 E0
;D3D:START:START
T0
M104 S215 T0

G21
G90
M107
T0
G28
G29
M109 T0 S215 T0
G0 F3000
M107
T0
G92 E0
G0 X0 Y149 Z0.1 F3600
G1 Y49 E6.5 F1200
G0 Z1
G92 E0
; Filament gcode

G21 ; set units to millimeters
G90 ; use absolute coordinates
M82 ; use absolute distances for extrusion
G92 E0
G1 Z0.300 F7800.000
G1 E-2.00000 F2400.00000
G92 E0
G1 X-4.993 Y73.904 F7800.000
G1 E2.00000 F2400.00000
G1 F1800.000
G1 X-5.015 Y73.771 E2.00446
G1 X-2.238 Y72.807 E2.10185
G1 X2.898 Y71.084 E2.28132
G1 X5.894 Y70.108 E2.38574
G1 X9.162 Y69.067 E2.49935
G1 X12.689 Y67.971 E2.62172
G1 X16.460 Y66.829 E2.75225
G1 X20.460 Y65.652 E2.89038
G1 X24.673 Y64.448 E3.03555
G1 X29.085 Y63.228 E3.18718
G1 X33.675 Y62.002 E3.34457
G1 X38.426 Y60.780 E3.50712
G1 X43.319 Y59.571 E3.67410
G1 X48.337 Y58.387 E3.84491
G1 X53.456 Y57.238 E4.01872
G1 X58.660 Y56.135 E4.19494
G1 X63.924 Y55.091 E4.37275
G1 X69.230 Y54.115 E4.55148
G1 X74.556 Y53.222 E4.73039
G1 X79.881 Y52.421 E4.90879
G1 X85.184 Y51.726 E5.08596
G1 X90.443 Y51.147 E5.26123
G1 X95.637 Y50.696 E5.43397
G1 X100.746 Y50.384 E5.60355
G1 X105.750 Y50.219 E5.76941
G1 X110.628 Y50.208 E5.93102
G1 X115.361 Y50.360 E6.08790
G1 X119.930 Y50.677 E6.23963
G1 X124.317 Y51.163 E6.38585
G1 X128.504 Y51.818 E6.52625
G1 X132.474 Y52.640 E6.66058
G1 X136.212 Y53.627 E6.78865
G1 X139.702 Y54.771 E6.91035
G1 X142.931 Y56.066 E7.02561
G1 X145.886 Y57.503 E7.13445
G1 X148.554 Y59.070 E7.23697
G1 X150.926 Y60.757 E7.33340
G1 X152.993 Y62.550 E7.42407
G1 X154.749 Y64.439 E7.50949
G1 X156.187 Y66.411 E7.59037
G1 X157.307 Y68.458 E7.66767
G1 X158.108 Y70.573 E7.74259
G1 X158.588 Y72.754 E7.81657
G1 X158.749 Y75.000 E7.89116
G1 X158.588 Y77.246 E7.96576
G1 X158.108 Y79.427 E8.03974
G1 X157.307 Y81.542 E8.11466
G1 X156.187 Y83.589 E8.19196
G1 X154.749 Y85.561 E8.27285
G1 X152.993 Y87.450 E8.35826
G1 X150.926 Y89.243 E8.44893
G1 X148.554 Y90.930 E8.54535
G1 X145.886 Y92.497 E8.64788
G1 X142.931 Y93.934 E8.75672
G1 X139.702 Y95.229 E8.87199
G1 X136.210 Y96.374 E8.99373
G1 X132.474 Y97.360 E9.12175
G1 X128.504 Y98.182 E9.25608
G1 X124.317 Y98.837 E9.39648
G1 X119.930 Y99.323 E9.54270
G1 X115.355 Y99.641 E9.69463
G1 X110.628 Y99.792 E9.85132
G1 X105.750 Y99.781 E10.01292
G1 X100.743 Y99.616 E10.17890
G1 X95.637 Y99.303 E10.34836
G1 X90.443 Y98.853 E10.52109
G1 X85.184 Y98.274 E10.69637
G1 X79.881 Y97.579 E10.87354
G1 X74.556 Y96.778 E11.05193
G1 X69.226 Y95.884 E11.23098
G1 X63.924 Y94.909 E11.40958
G1 X58.659 Y93.864 E11.58743
G1 X53.449 Y92.760 E11.76387
G1 X48.337 Y91.613 E11.93743
G1 X43.315 Y90.428 E12.10838
G1 X38.419 Y89.218 E12.27545
G1 X33.675 Y87.998 E12.43775
G1 X29.074 Y86.769 E12.59552
G1 X24.673 Y85.551 E12.74680
G1 X20.450 Y84.345 E12.89228
G1 X16.452 Y83.168 E13.03036
G1 X12.686 Y82.028 E13.16074
G1 X9.154 Y80.931 E13.28324
G1 X5.888 Y79.890 E13.39683
G1 X2.895 Y78.915 E13.50109
G1 X-2.243 Y77.191 E13.68064
G1 X-5.015 Y76.229 E13.77786
G1 X-4.993 Y76.096 E13.78233
G1 X5.205 Y76.096 E14.12016
G1 X11.043 Y77.958 E14.32317
G1 X15.598 Y79.348 E14.48095
G1 X18.258 Y80.137 E14.57289
G1 X24.283 Y81.859 E14.78047
G1 X27.628 Y82.780 E14.89541
G1 X31.174 Y83.730 E15.01705
G1 X34.912 Y84.700 E15.14497
G1 X38.823 Y85.684 E15.27858
G1 X42.893 Y86.673 E15.41736
G1 X47.107 Y87.659 E15.56074
G1 X51.448 Y88.634 E15.70811
G1 X55.898 Y89.589 E15.85892
G1 X60.440 Y90.516 E16.01250
G1 X65.057 Y91.406 E16.16826
G1 X69.730 Y92.249 E16.32557
G1 X74.441 Y93.037 E16.48381
G1 X79.172 Y93.759 E16.64235
G1 X83.903 Y94.406 E16.80056
G1 X88.617 Y94.968 E16.95785
G1 X93.296 Y95.436 E17.11361
G1 X97.920 Y95.801 E17.26729
G1 X102.472 Y96.054 E17.41833
G1 X106.934 Y96.188 E17.56622
G1 X111.289 Y96.196 E17.71050
G1 X115.520 Y96.073 E17.85071
G1 X119.609 Y95.815 E17.98647
G1 X123.542 Y95.419 E18.11744
G1 X127.304 Y94.884 E18.24330
G1 X130.878 Y94.210 E18.36381
G1 X134.253 Y93.401 E18.47878
G1 X137.414 Y92.458 E18.58807
G1 X140.350 Y91.387 E18.69160
G1 X143.049 Y90.193 E18.78938
G1 X145.502 Y88.883 E18.88150
G1 X147.698 Y87.463 E18.96813
G1 X149.628 Y85.940 E19.04960
G1 X151.285 Y84.319 E19.12637
G1 X152.658 Y82.608 E19.19907
G1 X153.739 Y80.811 E19.26854
G1 X154.518 Y78.938 E19.33576
G1 X154.988 Y76.997 E19.40191
G1 X155.145 Y75.000 E19.46827
G1 X154.988 Y73.003 E19.53464
G1 X154.518 Y71.062 E19.60079
G1 X153.739 Y69.189 E19.66801
G1 X152.658 Y67.392 E19.73747
G1 X151.285 Y65.681 E19.81018
G1 X149.628 Y64.060 E19.88695
G1 X147.698 Y62.537 E19.96842
G1 X145.502 Y61.117 E20.05505
G1 X143.049 Y59.807 E20.14717
G1 X140.350 Y58.613 E20.24495
G1 X137.414 Y57.542 E20.34848
G1 X134.253 Y56.599 E20.45777
G1 X130.878 Y55.790 E20.57274
G1 X127.304 Y55.116 E20.69325
G1 X123.542 Y54.581 E20.81911
G1 X119.609 Y54.185 E20.95007
G1 X115.520 Y53.927 E21.08584
G1 X111.289 Y53.804 E21.22605
G1 X106.934 Y53.812 E21.37033
G1 X102.472 Y53.946 E21.51822
G1 X97.920 Y54.199 E21.66926
G1 X93.296 Y54.564 E21.82294
G1 X88.617 Y55.032 E21.97870
G1 X83.903 Y55.594 E22.13599
G1 X79.172 Y56.241 E22.29420
G1 X74.441 Y56.963 E22.45274
G1 X69.730 Y57.751 E22.61098
G1 X65.057 Y58.594 E22.76829
G1 X60.440 Y59.484 E22.92405
G1 X55.898 Y60.411 E23.07763
G1 X51.448 Y61.366 E23.22844
G1 X47.107 Y62.341 E23.37581
G1 X42.893 Y63.327 E23.51919
G1 X38.823 Y64.316 E23.65797
G1 X34.912 Y65.300 E23.79158
G1 X31.174 Y66.270 E23.91950
G1 X27.626 Y67.220 E24.04118
G1 X21.157 Y69.024 E24.26370
G1 X18.256 Y69.864 E24.36373
G1 X13.191 Y71.380 E24.53890
G1 X9.165 Y72.630 E24.67856
G1 X5.204 Y73.904 E24.81641
G1 X-4.933 Y73.904 E25.15224
G1 X-6.561 Y74.169 F7800.000
G1 F1800.000
G1 X-6.584 Y74.037 E25.15668
G1 X-6.250 Y73.918 E25.16843
G1 X-2.324 Y72.556 E25.30611
G1 X2.814 Y70.831 E25.48566
G1 X5.813 Y69.855 E25.59015
G1 X9.082 Y68.813 E25.70382
G1 X12.611 Y67.717 E25.82625
G1 X16.384 Y66.575 E25.95684
G1 X20.386 Y65.397 E26.09505
G1 X24.602 Y64.193 E26.24029
G1 X29.015 Y62.972 E26.39199
G1 X33.607 Y61.745 E26.54947
G1 X38.361 Y60.522 E26.71210
G1 X43.257 Y59.313 E26.87917
G1 X48.278 Y58.128 E27.05006
G1 X53.400 Y56.978 E27.22398
G1 X58.607 Y55.875 E27.40031
G1 X63.875 Y54.830 E27.57824
G1 X69.184 Y53.854 E27.75710
G1 X74.515 Y52.959 E27.93616
G1 X79.844 Y52.158 E28.11471
G1 X85.152 Y51.462 E28.29205
G1 X90.417 Y50.883 E28.46752
G1 X95.617 Y50.432 E28.64047
G1 X100.734 Y50.119 E28.81029
G1 X105.745 Y49.953 E28.97641
G1 X110.632 Y49.943 E29.13830
G1 X115.374 Y50.094 E29.29549
G1 X119.954 Y50.412 E29.44757
G1 X124.352 Y50.899 E29.59417
G1 X128.551 Y51.556 E29.73498
G1 X132.535 Y52.382 E29.86976
G1 X136.287 Y53.372 E29.99833
G1 X139.793 Y54.521 E30.12057
G1 X143.039 Y55.823 E30.23643
G1 X146.011 Y57.268 E30.34593
G1 X148.699 Y58.847 E30.44918
G1 X151.091 Y60.548 E30.54642
G1 X153.178 Y62.359 E30.63798
G1 X154.954 Y64.270 E30.72440
G1 X156.412 Y66.269 E30.80637
G1 X157.549 Y68.347 E30.88486
G1 X158.363 Y70.497 E30.96103
G1 X158.852 Y72.716 E31.03628
G1 X159.015 Y75.000 E31.11215
G1 X158.852 Y77.284 E31.18802
G1 X158.363 Y79.503 E31.26328
G1 X157.549 Y81.653 E31.33945
G1 X156.412 Y83.731 E31.41793
G1 X154.954 Y85.730 E31.49991
G1 X153.178 Y87.641 E31.58632
G1 X151.091 Y89.452 E31.67789
G1 X148.699 Y91.153 E31.77512
G1 X146.011 Y92.732 E31.87837
G1 X143.039 Y94.177 E31.98788
G1 X139.793 Y95.479 E32.10374
G1 X136.286 Y96.629 E32.22603
G1 X132.535 Y97.618 E32.35454
G1 X128.551 Y98.444 E32.48932
G1 X124.352 Y99.101 E32.63013
G1 X119.954 Y99.588 E32.77673
G1 X115.368 Y99.906 E32.92901
G1 X110.632 Y100.057 E33.08601
G1 X105.745 Y100.047 E33.24790
G1 X100.730 Y99.881 E33.41413
G1 X95.617 Y99.568 E33.58383
G1 X90.417 Y99.117 E33.75678
G1 X85.152 Y98.538 E33.93225
G1 X79.844 Y97.842 E34.10960
G1 X74.515 Y97.041 E34.28815
G1 X69.180 Y96.146 E34.46734
G1 X63.875 Y95.170 E34.64606
G1 X58.605 Y94.125 E34.82404
G1 X53.392 Y93.020 E35.00058
G1 X48.278 Y91.872 E35.17424
G1 X43.253 Y90.686 E35.34528
G1 X38.354 Y89.476 E35.51244
G1 X33.607 Y88.255 E35.67483
G1 X29.004 Y87.025 E35.83268
G1 X24.601 Y85.807 E35.98404
G1 X20.376 Y84.601 E36.12959
G1 X16.376 Y83.423 E36.26774
G1 X12.608 Y82.282 E36.39818
G1 X9.075 Y81.184 E36.52074
G1 X5.806 Y80.143 E36.63439
G1 X2.812 Y79.168 E36.73873
G1 X-2.329 Y77.442 E36.91836
G1 X-6.253 Y76.081 E37.05599
G1 X-6.584 Y75.963 E37.06762
G1 X-6.561 Y75.831 E37.07207
G1 X5.246 Y75.831 E37.46324
G1 X11.122 Y77.705 E37.66756
G1 X15.674 Y79.094 E37.82524
G1 X18.333 Y79.881 E37.91710
G1 X24.355 Y81.604 E38.12461
G1 X27.697 Y82.524 E38.23946
G1 X31.242 Y83.473 E38.36104
G1 X34.977 Y84.443 E38.48889
G1 X38.887 Y85.426 E38.62244
G1 X42.955 Y86.415 E38.76115
G1 X47.167 Y87.400 E38.90444
G1 X51.505 Y88.375 E39.05174
G1 X55.953 Y89.329 E39.20246
G1 X60.492 Y90.256 E39.35594
G1 X65.106 Y91.145 E39.51161
G1 X69.776 Y91.987 E39.66881
G1 X74.483 Y92.774 E39.82693
G1 X79.210 Y93.496 E39.98533
G1 X83.937 Y94.142 E40.14340
G1 X88.646 Y94.704 E40.30053
G1 X93.319 Y95.171 E40.45612
G1 X97.938 Y95.536 E40.60960
G1 X102.483 Y95.788 E40.76043
G1 X106.938 Y95.922 E40.90809
G1 X111.285 Y95.931 E41.05210
G1 X115.507 Y95.808 E41.19203
G1 X119.588 Y95.550 E41.32748
G1 X123.510 Y95.155 E41.45809
G1 X127.260 Y94.622 E41.58358
G1 X130.823 Y93.951 E41.70368
G1 X134.184 Y93.144 E41.81819
G1 X137.331 Y92.206 E41.92698
G1 X140.251 Y91.140 E42.02995
G1 X142.933 Y89.954 E42.12711
G1 X145.367 Y88.654 E42.21853
G1 X147.543 Y87.247 E42.30439
G1 X149.453 Y85.740 E42.38498
G1 X151.087 Y84.141 E42.46075
G1 X152.439 Y82.455 E42.53233
G1 X153.501 Y80.691 E42.60055
G1 X154.265 Y78.855 E42.66643
G1 X154.725 Y76.955 E42.73119
G1 X154.879 Y75.000 E42.79616
G1 X154.725 Y73.045 E42.86113
G1 X154.265 Y71.145 E42.92589
G1 X153.501 Y69.309 E42.99177
G1 X152.439 Y67.545 E43.05999
G1 X151.087 Y65.859 E43.13157
G1 X149.453 Y64.260 E43.20734
G1 X147.543 Y62.753 E43.28793
G1 X145.367 Y61.346 E43.37378
G1 X142.933 Y60.046 E43.46520
G1 X140.251 Y58.860 E43.56236
G1 X137.331 Y57.794 E43.66534
G1 X134.184 Y56.856 E43.77413
G1 X130.823 Y56.049 E43.88864
G1 X127.260 Y55.378 E44.00874
G1 X123.510 Y54.845 E44.13422
G1 X119.588 Y54.450 E44.26484
G1 X115.507 Y54.192 E44.40029
G1 X111.285 Y54.069 E44.54022
G1 X106.938 Y54.078 E44.68423
G1 X102.483 Y54.212 E44.83189
G1 X97.938 Y54.464 E44.98272
G1 X93.319 Y54.829 E45.13620
G1 X88.646 Y55.296 E45.29179
G1 X83.937 Y55.858 E45.44891
G1 X79.210 Y56.504 E45.60698
G1 X74.483 Y57.226 E45.76539
G1 X69.776 Y58.013 E45.92351
G1 X65.106 Y58.855 E46.08071
G1 X60.492 Y59.744 E46.23638
G1 X55.953 Y60.671 E46.38986
G1 X51.505 Y61.625 E46.54058
G1 X47.167 Y62.600 E46.68787
G1 X42.955 Y63.585 E46.83117
G1 X38.887 Y64.574 E46.96988
G1 X34.977 Y65.557 E47.10343
G1 X31.242 Y66.527 E47.23128
G1 X27.696 Y67.476 E47.35288
G1 X21.229 Y69.279 E47.57531
G1 X18.331 Y70.119 E47.67526
G1 X13.268 Y71.634 E47.85034
G1 X9.245 Y72.884 E47.98991
G1 X5.245 Y74.169 E48.12910
G1 X-6.501 Y74.169 E48.51826
G1 X-8.098 Y74.435 F7800.000
G1 F1800.000
G1 X-8.121 Y74.303 E48.52271
G1 X-6.338 Y73.668 E48.58541
G1 X-2.410 Y72.305 E48.72317
G1 X2.731 Y70.579 E48.90281
G1 X5.732 Y69.602 E49.00737
G1 X9.003 Y68.560 E49.12110
G1 X12.533 Y67.463 E49.24359
G1 X16.308 Y66.320 E49.37425
G1 X20.312 Y65.142 E49.51252
G1 X24.530 Y63.937 E49.65784
G1 X28.945 Y62.716 E49.80962
G1 X33.540 Y61.488 E49.96717
G1 X38.296 Y60.265 E50.12988
G1 X43.195 Y59.055 E50.29704
G1 X48.218 Y57.869 E50.46803
G1 X53.343 Y56.719 E50.64205
G1 X58.553 Y55.615 E50.81849
G1 X63.825 Y54.569 E50.99654
G1 X69.138 Y53.592 E51.17552
G1 X74.473 Y52.697 E51.35473
G1 X79.807 Y51.895 E51.53343
G1 X85.120 Y51.198 E51.71095
G1 X90.391 Y50.619 E51.88662
G1 X95.598 Y50.167 E52.05978
G1 X100.721 Y49.853 E52.22983
G1 X105.740 Y49.687 E52.39621
G1 X110.636 Y49.677 E52.55839
G1 X115.388 Y49.829 E52.71590
G1 X119.978 Y50.148 E52.86832
G1 X124.387 Y50.636 E53.01530
G1 X128.598 Y51.295 E53.15652
G1 X132.596 Y52.123 E53.29176
G1 X136.362 Y53.117 E53.42082
G1 X139.884 Y54.272 E53.54360
G1 X143.147 Y55.580 E53.66006
G1 X146.137 Y57.034 E53.77021
G1 X148.843 Y58.624 E53.87420
G1 X151.255 Y60.339 E53.97224
G1 X153.363 Y62.168 E54.06470
G1 X155.159 Y64.100 E54.15211
G1 X156.637 Y66.126 E54.23518
G1 X157.791 Y68.236 E54.31485
G1 X158.618 Y70.421 E54.39227
G1 X159.116 Y72.677 E54.46881
G1 X159.282 Y75.000 E54.54595
G1 X159.116 Y77.323 E54.62309
G1 X158.618 Y79.579 E54.69962
G1 X157.791 Y81.764 E54.77704
G1 X156.637 Y83.874 E54.85671
G1 X155.159 Y85.900 E54.93978
G1 X153.363 Y87.832 E55.02719
G1 X151.255 Y89.661 E55.11965
G1 X148.843 Y91.376 E55.21769
G1 X146.137 Y92.966 E55.32168
G1 X143.147 Y94.420 E55.43184
G1 X139.884 Y95.728 E55.54830
G1 X136.361 Y96.884 E55.67113
G1 X132.596 Y97.877 E55.80014
G1 X128.598 Y98.705 E55.93537
G1 X124.387 Y99.364 E56.07659
G1 X119.978 Y99.852 E56.22357
G1 X115.382 Y100.171 E56.37619
G1 X110.636 Y100.323 E56.53351
G1 X105.740 Y100.313 E56.69568
G1 X100.718 Y100.147 E56.86218
G1 X95.598 Y99.833 E57.03211
G1 X90.391 Y99.381 E57.20528
G1 X85.120 Y98.802 E57.38094
G1 X79.807 Y98.105 E57.55846
G1 X74.473 Y97.303 E57.73716
G1 X69.134 Y96.407 E57.91650
G1 X63.825 Y95.431 E58.09536
G1 X58.552 Y94.385 E58.27345
G1 X53.336 Y93.279 E58.45010
G1 X48.218 Y92.131 E58.62386
G1 X43.190 Y90.944 E58.79500
G1 X38.289 Y89.734 E58.96225
G1 X33.540 Y88.512 E59.12472
G1 X28.935 Y87.281 E59.28264
G1 X24.529 Y86.063 E59.43408
G1 X20.302 Y84.856 E59.57970
G1 X16.300 Y83.677 E59.71792
G1 X12.530 Y82.536 E59.84843
G1 X8.995 Y81.438 E59.97106
G1 X2.728 Y79.420 E60.18917
G1 X-2.414 Y77.694 E60.36888
G1 X-6.342 Y76.331 E60.50660
G1 X-8.121 Y75.697 E60.56918
G1 X-8.098 Y75.565 E60.57363
G1 X5.287 Y75.565 E61.01709
G1 X11.201 Y77.451 E61.22272
G1 X15.750 Y78.840 E61.38031
G1 X18.407 Y79.626 E61.47210
G1 X24.426 Y81.348 E61.67952
G1 X27.767 Y82.268 E61.79430
G1 X31.310 Y83.216 E61.91581
G1 X35.043 Y84.186 E62.04360
G1 X38.950 Y85.168 E62.17707
G1 X43.017 Y86.156 E62.31571
G1 X47.226 Y87.141 E62.45893
G1 X51.562 Y88.115 E62.60614
G1 X56.007 Y89.069 E62.75678
G1 X60.544 Y89.995 E62.91017
G1 X65.155 Y90.884 E63.06573
G1 X69.821 Y91.726 E63.22283
G1 X74.525 Y92.512 E63.38083
G1 X79.248 Y93.233 E63.53910
G1 X83.971 Y93.879 E63.69703
G1 X88.675 Y94.440 E63.85399
G1 X93.343 Y94.907 E64.00941
G1 X97.956 Y95.271 E64.16269
G1 X102.495 Y95.523 E64.31331
G1 X106.943 Y95.657 E64.46073
G1 X111.282 Y95.665 E64.60448
G1 X115.495 Y95.543 E64.74413
G1 X119.566 Y95.285 E64.87926
G1 X123.478 Y94.891 E65.00953
G1 X127.217 Y94.360 E65.13464
G1 X130.767 Y93.691 E65.25432
G1 X134.115 Y92.887 E65.36838
G1 X137.247 Y91.953 E65.47666
G1 X140.151 Y90.894 E65.57908
G1 X142.817 Y89.716 E65.67562
G1 X145.232 Y88.425 E65.76635
G1 X147.388 Y87.031 E65.85142
G1 X149.277 Y85.541 E65.93113
G1 X150.890 Y83.962 E66.00590
G1 X152.221 Y82.303 E66.07636
G1 X153.263 Y80.571 E66.14334
G1 X154.012 Y78.772 E66.20788
G1 X154.462 Y76.913 E66.27124
G1 X154.613 Y75.000 E66.33482
G1 X154.462 Y73.087 E66.39840
G1 X154.012 Y71.228 E66.46177
G1 X153.263 Y69.429 E66.52631
G1 X152.221 Y67.697 E66.59329
G1 X150.890 Y66.038 E66.66375
G1 X149.277 Y64.459 E66.73852
G1 X147.388 Y62.969 E66.81822
G1 X145.232 Y61.575 E66.90329
G1 X142.817 Y60.284 E66.99402
G1 X140.151 Y59.106 E67.09056
G1 X137.247 Y58.047 E67.19298
G1 X134.115 Y57.113 E67.30127
G1 X130.767 Y56.309 E67.41532
G1 X127.217 Y55.640 E67.53501
G1 X123.478 Y55.109 E67.66011
G1 X119.566 Y54.715 E67.79039
G1 X115.495 Y54.457 E67.92552
G1 X111.282 Y54.335 E68.06516
G1 X106.943 Y54.343 E68.20892
G1 X102.495 Y54.477 E68.35634
G1 X97.956 Y54.729 E68.50695
G1 X93.343 Y55.093 E68.66024
G1 X88.675 Y55.560 E68.81565
G1 X83.971 Y56.121 E68.97262
G1 X79.248 Y56.767 E69.13054
G1 X74.525 Y57.488 E69.28882
G1 X69.821 Y58.274 E69.44682
G1 X65.155 Y59.116 E69.60391
G1 X60.544 Y60.005 E69.75948
G1 X56.007 Y60.931 E69.91287
G1 X51.562 Y61.885 E70.06350
G1 X47.226 Y62.859 E70.21072
G1 X43.017 Y63.844 E70.35394
G1 X38.950 Y64.832 E70.49257
G1 X35.043 Y65.814 E70.62605
