; generated by Slic3r 1.3.1-dev (Build adea0d9) on 2020-02-19 at 18:03:41

; external perimeters extrusion width = 0.44mm (2.86mm^3/s)
; perimeters extrusion width = 0.56mm (4.14mm^3/s)
; infill extrusion width = 0.50mm (3.66mm^3/s)
; solid infill extrusion width = 0.56mm (3.10mm^3/s)
; top infill extrusion width = 0.56mm (3.10mm^3/s)

M107
G92 E0
;D3D:START:START
T0
M104 S215 T0

G21
G90
M107
T0
G28
G29
M109 T0 S215 T0
G0 F3000
M107
T0
G92 E0
G0 X0 Y149 Z0.1 F3600
G1 Y49 E6.5 F1200
G0 Z1
G92 E0
; Filament gcode

G21 ; set units to millimeters
G90 ; use absolute coordinates
M82 ; use absolute distances for extrusion
G92 E0
G1 Z0.300 F7800.000
G1 E-2.00000 F2400.00000
G92 E0
G1 X105.696 Y88.304 F7800.000
G1 E2.00000 F2400.00000
G1 F1800.000
G1 X86.049 Y88.304 E2.65090
G1 X86.049 Y78.946 E2.96091
G1 X94.589 Y78.946 E3.24382
G1 X134.327 Y85.702 E4.57923
G1 X139.304 Y86.578 E4.74664
G1 X139.304 Y103.422 E5.30467
G1 X134.327 Y104.298 E5.47209
G1 X94.588 Y111.054 E6.80749
G1 X86.049 Y111.054 E7.09040
G1 X86.049 Y101.696 E7.40041
G1 X105.696 Y101.696 E8.05132
G1 X105.696 Y88.364 E8.49301
G1 X105.431 Y88.569 F7800.000
G1 F1800.000
G1 X85.783 Y88.569 E9.14392
G1 X85.783 Y78.681 E9.47153
G1 X94.611 Y78.681 E9.76398
G1 X134.372 Y85.441 E11.10014
G1 X138.319 Y86.124 E11.23285
G1 X139.569 Y86.358 E11.27500
G1 X139.569 Y103.642 E11.84764
G1 X138.319 Y103.876 E11.88979
G1 X134.372 Y104.559 E12.02249
G1 X94.611 Y111.319 E13.35866
G1 X85.783 Y111.319 E13.65111
G1 X85.783 Y101.431 E13.97872
G1 X105.431 Y101.431 E14.62962
G1 X105.431 Y88.629 E15.05372
G1 X105.165 Y88.835 F7800.000
G1 F1800.000
G1 X85.518 Y88.835 E15.70462
G1 X85.518 Y78.415 E16.04983
G1 X94.633 Y78.415 E16.35182
G1 X134.417 Y85.179 E17.68874
G1 X138.366 Y85.862 E17.82152
G1 X139.835 Y86.137 E17.87104
G1 X139.835 Y103.863 E18.45829
G1 X138.366 Y104.138 E18.50781
G1 X134.417 Y104.821 E18.64058
G1 X94.633 Y111.585 E19.97750
G1 X85.518 Y111.585 E20.27950
G1 X85.518 Y101.165 E20.62471
G1 X105.165 Y101.165 E21.27561
G1 X105.165 Y88.895 E21.68211
G1 X105.297 Y88.457 F7800.000
G1 E19.68211 F2400.00000
G92 E0
G1 X105.859 Y101.784 F7800.000
G1 E2.00000 F2400.00000
G1 F1800.000
G1 X123.614 Y84.028 E2.83273
G1 X123.292 Y83.974 E2.84354
G1 X105.859 Y101.408 E3.66120
G1 X105.859 Y101.032 E3.67367
G1 X122.971 Y83.919 E4.47626
G1 X122.650 Y83.864 E4.48707
G1 X105.859 Y100.656 E5.27458
G1 X105.859 Y100.280 E5.28705
G1 X122.328 Y83.810 E6.05950
G1 X122.007 Y83.755 E6.07031
G1 X105.859 Y99.903 E6.82768
G1 X105.859 Y99.527 E6.84015
G1 X121.686 Y83.700 E7.58245
G1 X121.364 Y83.646 E7.59326
G1 X105.859 Y99.151 E8.32048
G1 X105.859 Y98.775 E8.33296
G1 X121.043 Y83.591 E9.04511
G1 X120.722 Y83.536 E9.05592
G1 X105.859 Y98.399 E9.75300
G1 X105.859 Y98.023 E9.76547
G1 X120.400 Y83.482 E10.44749
G1 X120.079 Y83.427 E10.45830
G1 X105.859 Y97.647 E11.12523
G1 X105.859 Y97.271 E11.13771
G1 X119.757 Y83.372 E11.78957
G1 X119.436 Y83.318 E11.80038
G1 X105.859 Y96.895 E12.43718
G1 X105.859 Y96.519 E12.44965
G1 X119.115 Y83.263 E13.07137
G1 X118.793 Y83.208 E13.08218
G1 X105.859 Y96.143 E13.68883
G1 X105.859 Y95.767 E13.70130
G1 X118.472 Y83.154 E14.29288
G1 X118.151 Y83.099 E14.30369
G1 X105.859 Y95.391 E14.88020
G1 X105.859 Y95.015 E14.89267
G1 X117.829 Y83.044 E15.45410
G1 X117.508 Y82.990 E15.46492
G1 X105.859 Y94.639 E16.01128
G1 X105.859 Y94.263 E16.02375
G1 X117.187 Y82.935 E16.55504
G1 X116.865 Y82.880 E16.56585
G1 X105.859 Y93.887 E17.08207
G1 X105.859 Y93.511 E17.09454
G1 X116.544 Y82.826 E17.59569
G1 X116.222 Y82.771 E17.60650
G1 X105.859 Y93.135 E18.09257
G1 X105.859 Y92.759 E18.10504
G1 X115.901 Y82.716 E18.57605
G1 X115.580 Y82.662 E18.58686
G1 X105.859 Y92.383 E19.04279
G1 X105.859 Y92.007 E19.05526
G1 X115.258 Y82.607 E19.49612
G1 X114.937 Y82.552 E19.50693
G1 X105.859 Y91.631 E19.93271
G1 X105.859 Y91.255 E19.94518
G1 X114.616 Y82.498 E20.35590
G1 X114.294 Y82.443 E20.36671
G1 X105.859 Y90.879 E20.76235
G1 X105.859 Y90.503 E20.77482
G1 X113.973 Y82.388 E21.15539
G1 X113.652 Y82.334 E21.16620
G1 X105.859 Y90.127 E21.53170
G1 X105.859 Y89.751 E21.54417
G1 X113.330 Y82.279 E21.89460
G1 X113.009 Y82.224 E21.90541
G1 X105.859 Y89.375 E22.24077
G1 X105.859 Y88.999 E22.25324
G1 X112.687 Y82.170 E22.57352
G1 X112.366 Y82.115 E22.58433
G1 X105.859 Y88.623 E22.88954
G1 X105.859 Y88.247 E22.90201
G1 X112.045 Y82.060 E23.19215
G1 X111.723 Y82.006 E23.20296
G1 X105.588 Y88.141 E23.49074
G1 X105.212 Y88.141 E23.50321
G1 X111.402 Y81.951 E23.79354
G1 X111.081 Y81.896 E23.80436
G1 X104.836 Y88.141 E24.09726
G1 X104.459 Y88.141 E24.10973
G1 X110.759 Y81.842 E24.40520
G1 X110.438 Y81.787 E24.41601
G1 X104.083 Y88.141 E24.71404
G1 X103.707 Y88.141 E24.72651
G1 X110.117 Y81.732 E25.02710
G1 X109.795 Y81.678 E25.03792
G1 X103.331 Y88.141 E25.34107
G1 X102.955 Y88.141 E25.35355
G1 X109.474 Y81.623 E25.65927
G1 X109.153 Y81.568 E25.67008
G1 X102.579 Y88.141 E25.97837
G1 X102.203 Y88.141 E25.99084
G1 X108.831 Y81.514 E26.30169
G1 X108.510 Y81.459 E26.31250
G1 X101.827 Y88.141 E26.62592
G1 X101.451 Y88.141 E26.63839
G1 X108.188 Y81.404 E26.95437
G1 X107.867 Y81.350 E26.96518
G1 X101.075 Y88.141 E27.28372
G1 X100.699 Y88.141 E27.29619
G1 X107.546 Y81.295 E27.61730
G1 X107.224 Y81.240 E27.62811
G1 X100.323 Y88.141 E27.95178
G1 X99.947 Y88.141 E27.96425
G1 X106.903 Y81.186 E28.29049
G1 X106.582 Y81.131 E28.30130
G1 X99.571 Y88.141 E28.63010
G1 X99.195 Y88.141 E28.64257
G1 X106.260 Y81.076 E28.97394
G1 X105.939 Y81.022 E28.98475
G1 X98.819 Y88.141 E29.31868
G1 X98.443 Y88.141 E29.33115
G1 X105.618 Y80.967 E29.66764
G1 X105.296 Y80.912 E29.67845
G1 X98.067 Y88.141 E30.01751
G1 X97.691 Y88.141 E30.02998
G1 X104.975 Y80.858 E30.37160
G1 X104.653 Y80.803 E30.38241
G1 X97.315 Y88.141 E30.72659
G1 X96.939 Y88.141 E30.73906
G1 X104.332 Y80.748 E31.08580
G1 X104.010 Y80.694 E31.09662
G1 X96.563 Y88.141 E31.44591
G1 X96.187 Y88.141 E31.45838
G1 X103.689 Y80.639 E31.81024
G1 X103.368 Y80.585 E31.82106
G1 X95.811 Y88.141 E32.17547
G1 X95.435 Y88.141 E32.18794
G1 X103.046 Y80.530 E32.54492
G1 X102.725 Y80.476 E32.55573
G1 X95.059 Y88.141 E32.91526
G1 X94.683 Y88.141 E32.92773
G1 X102.403 Y80.421 E33.28983
G1 X102.082 Y80.367 E33.30064
G1 X94.307 Y88.141 E33.66529
G1 X93.931 Y88.141 E33.67776
G1 X101.760 Y80.312 E34.04497
G1 X101.439 Y80.257 E34.05578
G1 X93.555 Y88.141 E34.42555
G1 X93.179 Y88.141 E34.43802
G1 X101.117 Y80.203 E34.81035
G1 X100.796 Y80.148 E34.82116
G1 X92.803 Y88.141 E35.19605
G1 X92.426 Y88.141 E35.20852
G1 X100.474 Y80.094 E35.58597
G1 X100.153 Y80.039 E35.59678
G1 X92.050 Y88.141 E35.97678
G1 X91.674 Y88.141 E35.98926
G1 X99.831 Y79.985 E36.37182
G1 X99.510 Y79.930 E36.38263
G1 X91.298 Y88.141 E36.76775
G1 X90.922 Y88.141 E36.78022
G1 X99.188 Y79.875 E37.16791
G1 X98.867 Y79.821 E37.17872
G1 X90.546 Y88.141 E37.56896
G1 X90.170 Y88.141 E37.58143
G1 X98.545 Y79.766 E37.97423
G1 X98.224 Y79.712 E37.98504
G1 X89.794 Y88.141 E38.38040
G1 X89.418 Y88.141 E38.39287
G1 X97.902 Y79.657 E38.79079
G1 X97.581 Y79.603 E38.80160
G1 X89.042 Y88.141 E39.20207
G1 X88.666 Y88.141 E39.21454
G1 X97.260 Y79.548 E39.61758
G1 X96.938 Y79.494 E39.62839
G1 X88.290 Y88.141 E40.03399
G1 X87.914 Y88.141 E40.04646
G1 X96.617 Y79.439 E40.45461
G1 X96.295 Y79.384 E40.46542
G1 X87.538 Y88.141 E40.87613
G1 X87.162 Y88.141 E40.88860
G1 X95.974 Y79.330 E41.30187
G1 X95.652 Y79.275 E41.31269
G1 X86.786 Y88.141 E41.72851
G1 X86.410 Y88.141 E41.74098
G1 X95.331 Y79.221 E42.15937
G1 X95.009 Y79.166 E42.17019
G1 X86.211 Y87.964 E42.58281
G1 X86.211 Y87.588 E42.59528
G1 X94.688 Y79.112 E42.99284
G1 X94.315 Y79.109 E43.00520
G1 X86.211 Y87.212 E43.38526
G1 X86.211 Y86.836 E43.39773
G1 X93.939 Y79.109 E43.76016
G1 X93.563 Y79.109 E43.77263
G1 X86.211 Y86.460 E44.11742
G1 X86.211 Y86.084 E44.12989
G1 X93.187 Y79.109 E44.45704
G1 X92.811 Y79.109 E44.46951
G1 X86.211 Y85.708 E44.77903
G1 X86.211 Y85.332 E44.79150
G1 X92.435 Y79.109 E45.08338
G1 X92.059 Y79.109 E45.09585
G1 X86.211 Y84.956 E45.37009
G1 X86.211 Y84.580 E45.38256
G1 X91.683 Y79.109 E45.63917
G1 X91.307 Y79.109 E45.65164
G1 X86.211 Y84.204 E45.89061
G1 X86.211 Y83.828 E45.90308
G1 X90.931 Y79.109 E46.12442
G1 X90.555 Y79.109 E46.13689
G1 X86.211 Y83.452 E46.34059
G1 X86.211 Y83.076 E46.35306
G1 X90.178 Y79.109 E46.53912
G1 X89.802 Y79.109 E46.55160
G1 X86.211 Y82.700 E46.72002
G1 X86.211 Y82.324 E46.73249
G1 X89.426 Y79.109 E46.88328
G1 X89.050 Y79.109 E46.89576
G1 X86.211 Y81.948 E47.02891
G1 X86.211 Y81.572 E47.04138
G1 X88.674 Y79.109 E47.15690
G1 X88.298 Y79.109 E47.16937
G1 X86.211 Y81.196 E47.26725
G1 X86.211 Y80.820 E47.27973
G1 X87.922 Y79.109 E47.35997
G1 X87.546 Y79.109 E47.37244
G1 X86.211 Y80.444 E47.43505
G1 X86.211 Y80.067 E47.44752
G1 X87.170 Y79.109 E47.49250
G1 X86.794 Y79.109 E47.50497
G1 X86.211 Y79.691 E47.53231
G1 X86.211 Y79.315 E47.54478
G1 X86.418 Y79.109 E47.55448
G1 E45.55448 F2400.00000
G92 E0
G1 X86.399 Y102.065 F7800.000
G1 E2.00000 F2400.00000
G1 F1800.000
G1 X86.211 Y102.065 E2.00624
G1 X86.211 Y102.253 E2.01248
G1 X86.606 Y101.859 E2.03099
G1 X86.982 Y101.859 E2.04346
G1 X86.211 Y102.629 E2.07962
G1 X86.211 Y103.005 E2.09209
G1 X87.358 Y101.859 E2.14587
G1 X87.734 Y101.859 E2.15834
G1 X86.211 Y103.381 E2.22977
G1 X86.211 Y103.757 E2.24224
G1 X88.110 Y101.859 E2.33130
G1 X88.486 Y101.859 E2.34377
G1 X86.211 Y104.133 E2.45046
G1 X86.211 Y104.509 E2.46293
G1 X88.862 Y101.859 E2.58726
G1 X89.238 Y101.859 E2.59973
G1 X86.211 Y104.886 E2.74170
G1 X86.211 Y105.262 E2.75417
G1 X89.614 Y101.859 E2.91377
G1 X89.990 Y101.859 E2.92624
G1 X86.211 Y105.638 E3.10348
G1 X86.211 Y106.014 E3.11595
G1 X90.366 Y101.859 E3.31083
G1 X90.742 Y101.859 E3.32330
G1 X86.211 Y106.390 E3.53581
G1 X86.211 Y106.766 E3.54828
G1 X91.118 Y101.859 E3.77843
G1 X91.494 Y101.859 E3.79090
G1 X86.211 Y107.142 E4.03868
G1 X86.211 Y107.518 E4.05115
G1 X91.871 Y101.859 E4.31657
G1 X92.247 Y101.859 E4.32904
G1 X86.211 Y107.894 E4.61210
G1 X86.211 Y108.270 E4.62457
G1 X92.623 Y101.859 E4.92526
G1 X92.999 Y101.859 E4.93773
G1 X86.211 Y108.646 E5.25606
G1 X86.211 Y109.022 E5.26853
G1 X93.375 Y101.859 E5.60450
G1 X93.751 Y101.859 E5.61697
G1 X86.211 Y109.398 E5.97057
G1 X86.211 Y109.774 E5.98304
G1 X94.127 Y101.859 E6.35427
G1 X94.503 Y101.859 E6.36674
G1 X86.211 Y110.150 E6.75562
G1 X86.211 Y110.526 E6.76809
G1 X94.879 Y101.859 E7.17460
G1 X95.255 Y101.859 E7.18707
G1 X86.222 Y110.891 E7.61072
G1 X86.598 Y110.891 E7.62319
G1 X95.631 Y101.859 E8.04684
G1 X96.007 Y101.859 E8.05931
G1 X86.974 Y110.891 E8.48296
G1 X87.350 Y110.891 E8.49543
G1 X96.383 Y101.859 E8.91908
G1 X96.759 Y101.859 E8.93155
G1 X87.726 Y110.891 E9.35520
G1 X88.102 Y110.891 E9.36767
G1 X97.135 Y101.859 E9.79132
G1 X97.511 Y101.859 E9.80379
G1 X88.478 Y110.891 E10.22744
G1 X88.854 Y110.891 E10.23991
G1 X97.887 Y101.859 E10.66356
G1 X98.263 Y101.859 E10.67603
G1 X89.230 Y110.891 E11.09968
G1 X89.606 Y110.891 E11.11215
G1 X98.639 Y101.859 E11.53581
G1 X99.015 Y101.859 E11.54828
G1 X89.982 Y110.891 E11.97193
G1 X90.358 Y110.891 E11.98440
G1 X99.391 Y101.859 E12.40805
G1 X99.767 Y101.859 E12.42052
G1 X90.734 Y110.891 E12.84417
G1 X91.110 Y110.891 E12.85664
G1 X100.143 Y101.859 E13.28029
G1 X100.519 Y101.859 E13.29276
G1 X91.486 Y110.891 E13.71641
G1 X91.862 Y110.891 E13.72888
G1 X100.895 Y101.859 E14.15253
G1 X101.271 Y101.859 E14.16500
G1 X92.238 Y110.891 E14.58865
G1 X92.614 Y110.891 E14.60112
G1 X101.647 Y101.859 E15.02477
G1 X102.023 Y101.859 E15.03724
G1 X92.990 Y110.891 E15.46089
G1 X93.366 Y110.891 E15.47336
G1 X102.399 Y101.859 E15.89702
G1 X102.775 Y101.859 E15.90949
G1 X93.742 Y110.891 E16.33314
G1 X94.118 Y110.891 E16.34561
G1 X103.151 Y101.859 E16.76926
G1 X103.527 Y101.859 E16.78173
G1 X94.501 Y110.885 E17.20507
G1 X94.954 Y110.808 E17.22031
G1 X103.903 Y101.859 E17.64005
G1 X104.280 Y101.859 E17.65252
G1 X95.407 Y110.731 E18.06864
G1 X95.860 Y110.654 E18.08388
G1 X104.656 Y101.859 E18.49638
G1 X105.032 Y101.859 E18.50885
G1 X96.313 Y110.577 E18.91775
G1 X96.766 Y110.500 E18.93299
G1 X105.408 Y101.859 E19.33827
G1 X105.784 Y101.859 E19.35074
G1 X97.219 Y110.423 E19.75241
G1 X97.672 Y110.346 E19.76765
G1 X123.935 Y84.083 E20.99939
G1 X124.256 Y84.138 E21.01020
G1 X98.126 Y110.269 E22.23576
G1 X98.579 Y110.192 E22.25100
G1 X124.578 Y84.192 E23.47038
G1 X124.899 Y84.247 E23.48119
G1 X99.032 Y110.115 E24.69439
G1 X99.485 Y110.038 E24.70963
G1 X125.221 Y84.302 E25.91666
G1 X125.542 Y84.356 E25.92747
G1 X99.938 Y109.961 E27.12832
G1 X100.391 Y109.884 E27.14357
G1 X125.863 Y84.411 E28.33824
G1 X126.185 Y84.466 E28.34905
G1 X100.844 Y109.807 E29.53755
G1 X101.297 Y109.730 E29.55279
G1 X126.506 Y84.520 E30.73511
G1 X126.827 Y84.575 E30.74592
G1 X101.750 Y109.653 E31.92207
G1 X102.203 Y109.575 E31.93731
G1 X127.149 Y84.630 E33.10727
G1 X127.470 Y84.684 E33.11809
G1 X102.656 Y109.498 E34.28188
G1 X103.109 Y109.421 E34.29712
G1 X127.791 Y84.739 E35.45473
G1 X128.113 Y84.794 E35.46554
G1 X103.562 Y109.344 E36.61698
G1 X104.015 Y109.267 E36.63222
G1 X128.434 Y84.849 E37.77748
G1 X128.756 Y84.903 E37.78829
G1 X104.468 Y109.190 E38.92738
G1 X104.921 Y109.113 E38.94262
G1 X129.077 Y84.958 E40.07552
G1 X129.398 Y85.013 E40.08633
G1 X105.374 Y109.036 E41.21306
G1 X105.828 Y108.959 E41.22831
G1 X129.720 Y85.067 E42.34886
G1 X130.041 Y85.122 E42.35967
G1 X106.281 Y108.882 E43.47405
G1 X106.734 Y108.805 E43.48929
G1 X130.362 Y85.177 E44.59749
G1 X130.684 Y85.231 E44.60830
G1 X107.187 Y108.728 E45.71032
G1 X107.640 Y108.651 E45.72556
G1 X131.005 Y85.286 E46.82141
G1 X131.326 Y85.341 E46.83222
G1 X108.093 Y108.574 E47.92189
G1 X108.546 Y108.497 E47.93713
G1 X131.648 Y85.395 E49.02062
G1 X131.969 Y85.450 E49.03143
G1 X108.999 Y108.420 E50.10875
G1 X109.452 Y108.343 E50.12399
G1 X132.290 Y85.505 E51.19513
G1 X132.612 Y85.559 E51.20594
G1 X109.905 Y108.266 E52.27091
G1 X110.358 Y108.189 E52.28615
G1 X132.933 Y85.614 E53.34493
G1 X133.255 Y85.669 E53.35574
G1 X110.811 Y108.112 E54.40835
G1 X111.264 Y108.035 E54.42359
G1 X133.576 Y85.723 E55.47003
G1 X133.897 Y85.778 E55.48084
G1 X111.717 Y107.958 E56.52109
G1 X112.170 Y107.881 E56.53633
G1 X134.219 Y85.833 E57.57041
G1 X134.539 Y85.888 E57.58120
G1 X112.623 Y107.804 E58.60907
G1 X113.076 Y107.727 E58.62431
G1 X134.859 Y85.944 E59.64593
G1 X135.179 Y86.001 E59.65669
G1 X113.530 Y107.650 E60.67206
G1 X113.983 Y107.573 E60.68730
G1 X135.499 Y86.057 E61.69641
G1 X135.818 Y86.113 E61.70718
G1 X114.436 Y107.496 E62.71004
G1 X114.889 Y107.419 E62.72528
G1 X136.138 Y86.169 E63.72189
G1 X136.458 Y86.226 E63.73266
G1 X115.342 Y107.342 E64.72302
G1 X115.795 Y107.265 E64.73826
G1 X136.778 Y86.282 E65.72237
G1 X137.097 Y86.338 E65.73314
G1 X116.248 Y107.188 E66.71099
G1 X116.701 Y107.111 E66.72623
G1 X137.417 Y86.394 E67.69784
G1 X137.737 Y86.451 E67.70861
G1 X117.154 Y107.034 E68.67396
G1 X117.607 Y106.957 E68.68920
G1 X138.057 Y86.507 E69.64831
G1 X138.377 Y86.563 E69.65907
G1 X118.060 Y106.880 E70.61193
G1 X118.513 Y106.802 E70.62717
G1 X138.696 Y86.619 E71.57377
G1 X139.016 Y86.676 E71.58454
G1 X118.966 Y106.725 E72.52489
G1 X119.419 Y106.648 E72.54013
G1 X139.141 Y86.926 E73.46511
G1 X139.141 Y87.302 E73.47758
G1 X119.872 Y106.571 E74.38132
G1 X120.325 Y106.494 E74.39656
G1 X139.141 Y87.678 E75.27904
G1 X139.141 Y88.054 E75.29151
G1 X120.778 Y106.417 E76.15275
G1 X121.232 Y106.340 E76.16799
G1 X139.141 Y88.430 E77.00798
G1 X139.141 Y88.806 E77.02045
G1 X121.685 Y106.263 E77.83919
G1 X122.138 Y106.186 E77.85443
G1 X139.141 Y89.182 E78.65192
G1 X139.141 Y89.558 E78.66439
G1 X122.591 Y106.109 E79.44063
G1 X123.044 Y106.032 E79.45587
G1 X139.141 Y89.934 E80.21087
G1 X139.141 Y90.311 E80.22334
G1 X123.497 Y105.955 E80.95708
G1 X123.950 Y105.878 E80.97232
G1 X139.141 Y90.687 E81.68482
G1 X139.141 Y91.063 E81.69729
G1 X124.403 Y105.801 E82.38854
G1 X124.856 Y105.724 E82.40378
G1 X139.141 Y91.439 E83.07378
G1 X139.141 Y91.815 E83.08625
G1 X125.309 Y105.647 E83.73500
G1 X125.762 Y105.570 E83.75024
G1 X139.141 Y92.191 E84.37774
G1 X139.141 Y92.567 E84.39021
G1 X126.215 Y105.493 E84.99646
G1 X126.668 Y105.416 E85.01170
G1 X139.141 Y92.943 E85.59670
G1 X139.141 Y93.319 E85.60917
