; generated by Slic3r 1.3.1-dev (Build adea0d9) on 2020-02-19 at 17:00:58

; external perimeters extrusion width = 0.44mm (2.86mm^3/s)
; perimeters extrusion width = 0.56mm (4.14mm^3/s)
; infill extrusion width = 0.50mm (3.66mm^3/s)
; solid infill extrusion width = 0.56mm (3.10mm^3/s)
; top infill extrusion width = 0.56mm (3.10mm^3/s)

M107
G92 E0
;D3D:START:START
T0
M104 S215 T0

G21
G90
M107
T0
G28
G29
M109 T0 S215 T0
G0 F3000
M107
T0
G92 E0
G0 X0 Y149 Z0.1 F3600
G1 Y49 E6.5 F1200
G0 Z1
G92 E0
; Filament gcode

G21 ; set units to millimeters
G90 ; use absolute coordinates
M82 ; use absolute distances for extrusion
G92 E0
G1 Z0.300 F7800.000
G1 E-2.00000 F2400.00000
G92 E0
G1 X87.731 Y87.700 F7800.000
G1 E2.00000 F2400.00000
G1 F1800.000
G1 X88.110 Y87.406 E2.01590
G1 X88.550 Y87.216 E2.03179
G1 X88.838 Y87.151 E2.04155
G1 X89.295 Y87.137 E2.05671
G1 X89.565 Y87.180 E2.06575
G1 X89.827 Y87.256 E2.07479
G1 X90.235 Y87.463 E2.08995
G1 X90.468 Y87.644 E2.09971
G1 X90.770 Y87.987 E2.11488
G1 X90.920 Y88.241 E2.12464
G1 X91.075 Y88.672 E2.13980
G1 X91.121 Y88.963 E2.14957
G1 X91.106 Y89.442 E2.16546
G1 X90.966 Y89.924 E2.18209
G1 X90.711 Y90.356 E2.19870
G1 X90.372 Y90.695 E2.21460
G1 X90.146 Y90.849 E2.22364
G1 X89.903 Y90.972 E2.23267
G1 X89.442 Y91.106 E2.24857
G1 X88.963 Y91.121 E2.26446
G1 X88.672 Y91.075 E2.27422
G1 X88.241 Y90.920 E2.28938
G1 X87.987 Y90.770 E2.29915
G1 X87.628 Y90.453 E2.31504
G1 X87.358 Y90.056 E2.33093
G1 X87.241 Y89.786 E2.34070
G1 X87.141 Y89.339 E2.35586
G1 X87.132 Y89.044 E2.36563
G1 X87.207 Y88.571 E2.38152
G1 X87.397 Y88.130 E2.39741
G1 X87.551 Y87.905 E2.40645
G1 X87.691 Y87.745 E2.41350
G1 X87.914 Y87.895 F7800.000
G1 F1800.000
G1 X88.246 Y87.637 E2.42745
G1 X88.633 Y87.469 E2.44139
G1 X88.872 Y87.416 E2.44950
G1 X89.279 Y87.403 E2.46299
G1 X89.507 Y87.439 E2.47065
G1 X89.729 Y87.504 E2.47830
G1 X90.092 Y87.689 E2.49179
G1 X90.285 Y87.839 E2.49990
G1 X90.554 Y88.144 E2.51339
G1 X90.679 Y88.355 E2.52150
G1 X90.817 Y88.738 E2.53499
G1 X90.855 Y88.980 E2.54310
G1 X90.842 Y89.400 E2.55704
G1 X90.720 Y89.818 E2.57145
G1 X90.499 Y90.192 E2.58584
G1 X90.202 Y90.490 E2.59980
G1 X90.010 Y90.619 E2.60745
G1 X89.805 Y90.724 E2.61510
G1 X89.400 Y90.842 E2.62905
G1 X88.980 Y90.855 E2.64299
G1 X88.738 Y90.817 E2.65110
G1 X88.355 Y90.679 E2.66459
G1 X88.144 Y90.554 E2.67270
G1 X87.828 Y90.276 E2.68665
G1 X87.592 Y89.928 E2.70059
G1 X87.495 Y89.703 E2.70870
G1 X87.406 Y89.306 E2.72219
G1 X87.398 Y89.061 E2.73030
G1 X87.464 Y88.645 E2.74424
G1 X87.631 Y88.259 E2.75819
G1 X87.874 Y87.940 E2.77148
G1 X88.096 Y88.089 F7800.000
G1 F1800.000
G1 X88.383 Y87.867 E2.78349
G1 X88.715 Y87.723 E2.79549
G1 X88.905 Y87.681 E2.80193
G1 X89.262 Y87.669 E2.81376
G1 X89.630 Y87.752 E2.82627
G1 X89.949 Y87.914 E2.83811
G1 X90.102 Y88.033 E2.84454
G1 X90.338 Y88.301 E2.85638
G1 X90.437 Y88.468 E2.86282
G1 X90.558 Y88.804 E2.87465
G1 X90.589 Y88.996 E2.88109
G1 X90.577 Y89.359 E2.89309
G1 X90.475 Y89.712 E2.90527
G1 X90.288 Y90.028 E2.91744
G1 X90.032 Y90.284 E2.92945
G1 X89.875 Y90.390 E2.93572
G1 X89.707 Y90.476 E2.94198
G1 X89.359 Y90.577 E2.95399
G1 X88.996 Y90.589 E2.96599
G1 X88.804 Y90.558 E2.97244
G1 X88.468 Y90.437 E2.98427
G1 X88.301 Y90.338 E2.99071
G1 X88.029 Y90.099 E3.00271
G1 X87.826 Y89.799 E3.01471
G1 X87.748 Y89.621 E3.02116
G1 X87.670 Y89.272 E3.03299
G1 X87.664 Y89.078 E3.03943
G1 X87.721 Y88.720 E3.05143
G1 X87.865 Y88.388 E3.06344
G1 X88.057 Y88.134 E3.07396
G1 E1.07396 F2400.00000
G92 E0
G1 X142.140 Y142.247 F7800.000
G1 E2.00000 F2400.00000
G1 F1800.000
G1 X136.250 Y136.998 E2.26138
G1 X128.074 Y129.663 E2.62527
G1 X118.532 Y121.044 E3.05128
G1 X107.873 Y111.338 E3.52886
G1 X96.371 Y100.774 E4.04624
G1 X84.326 Y89.595 E4.59067
G1 X72.050 Y78.063 E5.14869
G1 X59.865 Y66.440 E5.70655
G1 X48.094 Y54.993 E6.25051
G1 X37.047 Y43.984 E6.76722
G1 X27.012 Y33.667 E7.24401
G1 X18.247 Y24.290 E7.66927
G1 X10.969 Y16.083 E8.03265
G1 X5.358 Y9.261 E8.32530
G1 X1.552 Y4.017 E8.53997
G1 X-0.314 Y0.596 E8.66907
G1 X-0.336 Y-0.336 E8.69996
G1 X0.596 Y-0.314 E8.73085
G1 X4.017 Y1.552 E8.85995
G1 X9.261 Y5.358 E9.07461
G1 X16.084 Y10.970 E9.36728
G1 X24.290 Y18.247 E9.73065
G1 X33.667 Y27.012 E10.15590
G1 X43.984 Y37.047 E10.63270
G1 X54.993 Y48.094 E11.14941
G1 X66.440 Y59.865 E11.69337
G1 X78.063 Y72.050 E12.25123
G1 X89.595 Y84.326 E12.80925
G1 X100.774 Y96.371 E13.35368
G1 X111.338 Y107.873 E13.87106
G1 X121.044 Y118.532 E14.34864
G1 X129.663 Y128.074 E14.77464
G1 X136.998 Y136.250 E15.13853
G1 X142.247 Y142.140 E15.39992
G1 X142.183 Y142.204 E15.40292
G1 E13.40292 F2400.00000
G92 E0
G1 X145.266 Y145.372 F7800.000
G1 E2.00000 F2400.00000
G1 F1800.000
G1 X136.073 Y137.196 E2.40759
G1 X127.896 Y129.861 E2.77151
G1 X118.353 Y121.240 E3.19755
G1 X107.693 Y111.534 E3.67517
G1 X96.191 Y100.969 E4.19259
G1 X84.145 Y89.790 E4.73707
G1 X71.867 Y78.256 E5.29515
G1 X59.681 Y66.632 E5.85308
G1 X47.908 Y55.183 E6.39714
G1 X36.858 Y44.170 E6.91397
G1 X26.820 Y33.851 E7.39092
G1 X18.050 Y24.469 E7.81638
G1 X10.767 Y16.256 E8.18004
G1 X5.148 Y9.423 E8.47313
G1 X1.327 Y4.159 E8.68862
G1 X-0.578 Y0.667 E8.82042
G1 X-0.608 Y-0.608 E8.86267
G1 X0.667 Y-0.578 E8.90493
G1 X4.159 Y1.327 E9.03672
G1 X9.423 Y5.148 E9.25222
G1 X16.256 Y10.767 E9.54531
G1 X24.469 Y18.050 E9.90896
G1 X33.851 Y26.820 E10.33442
G1 X44.170 Y36.858 E10.81137
G1 X55.183 Y47.908 E11.32820
G1 X66.632 Y59.681 E11.87226
G1 X78.256 Y71.867 E12.43020
G1 X89.790 Y84.145 E12.98828
G1 X100.969 Y96.191 E13.53275
G1 X111.534 Y107.693 E14.05018
G1 X121.240 Y118.353 E14.52780
G1 X129.861 Y127.896 E14.95383
G1 X137.196 Y136.073 E15.31775
G1 X145.372 Y145.266 E15.72534
G1 X145.308 Y145.330 E15.72832
G1 E13.72832 F2400.00000
G92 E0
G1 X148.351 Y148.457 F7800.000
G1 E2.00000 F2400.00000
G1 F1800.000
G1 X142.496 Y143.276 E2.25900
G1 X135.896 Y137.394 E2.55189
G1 X127.718 Y130.058 E2.91584
G1 X118.175 Y121.437 E3.34191
G1 X107.514 Y111.730 E3.81957
G1 X96.011 Y101.164 E4.33703
G1 X83.963 Y89.984 E4.88156
G1 X71.684 Y78.449 E5.43969
G1 X59.497 Y66.823 E5.99770
G1 X47.721 Y55.372 E6.54186
G1 X36.669 Y44.357 E7.05881
G1 X26.628 Y34.034 E7.53592
G1 X17.854 Y24.648 E7.96159
G1 X10.565 Y16.429 E8.32551
G1 X4.937 Y9.586 E8.61903
G1 X1.102 Y4.301 E8.83536
G1 X-0.842 Y0.737 E8.96986
G1 X-0.881 Y-0.880 E9.02347
G1 X0.737 Y-0.842 E9.07708
G1 X4.301 Y1.102 E9.21158
G1 X9.586 Y4.937 E9.42791
G1 X16.429 Y10.565 E9.72143
G1 X24.648 Y17.854 E10.08536
G1 X34.034 Y26.628 E10.51102
G1 X44.357 Y36.669 E10.98813
G1 X55.372 Y47.721 E11.50508
G1 X66.823 Y59.497 E12.04924
G1 X78.449 Y71.684 E12.60725
G1 X89.984 Y83.963 E13.16539
G1 X101.164 Y96.011 E13.70991
G1 X111.730 Y107.514 E14.22738
G1 X121.437 Y118.175 E14.70504
G1 X130.058 Y127.718 E15.13110
G1 X137.394 Y135.896 E15.49505
G1 X143.276 Y142.496 E15.78795
G1 X148.457 Y148.351 E16.04694
G1 X148.393 Y148.414 E16.04992
G1 X148.404 Y148.404 F7800.000
G1 F1800.000
G1 X149.090 Y149.090 E16.08851
G1 F1800.000
G1 X149.776 Y149.776 E16.11499
G1 F1800.000
G1 X150.462 Y150.462 E16.12938
G1 E14.12938 F2400.00000
G92 E0
G1 X147.514 Y147.514 F7800.000
G1 E2.00000 F2400.00000
G1 F1800.000
G1 X146.914 Y146.914 E2.00247
G1 F1800.000
G1 X146.314 Y146.314 E2.01512
G1 F1800.000
G1 X145.713 Y145.713 E2.03796
G1 F1800.000
G1 X145.413 Y145.413 E2.05447
G1 X144.430 Y144.430 F7800.000
G1 F1800.000
G1 X143.908 Y143.908 E2.05630
G1 F1800.000
G1 X143.385 Y143.385 E2.06633
G1 F1800.000
G1 X142.863 Y142.863 E2.08459
G1 X142.863 Y142.863 F7800.000
G1 F1800.000
G1 X142.287 Y142.287 E2.11286
G1 X141.254 Y141.254 F7800.000
G1 F1800.000
G1 X140.615 Y140.615 E2.11552
G1 F1800.000
G1 X139.977 Y139.977 E2.12911
G1 F1800.000
G1 X139.338 Y139.338 E2.15361
G1 F1800.000
G1 X139.019 Y139.019 E2.17132
G1 X138.669 Y138.993 F7800.000
G1 F1800.000
G1 X138.993 Y138.669 E2.18650
G1 X138.815 Y138.470 E2.19533
G1 X138.470 Y138.815 E2.21152
G1 X138.271 Y138.638 E2.22035
G1 X138.638 Y138.271 E2.23756
G1 X138.461 Y138.072 E2.24639
G1 X138.072 Y138.461 E2.26461
G1 X137.874 Y138.284 E2.27344
G1 X138.284 Y137.874 E2.29268
G1 X138.107 Y137.675 E2.30151
G1 X137.675 Y138.107 E2.32176
G1 X137.476 Y137.930 E2.33059
G1 X137.930 Y137.476 E2.35186
G1 X137.753 Y137.277 E2.36068
G1 X137.277 Y137.753 E2.38296
G1 X137.079 Y137.576 E2.39179
G1 X137.576 Y137.079 E2.41509
G1 X137.398 Y136.880 E2.42391
G1 X136.880 Y137.398 E2.44823
G1 X136.681 Y137.221 E2.45705
G1 X137.221 Y136.681 E2.48238
G1 X137.044 Y136.482 E2.49120
G1 X136.482 Y137.044 E2.51754
G1 X136.284 Y136.867 E2.52637
G1 X136.867 Y136.284 E2.55371
G1 X136.689 Y136.086 E2.56254
G1 X136.086 Y136.689 E2.59084
G1 X135.887 Y136.511 E2.59966
G1 X136.511 Y135.887 E2.62892
G1 X136.334 Y135.689 E2.63774
G1 X135.689 Y136.334 E2.66796
G1 X135.491 Y136.156 E2.67678
G1 X136.156 Y135.491 E2.70795
G1 X135.978 Y135.293 E2.71677
G1 X135.293 Y135.978 E2.74890
G1 X135.095 Y135.800 E2.75773
G1 X135.800 Y135.095 E2.79081
G1 X135.623 Y134.897 E2.79964
G1 X134.897 Y135.623 E2.83368
G1 X134.698 Y135.445 E2.84250
G1 X135.445 Y134.698 E2.87750
G1 X135.267 Y134.500 E2.88632
G1 X134.500 Y135.267 E2.92228
G1 X134.302 Y135.089 E2.93110
G1 X135.089 Y134.302 E2.96802
G1 X134.912 Y134.104 E2.97684
G1 X134.104 Y134.912 E3.01471
G1 X133.906 Y134.734 E3.02353
G1 X134.734 Y133.906 E3.06236
G1 X134.556 Y133.708 E3.07118
G1 X133.708 Y134.556 E3.11097
G1 X133.510 Y134.378 E3.11979
G1 X134.378 Y133.510 E3.16053
G1 X134.201 Y133.311 E3.16936
G1 X133.311 Y134.201 E3.21105
G1 X133.113 Y134.023 E3.21988
G1 X134.023 Y133.113 E3.26253
G1 X133.845 Y132.915 E3.27136
G1 X132.915 Y133.845 E3.31497
G1 X132.717 Y133.668 E3.32379
G1 X133.668 Y132.717 E3.36836
G1 X133.490 Y132.519 E3.37718
G1 X132.519 Y133.490 E3.42271
G1 X132.321 Y133.312 E3.43153
G1 X133.312 Y132.321 E3.47801
G1 X133.134 Y132.122 E3.48684
G1 X132.122 Y133.134 E3.53428
G1 X131.924 Y132.957 E3.54310
G1 X132.957 Y131.924 E3.59150
G1 X132.779 Y131.726 E3.60032
G1 X131.726 Y132.779 E3.64967
G1 X131.528 Y132.601 E3.65850
G1 X132.601 Y131.528 E3.70881
G1 X132.423 Y131.330 E3.71763
G1 X131.330 Y132.423 E3.76890
G1 X131.132 Y132.246 E3.77772
G1 X132.246 Y131.132 E3.82994
G1 X132.068 Y130.934 E3.83877
G1 X130.934 Y132.068 E3.89195
G1 X130.735 Y131.890 E3.90077
G1 X131.890 Y130.735 E3.95491
G1 X131.712 Y130.537 E3.96373
G1 X130.537 Y131.712 E4.01883
G1 X130.339 Y131.535 E4.02765
G1 X131.535 Y130.339 E4.08370
G1 X131.357 Y130.141 E4.09253
G1 X130.141 Y131.357 E4.14954
G1 X129.943 Y131.179 E4.15836
G1 X131.179 Y129.943 E4.21632
G1 X131.001 Y129.745 E4.22515
G1 X129.745 Y131.001 E4.28407
G1 X129.546 Y130.824 E4.29290
G1 X130.824 Y129.546 E4.35277
G1 X130.646 Y129.348 E4.36160
G1 X129.348 Y130.646 E4.42243
G1 X129.150 Y130.468 E4.43126
G1 X130.468 Y129.150 E4.49305
G1 X130.290 Y128.952 E4.50187
G1 X128.952 Y130.290 E4.56462
G1 X128.754 Y130.113 E4.57345
G1 X130.113 Y128.754 E4.63715
G1 X129.935 Y128.556 E4.64598
G1 X128.556 Y129.935 E4.71064
G1 X128.358 Y129.757 E4.71947
G1 X129.757 Y128.358 E4.78509
G1 X129.579 Y128.159 E4.79391
G1 X128.159 Y129.579 E4.86049
G1 X127.962 Y129.401 E4.86931
G1 X129.401 Y127.962 E4.93679
G1 X129.223 Y127.764 E4.94561
G1 X127.764 Y129.223 E5.01398
G1 X127.567 Y129.044 E5.02280
G1 X129.044 Y127.567 E5.09207
G1 X128.866 Y127.369 E5.10089
G1 X127.369 Y128.866 E5.17105
G1 X127.172 Y128.687 E5.17987
G1 X128.687 Y127.172 E5.25093
G1 X128.509 Y126.974 E5.25975
G1 X126.974 Y128.509 E5.33170
G1 X126.777 Y128.331 E5.34052
G1 X128.331 Y126.777 E5.41336
G1 X128.152 Y126.579 E5.42219
G1 X126.579 Y128.152 E5.49592
G1 X126.382 Y127.974 E5.50475
G1 X127.974 Y126.382 E5.57938
G1 X127.795 Y126.184 E5.58820
G1 X126.184 Y127.795 E5.66373
G1 X125.987 Y127.617 E5.67255
G1 X127.617 Y125.987 E5.74898
G1 X127.439 Y125.789 E5.75780
G1 X125.789 Y127.439 E5.83512
G1 X125.592 Y127.260 E5.84394
G1 X127.260 Y125.592 E5.92215
G1 X127.082 Y125.394 E5.93097
G1 X125.394 Y127.082 E6.01008
G1 X125.197 Y126.903 E6.01890
G1 X126.903 Y125.197 E6.09890
G1 X126.725 Y124.999 E6.10773
G1 X124.999 Y126.725 E6.18862
G1 X124.802 Y126.547 E6.19744
G1 X126.547 Y124.802 E6.27923
G1 X126.368 Y124.605 E6.28806
G1 X124.605 Y126.368 E6.37074
G1 X124.407 Y126.190 E6.37957
G1 X126.190 Y124.407 E6.46315
G1 X126.011 Y124.210 E6.47197
G1 X124.210 Y126.011 E6.55644
G1 X124.012 Y125.833 E6.56527
G1 X125.833 Y124.012 E6.65063
G1 X125.654 Y123.815 E6.65946
G1 X123.815 Y125.654 E6.74572
G1 X123.617 Y125.476 E6.75454
G1 X125.476 Y123.617 E6.84170
G1 X125.298 Y123.420 E6.85053
G1 X123.420 Y125.298 E6.93858
G1 X123.222 Y125.119 E6.94740
G1 X125.119 Y123.222 E7.03635
G1 X124.941 Y123.025 E7.04517
G1 X123.025 Y124.941 E7.13501
G1 X122.827 Y124.762 E7.14384
G1 X124.762 Y122.827 E7.23458
G1 X124.584 Y122.630 E7.24340
G1 X122.630 Y124.584 E7.33503
G1 X122.432 Y124.406 E7.34385
G1 X124.406 Y122.432 E7.43638
G1 X124.227 Y122.235 E7.44520
G1 X122.235 Y124.227 E7.53862
G1 X122.037 Y124.049 E7.54745
G1 X124.049 Y122.037 E7.64176
G1 X123.870 Y121.840 E7.65059
G1 X121.840 Y123.870 E7.74580
G1 X121.642 Y123.692 E7.75462
G1 X123.692 Y121.642 E7.85073
G1 X123.514 Y121.445 E7.85955
G1 X121.445 Y123.514 E7.95655
G1 X121.247 Y123.335 E7.96537
G1 X123.335 Y121.247 E8.06327
G1 X123.157 Y121.050 E8.07209
G1 X121.050 Y123.157 E8.17088
G1 X120.852 Y122.978 E8.17970
G1 X122.978 Y120.852 E8.27939
G1 X122.800 Y120.655 E8.28821
G1 X120.655 Y122.800 E8.38879
G1 X120.457 Y122.622 E8.39761
G1 X122.622 Y120.457 E8.49908
G1 X122.443 Y120.260 E8.50791
G1 X120.260 Y122.443 E8.61028
G1 X120.062 Y122.265 E8.61910
G1 X122.265 Y120.062 E8.72236
G1 X122.086 Y119.865 E8.73118
G1 X119.865 Y122.086 E8.83534
G1 X119.667 Y121.908 E8.84417
G1 X121.908 Y119.667 E8.94922
G1 X121.730 Y119.470 E8.95804
G1 X119.470 Y121.730 E9.06399
G1 X119.272 Y121.551 E9.07281
G1 X121.551 Y119.272 E9.17965
G1 X121.373 Y119.075 E9.18848
G1 X119.075 Y121.373 E9.29621
G1 X118.877 Y121.194 E9.30503
G1 X121.194 Y118.877 E9.41367
G1 X121.016 Y118.680 E9.42249
G1 X118.680 Y121.016 E9.53201
G1 X118.483 Y120.837 E9.54084
G1 X120.837 Y118.483 E9.65121
G1 X120.658 Y118.286 E9.66004
G1 X118.286 Y120.658 E9.77124
G1 X118.089 Y120.479 E9.78006
G1 X120.479 Y118.089 E9.89209
G1 X120.300 Y117.893 E9.90091
G1 X117.893 Y120.300 E10.01376
G1 X117.696 Y120.120 E10.02258
G1 X120.120 Y117.696 E10.13626
G1 X119.941 Y117.499 E10.14508
G1 X117.499 Y119.941 E10.25959
G1 X117.302 Y119.762 E10.26841
G1 X119.762 Y117.302 E10.38374
G1 X119.583 Y117.105 E10.39256
G1 X117.105 Y119.583 E10.50872
G1 X116.909 Y119.404 E10.51754
G1 X119.404 Y116.909 E10.63452
G1 X119.225 Y116.712 E10.64334
G1 X116.712 Y119.225 E10.76115
G1 X116.515 Y119.046 E10.76997
G1 X119.046 Y116.515 E10.88861
G1 X118.866 Y116.318 E10.89743
G1 X116.318 Y118.866 E11.01689
G1 X116.122 Y118.687 E11.02571
G1 X118.687 Y116.122 E11.14599
G1 X118.508 Y115.925 E11.15481
G1 X115.925 Y118.508 E11.27593
G1 X115.728 Y118.329 E11.28475
G1 X118.329 Y115.728 E11.40668
G1 X118.150 Y115.531 E11.41550
G1 X115.531 Y118.150 E11.53827
G1 X115.335 Y117.971 E11.54709
G1 X117.971 Y115.335 E11.67067
G1 X117.792 Y115.138 E11.67950
G1 X115.138 Y117.792 E11.80391
G1 X114.941 Y117.612 E11.81273
G1 X117.612 Y114.941 E11.93797
G1 X117.433 Y114.744 E11.94679
G1 X114.744 Y117.433 E12.07285
G1 X114.548 Y117.254 E12.08168
G1 X117.254 Y114.548 E12.20857
G1 X117.075 Y114.351 E12.21739
G1 X114.351 Y117.075 E12.34510
G1 X114.154 Y116.896 E12.35392
G1 X116.896 Y114.154 E12.48246
G1 X116.717 Y113.957 E12.49129
G1 X113.957 Y116.717 E12.62065
G1 X113.761 Y116.538 E12.62947
G1 X116.538 Y113.761 E12.75967
G1 X116.358 Y113.564 E12.76849
G1 X113.564 Y116.358 E12.89951
G1 X113.367 Y116.179 E12.90833
G1 X116.179 Y113.367 E13.04017
G1 X116.000 Y113.170 E13.04899
G1 X113.170 Y116.000 E13.18166
G1 X112.974 Y115.821 E13.19048
G1 X115.821 Y112.974 E13.32398
G1 X115.642 Y112.777 E13.33280
G1 X112.777 Y115.642 E13.46712
G1 X112.580 Y115.463 E13.47594
G1 X115.463 Y112.580 E13.61109
G1 X115.284 Y112.383 E13.61991
G1 X112.383 Y115.284 E13.75588
G1 X112.187 Y115.104 E13.76470
G1 X115.104 Y112.187 E13.90150
G1 X114.925 Y111.990 E13.91032
G1 X111.990 Y114.925 E14.04795
G1 X111.793 Y114.746 E14.05677
G1 X114.746 Y111.793 E14.19522
G1 X114.567 Y111.596 E14.20404
