; generated by Slic3r 1.3.1-dev (Build adea0d9) on 2020-02-19 at 18:02:38

; external perimeters extrusion width = 0.44mm (2.86mm^3/s)
; perimeters extrusion width = 0.56mm (4.14mm^3/s)
; infill extrusion width = 0.50mm (3.66mm^3/s)
; solid infill extrusion width = 0.56mm (3.10mm^3/s)
; top infill extrusion width = 0.56mm (3.10mm^3/s)

M107
G92 E0
;D3D:START:START
T0
M104 S215 T0

G21
G90
M107
T0
G28
G29
M109 T0 S215 T0
G0 F3000
M107
T0
G92 E0
G0 X0 Y149 Z0.1 F3600
G1 Y49 E6.5 F1200
G0 Z1
G92 E0
; Filament gcode

G21 ; set units to millimeters
G90 ; use absolute coordinates
M82 ; use absolute distances for extrusion
G92 E0
G1 Z0.300 F7800.000
G1 E-2.00000 F2400.00000
G92 E0
G1 X62.147 Y84.383 F7800.000
G1 E2.00000 F2400.00000
G1 F600.000
G1 X64.771 Y84.383 E2.08693
G1 X64.787 Y84.525 E2.09165
G1 X63.529 Y84.808 E2.13436
G1 X62.129 Y84.879 E2.18080
G1 X62.145 Y84.443 E2.19525
G1 E0.19525 F2400.00000
G92 E0
G1 X64.779 Y84.454 F7800.000
G1 E2.00000 F2400.00000
G1 F600.000
G1 X65.308 Y84.395 E2.01889
G1 F600.000
G1 X65.837 Y84.337 E2.03206
G1 F600.000
G1 X66.367 Y84.278 E2.03950
G1 E0.03950 F2400.00000
G92 E0
G1 X64.064 Y84.534 F7800.000
G1 E2.00000 F2400.00000
G1 F600.000
G1 X63.688 Y84.576 E2.00073
G1 F600.000
G1 X62.886 Y84.612 E2.01036
G1 F600.000
G1 X62.271 Y84.627 E2.02207
M106 S255
G1 Z0.500 F7800.000
G1 X61.495 Y84.438 F7800.000
M106 S255

G1 F2400.000
G1 X61.780 Y84.438 E2.03694
M106 S255

G1 F2160.000
G1 X66.833 Y84.438 E2.20379
M106 S255

G1 F2400.000
G1 X71.177 Y84.438 E2.43072
G1 X71.200 Y84.650 E2.44186
G1 X68.327 Y85.297 E2.59573
G1 X61.451 Y85.644 E2.95544
G1 X61.493 Y84.498 E3.01535
M106 S255

G1 X61.702 Y85.035 F7800.000
G1 F600.000
G1 X63.578 Y84.987 E3.11361
G1 F600.000
G1 X65.454 Y84.940 E3.19791
G1 F600.000
G1 X67.331 Y84.893 E3.26826
G1 F600.000
G1 X68.269 Y84.869 E3.29646
G1 X68.490 Y84.844 E3.30315
G1 F600.000
G1 X68.933 Y84.795 E3.31297
G1 F600.000
G1 X69.375 Y84.746 E3.31921
G1 F600.000
G1 X69.818 Y84.697 E3.32190
G1 E1.32190 F2400.00000
G92 E0
G1 X62.297 Y62.998 F7800.000
G1 E2.00000 F2400.00000
M106 S255

G1 F2400.000
G1 X62.317 Y62.470 E2.02764
G1 X63.500 Y62.486 E2.08946
G1 X66.096 Y62.773 E2.22588
G1 X66.083 Y62.998 E2.23766
G1 X62.357 Y62.998 E2.43233
M106 S255

G1 E0.43233 F2400.00000
G92 E0
G1 X66.089 Y62.886 F7800.000
G1 E2.00000 F2400.00000
G1 F2160.000
G1 X67.174 Y62.946 E2.04702
G1 F2160.000
G1 X68.258 Y63.006 E2.08613
G1 F2160.000
G1 X69.343 Y63.066 E2.11735
G1 E0.11735 F2400.00000
G92 E0
G1 X62.682 Y62.737 F7800.000
G1 E2.00000 F2400.00000
G1 F600.000
G1 X62.536 Y62.736 E2.00031
G1 Z0.700 F7800.000
G1 E0.00031 F2400.00000
G92 E0
G1 X61.472 Y84.895 F7800.000
G1 E2.00000 F2400.00000
G1 F969.088
G1 X71.769 Y84.895 E2.44271
M106 S255

G1 F2400.000
G1 X72.551 Y84.895 E2.48360
G1 X72.582 Y85.171 E2.49811
G1 X72.110 Y85.278 E2.52340
G1 X69.811 Y85.394 E2.64366
M106 S255

G1 F969.088
G1 X64.999 Y85.637 E2.85079
G1 X61.447 Y85.631 E3.00351
G1 X61.470 Y84.955 E3.03259
G1 X61.075 Y84.438 F7800.000
G1 F2160.000
G1 X71.914 Y84.438 E3.39048
M106 S255

G1 F2400.000
G1 X75.049 Y84.438 E3.55424
G1 X74.827 Y85.134 E3.59240
G1 X72.172 Y85.732 E3.73459
G1 X65.010 Y86.094 E4.10921
G1 X60.975 Y86.088 E4.32005
G1 X61.029 Y84.453 E4.40549
M106 S255

G1 X61.718 Y85.264 F7800.000
G1 F600.000
G1 X64.990 Y85.266 E4.44409
G1 X66.562 Y85.226 E4.46263
G1 F600.000
G1 X68.133 Y85.187 E4.47093
G1 E2.47093 F2400.00000
G92 E0
G1 X72.794 Y85.008 F7800.000
G1 E2.00000 F2400.00000
G1 F600.000
G1 X73.065 Y84.978 E2.01299
G1 F600.000
G1 X73.608 Y84.918 E2.03482
G1 F600.000
G1 X74.151 Y84.857 E2.05251
G1 F600.000
G1 X74.695 Y84.797 E2.06605
G1 E0.06605 F2400.00000
G92 E0
G1 X61.797 Y62.998 F7800.000
G1 E2.00000 F2400.00000
M106 S255

G1 F2400.000
G1 X61.838 Y61.921 E2.05632
G1 X68.003 Y62.004 E2.37841
G1 X72.721 Y62.527 E2.62644
G1 X73.199 Y62.826 E2.65590
G1 X73.150 Y62.998 E2.66527
G1 X69.612 Y62.998 E2.85008
M106 S255

G1 F2160.000
G1 X61.877 Y62.998 E3.10549
M106 S255

G1 F2400.000
G1 X61.857 Y62.998 E3.10651
M106 S255

G1 X62.046 Y62.461 F7800.000
G1 F600.000
G1 X67.972 Y62.501 E3.36898
G1 F600.000
G1 X68.830 Y62.548 E3.40101
G1 F600.000
G1 X69.689 Y62.596 E3.42630
G1 F600.000
G1 X70.547 Y62.643 E3.44487
G1 F600.000
G1 X71.406 Y62.691 E3.45670
G1 F600.000
G1 X72.264 Y62.738 E3.46180
G1 Z0.900 F7800.000
G1 E1.46180 F2400.00000
G92 E0
G1 X61.040 Y84.895 F7800.000
G1 E2.00000 F2400.00000
G1 F2231.927
G1 X75.344 Y84.895 E2.61501
M106 S255

G1 F2400.000
G1 X77.998 Y84.895 E2.75370
G1 X77.876 Y85.280 E2.77479
G1 X75.954 Y85.713 E2.87770
G1 X73.655 Y85.829 E2.99796
M106 S255

G1 F2231.927
G1 X69.973 Y86.015 E3.15647
G1 X61.003 Y86.002 E3.54216
G1 X61.038 Y84.955 E3.58717
G1 X60.598 Y84.438 F7800.000
M106 S255

G1 F2400.000
G1 X60.610 Y84.438 E3.58779
M106 S255

G1 F2160.000
G1 X75.490 Y84.438 E4.07909
M106 S255

G1 F2400.000
G1 X78.449 Y84.438 E4.23368
G1 X78.449 Y84.988 E4.26242
G1 X78.232 Y85.668 E4.29970
G1 X76.016 Y86.167 E4.41835
G1 X69.984 Y86.472 E4.73389
G1 X65.968 Y86.466 E4.94371
M106 S255

G1 F2160.000
G1 X60.542 Y86.458 E5.12286
M106 S255

G1 F2400.000
G1 X60.596 Y84.498 E5.22529
M106 S255

G1 X61.280 Y85.449 F7800.000
G1 F1115.963
G1 X69.960 Y85.455 E5.62875
G1 X70.949 Y85.430 E5.67477
G1 F1115.963
G1 X72.929 Y85.380 E5.75038
G1 F1115.963
G1 X74.909 Y85.330 E5.80956
G1 F1115.963
G1 X75.898 Y85.305 E5.83093
G1 X76.117 Y85.281 E5.83567
G1 F1115.963
G1 X76.553 Y85.232 E5.84172
G1 F1115.963
G1 X76.990 Y85.184 E5.84432
G1 E3.84432 F2400.00000
G92 E0
G1 X61.786 Y62.541 F7800.000
G1 E2.00000 F2400.00000
G1 F2231.927
G1 X61.811 Y61.836 E2.03035
G1 X71.465 Y61.965 E2.44547
M106 S255

G1 F2400.000
G1 X72.477 Y61.979 E2.49835
G1 X74.908 Y62.248 E2.62614
G1 X74.892 Y62.541 E2.64148
G1 X73.536 Y62.541 E2.71230
M106 S255

G1 F2231.927
G1 X61.846 Y62.541 E3.21491
G1 X61.313 Y62.998 F7800.000
M106 S255

G1 F2400.000
G1 X61.369 Y61.388 E3.29912
G1 X61.837 Y61.379 E3.32356
G1 X72.505 Y61.522 E3.88098
G1 X76.472 Y61.962 E4.08952
G1 X77.527 Y62.621 E4.15450
G1 X77.566 Y62.998 E4.17431
G1 X74.267 Y62.998 E4.34666
M106 S255

G1 F2160.000
G1 X61.377 Y62.998 E4.77226
M106 S255

G1 F2400.000
G1 X61.373 Y62.998 E4.77246
M106 S255

G1 X62.057 Y62.190 F7800.000
G1 F1115.963
G1 X65.005 Y62.210 E4.80701
G1 F1115.963
G1 X70.899 Y62.249 E4.83798
G1 E2.83798 F2400.00000
G92 E0
G1 X75.128 Y62.407 F7800.000
G1 E2.00000 F2400.00000
G1 F1115.963
G1 X76.911 Y62.506 E2.08890
G1 Z1.100 F7800.000
G1 E0.08890 F2400.00000
G92 E0
G1 X60.613 Y84.895 F7800.000
G1 E2.00000 F2400.00000
G1 F2400.000
G1 X78.869 Y84.895 E2.78488
M106 S255

G1 F2400.000
G1 X81.347 Y84.895 E2.91437
G1 X81.347 Y85.607 E2.95152
G1 X81.281 Y85.814 E2.96289
G1 X79.799 Y86.148 E3.04227
G1 X77.500 Y86.264 E3.16252
M106 S255

G1 F2400.000
G1 X74.947 Y86.393 E3.27241
G1 X60.565 Y86.372 E3.89080
G1 X60.611 Y84.955 E3.95174
G1 X60.171 Y84.438 F7800.000
M106 S255

G1 F2400.000
G1 X60.177 Y84.438 E3.95205
M106 S255

G1 F2160.000
G1 X78.869 Y84.438 E4.56918
M106 S255

G1 F2400.000
G1 X81.804 Y84.438 E4.72255
G1 X81.804 Y85.678 E4.78729
G1 X81.637 Y86.202 E4.81606
G1 X79.861 Y86.602 E4.91117
G1 X74.958 Y86.850 E5.16762
G1 X70.941 Y86.844 E5.37749
M106 S255

G1 F2160.000
G1 X60.098 Y86.819 E5.73551
M106 S255

G1 F2400.000
G1 X60.169 Y84.498 E5.85680
M106 S255

G1 X61.315 Y85.211 F7800.000
G1 F1800.000
G1 X60.913 Y85.614 E5.88255
G1 X60.898 Y86.057 E5.90260
G1 X61.239 Y86.057 E5.91802
G1 X62.084 Y85.211 E5.97215
G1 X62.854 Y85.211 E6.00696
G1 X62.007 Y86.058 E6.06116
G1 X62.776 Y86.059 E6.09593
G1 X63.624 Y85.211 E6.15019
G1 X64.393 Y85.211 E6.18501
G1 X63.544 Y86.061 E6.23935
G1 X64.312 Y86.062 E6.27411
G1 X65.163 Y85.211 E6.32852
G1 X65.932 Y85.211 E6.36334
G1 X65.081 Y86.063 E6.41781
G1 X65.849 Y86.064 E6.45258
G1 X66.702 Y85.211 E6.50713
G1 X67.471 Y85.211 E6.54195
G1 X66.618 Y86.065 E6.59656
G1 X67.386 Y86.066 E6.63133
G1 X68.241 Y85.211 E6.68601
G1 X69.010 Y85.211 E6.72083
G1 X68.155 Y86.067 E6.77559
G1 X68.923 Y86.068 E6.81036
G1 X69.780 Y85.211 E6.86518
G1 X69.942 Y85.211 E6.87252
G1 X69.949 Y85.262 E6.87481
G1 X70.193 Y85.211 E6.88606
G1 X70.549 Y85.211 E6.90220
G1 X69.692 Y86.069 E6.95709
G1 X70.460 Y86.070 E6.99186
G1 X71.319 Y85.211 E7.04683
G1 X72.089 Y85.211 E7.08165
G1 X71.228 Y86.072 E7.13668
G1 X71.997 Y86.073 E7.17145
G1 X72.858 Y85.211 E7.22656
G1 X73.628 Y85.211 E7.26138
G1 X72.765 Y86.074 E7.31655
G1 X73.534 Y86.075 E7.35132
G1 X74.397 Y85.211 E7.40657
G1 X74.641 Y85.211 E7.41761
G1 X74.705 Y85.674 E7.43872
G1 X74.302 Y86.076 E7.46446
G1 X74.736 Y85.567 F7800.000
M106 S255

G1 F2400.000
G1 X75.112 Y85.191 E7.49524
G1 X75.778 Y85.191 E7.53379
G1 X74.879 Y86.090 E7.60740
G1 X75.580 Y86.055 E7.64805
G1 X76.444 Y85.191 E7.71876
G1 X77.110 Y85.191 E7.75731
G1 X76.281 Y86.020 E7.82513
G1 X76.983 Y85.984 E7.86577
G1 X77.776 Y85.191 E7.93069
G1 X78.069 Y85.191 E7.94762
G1 X78.078 Y85.555 E7.96871
G1 X77.702 Y85.932 E7.99951
M106 S255

G1 X78.369 Y85.557 F7800.000
G1 F1200.000
G1 X79.713 Y85.523 E8.08267
G1 F1200.000
G1 X80.172 Y85.472 E8.10774
G1 F1200.000
G1 X80.630 Y85.421 E8.12960
G1 F1200.000
G1 X81.088 Y85.370 E8.14824
G1 E6.14824 F2400.00000
G92 E0
G1 X61.383 Y62.541 F7800.000
G1 E2.00000 F2400.00000
G1 F2400.000
G1 X61.419 Y61.506 E2.04456
G1 X67.328 Y61.381 E2.29866
G1 X75.982 Y61.485 E2.67078
M106 S255

G1 F2400.000
G1 X76.980 Y61.497 E2.72290
G1 X80.070 Y61.840 E2.88533
G1 X80.625 Y62.187 E2.91955
G1 X80.662 Y62.541 E2.93817
G1 X77.941 Y62.541 E3.08034
M106 S255

G1 F2400.000
G1 X61.443 Y62.541 E3.78965
G1 X60.910 Y62.998 F7800.000
G1 F2160.000
G1 X60.977 Y61.058 E3.85377
G1 X64.175 Y60.990 E3.95937
M106 S255

G1 F2400.000
G1 X67.326 Y60.924 E4.12402
G1 X77.008 Y61.040 E4.62988
G1 X80.224 Y61.397 E4.79893
G1 X81.056 Y61.918 E4.85025
G1 X81.169 Y62.998 E4.90703
G1 X77.988 Y62.998 E5.07321
M106 S255

G1 F2160.000
G1 X60.970 Y62.998 E5.63510
G1 X61.660 Y62.021 F7800.000
G1 F1200.000
G1 X67.330 Y61.961 E5.90000
G1 X73.742 Y62.000 E6.19951
G1 F1200.000
G1 X76.948 Y62.019 E6.32875
G1 X77.405 Y62.044 E6.34723
G1 F1200.000
G1 X78.321 Y62.095 E6.37697
G1 F1200.000
G1 X79.237 Y62.145 E6.39948
G1 F1200.000
G1 X80.152 Y62.196 E6.41476
G1 Z1.300 F7800.000
G1 E4.41476 F2400.00000
G92 E0
G1 X60.247 Y84.895 F7800.000
G1 E2.00000 F2400.00000
G1 F2400.000
G1 X82.224 Y84.895 E2.94489
M106 S255

G1 F2400.000
G1 X84.702 Y84.895 E3.07438
G1 X84.702 Y86.344 E3.15006
G1 X83.643 Y86.583 E3.20679
G1 X81.344 Y86.699 E3.32705
M106 S255

G1 F2400.000
G1 X79.921 Y86.771 E3.38831
G1 X67.701 Y86.755 E3.91372
G1 X60.194 Y86.591 E4.23657
G1 X60.245 Y84.955 E4.30692
G1 X59.804 Y84.438 F7800.000
G1 F2160.000
G1 X82.224 Y84.438 E5.04716
M106 S255

G1 F2400.000
G1 X85.159 Y84.438 E5.20052
G1 X85.159 Y86.367 E5.30128
G1 X85.042 Y86.736 E5.32153
G1 X83.705 Y87.037 E5.39310
G1 X79.932 Y87.228 E5.59046
G1 X75.905 Y87.222 E5.80087
M106 S255

G1 F2160.000
G1 X67.696 Y87.212 E6.07193
G1 X59.723 Y87.038 E6.33524
G1 X59.803 Y84.498 E6.41913
G1 X60.526 Y85.884 F7800.000
G1 F1800.000
G1 X60.928 Y86.287 E6.44446
G1 X61.702 Y86.303 E6.47892
G1 X60.610 Y85.211 E6.54767
G1 X61.368 Y85.211 E6.58137
G1 X62.476 Y86.320 E6.65118
G1 X63.250 Y86.337 E6.68564
G1 X62.125 Y85.211 E6.75651
G1 X62.882 Y85.211 E6.79021
G1 X64.024 Y86.354 E6.86215
G1 X64.798 Y86.371 E6.89661
G1 X63.639 Y85.211 E6.96960
G1 X64.396 Y85.211 E7.00331
G1 X65.572 Y86.388 E7.07736
G1 X66.346 Y86.405 E7.11183
G1 X65.153 Y85.211 E7.18695
G1 X65.910 Y85.211 E7.22065
G1 X67.120 Y86.422 E7.29683
G1 X67.894 Y86.438 E7.33129
G1 X66.667 Y85.211 E7.40854
G1 X67.424 Y85.211 E7.44224
G1 X68.653 Y86.440 E7.51956
G1 X69.411 Y86.441 E7.55331
G1 X68.182 Y85.211 E7.63070
G1 X68.939 Y85.211 E7.66440
G1 X70.169 Y86.442 E7.74185
G1 X70.927 Y86.443 E7.77559
G1 X69.712 Y85.228 E7.85208
G1 X69.790 Y85.211 E7.85565
G1 X70.453 Y85.211 E7.88514
G1 X71.685 Y86.444 E7.96271
G1 X72.443 Y86.445 E7.99646
G1 X71.210 Y85.211 E8.07409
G1 X71.967 Y85.211 E8.10779
G1 X73.201 Y86.446 E8.18548
G1 X73.959 Y86.447 E8.21923
G1 X72.724 Y85.211 E8.29699
G1 X73.481 Y85.211 E8.33069
G1 X74.717 Y86.448 E8.40851
G1 X75.476 Y86.449 E8.44225
G1 X74.238 Y85.211 E8.52013
G1 X74.996 Y85.211 E8.55384
G1 X76.234 Y86.450 E8.63178
G1 X76.992 Y86.450 E8.66552
G1 X75.753 Y85.211 E8.74353
G1 X76.510 Y85.211 E8.77723
G1 X77.750 Y86.451 E8.85529
G1 X78.508 Y86.452 E8.88904
G1 X77.267 Y85.211 E8.96716
G1 X78.024 Y85.211 E9.00087
G1 X78.426 Y85.614 E9.02620
G1 X79.021 Y86.473 F7800.000
M106 S255

G1 F2400.000
G1 X78.645 Y86.097 E9.06049
G1 X78.534 Y85.287 E9.11321
G1 X79.721 Y86.475 E9.22146
G1 X80.405 Y86.459 E9.26558
G1 X79.137 Y85.191 E9.38126
G1 X79.836 Y85.191 E9.42634
G1 X81.071 Y86.426 E9.53896
G1 X81.736 Y86.392 E9.58193
G1 X80.535 Y85.191 E9.69148
G1 X81.234 Y85.191 E9.73656
G1 X82.402 Y86.359 E9.84305
G1 X83.067 Y86.325 E9.88602
G1 X81.933 Y85.191 E9.98945
G1 X82.632 Y85.191 E10.03453
G1 X83.733 Y86.292 E10.13489
G1 X84.308 Y86.168 E10.17284
G1 X83.332 Y85.191 E10.26190
G1 X84.031 Y85.191 E10.30699
G1 X84.407 Y85.567 E10.34130
M106 S255

G1 E8.34130 F2400.00000
G92 E0
G1 X60.980 Y62.541 F7800.000
G1 E2.00000 F2400.00000
G1 F2400.000
G1 X61.027 Y61.176 E2.05873
G1 X72.911 Y60.926 E2.56977
G1 X74.821 Y60.926 E2.65189
G1 X80.382 Y61.000 E2.89100
M106 S255

G1 F2400.000
G1 X81.481 Y61.015 E2.94846
G1 X83.821 Y61.274 E3.07143
G1 X84.155 Y61.483 E3.09200
G1 X84.265 Y62.541 E3.14759
G1 X81.544 Y62.541 E3.28976
M106 S255

G1 F2400.000
G1 X61.040 Y62.541 E4.17130
G1 X60.507 Y62.998 F7800.000
G1 F2160.000
G1 X60.586 Y60.728 E4.24630
G1 X70.110 Y60.528 E4.56083
M106 S255

G1 F2400.000
G1 X72.906 Y60.469 E4.70695
G1 X74.824 Y60.469 E4.80715
G1 X81.510 Y60.558 E5.15649
G1 X83.975 Y60.832 E5.28606
G1 X84.586 Y61.214 E5.32373
G1 X84.772 Y62.998 E5.41747
G1 X81.591 Y62.998 E5.58365
M106 S255

G1 F2160.000
G1 X60.567 Y62.998 E6.27781
G1 E4.27781 F2400.00000
G92 E0
G1 X68.128 Y62.225 F7800.000
G1 E2.00000 F2400.00000
G1 F1800.000
G1 X67.725 Y61.823 E2.02466
G1 X67.724 Y61.347 E2.04530
G1 X67.981 Y61.342 E2.05647
G1 X68.865 Y62.225 E2.11066
G1 X69.602 Y62.225 E2.14263
G1 X68.703 Y61.326 E2.19775
G1 X69.426 Y61.311 E2.22907
G1 X70.340 Y62.225 E2.28512
G1 X71.077 Y62.225 E2.31709
G1 X70.148 Y61.296 E2.37408
G1 X70.870 Y61.281 E2.40540
G1 X71.815 Y62.225 E2.46332
G1 X72.552 Y62.225 E2.49529
G1 X71.592 Y61.265 E2.55414
G1 X72.314 Y61.250 E2.58546
G1 X73.289 Y62.225 E2.64525
G1 X74.027 Y62.225 E2.67722
G1 X73.043 Y61.242 E2.73753
G1 X73.780 Y61.242 E2.76949
G1 X74.764 Y62.225 E2.82980
G1 X75.501 Y62.225 E2.86177
G1 X74.518 Y61.242 E2.92208
G1 X75.264 Y61.250 E2.95442
G1 X76.239 Y62.225 E3.01420
G1 X76.976 Y62.225 E3.04617
G1 X76.011 Y61.260 E3.10533
G1 X76.758 Y61.270 E3.13774
G1 X77.161 Y61.673 E3.16240
G1 X77.103 Y61.870 F7800.000
M106 S255

G1 F2400.000
G1 X77.479 Y62.246 E3.19356
G1 X78.149 Y62.246 E3.23278
G1 X77.255 Y61.352 E3.30680
G1 X77.284 Y61.257 E3.31263
G1 X77.837 Y61.264 E3.34505
G1 X78.819 Y62.246 E3.42636
G1 X79.488 Y62.246 E3.46558
G1 X78.516 Y61.273 E3.54614
G1 X79.195 Y61.282 E3.58589
G1 X80.158 Y62.246 E3.66569
G1 X80.828 Y62.246 E3.70491
G1 X79.873 Y61.291 E3.78396
G1 X80.552 Y61.301 E3.82372
G1 X81.497 Y62.246 E3.90202
G1 X82.167 Y62.246 E3.94124
G1 X81.231 Y61.310 E4.01878
G1 X81.980 Y61.390 E4.06293
G1 X82.837 Y62.246 E4.13386
G1 X83.506 Y62.246 E4.17308
G1 X82.733 Y61.473 E4.23708
G1 X83.470 Y61.555 E4.28047
G1 X83.886 Y61.956 E4.31435
M106 S255

G1 Z1.500 F7800.000
G1 E2.31435 F2400.00000
G92 E0
G1 X59.885 Y84.895 F7800.000
G1 E2.00000 F2400.00000
G1 F2400.000
G1 X85.579 Y84.895 E3.10475
M106 S255

G1 F2400.000
G1 X88.058 Y84.895 E3.23424
G1 X88.058 Y86.889 E3.33840
G1 X87.488 Y87.018 E3.36894
G1 X85.189 Y87.134 E3.48919
M106 S255

G1 F2400.000
G1 X84.895 Y87.148 E3.50184
G1 X74.830 Y87.137 E3.93460
G1 X59.824 Y86.810 E4.57991
G1 X59.883 Y84.955 E4.65969
G1 X59.442 Y84.438 F7800.000
G1 F2160.000
G1 X85.579 Y84.438 E5.52269
M106 S255

G1 F2400.000
G1 X88.515 Y84.438 E5.67605
G1 X88.515 Y87.056 E5.81281
G1 X88.447 Y87.270 E5.82455
G1 X87.550 Y87.472 E5.87258
G1 X84.906 Y87.606 E6.01087
G1 X80.864 Y87.601 E6.22205
M106 S255

G1 F2160.000
G1 X74.824 Y87.594 E6.42147
