; generated by Slic3r 1.3.1-dev (Build 2ef957d) on 2019-11-25 at 09:21:54

; external perimeters extrusion width = 0.55mm (4.37mm^3/s)
; perimeters extrusion width = 0.70mm (11.44mm^3/s)
; infill extrusion width = 0.62mm (13.45mm^3/s)
; solid infill extrusion width = 0.70mm (3.81mm^3/s)
; top infill extrusion width = 0.70mm (2.86mm^3/s)

M107
G92 E0
M104 S200 ; set temperature
G28 ; home all axes
G1 Z5 F5000 ; lift nozzle

; Filament gcode

M109 S200 ; set temperature and wait for it to be reached
G21 ; set units to millimeters
G90 ; use absolute coordinates
M82 ; use absolute distances for extrusion
G92 E0
G1 Z0.350 F7800.000
G1 E-2.00000 F2400.00000
G92 E0
G1 X87.654 Y83.942 F7800.000
G1 E2.00000 F2400.00000
G1 F1800.000
G1 X89.664 Y82.838 E2.07096
G1 X91.800 Y82.484 E2.13795
G1 X108.200 Y82.484 E2.64538
G1 X110.459 Y82.881 E2.71635
G1 X112.447 Y84.024 E2.78731
G1 X113.859 Y85.665 E2.85429
G1 X125.659 Y105.056 E3.55664
G1 X126.495 Y107.192 E3.62760
G1 X126.625 Y108.500 E3.66827
G1 X126.625 Y117.500 E3.94674
G1 X126.228 Y119.759 E4.01770
G1 X125.085 Y121.747 E4.08867
G1 X123.332 Y123.226 E4.15963
G1 X121.180 Y124.019 E4.23059
G1 X120.000 Y124.125 E4.26724
G1 X80.000 Y124.125 E5.50489
G1 X77.741 Y123.728 E5.57586
G1 X75.753 Y122.585 E5.64682
G1 X74.274 Y120.832 E5.71778
G1 X73.481 Y118.680 E5.78874
G1 X73.375 Y117.500 E5.82539
G1 X73.375 Y108.500 E6.10387
G1 X73.772 Y106.241 E6.17483
G1 X74.341 Y105.056 E6.21550
G1 X86.141 Y85.665 E6.91784
G1 X87.604 Y83.998 E6.98648
G1 E4.98648 F2400.00000
G92 E0
G1 X104.368 Y106.468 F7800.000
G1 E2.00000 F2400.00000
G1 F1800.000
G1 X103.631 Y107.098 E2.03000
G1 X102.805 Y107.605 E2.05999
G1 X101.909 Y107.976 E2.08998
G1 X100.966 Y108.202 E2.11998
G1 X100.000 Y108.278 E2.14998
G1 X99.034 Y108.202 E2.17997
G1 X98.091 Y107.976 E2.20997
G1 X97.195 Y107.605 E2.23996
G1 X96.369 Y107.098 E2.26996
G1 X95.632 Y106.468 E2.29995
G1 X95.002 Y105.731 E2.32995
G1 X94.495 Y104.905 E2.35994
G1 X94.124 Y104.009 E2.38994
G1 X93.898 Y103.066 E2.41993
G1 X93.822 Y102.100 E2.44993
G1 X93.898 Y101.134 E2.47993
G1 X94.124 Y100.191 E2.50992
G1 X94.495 Y99.295 E2.53991
G1 X95.002 Y98.469 E2.56991
G1 X95.632 Y97.732 E2.59991
G1 X96.369 Y97.102 E2.62990
G1 X97.195 Y96.595 E2.65990
G1 X98.091 Y96.224 E2.68989
G1 X99.034 Y95.998 E2.71989
G1 X100.000 Y95.922 E2.74988
G1 X100.966 Y95.998 E2.77988
G1 X101.909 Y96.224 E2.80987
G1 X102.805 Y96.595 E2.83987
G1 X103.631 Y97.102 E2.86986
G1 X104.368 Y97.732 E2.89986
G1 X104.998 Y98.469 E2.92985
G1 X105.505 Y99.295 E2.95985
G1 X105.876 Y100.191 E2.98984
G1 X106.102 Y101.134 E3.01984
G1 X106.178 Y102.100 E3.04983
G1 X106.102 Y103.066 E3.07983
G1 X105.876 Y104.009 E3.10983
G1 X105.505 Y104.905 E3.13982
G1 X104.998 Y105.731 E3.16981
G1 X104.417 Y106.411 E3.19749
G1 X103.925 Y106.025 F7800.000
G1 F1800.000
G1 X103.263 Y106.591 E3.22444
G1 X102.520 Y107.046 E3.25139
G1 X101.715 Y107.379 E3.27835
G1 X100.868 Y107.583 E3.30530
G1 X100.000 Y107.651 E3.33225
G1 X99.132 Y107.583 E3.35920
G1 X98.285 Y107.379 E3.38615
G1 X97.480 Y107.046 E3.41311
G1 X96.737 Y106.591 E3.44006
G1 X96.075 Y106.025 E3.46701
G1 X95.509 Y105.363 E3.49396
G1 X95.054 Y104.620 E3.52092
G1 X94.721 Y103.815 E3.54787
G1 X94.517 Y102.968 E3.57482
G1 X94.449 Y102.100 E3.60177
G1 X94.517 Y101.232 E3.62872
G1 X94.721 Y100.385 E3.65567
G1 X95.054 Y99.580 E3.68263
G1 X95.509 Y98.837 E3.70958
G1 X96.075 Y98.175 E3.73653
G1 X96.737 Y97.609 E3.76348
G1 X97.480 Y97.154 E3.79043
G1 X98.285 Y96.821 E3.81738
G1 X99.132 Y96.617 E3.84434
G1 X100.000 Y96.549 E3.87129
G1 X100.868 Y96.617 E3.89824
G1 X101.715 Y96.821 E3.92519
G1 X102.520 Y97.154 E3.95214
G1 X103.263 Y97.609 E3.97910
G1 X103.925 Y98.175 E4.00605
G1 X104.491 Y98.837 E4.03300
G1 X104.946 Y99.580 E4.05995
G1 X105.279 Y100.385 E4.08690
G1 X105.483 Y101.232 E4.11385
G1 X105.551 Y102.100 E4.14081
G1 X105.483 Y102.968 E4.16776
G1 X105.279 Y103.815 E4.19471
G1 X104.946 Y104.620 E4.22166
G1 X104.491 Y105.363 E4.24862
G1 X103.974 Y105.968 E4.27325
G1 X103.925 Y106.025 F7800.000
G1 E2.27325 F2400.00000
G92 E0
G1 X106.298 Y99.579 F7800.000
G1 E2.00000 F2400.00000
G1 F1800.000
G1 X106.063 Y99.011 E2.01903
G1 X105.505 Y98.100 E2.05207
G1 X104.812 Y97.288 E2.08511
G1 X104.000 Y96.595 E2.11815
G1 X103.089 Y96.037 E2.15119
G1 X102.103 Y95.628 E2.18423
G1 X101.064 Y95.379 E2.21726
G1 X100.000 Y95.295 E2.25030
G1 X98.936 Y95.379 E2.28334
G1 X97.897 Y95.628 E2.31638
G1 X96.911 Y96.037 E2.34942
G1 X96.000 Y96.595 E2.38246
G1 X95.188 Y97.288 E2.41550
G1 X94.495 Y98.100 E2.44854
G1 X93.937 Y99.011 E2.48157
G1 X93.702 Y99.579 E2.50061
G1 X93.400 Y99.519 E2.51013
G1 X93.400 Y90.709 E2.78273
G1 X106.600 Y90.709 E3.19117
G1 X106.600 Y99.519 E3.46377
G1 X106.372 Y99.564 E3.47097
G1 E1.47097 F2400.00000
G92 E0
G1 X106.600 Y110.100 F7800.000
G1 E2.00000 F2400.00000
G1 F1800.000
G1 X118.400 Y110.100 E2.36511
G1 X118.400 Y115.900 E2.54458
G1 X81.600 Y115.900 E3.68324
G1 X81.600 Y110.100 E3.86271
G1 X93.400 Y110.100 E4.22782
G1 X93.400 Y104.681 E4.39548
G1 X93.702 Y104.621 E4.40500
G1 X93.937 Y105.189 E4.42403
G1 X94.495 Y106.100 E4.45707
G1 X95.188 Y106.912 E4.49011
G1 X96.000 Y107.605 E4.52315
G1 X96.911 Y108.163 E4.55619
G1 X97.897 Y108.572 E4.58922
G1 X98.936 Y108.821 E4.62227
G1 X100.000 Y108.905 E4.65530
G1 X101.064 Y108.821 E4.68834
G1 X102.103 Y108.572 E4.72138
G1 X103.089 Y108.163 E4.75442
G1 X104.000 Y107.605 E4.78746
G1 X104.812 Y106.912 E4.82050
G1 X105.505 Y106.100 E4.85354
G1 X106.063 Y105.189 E4.88658
G1 X106.298 Y104.621 E4.90561
G1 X106.600 Y104.681 E4.91513
G1 X106.600 Y110.025 E5.08047
G1 X107.225 Y109.475 F7800.000
G1 F1800.000
G1 X119.025 Y109.475 E5.44558
G1 X119.025 Y116.525 E5.66372
G1 X80.975 Y116.525 E6.84105
G1 X80.975 Y109.475 E7.05919
G1 X92.775 Y109.475 E7.42430
G1 X92.775 Y90.084 E8.02428
G1 X107.225 Y90.084 E8.47139
G1 X107.225 Y109.400 E9.06906
G1 X107.850 Y108.850 F7800.000
G1 F1800.000
G1 X119.650 Y108.850 E9.43417
G1 X119.650 Y117.150 E9.69098
G1 X80.350 Y117.150 E10.90698
G1 X80.350 Y108.850 E11.16379
G1 X92.150 Y108.850 E11.52890
G1 X92.150 Y89.459 E12.12888
G1 X107.850 Y89.459 E12.61466
G1 X107.850 Y108.775 E13.21233
G1 X107.962 Y109.337 F7800.000
G1 E11.21233 F2400.00000
G92 E0
G1 X106.049 Y105.885 F7800.000
G1 E2.00000 F2400.00000
G1 F1800.000
G1 X106.225 Y105.641 E2.00074
G1 X106.257 Y105.529 E2.00102
G1 X106.520 Y104.346 F7800.000
G1 F1800.000
G1 X106.589 Y103.761 E2.01936
G1 F1800.000
G1 X106.659 Y103.175 E2.03485
G1 F1800.000
G1 X106.702 Y102.117 E2.05757
G1 F1800.000
G1 X106.682 Y101.574 E2.06689
G1 F1800.000
G1 X106.659 Y101.025 E2.07851
G1 F1800.000
G1 X106.589 Y100.439 E2.09258
G1 F1800.000
G1 X106.520 Y99.854 E2.10949
G1 X106.257 Y98.671 F7800.000
G1 F1800.000
G1 X106.225 Y98.559 E2.10978
G1 X106.049 Y98.315 E2.11052
G1 X105.732 Y97.840 F7800.000
G1 F1800.000
G1 X106.218 Y97.353 E2.13246
G1 X106.218 Y96.442 E2.16149
G1 X105.270 Y97.391 E2.20425
G1 X105.012 Y97.088 E2.21693
G1 X104.823 Y96.927 E2.22484
G1 X106.218 Y95.532 E2.28776
G1 X106.218 Y94.621 E2.31679
G1 X104.332 Y96.507 E2.40185
G1 X104.125 Y96.331 E2.41053
G1 X103.798 Y96.130 E2.42275
G1 X106.218 Y93.710 E2.53188
G1 X106.218 Y92.800 E2.56091
G1 X103.234 Y95.784 E2.69550
G1 X103.131 Y95.721 E2.69934
G1 X102.604 Y95.503 E2.71752
G1 X106.218 Y91.889 E2.88049
G1 X106.218 Y91.090 E2.90595
G1 X106.106 Y91.090 E2.90952
G1 X101.947 Y95.250 E3.09707
G1 X101.213 Y95.073 E3.12115
G1 X105.196 Y91.090 E3.30074
G1 X104.285 Y91.090 E3.32978
G1 X100.412 Y94.963 E3.50440
G1 X99.757 Y94.911 E3.52536
G1 X99.536 Y94.929 E3.53243
G1 X103.374 Y91.090 E3.70551
G1 X102.464 Y91.090 E3.73454
G1 X98.538 Y95.017 E3.91158
G1 X97.460 Y95.275 E3.94689
G1 X97.303 Y95.340 E3.95233
G1 X101.553 Y91.090 E4.14396
G1 X100.642 Y91.090 E4.17300
G1 X95.423 Y96.310 E4.40834
G1 X94.502 Y97.088 E4.44679
G1 X93.830 Y97.875 E4.47976
G1 X93.782 Y97.839 E4.48169
G1 X93.782 Y97.041 E4.50715
G1 X99.732 Y91.090 E4.77544
G1 X98.821 Y91.090 E4.80448
G1 X93.782 Y96.130 E5.03171
G1 X93.782 Y95.219 E5.06075
G1 X97.910 Y91.090 E5.24692
G1 X97.000 Y91.090 E5.27596
G1 X93.782 Y94.309 E5.42106
G1 X93.782 Y93.398 E5.45010
G1 X96.089 Y91.090 E5.55415
G1 X95.178 Y91.090 E5.58318
G1 X93.782 Y92.487 E5.64617
G1 X93.782 Y91.577 E5.67520
G1 X94.268 Y91.090 E5.69713
G1 E3.69713 F2400.00000
G92 E0
G1 X93.951 Y98.315 F7800.000
G1 E2.00000 F2400.00000
G1 F1800.000
G1 X93.775 Y98.559 E2.00074
G1 X93.743 Y98.671 E2.00102
G1 X93.480 Y99.854 F7800.000
G1 F1800.000
G1 X93.411 Y100.439 E2.01936
G1 F1800.000
G1 X93.341 Y101.025 E2.03485
G1 F1800.000
G1 X93.298 Y102.083 E2.05757
G1 F1800.000
G1 X93.318 Y102.626 E2.06689
G1 F1800.000
G1 X93.341 Y103.175 E2.07851
G1 F1800.000
G1 X93.411 Y103.761 E2.09258
G1 F1800.000
G1 X93.480 Y104.346 E2.10949
G1 X93.743 Y105.529 F7800.000
G1 F1800.000
G1 X93.775 Y105.641 E2.10978
G1 X93.951 Y105.885 E2.11052
G1 X93.981 Y106.988 F7800.000
G1 F1800.000
G1 X93.830 Y106.811 E2.11777
G1 X93.782 Y106.847 E2.11965
G1 X93.782 Y107.188 E2.13030
G1 X94.467 Y106.502 E2.16056
G1 X94.878 Y106.983 E2.18028
G1 X93.782 Y108.079 E2.22865
G1 X93.782 Y108.970 E2.25646
G1 X95.340 Y107.412 E2.32521
G1 X95.820 Y107.823 E2.34493
G1 X93.782 Y109.861 E2.43489
G1 X93.782 Y110.753 E2.46270
G1 X96.365 Y108.169 E2.57668
G1 X96.924 Y108.501 E2.59697
G1 X89.907 Y115.518 E2.90660
G1 X90.798 Y115.518 E2.93440
G1 X97.554 Y108.762 E3.23251
G1 X97.946 Y108.925 E3.24576
G1 X98.218 Y108.990 E3.25446
G1 X91.689 Y115.518 E3.54253
G1 X92.580 Y115.518 E3.57033
G1 X98.936 Y109.162 E3.85079
G1 X99.080 Y109.197 E3.85541
G1 X99.741 Y109.249 E3.87608
G1 X93.472 Y115.518 E4.15271
G1 X94.363 Y115.518 E4.18052
G1 X100.622 Y109.259 E4.45673
G1 X101.406 Y109.197 E4.48124
G1 X101.629 Y109.143 E4.48840
G1 X95.254 Y115.518 E4.76969
G1 X96.145 Y115.518 E4.79749
G1 X102.879 Y108.784 E5.09464
G1 X103.617 Y108.478 E5.11955
G1 X104.611 Y107.869 E5.15593
G1 X105.119 Y107.436 E5.17676
G1 X97.036 Y115.518 E5.53340
G1 E3.53340 F2400.00000
G92 E0
G1 X89.016 Y115.518 F7800.000
G1 E2.00000 F2400.00000
G1 F1800.000
G1 X94.053 Y110.482 E2.22224
G1 X93.161 Y110.482 E2.25005
G1 X88.125 Y115.518 E2.47229
G1 X87.234 Y115.518 E2.50010
G1 X92.270 Y110.482 E2.72234
G1 X91.379 Y110.482 E2.75015
G1 X86.342 Y115.518 E2.97239
G1 X85.451 Y115.518 E3.00019
G1 X90.488 Y110.482 E3.22244
G1 X89.597 Y110.482 E3.25024
G1 X84.560 Y115.518 E3.47249
G1 X83.669 Y115.518 E3.50029
G1 X88.706 Y110.482 E3.72253
G1 X87.815 Y110.482 E3.75034
G1 X82.778 Y115.518 E3.97258
G1 X81.982 Y115.518 E3.99743
G1 X81.982 Y115.424 E4.00039
G1 X86.924 Y110.482 E4.21845
G1 X86.032 Y110.482 E4.24625
G1 X81.982 Y114.532 E4.42499
G1 X81.982 Y113.641 E4.45279
G1 X85.141 Y110.482 E4.59221
G1 X84.250 Y110.482 E4.62001
G1 X81.982 Y112.750 E4.72011
G1 X81.982 Y111.859 E4.74791
G1 X83.359 Y110.482 E4.80869
G1 X82.468 Y110.482 E4.83649
G1 X81.982 Y110.968 E4.85794
G1 E2.85794 F2400.00000
G92 E0
G1 X105.718 Y106.836 F7800.000
G1 E2.00000 F2400.00000
G1 F1800.000
G1 X105.684 Y106.811 E2.00133
G1 X105.336 Y107.219 E2.01804
G1 X106.204 Y106.350 E2.05635
G1 X106.218 Y106.361 E2.05690
G1 X106.218 Y107.227 E2.08393
G1 X97.927 Y115.518 E2.44977
G1 X98.818 Y115.518 E2.47758
G1 X106.218 Y108.118 E2.80410
G1 X106.218 Y109.009 E2.83191
G1 X99.709 Y115.518 E3.11911
G1 X100.601 Y115.518 E3.14691
G1 X106.218 Y109.901 E3.39479
G1 X106.218 Y110.482 E3.41292
G1 X106.529 Y110.482 E3.42260
G1 X101.492 Y115.518 E3.64484
G1 X102.383 Y115.518 E3.67265
G1 X107.420 Y110.482 E3.89489
G1 X108.311 Y110.482 E3.92269
G1 X103.274 Y115.518 E4.14494
G1 X104.165 Y115.518 E4.17274
G1 X109.202 Y110.482 E4.39499
G1 X110.093 Y110.482 E4.42279
G1 X105.056 Y115.518 E4.64504
G1 X105.947 Y115.518 E4.67284
G1 X110.984 Y110.482 E4.89508
G1 X111.875 Y110.482 E4.92289
G1 X106.839 Y115.518 E5.14513
G1 X107.730 Y115.518 E5.17294
G1 X112.766 Y110.482 E5.39518
G1 X113.658 Y110.482 E5.42298
G1 X108.621 Y115.518 E5.64523
G1 X109.512 Y115.518 E5.67303
G1 X114.549 Y110.482 E5.89528
G1 X115.440 Y110.482 E5.92308
G1 X110.403 Y115.518 E6.14533
G1 X111.294 Y115.518 E6.17313
G1 X116.331 Y110.482 E6.39537
G1 X117.222 Y110.482 E6.42318
G1 X112.185 Y115.518 E6.64542
G1 X113.077 Y115.518 E6.67323
G1 X118.018 Y110.577 E6.89128
G1 X118.018 Y111.468 E6.91909
G1 X113.968 Y115.518 E7.09783
G1 X114.859 Y115.518 E7.12563
G1 X118.018 Y112.359 E7.26504
G1 X118.018 Y113.250 E7.29285
G1 X115.750 Y115.518 E7.39294
G1 X116.641 Y115.518 E7.42075
G1 X118.018 Y114.141 E7.48152
G1 X118.018 Y115.032 E7.50933
G1 X117.532 Y115.518 E7.53078
G1 Z0.650 F7800.000
G1 E5.53078 F2400.00000
G92 E0
G1 X93.926 Y99.943 F7800.000
G1 E2.00000 F2400.00000
G1 F900.000
G1 X95.730 Y97.830 E2.07493
G1 X96.451 Y97.215 E2.10049
G1 X97.259 Y96.720 E2.12605
G1 X98.134 Y96.357 E2.15161
G1 X99.055 Y96.136 E2.17717
G1 X100.000 Y96.062 E2.20273
G1 X100.945 Y96.136 E2.22829
G1 X101.866 Y96.357 E2.25386
G1 X102.741 Y96.720 E2.27942
G1 X103.549 Y97.215 E2.30498
G1 X104.270 Y97.830 E2.33054
G1 X104.885 Y98.551 E2.35610
G1 X105.380 Y99.359 E2.38166
G1 X105.743 Y100.234 E2.40722
G1 X105.964 Y101.155 E2.43278
G1 X106.038 Y102.100 E2.45834
G1 X105.964 Y103.045 E2.48390
G1 X105.743 Y103.966 E2.50946
G1 X105.380 Y104.841 E2.53502
G1 X104.885 Y105.649 E2.56058
G1 X104.270 Y106.370 E2.58614
G1 X103.549 Y106.985 E2.61170
G1 X102.741 Y107.480 E2.63726
G1 X101.866 Y107.843 E2.66282
G1 X100.945 Y108.064 E2.68838
G1 X100.000 Y108.138 E2.71394
G1 X99.055 Y108.064 E2.73950
G1 X98.134 Y107.843 E2.76506
G1 X97.259 Y107.480 E2.79062
G1 X96.451 Y106.985 E2.81618
G1 X95.730 Y106.370 E2.84174
G1 X95.115 Y105.649 E2.86730
G1 X94.620 Y104.841 E2.89287
G1 X94.257 Y103.966 E2.91842
G1 X94.036 Y103.045 E2.94398
G1 X93.962 Y102.100 E2.96955
G1 X94.036 Y101.155 E2.99511
G1 X94.257 Y100.234 E3.02067
G1 X94.378 Y99.943 E3.02918
G1 X94.001 Y99.943 E3.03934
G1 X94.830 Y100.317 F7800.000
G1 F900.000
G1 X95.121 Y99.614 E3.05502
G1 X95.263 Y99.382 E3.06063
G1 X95.142 Y99.382 E3.06312
G1 X96.128 Y98.228 E3.09440
G1 X96.781 Y97.670 E3.11210
G1 X97.514 Y97.221 E3.12981
G1 X98.308 Y96.892 E3.14752
G1 X99.143 Y96.692 E3.16523
G1 X100.000 Y96.624 E3.18294
G1 X100.857 Y96.692 E3.20065
G1 X101.692 Y96.892 E3.21836
G1 X102.486 Y97.221 E3.23607
G1 X103.219 Y97.670 E3.25378
G1 X103.872 Y98.228 E3.27149
G1 X104.430 Y98.881 E3.28920
G1 X104.879 Y99.614 E3.30691
G1 X105.208 Y100.408 E3.32462
G1 X105.408 Y101.243 E3.34233
G1 X105.476 Y102.100 E3.36004
G1 X105.408 Y102.957 E3.37775
G1 X105.208 Y103.792 E3.39546
G1 X104.879 Y104.586 E3.41317
G1 X104.430 Y105.319 E3.43088
G1 X103.872 Y105.972 E3.44859
G1 X103.219 Y106.530 E3.46630
G1 X102.486 Y106.979 E3.48401
G1 X101.692 Y107.308 E3.50172
G1 X100.857 Y107.508 E3.51943
G1 X100.000 Y107.576 E3.53714
G1 X99.143 Y107.508 E3.55485
G1 X98.308 Y107.308 E3.57256
G1 X97.514 Y106.979 E3.59027
G1 X96.781 Y106.530 E3.60797
G1 X96.128 Y105.972 E3.62568
G1 X95.570 Y105.319 E3.64339
G1 X95.121 Y104.586 E3.66110
G1 X94.792 Y103.792 E3.67881
G1 X94.592 Y102.957 E3.69652
G1 X94.524 Y102.100 E3.71423
G1 X94.592 Y101.243 E3.73194
G1 X94.801 Y100.386 E3.75013
G1 X94.507 Y99.935 F7800.000
G1 X97.501 Y89.829 F7800.000
G1 F3600.000
G1 X102.499 Y89.829 E3.88498
G1 X102.748 Y89.399 E3.89838
G1 X106.729 Y89.399 E4.00577
G1 X106.729 Y100.177 E4.29653
G1 X106.392 Y100.217 E4.30567
G1 X106.349 Y100.037 E4.31066
G1 X105.948 Y99.069 E4.33892
G1 X105.401 Y98.176 E4.36718
G1 X104.720 Y97.379 E4.39544
G1 X103.924 Y96.699 E4.42369
G1 X103.031 Y96.152 E4.45195
G1 X102.063 Y95.751 E4.48021
G1 X101.044 Y95.506 E4.50847
G1 X100.000 Y95.424 E4.53673
G1 X98.956 Y95.506 E4.56499
G1 X97.937 Y95.751 E4.59325
G1 X96.969 Y96.152 E4.62151
G1 X96.076 Y96.699 E4.64977
G1 X95.279 Y97.379 E4.67803
G1 X93.271 Y99.731 E4.76145
G1 X93.271 Y89.399 E5.04016
G1 X97.252 Y89.399 E5.14756
G1 X97.463 Y89.764 E5.15893
G1 E3.15893 F2400.00000
G92 E0
G1 X93.271 Y109.971 F7800.000
G1 E2.00000 F2400.00000
G1 F3600.000
G1 X93.271 Y104.023 E2.16046
G1 X93.608 Y103.983 E2.16961
G1 X93.651 Y104.163 E2.17460
G1 X94.052 Y105.131 E2.20285
G1 X94.599 Y106.024 E2.23111
G1 X95.280 Y106.821 E2.25937
G1 X96.076 Y107.501 E2.28763
G1 X96.969 Y108.048 E2.31589
G1 X97.937 Y108.449 E2.34415
