; generated by Slic3r 1.3.1-dev (Build adea0d9) on 2020-02-19 at 16:52:59

; external perimeters extrusion width = 0.44mm (2.86mm^3/s)
; perimeters extrusion width = 0.56mm (4.14mm^3/s)
; infill extrusion width = 0.50mm (3.66mm^3/s)
; solid infill extrusion width = 0.56mm (3.10mm^3/s)
; top infill extrusion width = 0.56mm (3.10mm^3/s)

M107
G92 E0
;D3D:START:START
T0
M104 S215 T0

G21
G90
M107
T0
G28
G29
M109 T0 S215 T0
G0 F3000
M107
T0
G92 E0
G0 X0 Y149 Z0.1 F3600
G1 Y49 E6.5 F1200
G0 Z1
G92 E0
; Filament gcode

G21 ; set units to millimeters
G90 ; use absolute coordinates
M82 ; use absolute distances for extrusion
G92 E0
G1 Z0.300 F7800.000
G1 E-2.00000 F2400.00000
G92 E0
G1 X63.196 Y63.196 F7800.000
G1 E2.00000 F2400.00000
G1 F1800.000
G1 X86.804 Y63.196 E2.78211
G1 X86.804 Y86.804 E3.56421
G1 X63.196 Y86.804 E4.34632
G1 X63.196 Y63.256 E5.12644
G1 X62.931 Y62.931 F7800.000
G1 F1800.000
G1 X87.069 Y62.931 E5.92614
G1 X87.069 Y87.069 E6.72585
G1 X62.931 Y87.069 E7.52555
G1 X62.931 Y62.991 E8.32327
G1 X62.665 Y62.665 F7800.000
G1 F1800.000
G1 X87.335 Y62.665 E9.14058
G1 X87.335 Y87.335 E9.95788
G1 X62.665 Y87.335 E10.77519
G1 X62.665 Y62.725 E11.59050
G1 X63.565 Y63.359 F7800.000
G1 F1800.000
G1 X63.359 Y63.565 E11.60026
G1 X63.359 Y63.944 E11.61288
G1 X63.944 Y63.359 E11.64049
G1 X64.322 Y63.359 E11.65311
G1 X63.359 Y64.322 E11.69856
G1 X63.359 Y64.700 E11.71119
G1 X64.700 Y63.359 E11.77449
G1 X65.079 Y63.359 E11.78711
G1 X63.359 Y65.079 E11.86827
G1 X63.359 Y65.457 E11.88089
G1 X65.457 Y63.359 E11.97989
G1 X65.835 Y63.359 E11.99251
G1 X63.359 Y65.835 E12.10936
G1 X63.359 Y66.213 E12.12199
G1 X66.213 Y63.359 E12.25669
G1 X66.592 Y63.359 E12.26931
G1 X63.359 Y66.592 E12.42186
G1 X63.359 Y66.970 E12.43448
G1 X66.970 Y63.359 E12.60488
G1 X67.348 Y63.359 E12.61750
G1 X63.359 Y67.348 E12.80575
G1 X63.359 Y67.727 E12.81838
G1 X67.727 Y63.359 E13.02448
G1 X68.105 Y63.359 E13.03710
G1 X63.359 Y68.105 E13.26105
G1 X63.359 Y68.483 E13.27367
G1 X68.483 Y63.359 E13.51547
G1 X68.861 Y63.359 E13.52809
G1 X63.359 Y68.861 E13.78773
G1 X63.359 Y69.240 E13.80036
G1 X69.240 Y63.359 E14.07785
G1 X69.618 Y63.359 E14.09047
G1 X63.359 Y69.618 E14.38582
G1 X63.359 Y69.996 E14.39844
G1 X69.996 Y63.359 E14.71164
G1 X70.375 Y63.359 E14.72426
G1 X63.359 Y70.375 E15.05530
G1 X63.359 Y70.753 E15.06793
G1 X70.753 Y63.359 E15.41682
G1 X71.131 Y63.359 E15.42944
G1 X63.359 Y71.131 E15.79619
G1 X63.359 Y71.510 E15.80881
G1 X71.510 Y63.359 E16.19340
G1 X71.888 Y63.359 E16.20602
G1 X63.359 Y71.888 E16.60846
G1 X63.359 Y72.266 E16.62109
G1 X72.266 Y63.359 E17.04138
G1 X72.644 Y63.359 E17.05400
G1 X63.359 Y72.644 E17.49214
G1 X63.359 Y73.023 E17.50476
G1 X73.023 Y63.359 E17.96075
G1 X73.401 Y63.359 E17.97337
G1 X63.359 Y73.401 E18.44721
G1 X63.359 Y73.779 E18.45984
G1 X73.779 Y63.359 E18.95153
G1 X74.158 Y63.359 E18.96415
G1 X63.359 Y74.158 E19.47369
G1 X63.359 Y74.536 E19.48631
G1 X74.536 Y63.359 E20.01370
G1 X74.914 Y63.359 E20.02632
G1 X63.359 Y74.914 E20.57155
G1 X63.359 Y75.293 E20.58418
G1 X75.293 Y63.359 E21.14726
G1 X75.671 Y63.359 E21.15988
G1 X63.359 Y75.671 E21.74082
G1 X63.359 Y76.049 E21.75344
G1 X76.049 Y63.359 E22.35223
G1 X76.427 Y63.359 E22.36485
G1 X63.359 Y76.427 E22.98149
G1 X63.359 Y76.806 E22.99411
G1 X76.806 Y63.359 E23.62859
G1 X77.184 Y63.359 E23.64121
G1 X63.359 Y77.184 E24.29355
G1 X63.359 Y77.562 E24.30617
G1 X77.562 Y63.359 E24.97635
G1 X77.941 Y63.359 E24.98897
G1 X63.359 Y77.941 E25.67701
G1 X63.359 Y78.319 E25.68963
G1 X78.319 Y63.359 E26.39551
G1 X78.697 Y63.359 E26.40813
G1 X63.359 Y78.697 E27.13186
G1 X63.359 Y79.076 E27.14448
G1 X79.076 Y63.359 E27.88606
G1 X79.454 Y63.359 E27.89869
G1 X63.359 Y79.454 E28.65812
G1 X63.359 Y79.832 E28.67074
G1 X79.832 Y63.359 E29.44802
G1 X80.210 Y63.359 E29.46064
G1 X63.359 Y80.210 E30.25577
G1 X63.359 Y80.589 E30.26839
G1 X80.589 Y63.359 E31.08137
G1 X80.967 Y63.359 E31.09399
G1 X63.359 Y80.967 E31.92482
G1 X63.359 Y81.345 E31.93744
G1 X81.345 Y63.359 E32.78612
G1 X81.724 Y63.359 E32.79874
G1 X63.359 Y81.724 E33.66526
G1 X63.359 Y82.102 E33.67788
G1 X82.102 Y63.359 E34.56226
G1 X82.480 Y63.359 E34.57488
G1 X63.359 Y82.480 E35.47711
G1 X63.359 Y82.858 E35.48973
G1 X82.859 Y63.359 E36.40980
G1 X83.237 Y63.359 E36.42242
G1 X63.359 Y83.237 E37.36035
G1 X63.359 Y83.615 E37.37297
G1 X83.615 Y63.359 E38.32874
G1 X83.993 Y63.359 E38.34137
G1 X63.359 Y83.993 E39.31499
G1 X63.359 Y84.372 E39.32761
G1 X84.372 Y63.359 E40.31908
G1 X84.750 Y63.359 E40.33170
G1 X63.359 Y84.750 E41.34102
G1 X63.359 Y85.128 E41.35365
G1 X85.128 Y63.359 E42.38082
G1 X85.507 Y63.359 E42.39344
G1 X63.359 Y85.507 E43.43846
G1 X63.359 Y85.885 E43.45108
G1 X85.885 Y63.359 E44.51395
G1 X86.263 Y63.359 E44.52657
G1 X63.359 Y86.263 E45.60729
G1 X63.359 Y86.641 E45.61991
G1 X86.641 Y63.359 E46.71848
G1 X86.641 Y63.737 E46.73110
G1 X63.737 Y86.641 E47.81182
G1 X64.115 Y86.641 E47.82444
G1 X86.641 Y64.115 E48.88731
G1 X86.641 Y64.493 E48.89993
G1 X64.493 Y86.641 E49.94495
G1 X64.872 Y86.641 E49.95757
G1 X86.641 Y64.872 E50.98474
G1 X86.641 Y65.250 E50.99736
G1 X65.250 Y86.641 E52.00668
G1 X65.628 Y86.641 E52.01930
G1 X86.641 Y65.628 E53.01077
G1 X86.641 Y66.007 E53.02339
G1 X66.007 Y86.641 E53.99702
G1 X66.385 Y86.641 E54.00964
G1 X86.641 Y66.385 E54.96541
G1 X86.641 Y66.763 E54.97803
G1 X66.763 Y86.641 E55.91595
G1 X67.142 Y86.641 E55.92857
G1 X86.641 Y67.142 E56.84865
G1 X86.641 Y67.520 E56.86127
G1 X67.520 Y86.641 E57.76349
G1 X67.898 Y86.641 E57.77611
G1 X86.641 Y67.898 E58.66049
G1 X86.641 Y68.276 E58.67311
G1 X68.276 Y86.641 E59.53963
G1 X68.655 Y86.641 E59.55226
G1 X86.641 Y68.655 E60.40093
G1 X86.641 Y69.033 E60.41355
G1 X69.033 Y86.641 E61.24438
G1 X69.411 Y86.641 E61.25700
G1 X86.641 Y69.411 E62.06998
G1 X86.641 Y69.790 E62.08260
G1 X69.790 Y86.641 E62.87773
G1 X70.168 Y86.641 E62.89035
G1 X86.641 Y70.168 E63.66763
G1 X86.641 Y70.546 E63.68025
G1 X70.546 Y86.641 E64.43968
G1 X70.925 Y86.641 E64.45230
G1 X86.641 Y70.925 E65.19388
G1 X86.641 Y71.303 E65.20650
G1 X71.303 Y86.641 E65.93023
G1 X71.681 Y86.641 E65.94285
G1 X86.641 Y71.681 E66.64873
G1 X86.641 Y72.059 E66.66135
G1 X72.059 Y86.641 E67.34938
G1 X72.438 Y86.641 E67.36200
G1 X86.641 Y72.438 E68.03219
G1 X86.641 Y72.816 E68.04481
G1 X72.816 Y86.641 E68.69714
G1 X73.194 Y86.641 E68.70976
G1 X86.641 Y73.194 E69.34424
G1 X86.641 Y73.573 E69.35687
G1 X73.573 Y86.641 E69.97350
G1 X73.951 Y86.641 E69.98612
G1 X86.641 Y73.951 E70.58491
G1 X86.641 Y74.329 E70.59753
G1 X74.329 Y86.641 E71.17846
G1 X74.707 Y86.641 E71.19108
G1 X86.641 Y74.707 E71.75417
G1 X86.641 Y75.086 E71.76679
G1 X75.086 Y86.641 E72.31203
G1 X75.464 Y86.641 E72.32465
G1 X86.641 Y75.464 E72.85204
G1 X86.641 Y75.842 E72.86466
G1 X75.842 Y86.641 E73.37419
G1 X76.221 Y86.641 E73.38682
G1 X86.641 Y76.221 E73.87850
G1 X86.641 Y76.599 E73.89112
G1 X76.599 Y86.641 E74.36496
G1 X76.977 Y86.641 E74.37759
G1 X86.641 Y76.977 E74.83357
G1 X86.641 Y77.356 E74.84620
G1 X77.356 Y86.641 E75.28434
G1 X77.734 Y86.641 E75.29696
G1 X86.641 Y77.734 E75.71725
G1 X86.641 Y78.112 E75.72987
G1 X78.112 Y86.641 E76.13231
G1 X78.490 Y86.641 E76.14493
G1 X86.641 Y78.490 E76.52952
G1 X86.641 Y78.869 E76.54214
G1 X78.869 Y86.641 E76.90889
G1 X79.247 Y86.641 E76.92151
G1 X86.641 Y79.247 E77.27040
G1 X86.641 Y79.625 E77.28302
G1 X79.625 Y86.641 E77.61407
G1 X80.004 Y86.641 E77.62669
G1 X86.641 Y80.004 E77.93988
G1 X86.641 Y80.382 E77.95250
G1 X80.382 Y86.641 E78.24785
G1 X80.760 Y86.641 E78.26047
G1 X86.641 Y80.760 E78.53797
G1 X86.641 Y81.139 E78.55059
G1 X81.139 Y86.641 E78.81023
G1 X81.517 Y86.641 E78.82285
G1 X86.641 Y81.517 E79.06465
G1 X86.641 Y81.895 E79.07727
G1 X81.895 Y86.641 E79.30122
G1 X82.273 Y86.641 E79.31384
G1 X86.641 Y82.273 E79.51994
G1 X86.641 Y82.652 E79.53256
G1 X82.652 Y86.641 E79.72081
G1 X83.030 Y86.641 E79.73343
G1 X86.641 Y83.030 E79.90383
G1 X86.641 Y83.408 E79.91645
G1 X83.408 Y86.641 E80.06900
G1 X83.787 Y86.641 E80.08162
G1 X86.641 Y83.787 E80.21632
G1 X86.641 Y84.165 E80.22895
G1 X84.165 Y86.641 E80.34580
G1 X84.543 Y86.641 E80.35842
G1 X86.641 Y84.543 E80.45742
G1 X86.641 Y84.922 E80.47004
G1 X84.922 Y86.641 E80.55119
G1 X85.300 Y86.641 E80.56381
G1 X86.641 Y85.300 E80.62712
G1 X86.641 Y85.678 E80.63974
G1 X85.678 Y86.641 E80.68519
G1 X86.056 Y86.641 E80.69781
G1 X86.641 Y86.056 E80.72542
G1 X86.641 Y86.435 E80.73804
G1 X86.435 Y86.641 E80.74779
M106 S255
G1 Z0.500 F7800.000
G1 E78.74779 F2400.00000
G92 E0
G1 X63.177 Y63.177 F7800.000
G1 E2.00000 F2400.00000
G1 F2400.000
G1 X86.823 Y63.177 E3.01666
G1 X86.823 Y86.823 E4.03332
G1 X63.177 Y86.823 E5.04998
G1 X63.177 Y63.237 E6.06407
G1 X62.720 Y62.720 F7800.000
G1 F2160.000
G1 X87.280 Y62.720 E6.87497
G1 X87.280 Y87.280 E7.68588
G1 X62.720 Y87.280 E8.49678
G1 X62.720 Y62.780 E9.30570
G1 E7.30570 F2400.00000
G92 E0
G1 X63.895 Y86.507 F7800.000
G1 E2.00000 F2400.00000
G1 F1800.000
G1 X63.493 Y86.105 E2.02479
G1 X63.493 Y85.363 E2.05711
G1 X64.637 Y86.507 E2.12761
G1 X65.378 Y86.507 E2.15993
G1 X63.493 Y84.622 E2.27613
G1 X63.493 Y83.881 E2.30845
G1 X66.119 Y86.507 E2.47035
G1 X66.861 Y86.507 E2.50267
G1 X63.493 Y83.139 E2.71028
G1 X63.493 Y82.398 E2.74259
G1 X67.602 Y86.507 E2.99590
G1 X68.344 Y86.507 E3.02821
G1 X63.493 Y81.656 E3.32722
G1 X63.493 Y80.915 E3.35954
G1 X69.085 Y86.507 E3.70425
G1 X69.826 Y86.507 E3.73656
G1 X63.493 Y80.174 E4.12697
G1 X63.493 Y79.432 E4.15929
G1 X70.568 Y86.507 E4.59540
G1 X71.309 Y86.507 E4.62772
G1 X63.493 Y78.691 E5.10953
G1 X63.493 Y77.950 E5.14185
G1 X72.050 Y86.507 E5.66936
G1 X72.792 Y86.507 E5.70168
G1 X63.493 Y77.208 E6.27489
G1 X63.493 Y76.467 E6.30721
G1 X73.533 Y86.507 E6.92612
G1 X74.274 Y86.507 E6.95844
G1 X63.493 Y75.726 E7.62306
G1 X63.493 Y74.984 E7.65537
G1 X75.016 Y86.507 E8.36569
G1 X75.757 Y86.507 E8.39800
G1 X63.493 Y74.243 E9.15402
G1 X63.493 Y73.501 E9.18634
G1 X76.499 Y86.507 E9.98806
G1 X77.240 Y86.507 E10.02038
G1 X63.493 Y72.760 E10.86780
G1 X63.493 Y72.019 E10.90011
G1 X77.981 Y86.507 E11.79323
G1 X78.723 Y86.507 E11.82555
G1 X63.493 Y71.277 E12.76437
G1 X63.493 Y70.536 E12.79669
G1 X79.464 Y86.507 E13.78121
G1 X80.205 Y86.507 E13.81353
G1 X63.493 Y69.795 E14.84375
G1 X63.493 Y69.053 E14.87607
G1 X80.947 Y86.507 E15.95200
G1 X81.688 Y86.507 E15.98431
G1 X63.493 Y68.312 E17.10594
G1 X63.493 Y67.571 E17.13826
G1 X82.429 Y86.507 E18.30558
G1 X83.171 Y86.507 E18.33790
G1 X63.493 Y66.829 E19.55093
G1 X63.493 Y66.088 E19.58324
G1 X83.912 Y86.507 E20.84198
G1 X84.654 Y86.507 E20.87429
G1 X63.493 Y65.346 E22.17872
G1 X63.493 Y64.605 E22.21104
G1 X85.395 Y86.507 E23.56117
G1 X86.136 Y86.507 E23.59349
G1 X63.493 Y63.864 E24.98932
G1 X63.493 Y63.493 E25.00548
G1 X63.864 Y63.493 E25.02164
G1 X86.507 Y86.136 E26.41747
G1 X86.507 Y85.395 E26.44979
G1 X64.605 Y63.493 E27.79992
G1 X65.346 Y63.493 E27.83223
G1 X86.507 Y84.654 E29.13666
G1 X86.507 Y83.912 E29.16898
G1 X66.088 Y63.493 E30.42771
G1 X66.829 Y63.493 E30.46002
G1 X86.507 Y83.171 E31.67305
G1 X86.507 Y82.429 E31.70537
G1 X67.571 Y63.493 E32.87270
G1 X68.312 Y63.493 E32.90501
G1 X86.507 Y81.688 E34.02664
G1 X86.507 Y80.947 E34.05895
G1 X69.053 Y63.493 E35.13488
G1 X69.795 Y63.493 E35.16720
G1 X86.507 Y80.205 E36.19742
G1 X86.507 Y79.464 E36.22974
G1 X70.536 Y63.493 E37.21426
G1 X71.277 Y63.493 E37.24658
G1 X86.507 Y78.723 E38.18540
G1 X86.507 Y77.981 E38.21771
G1 X72.019 Y63.493 E39.11084
G1 X72.760 Y63.493 E39.14315
G1 X86.507 Y77.240 E39.99057
G1 X86.507 Y76.499 E40.02289
G1 X73.501 Y63.493 E40.82461
G1 X74.243 Y63.493 E40.85692
G1 X86.507 Y75.757 E41.61294
G1 X86.507 Y75.016 E41.64526
G1 X74.984 Y63.493 E42.35557
G1 X75.726 Y63.493 E42.38789
G1 X86.507 Y74.274 E43.05251
G1 X86.507 Y73.533 E43.08482
G1 X76.467 Y63.493 E43.70374
G1 X77.208 Y63.493 E43.73605
G1 X86.507 Y72.792 E44.30927
G1 X86.507 Y72.050 E44.34158
G1 X77.950 Y63.493 E44.86909
G1 X78.691 Y63.493 E44.90141
G1 X86.507 Y71.309 E45.38322
G1 X86.507 Y70.568 E45.41554
G1 X79.432 Y63.493 E45.85165
G1 X80.174 Y63.493 E45.88396
G1 X86.507 Y69.826 E46.27437
G1 X86.507 Y69.085 E46.30669
G1 X80.915 Y63.493 E46.65140
G1 X81.656 Y63.493 E46.68371
G1 X86.507 Y68.344 E46.98272
G1 X86.507 Y67.602 E47.01504
G1 X82.398 Y63.493 E47.26834
G1 X83.139 Y63.493 E47.30066
G1 X86.507 Y66.861 E47.50827
G1 X86.507 Y66.119 E47.54058
G1 X83.881 Y63.493 E47.70249
G1 X84.622 Y63.493 E47.73480
G1 X86.507 Y65.378 E47.85101
G1 X86.507 Y64.637 E47.88332
G1 X85.363 Y63.493 E47.95382
G1 X86.105 Y63.493 E47.98614
G1 X86.507 Y63.895 E48.01094
G1 Z0.700 F7800.000
G1 E46.01094 F2400.00000
G92 E0
G1 X63.177 Y63.177 F7800.000
G1 E2.00000 F2400.00000
G1 F2400.000
G1 X86.823 Y63.177 E3.01666
G1 X86.823 Y86.823 E4.03332
G1 X63.177 Y86.823 E5.04998
G1 X63.177 Y63.237 E6.06407
G1 X62.720 Y62.720 F7800.000
G1 F2160.000
G1 X87.280 Y62.720 E6.87497
G1 X87.280 Y87.280 E7.68588
G1 X62.720 Y87.280 E8.49678
G1 X62.720 Y62.780 E9.30570
G1 X63.493 Y63.895 F7800.000
G1 F1800.000
G1 X63.895 Y63.493 E9.33050
G1 X64.637 Y63.493 E9.36281
G1 X63.493 Y64.637 E9.43332
G1 X63.493 Y65.378 E9.46563
G1 X65.378 Y63.493 E9.58184
G1 X66.119 Y63.493 E9.61415
G1 X63.493 Y66.119 E9.77606
G1 X63.493 Y66.861 E9.80837
G1 X66.861 Y63.493 E10.01598
G1 X67.602 Y63.493 E10.04830
G1 X63.493 Y67.602 E10.30160
G1 X63.493 Y68.344 E10.33392
G1 X68.344 Y63.493 E10.63293
G1 X69.085 Y63.493 E10.66524
G1 X63.493 Y69.085 E11.00995
G1 X63.493 Y69.826 E11.04227
G1 X69.826 Y63.493 E11.43268
G1 X70.568 Y63.493 E11.46500
G1 X63.493 Y70.568 E11.90111
G1 X63.493 Y71.309 E11.93342
G1 X71.309 Y63.493 E12.41524
G1 X72.050 Y63.493 E12.44755
G1 X63.493 Y72.050 E12.97507
G1 X63.493 Y72.792 E13.00738
G1 X72.792 Y63.493 E13.58060
G1 X73.533 Y63.493 E13.61291
G1 X63.493 Y73.533 E14.23183
G1 X63.493 Y74.274 E14.26414
G1 X74.274 Y63.493 E14.92876
G1 X75.016 Y63.493 E14.96108
G1 X63.493 Y75.016 E15.67139
G1 X63.493 Y75.757 E15.70371
G1 X75.757 Y63.493 E16.45973
G1 X76.499 Y63.493 E16.49204
G1 X63.493 Y76.499 E17.29376
G1 X63.493 Y77.240 E17.32608
G1 X77.240 Y63.493 E18.17350
G1 X77.981 Y63.493 E18.20582
G1 X63.493 Y77.981 E19.09894
G1 X63.493 Y78.723 E19.13126
G1 X78.723 Y63.493 E20.07008
G1 X79.464 Y63.493 E20.10239
G1 X63.493 Y79.464 E21.08692
G1 X63.493 Y80.205 E21.11923
G1 X80.205 Y63.493 E22.14946
G1 X80.947 Y63.493 E22.18178
G1 X63.493 Y80.947 E23.25770
G1 X63.493 Y81.688 E23.29002
G1 X81.688 Y63.493 E24.41164
G1 X82.429 Y63.493 E24.44396
G1 X63.493 Y82.429 E25.61129
G1 X63.493 Y83.171 E25.64360
G1 X83.171 Y63.493 E26.85663
G1 X83.912 Y63.493 E26.88895
G1 X63.493 Y83.912 E28.14768
G1 X63.493 Y84.654 E28.18000
G1 X84.654 Y63.493 E29.48443
G1 X85.395 Y63.493 E29.51674
G1 X63.493 Y85.395 E30.86688
G1 X63.493 Y86.136 E30.89919
G1 X86.136 Y63.493 E32.29503
G1 X86.507 Y63.493 E32.31118
G1 X86.507 Y63.864 E32.32734
G1 X63.864 Y86.507 E33.72317
G1 X64.605 Y86.507 E33.75549
G1 X86.507 Y64.605 E35.10562
G1 X86.507 Y65.346 E35.13794
G1 X65.346 Y86.507 E36.44237
G1 X66.088 Y86.507 E36.47468
G1 X86.507 Y66.088 E37.73341
G1 X86.507 Y66.829 E37.76573
G1 X66.829 Y86.507 E38.97876
G1 X67.571 Y86.507 E39.01107
G1 X86.507 Y67.571 E40.17840
G1 X86.507 Y68.312 E40.21072
G1 X68.312 Y86.507 E41.33234
G1 X69.053 Y86.507 E41.36466
G1 X86.507 Y69.053 E42.44059
G1 X86.507 Y69.795 E42.47290
G1 X69.795 Y86.507 E43.50313
G1 X70.536 Y86.507 E43.53544
G1 X86.507 Y70.536 E44.51996
G1 X86.507 Y71.277 E44.55228
G1 X71.277 Y86.507 E45.49110
G1 X72.019 Y86.507 E45.52342
G1 X86.507 Y72.019 E46.41654
G1 X86.507 Y72.760 E46.44886
G1 X72.760 Y86.507 E47.29628
G1 X73.501 Y86.507 E47.32859
G1 X86.507 Y73.501 E48.13031
G1 X86.507 Y74.243 E48.16263
G1 X74.243 Y86.507 E48.91864
G1 X74.984 Y86.507 E48.95096
G1 X86.507 Y74.984 E49.66128
G1 X86.507 Y75.726 E49.69359
G1 X75.726 Y86.507 E50.35821
G1 X76.467 Y86.507 E50.39053
G1 X86.507 Y76.467 E51.00944
G1 X86.507 Y77.208 E51.04176
G1 X77.208 Y86.507 E51.61497
G1 X77.950 Y86.507 E51.64729
G1 X86.507 Y77.950 E52.17480
G1 X86.507 Y78.691 E52.20711
G1 X78.691 Y86.507 E52.68893
G1 X79.432 Y86.507 E52.72124
G1 X86.507 Y79.432 E53.15735
G1 X86.507 Y80.174 E53.18967
G1 X80.174 Y86.507 E53.58008
G1 X80.915 Y86.507 E53.61239
G1 X86.507 Y80.915 E53.95710
