; generated by Slic3r 1.3.1-dev (Build (Unknown revision)) on 2019-12-19 at 23:13:37

; external perimeters extrusion width = 0.55mm (4.37mm^3/s)
; perimeters extrusion width = 0.70mm (11.44mm^3/s)
; infill extrusion width = 0.62mm (13.45mm^3/s)
; solid infill extrusion width = 0.70mm (3.81mm^3/s)
; top infill extrusion width = 0.70mm (2.86mm^3/s)

M107
G92 E0
M104 S200 ; set temperature
G28 ; home all axes
G1 Z5 F5000 ; lift nozzle

; Filament gcode

M109 S200 ; set temperature and wait for it to be reached
G21 ; set units to millimeters
G90 ; use absolute coordinates
M82 ; use absolute distances for extrusion
G92 E0
G1 Z0.350 F7800.000
G1 E-2.00000 F2400.00000
G92 E0
G1 X89.164 Y84.699 F7800.000
G1 E2.00000 F2400.00000
G1 F1800.000
G1 X89.899 Y83.964 E2.03216
G1 X90.878 Y83.128 E2.07198
G1 X91.719 Y82.517 E2.10414
G1 X92.816 Y81.845 E2.14396
G1 X93.742 Y81.373 E2.17612
G1 X94.931 Y80.881 E2.21593
G1 X95.920 Y80.559 E2.24810
G1 X97.171 Y80.259 E2.28791
G1 X98.197 Y80.096 E2.32008
G1 X99.480 Y79.996 E2.35989
G1 X100.520 Y79.996 E2.39206
G1 X101.803 Y80.096 E2.43187
G1 X102.829 Y80.259 E2.46404
G1 X104.080 Y80.559 E2.50385
G1 X105.069 Y80.881 E2.53601
G1 X106.258 Y81.373 E2.57583
G1 X107.184 Y81.845 E2.60799
G1 X108.281 Y82.517 E2.64781
G1 X109.122 Y83.128 E2.67997
G1 X110.101 Y83.964 E2.71979
G1 X110.836 Y84.699 E2.75195
G1 X111.672 Y85.678 E2.79176
G1 X112.283 Y86.519 E2.82393
G1 X112.955 Y87.616 E2.86374
G1 X113.427 Y88.542 E2.89591
G1 X113.919 Y89.731 E2.93572
G1 X114.241 Y90.720 E2.96789
G1 X114.541 Y91.971 E3.00770
G1 X114.704 Y92.997 E3.03986
G1 X114.804 Y94.280 E3.07968
G1 X114.825 Y94.800 E3.09577
G1 X114.825 Y113.400 E3.67128
G1 X114.428 Y115.659 E3.74224
G1 X113.285 Y117.647 E3.81321
G1 X111.532 Y119.126 E3.88417
G1 X109.380 Y119.919 E3.95513
G1 X108.200 Y120.025 E3.99178
G1 X91.800 Y120.025 E4.49922
G1 X89.541 Y119.628 E4.57018
G1 X87.553 Y118.485 E4.64114
G1 X86.074 Y116.732 E4.71211
G1 X85.281 Y114.580 E4.78307
G1 X85.175 Y113.400 E4.81972
G1 X85.175 Y94.800 E5.39523
G1 X85.196 Y94.280 E5.41132
G1 X85.296 Y92.997 E5.45114
G1 X85.459 Y91.971 E5.48330
G1 X85.759 Y90.720 E5.52311
G1 X86.081 Y89.731 E5.55528
G1 X86.573 Y88.542 E5.59509
G1 X87.045 Y87.616 E5.62726
G1 X87.717 Y86.519 E5.66707
G1 X88.328 Y85.678 E5.69924
G1 X89.115 Y84.756 E5.73673
G1 E3.73673 F2400.00000
G92 E0
G1 X102.213 Y110.033 F7800.000
G1 E2.00000 F2400.00000
G1 F1800.000
G1 X97.787 Y110.033 E2.13694
G1 X95.574 Y106.200 E2.27387
G1 X97.787 Y102.367 E2.41081
G1 X102.213 Y102.367 E2.54775
G1 X104.426 Y106.200 E2.68469
G1 X102.250 Y109.968 E2.81930
G1 X101.852 Y109.408 F7800.000
G1 F1800.000
G1 X98.148 Y109.408 E2.93391
G1 X96.296 Y106.200 E3.04853
G1 X98.148 Y102.992 E3.16314
G1 X101.852 Y102.992 E3.27775
G1 X103.704 Y106.200 E3.39236
G1 X101.890 Y109.343 E3.50465
G1 X101.852 Y109.908 F7800.000
G1 X102.574 Y110.658 F7800.000
G1 F1800.000
G1 X105.147 Y106.200 E3.66391
G1 X102.574 Y101.742 E3.82318
G1 X101.560 Y101.742 E3.85455
G1 X101.520 Y101.411 E3.86486
G1 X102.103 Y101.272 E3.88339
G1 X103.116 Y100.852 E3.91731
G1 X104.003 Y100.303 E3.94960
G1 X104.812 Y99.612 E3.98252
G1 X105.505 Y98.800 E4.01556
G1 X106.063 Y97.889 E4.04859
G1 X106.298 Y97.321 E4.06763
G1 X106.600 Y97.381 E4.07715
G1 X106.600 Y111.800 E4.52330
G1 X93.400 Y111.800 E4.93173
G1 X93.400 Y97.381 E5.37788
G1 X93.702 Y97.321 E5.38740
G1 X93.948 Y97.916 E5.40732
G1 X94.497 Y98.803 E5.43960
G1 X95.188 Y99.612 E5.47252
G1 X96.000 Y100.305 E5.50556
G1 X96.911 Y100.863 E5.53860
G1 X97.897 Y101.272 E5.57164
G1 X98.480 Y101.411 E5.59017
G1 X98.440 Y101.742 E5.60048
G1 X97.426 Y101.742 E5.63185
G1 X94.853 Y106.200 E5.79112
G1 X97.426 Y110.658 E5.95038
G1 X102.499 Y110.658 E6.10732
G1 E4.10732 F2400.00000
G92 E0
G1 X100.966 Y100.902 F7800.000
G1 E2.00000 F2400.00000
G1 F1800.000
G1 X100.000 Y100.978 E2.03000
G1 X99.034 Y100.902 E2.05999
G1 X98.091 Y100.676 E2.08999
G1 X97.195 Y100.305 E2.11998
G1 X96.369 Y99.798 E2.14998
G1 X95.632 Y99.168 E2.17997
G1 X95.004 Y98.433 E2.20989
G1 X94.506 Y97.630 E2.23914
G1 X94.124 Y96.709 E2.26997
G1 X93.898 Y95.766 E2.29996
G1 X93.822 Y94.800 E2.32996
G1 X93.898 Y93.834 E2.35995
G1 X94.124 Y92.891 E2.38995
G1 X94.506 Y91.970 E2.42078
G1 X95.004 Y91.167 E2.45002
G1 X95.632 Y90.432 E2.47994
G1 X96.369 Y89.802 E2.50994
G1 X97.195 Y89.295 E2.53993
G1 X98.091 Y88.924 E2.56993
G1 X99.034 Y88.698 E2.59993
G1 X100.000 Y88.622 E2.62992
G1 X100.966 Y88.698 E2.65992
G1 X101.909 Y88.924 E2.68991
G1 X102.805 Y89.295 E2.71991
G1 X103.631 Y89.802 E2.74990
G1 X104.368 Y90.432 E2.77990
G1 X104.998 Y91.169 E2.80989
G1 X105.505 Y91.995 E2.83989
G1 X105.876 Y92.891 E2.86988
G1 X106.102 Y93.834 E2.89988
G1 X106.178 Y94.800 E2.92987
G1 X106.102 Y95.766 E2.95987
G1 X105.876 Y96.709 E2.98986
G1 X105.505 Y97.605 E3.01986
G1 X104.998 Y98.431 E3.04985
G1 X104.368 Y99.168 E3.07985
G1 X103.633 Y99.796 E3.10977
G1 X102.830 Y100.294 E3.13901
G1 X101.909 Y100.676 E3.16985
G1 X101.039 Y100.884 E3.19752
G1 X100.868 Y100.283 F7800.000
G1 F1800.000
G1 X100.000 Y100.351 E3.22447
G1 X99.132 Y100.283 E3.25142
G1 X98.285 Y100.079 E3.27838
G1 X97.480 Y99.746 E3.30533
G1 X96.737 Y99.291 E3.33228
G1 X96.075 Y98.725 E3.35923
G1 X95.510 Y98.063 E3.38616
G1 X95.064 Y97.344 E3.41236
G1 X94.721 Y96.515 E3.44010
G1 X94.517 Y95.668 E3.46705
G1 X94.449 Y94.800 E3.49400
G1 X94.517 Y93.932 E3.52095
G1 X94.721 Y93.085 E3.54790
G1 X95.064 Y92.256 E3.57565
G1 X95.510 Y91.537 E3.60184
G1 X96.075 Y90.875 E3.62877
G1 X96.737 Y90.309 E3.65572
G1 X97.480 Y89.854 E3.68267
G1 X98.285 Y89.521 E3.70963
G1 X99.132 Y89.317 E3.73658
G1 X100.000 Y89.249 E3.76353
G1 X100.868 Y89.317 E3.79048
G1 X101.715 Y89.521 E3.81743
G1 X102.520 Y89.854 E3.84439
G1 X103.263 Y90.309 E3.87134
G1 X103.925 Y90.875 E3.89829
G1 X104.491 Y91.537 E3.92524
G1 X104.946 Y92.280 E3.95219
G1 X105.279 Y93.085 E3.97914
G1 X105.483 Y93.932 E4.00610
G1 X105.551 Y94.800 E4.03305
G1 X105.483 Y95.668 E4.06000
G1 X105.279 Y96.515 E4.08695
G1 X104.946 Y97.320 E4.11390
G1 X104.491 Y98.063 E4.14086
G1 X103.925 Y98.725 E4.16781
G1 X103.263 Y99.290 E4.19473
G1 X102.544 Y99.736 E4.22093
G1 X101.715 Y100.079 E4.24867
G1 X100.941 Y100.265 E4.27331
G1 X100.868 Y100.283 F7800.000
G1 E2.27331 F2400.00000
G92 E0
G1 X107.225 Y112.425 F7800.000
G1 E2.00000 F2400.00000
G1 F1800.000
G1 X92.775 Y112.425 E2.44711
G1 X92.775 Y94.838 E2.99127
G1 X92.867 Y93.670 E3.02752
G1 X93.131 Y92.568 E3.06259
G1 X93.565 Y91.521 E3.09765
G1 X94.157 Y90.555 E3.13272
G1 X94.893 Y89.693 E3.16778
G1 X95.755 Y88.957 E3.20285
G1 X96.721 Y88.365 E3.23791
G1 X97.768 Y87.931 E3.27298
G1 X98.870 Y87.667 E3.30804
G1 X100.000 Y87.578 E3.34311
G1 X101.130 Y87.667 E3.37817
G1 X102.232 Y87.931 E3.41324
G1 X103.279 Y88.365 E3.44830
G1 X104.245 Y88.957 E3.48337
G1 X105.107 Y89.693 E3.51843
G1 X105.843 Y90.555 E3.55350
G1 X106.435 Y91.521 E3.58856
G1 X106.869 Y92.568 E3.62363
G1 X107.133 Y93.670 E3.65869
G1 X107.225 Y94.838 E3.69495
G1 X107.225 Y112.350 E4.23679
G1 X107.850 Y113.050 F7800.000
G1 F1800.000
G1 X92.150 Y113.050 E4.72257
G1 X92.150 Y94.814 E5.28682
G1 X92.248 Y93.572 E5.32535
G1 X92.535 Y92.375 E5.36346
G1 X93.007 Y91.237 E5.40157
G1 X93.650 Y90.187 E5.43968
G1 X94.450 Y89.250 E5.47779
G1 X95.387 Y88.450 E5.51590
G1 X96.437 Y87.807 E5.55400
G1 X97.575 Y87.335 E5.59211
G1 X98.772 Y87.048 E5.63022
G1 X100.000 Y86.951 E5.66833
G1 X101.228 Y87.048 E5.70644
G1 X102.425 Y87.335 E5.74455
G1 X103.563 Y87.807 E5.78266
G1 X104.613 Y88.450 E5.82076
G1 X105.550 Y89.250 E5.85887
G1 X106.350 Y90.187 E5.89698
G1 X106.993 Y91.237 E5.93509
G1 X107.465 Y92.375 E5.97320
G1 X107.752 Y93.572 E6.01131
G1 X107.850 Y94.814 E6.04984
G1 X107.850 Y112.975 E6.61178
G1 X107.417 Y112.801 F7800.000
G1 E4.61178 F2400.00000
G92 E0
G1 X105.732 Y111.418 F7800.000
G1 E2.00000 F2400.00000
G1 F1800.000
G1 X106.218 Y110.932 E2.02146
G1 X106.218 Y110.041 E2.04928
G1 X104.841 Y111.418 E2.11009
G1 X103.949 Y111.418 E2.13791
G1 X106.218 Y109.149 E2.23806
G1 X106.218 Y108.258 E2.26588
G1 X103.058 Y111.418 E2.40538
G1 X102.986 Y111.418 E2.40761
G1 X102.986 Y111.015 E2.42021
G1 X103.555 Y110.030 E2.45569
G1 X106.218 Y107.367 E2.57326
G1 X106.218 Y106.475 E2.60108
G1 X104.772 Y107.921 E2.66490
G1 X105.626 Y106.443 E2.71817
G1 X105.528 Y106.274 E2.72426
G1 X106.218 Y105.584 E2.75473
G1 X106.218 Y104.692 E2.78255
G1 X105.202 Y105.709 E2.82742
G1 X104.876 Y105.144 E2.84778
G1 X106.218 Y103.801 E2.90705
G1 X106.218 Y102.909 E2.93487
G1 X104.549 Y104.579 E3.00854
G1 X104.223 Y104.013 E3.02891
G1 X106.218 Y102.018 E3.11698
G1 X106.218 Y101.127 E3.14480
G1 X103.897 Y103.448 E3.24727
G1 X103.570 Y102.883 E3.26764
G1 X106.218 Y100.235 E3.38452
G1 X106.218 Y99.344 E3.41234
G1 X103.244 Y102.318 E3.54361
G1 X102.918 Y101.753 E3.56398
G1 X103.404 Y101.267 E3.58544
G1 E1.58544 F2400.00000
G92 E0
G1 X101.231 Y101.625 F7800.000
G1 E2.00000 F2400.00000
G1 F1800.000
G1 X100.030 Y101.672 E2.04472
G1 F1800.000
G1 X99.369 Y101.649 E2.06729
G1 F1800.000
G1 X98.769 Y101.625 E2.08965
G1 E0.08965 F2400.00000
G92 E0
G1 X94.268 Y99.046 F7800.000
G1 E2.00000 F2400.00000
G1 F1800.000
G1 X93.782 Y99.533 E2.02203
G1 X93.782 Y100.447 E2.05131
G1 X94.725 Y99.504 E2.09403
G1 X94.988 Y99.812 E2.10700
G1 X95.173 Y99.970 E2.11479
G1 X93.782 Y101.362 E2.17781
G1 X93.782 Y102.276 E2.20709
G1 X95.666 Y100.391 E2.29243
G1 X95.875 Y100.569 E2.30121
G1 X96.202 Y100.770 E2.31350
G1 X93.782 Y103.191 E2.42311
G1 X93.782 Y104.105 E2.45239
G1 X96.769 Y101.117 E2.58767
G1 X97.082 Y101.267 E2.59877
G1 X96.464 Y102.337 E2.63833
G1 X93.782 Y105.019 E2.75981
G1 X93.782 Y105.934 E2.78909
G1 X95.215 Y104.500 E2.85400
G1 X94.374 Y105.957 E2.90784
G1 X94.484 Y106.146 E2.91485
G1 X93.782 Y106.848 E2.94664
G1 X93.782 Y107.763 E2.97591
G1 X94.818 Y106.726 E3.02286
G1 X95.153 Y107.306 E3.04429
G1 X93.782 Y108.677 E3.10639
G1 X93.782 Y109.592 E3.13567
G1 X95.488 Y107.886 E3.21292
G1 X95.822 Y108.465 E3.23435
G1 X93.782 Y110.506 E3.32676
G1 X93.782 Y111.418 E3.35596
G1 X96.157 Y109.045 E3.46348
G1 X96.492 Y109.625 E3.48491
G1 X94.698 Y111.418 E3.56612
G1 X95.613 Y111.418 E3.59540
G1 X96.827 Y110.205 E3.65035
G1 X97.014 Y110.528 E3.66232
G1 X97.014 Y110.932 E3.67525
G1 X96.527 Y111.418 E3.69726
G1 X97.395 Y111.229 F7800.000
G1 F1800.000
G1 X102.605 Y111.229 E3.81141
G1 E1.81141 F2400.00000
G92 E0
G1 X106.049 Y98.585 F7800.000
G1 E2.00000 F2400.00000
G1 F1800.000
G1 X106.225 Y98.341 E2.00074
G1 X106.257 Y98.229 E2.00102
G1 X106.520 Y97.046 F7800.000
G1 F1800.000
G1 X106.589 Y96.461 E2.01936
G1 F1800.000
G1 X106.659 Y95.875 E2.03485
G1 F1800.000
G1 X106.700 Y94.859 E2.05666
G1 F1800.000
G1 X106.617 Y93.752 E2.07591
G1 X106.366 Y92.714 E2.09442
G1 X105.969 Y91.758 E2.11237
G1 X105.429 Y90.876 E2.13032
G1 X104.737 Y90.063 E2.14883
G1 X103.924 Y89.371 E2.16734
G1 X103.042 Y88.831 E2.18529
G1 X102.086 Y88.434 E2.20324
G1 X101.048 Y88.183 E2.22175
G1 X100.000 Y88.100 E2.23998
G1 X98.952 Y88.183 E2.25821
G1 X97.914 Y88.434 E2.27672
G1 X96.958 Y88.831 E2.29467
G1 X96.076 Y89.371 E2.31262
G1 X95.263 Y90.063 E2.33113
G1 X94.580 Y90.862 E2.34936
G1 X94.052 Y91.719 E2.36681
G1 X93.628 Y92.730 E2.38582
G1 X93.383 Y93.752 E2.40405
G1 X93.301 Y94.784 E2.42200
G1 X93.319 Y95.347 E2.43177
G1 F1800.000
G1 X93.341 Y95.875 E2.44294
G1 F1800.000
G1 X93.411 Y96.461 E2.45701
G1 F1800.000
G1 X93.480 Y97.046 E2.47393
G1 X93.743 Y98.236 F7800.000
G1 F1800.000
G1 X93.773 Y98.342 E2.47418
G1 X93.943 Y98.575 E2.47484
G1 Z0.650 F7800.000
G1 E0.47484 F2400.00000
G92 E0
G1 X102.132 Y109.894 F7800.000
G1 E2.00000 F2400.00000
G1 F900.000
G1 X97.868 Y109.894 E2.11505
G1 X95.735 Y106.200 E2.23010
G1 X97.868 Y102.506 E2.34516
G1 X102.132 Y102.506 E2.46021
G1 X104.265 Y106.200 E2.57526
G1 X102.170 Y109.829 E2.68829
G1 X101.809 Y109.333 F7800.000
G1 F900.000
G1 X98.191 Y109.333 E2.76285
G1 X96.382 Y106.200 E2.83741
G1 X98.191 Y103.067 E2.91197
G1 X101.809 Y103.067 E2.98652
G1 X103.618 Y106.200 E3.06108
G1 X101.846 Y109.268 E3.13410
G1 X101.809 Y109.833 F7800.000
G1 X102.499 Y110.529 F7800.000
G1 F3600.000
G1 X104.999 Y106.200 E3.26895
G1 X102.499 Y101.871 E3.40380
G1 X98.478 Y101.871 E3.51228
G1 X98.478 Y101.279 E3.52825
G1 X98.956 Y101.394 E3.54150
G1 X100.000 Y101.476 E3.56975
G1 X101.044 Y101.394 E3.59801
G1 X102.063 Y101.149 E3.62627
G1 X103.031 Y100.748 E3.65453
G1 X103.924 Y100.201 E3.68279
G1 X104.720 Y99.520 E3.71105
G1 X106.729 Y97.169 E3.79447
G1 X106.729 Y111.929 E4.19264
G1 X93.271 Y111.929 E4.55567
G1 X93.271 Y96.723 E4.96587
G1 X93.608 Y96.683 E4.97501
G1 X93.651 Y96.863 E4.98000
G1 X94.052 Y97.831 E5.00826
G1 X94.599 Y98.724 E5.03652
G1 X95.279 Y99.520 E5.06478
G1 X98.031 Y101.871 E5.16241
G1 X97.501 Y101.871 E5.17673
G1 X95.001 Y106.200 E5.31159
G1 X97.501 Y110.529 E5.44644
G1 X102.424 Y110.529 E5.57927
G1 E3.57927 F2400.00000
G92 E0
G1 X97.843 Y100.874 F7800.000
G1 E2.00000 F2400.00000
G1 F900.000
G1 X95.730 Y99.070 E2.07493
G1 X95.115 Y98.349 E2.10049
G1 X94.620 Y97.541 E2.12605
G1 X94.257 Y96.666 E2.15161
G1 X94.036 Y95.745 E2.17717
G1 X93.962 Y94.800 E2.20273
G1 X94.036 Y93.855 E2.22829
G1 X94.257 Y92.934 E2.25386
G1 X94.620 Y92.059 E2.27942
G1 X95.115 Y91.251 E2.30498
G1 X95.730 Y90.530 E2.33054
G1 X96.451 Y89.915 E2.35610
G1 X97.259 Y89.420 E2.38166
G1 X98.134 Y89.057 E2.40722
G1 X99.055 Y88.836 E2.43278
G1 X100.000 Y88.762 E2.45834
G1 X100.945 Y88.836 E2.48390
G1 X101.866 Y89.057 E2.50946
G1 X102.741 Y89.420 E2.53502
G1 X103.549 Y89.915 E2.56058
G1 X104.270 Y90.530 E2.58614
G1 X104.885 Y91.251 E2.61170
G1 X105.380 Y92.059 E2.63726
G1 X105.743 Y92.934 E2.66282
G1 X105.964 Y93.855 E2.68838
G1 X106.038 Y94.800 E2.71394
G1 X105.964 Y95.745 E2.73950
G1 X105.743 Y96.666 E2.76506
G1 X105.622 Y96.957 E2.77358
G1 X106.074 Y96.957 E2.78576
G1 X104.270 Y99.070 E2.86069
G1 X103.549 Y99.685 E2.88625
G1 X102.741 Y100.180 E2.91181
G1 X101.866 Y100.543 E2.93737
G1 X100.945 Y100.764 E2.96294
G1 X100.000 Y100.838 E2.98850
G1 X99.055 Y100.764 E3.01406
G1 X98.134 Y100.543 E3.03962
G1 X97.843 Y100.422 E3.04813
G1 X97.843 Y100.799 E3.05829
G1 X98.217 Y99.970 F7800.000
G1 F900.000
G1 X97.514 Y99.679 E3.07397
G1 X97.282 Y99.537 E3.07958
G1 X97.282 Y99.658 E3.08207
G1 X96.128 Y98.672 E3.11335
G1 X95.570 Y98.019 E3.13105
G1 X95.121 Y97.286 E3.14876
G1 X94.792 Y96.492 E3.16647
G1 X94.592 Y95.657 E3.18418
G1 X94.524 Y94.800 E3.20189
G1 X94.592 Y93.943 E3.21960
G1 X94.792 Y93.108 E3.23731
G1 X95.121 Y92.314 E3.25502
G1 X95.570 Y91.581 E3.27273
G1 X96.128 Y90.928 E3.29044
G1 X96.781 Y90.370 E3.30815
G1 X97.514 Y89.921 E3.32586
G1 X98.308 Y89.592 E3.34357
G1 X99.143 Y89.392 E3.36128
G1 X100.000 Y89.324 E3.37899
G1 X100.857 Y89.392 E3.39670
G1 X101.692 Y89.592 E3.41441
G1 X102.486 Y89.921 E3.43212
G1 X103.219 Y90.370 E3.44983
G1 X103.872 Y90.928 E3.46754
G1 X104.430 Y91.581 E3.48525
G1 X104.879 Y92.314 E3.50296
G1 X105.208 Y93.108 E3.52067
G1 X105.408 Y93.943 E3.53838
G1 X105.476 Y94.800 E3.55609
G1 X105.408 Y95.657 E3.57380
G1 X105.208 Y96.492 E3.59151
G1 X104.879 Y97.286 E3.60922
G1 X104.737 Y97.518 E3.61483
G1 X104.858 Y97.518 E3.61731
G1 X103.872 Y98.672 E3.64859
G1 X103.219 Y99.230 E3.66630
G1 X102.486 Y99.679 E3.68401
G1 X101.692 Y100.008 E3.70172
G1 X100.857 Y100.208 E3.71943
G1 X100.000 Y100.276 E3.73714
G1 X99.143 Y100.208 E3.75485
G1 X98.286 Y99.999 E3.77304
G1 X97.835 Y100.293 F7800.000
G1 X92.636 Y112.564 F7800.000
G1 F3600.000
G1 X92.636 Y94.833 E4.25137
G1 X92.729 Y93.648 E4.28343
G1 X92.999 Y92.525 E4.31459
G1 X93.441 Y91.458 E4.34575
G1 X94.044 Y90.473 E4.37692
G1 X94.794 Y89.594 E4.40808
G1 X95.673 Y88.844 E4.43924
G1 X96.658 Y88.241 E4.47041
G1 X97.725 Y87.799 E4.50157
G1 X98.848 Y87.529 E4.53273
G1 X100.000 Y87.438 E4.56390
G1 X101.152 Y87.529 E4.59506
G1 X102.275 Y87.799 E4.62622
G1 X103.342 Y88.241 E4.65739
G1 X104.327 Y88.844 E4.68855
G1 X105.206 Y89.594 E4.71971
G1 X105.956 Y90.473 E4.75088
G1 X106.559 Y91.458 E4.78204
G1 X107.001 Y92.525 E4.81320
G1 X107.271 Y93.648 E4.84437
G1 X107.364 Y94.833 E4.87642
G1 X107.364 Y112.564 E5.35475
G1 X92.711 Y112.564 E5.75006
G1 X92.075 Y113.125 F7800.000
G1 F1800.000
G1 X92.075 Y94.811 E6.12752
G1 X92.173 Y93.560 E6.15337
G1 X92.464 Y92.351 E6.17900
